(1.ADAPTIVE1)
(T1  D=6. CR=0. - ZMIN=-4.998 - FLAT END MILL)
G0 G90 G94 G17
G21
G53 Z0.

(ADAPTIVE1)
M5
M9
T1
M3 S18000
G54
M9
G0 X-22.687 Y18.676
Z2.502
G1 Z2. F500.
G3 X-18.147 Y22.124 Z1.687 I2.27 J1.724 F167.
X-22.687 Y18.676 Z1.375 I-2.27 J-1.724
X-18.147 Y22.124 Z1.062 I2.27 J1.724
X-22.687 Y18.676 Z0.749 I-2.27 J-1.724
X-18.147 Y22.124 Z0.437 I2.27 J1.724
X-22.687 Y18.676 Z0.124 I-2.27 J-1.724
X-18.147 Y22.124 Z-0.189 I2.27 J1.724
X-22.687 Y18.676 Z-0.501 I-2.27 J-1.724
X-18.147 Y22.124 Z-0.814 I2.27 J1.724
X-22.687 Y18.676 Z-1.127 I-2.27 J-1.724
X-18.147 Y22.124 Z-1.439 I2.27 J1.724
X-22.687 Y18.676 Z-1.752 I-2.27 J-1.724
X-17.567 Y20.4 Z-2. I2.27 J1.724
X-23.267 I-2.85 J0.
X-17.567 I2.85 J0.
G1 X-17.564 Y20.61 F500.
X-17.426 Y21.44
X-17.386 Y21.537
X-17.346 Y21.666
X-17.319 Y21.798
X-17.304 Y21.932
X-17.3 Y22.075
X-17.309 Y22.229
X-17.331 Y22.393
X-17.368 Y22.565
X-17.422 Y22.744
X-17.495 Y22.929
X-17.587 Y23.116
X-17.699 Y23.305
X-17.831 Y23.493
X-17.985 Y23.677
X-18.16 Y23.856
X-18.356 Y24.026
X-18.573 Y24.185
X-18.809 Y24.33
X-19.062 Y24.46
X-19.333 Y24.572
X-19.618 Y24.664
X-19.917 Y24.735
X-20.226 Y24.782
X-20.544 Y24.805
X-20.867 Y24.802
X-21.195 Y24.773
X-21.522 Y24.717
X-21.848 Y24.634
X-22.17 Y24.523
X-22.484 Y24.386
X-22.789 Y24.223
X-23.082 Y24.035
X-23.361 Y23.822
X-23.623 Y23.587
X-23.867 Y23.33
X-24.09 Y23.053
X-24.291 Y22.758
X-24.468 Y22.446
X-24.62 Y22.121
X-24.746 Y21.783
X-24.844 Y21.436
X-24.915 Y21.081
X-24.956 Y20.722
X-24.969 Y20.359
X-24.953 Y19.996
X-24.907 Y19.635
X-24.833 Y19.279
X-24.73 Y18.929
X-24.6 Y18.589
X-24.442 Y18.26
X-24.258 Y17.944
X-24.05 Y17.644
X-23.818 Y17.362
X-23.564 Y17.099
X-23.289 Y16.857
X-22.997 Y16.638
X-22.687 Y16.443
X-22.362 Y16.274
X-22.025 Y16.131
X-21.678 Y16.015
X-21.322 Y15.928
X-20.961 Y15.87
X-20.595 Y15.841
X-20.229
X-19.864 Y15.87
X-19.502 Y15.929
X-19.147 Y16.017
X-18.799 Y16.133
X-18.462 Y16.277
X-18.137 Y16.447
X-17.827 Y16.642
X-17.534 Y16.862
X-17.26 Y17.105
X-17.005 Y17.369
X-16.773 Y17.652
X-16.564 Y17.954
X-16.26 Y18.478
X-15.921 Y19.188
X-15.714 Y19.731
X-15.571 Y20.218
X-15.478 Y20.667
X-15.424 Y21.101
X-15.406 Y21.521
X-15.421 Y21.928
X-15.468 Y22.326
X-15.545 Y22.714
X-15.654 Y23.094
X-15.792 Y23.464
X-15.961 Y23.823
X-16.159 Y24.17
X-16.386 Y24.502
X-16.641 Y24.818
X-16.924 Y25.116
X-17.234 Y25.394
X-17.569 Y25.649
X-17.929 Y25.879
X-18.312 Y26.083
X-18.715 Y26.258
X-19.136 Y26.402
X-19.573 Y26.513
X-20.023 Y26.589
X-20.483 Y26.63
X-20.95 Y26.633
X-21.42 Y26.599
X-21.891 Y26.526
X-22.357 Y26.415
X-22.817 Y26.266
X-23.266 Y26.079
X-23.702 Y25.855
X-24.121 Y25.596
X-24.52 Y25.302
X-24.896 Y24.975
X-25.246 Y24.617
X-25.568 Y24.231
X-25.858 Y23.819
X-26.116 Y23.383
X-26.339 Y22.926
X-26.524 Y22.452
X-26.672 Y21.963
X-26.78 Y21.463
X-26.847 Y20.954
X-26.874 Y20.441
X-26.859 Y19.927
X-26.803 Y19.415
X-26.706 Y18.908
X-26.569 Y18.41
X-26.391 Y17.925
X-26.176 Y17.455
X-25.923 Y17.003
X-25.634 Y16.573
X-25.312 Y16.167
X-24.958 Y15.788
X-24.574 Y15.439
X-24.164 Y15.121
X-23.729 Y14.838
X-23.273 Y14.59
X-22.798 Y14.379
X-22.308 Y14.207
X-21.805 Y14.076
X-21.294 Y13.984
X-20.776 Y13.934
X-20.256 Y13.926
X-19.738 Y13.96
X-19.223 Y14.035
X-18.716 Y14.151
X-18.221 Y14.308
X-17.739 Y14.503
X-17.274 Y14.737
X-16.83 Y15.007
X-16.409 Y15.313
X-15.977 Y15.681
X-15.531 Y16.13
X-15.111 Y16.625
X-14.723 Y17.167
X-14.379 Y17.738
X-14.088 Y18.323
X-13.851 Y18.914
X-13.667 Y19.507
X-13.534 Y20.099
X-13.45 Y20.69
X-13.415 Y21.276
X-13.427 Y21.858
X-13.485 Y22.43
X-13.588 Y22.993
X-13.735 Y23.544
X-13.925 Y24.079
X-14.158 Y24.598
X-14.432 Y25.097
X-14.747 Y25.574
X-15.1 Y26.026
X-15.49 Y26.451
X-15.917 Y26.845
X-16.377 Y27.207
X-16.868 Y27.534
X-17.389 Y27.822
X-17.935 Y28.07
X-18.505 Y28.275
X-19.094 Y28.435
X-19.699 Y28.548
X-20.315 Y28.612
X-20.939 Y28.627
X-21.566 Y28.592
X-22.193 Y28.506
X-22.815 Y28.369
X-23.427 Y28.181
X-24.026 Y27.943
X-24.607 Y27.657
X-25.167 Y27.323
X-25.7 Y26.943
X-26.203 Y26.52
X-26.672 Y26.056
X-27.104 Y25.555
X-27.496 Y25.018
X-27.845 Y24.449
X-28.148 Y23.853
X-28.403 Y23.233
X-28.607 Y22.592
X-28.76 Y21.936
X-28.86 Y21.269
X-28.906 Y20.595
X-28.898 Y19.918
X-28.835 Y19.243
X-28.719 Y18.575
X-28.549 Y17.917
X-28.326 Y17.275
X-28.052 Y16.652
X-27.73 Y16.053
X-27.359 Y15.481
X-26.944 Y14.94
X-26.487 Y14.434
X-25.99 Y13.967
X-25.457 Y13.54
X-24.892 Y13.158
X-24.297 Y12.822
X-23.678 Y12.535
X-23.037 Y12.299
X-22.379 Y12.114
X-21.708 Y11.983
X-21.029 Y11.906
X-20.346 Y11.884
X-19.663 Y11.917
X-18.985 Y12.005
X-18.316 Y12.147
X-17.661 Y12.342
X-17.023 Y12.589
X-16.397 Y12.891
X-15.776 Y13.255
X-15.167 Y13.681
X-14.577 Y14.169
X-14.017 Y14.713
X-13.496 Y15.309
X-13.022 Y15.946
X-12.602 Y16.619
X-12.239 Y17.32
X-11.935 Y18.042
X-11.693 Y18.78
X-11.512 Y19.528
X-11.392 Y20.282
X-11.335 Y21.038
X-11.338 Y21.79
X-11.4 Y22.536
X-11.523 Y23.271
X-11.703 Y23.992
X-11.94 Y24.695
X-12.232 Y25.376
X-12.579 Y26.032
X-12.977 Y26.659
X-13.426 Y27.254
X-13.923 Y27.813
X-14.466 Y28.332
X-15.052 Y28.809
X-15.677 Y29.24
X-16.339 Y29.621
X-17.034 Y29.949
X-17.756 Y30.223
X-18.503 Y30.439
X-19.27 Y30.595
X-20.05 Y30.69
X-20.841 Y30.722
X-21.636 Y30.69
X-22.43 Y30.594
X-23.217 Y30.434
X-23.993 Y30.21
X-24.753 Y29.923
X-25.49 Y29.575
X-26.199 Y29.166
X-26.877 Y28.701
X-27.517 Y28.18
X-28.115 Y27.608
X-28.667 Y26.988
X-29.17 Y26.323
X-29.618 Y25.619
X-30.009 Y24.878
X-30.341 Y24.107
X-30.61 Y23.311
X-30.814 Y22.495
X-30.953 Y21.665
X-31.024 Y20.827
X-31.029 Y19.986
X-30.966 Y19.148
X-30.837 Y18.317
X-30.642 Y17.499
X-30.383 Y16.699
X-30.061 Y15.922
X-29.678 Y15.173
X-29.238 Y14.456
X-28.742 Y13.777
X-28.193 Y13.14
X-27.596 Y12.547
X-26.954 Y12.004
X-26.271 Y11.514
X-25.551 Y11.079
X-24.799 Y10.702
X-24.02 Y10.386
X-23.218 Y10.133
X-22.398 Y9.944
X-21.566 Y9.82
X-20.727 Y9.763
X-19.886 Y9.771
X-19.049 Y9.847
X-18.22 Y9.988
X-17.404 Y10.194
X-16.608 Y10.464
X-15.834 Y10.794
X-15.089 Y11.183
X-14.374 Y11.626
X-13.694 Y12.121
X-13.051 Y12.663
X-12.448 Y13.25
X-11.889 Y13.878
X-11.377 Y14.545
X-10.914 Y15.247
X-10.502 Y15.98
X-10.142 Y16.741
X-9.837 Y17.524
X-9.588 Y18.328
X-9.397 Y19.146
X-9.264 Y19.977
X-9.193 Y20.815
X-9.184 Y21.656
X-9.236 Y22.495
X-9.351 Y23.328
X-9.526 Y24.151
X-9.761 Y24.959
X-10.055 Y25.747
X-10.406 Y26.511
X-10.811 Y27.248
X-11.27 Y27.953
X-11.778 Y28.622
X-12.334 Y29.253
X-12.936 Y29.841
X-13.579 Y30.383
X-14.26 Y30.877
X-14.975 Y31.319
X-15.72 Y31.709
X-16.491 Y32.045
X-17.284 Y32.326
X-18.094 Y32.55
X-18.919 Y32.717
X-19.753 Y32.825
X-20.592 Y32.872
X-21.433 Y32.86
X-22.271 Y32.789
X-23.103 Y32.661
X-23.923 Y32.477
X-24.729 Y32.238
X-25.517 Y31.943
X-26.282 Y31.593
X-27.021 Y31.192
X-27.731 Y30.741
X-28.41 Y30.245
X-29.054 Y29.704
X-29.66 Y29.121
X-30.224 Y28.497
X-30.744 Y27.836
X-31.219 Y27.143
X-31.648 Y26.419
X-32.028 Y25.669
X-32.357 Y24.895
X-32.632 Y24.1
X-32.854 Y23.289
X-33.021 Y22.464
X-33.134 Y21.631
X-33.193 Y20.792
X-33.195 Y19.951
X-33.14 Y19.112
X-33.03 Y18.278
X-32.865 Y17.454
X-32.647 Y16.641
X-32.377 Y15.845
X-32.054 Y15.068
X-31.68 Y14.315
X-31.256 Y13.589
X-30.786 Y12.891
X-30.272 Y12.226
X-29.716 Y11.595
X-29.119 Y11.002
X-28.483 Y10.452
X-27.812 Y9.944
X-27.11 Y9.482
X-26.38 Y9.065
X-25.624 Y8.696
X-24.845 Y8.379
X-24.046 Y8.116
X-23.232 Y7.905
X-22.406 Y7.747
X-21.571 Y7.643
X-20.732 Y7.594
X-19.891 Y7.601
X-19.052 Y7.664
X-18.219 Y7.782
X-17.396 Y7.954
X-16.585 Y8.177
X-15.791 Y8.452
X-15.016 Y8.779
X-14.264 Y9.155
X-13.537 Y9.578
X-12.837 Y10.044
X-12.166 Y10.552
X-11.527 Y11.099
X-10.924 Y11.685
X-10.358 Y12.307
X-9.831 Y12.962
X-9.345 Y13.648
X-8.899 Y14.362
X-8.497 Y15.1
X-8.139 Y15.861
X-7.829 Y16.643
X-7.567 Y17.442
X-7.353 Y18.256
X-7.189 Y19.08
X-7.074 Y19.914
X-7.01 Y20.752
X-6.999 Y21.593
X-7.041 Y22.433
X-7.134 Y23.269
X-7.278 Y24.097
X-7.473 Y24.916
X-7.716 Y25.721
X-8.009 Y26.509
X-8.351 Y27.277
X-8.74 Y28.023
X-9.174 Y28.743
X-9.651 Y29.436
X-10.168 Y30.099
X-10.726 Y30.728
X-11.323 Y31.321
X-11.955 Y31.875
X-12.62 Y32.39
X-13.315 Y32.864
X-14.037 Y33.296
X-14.783 Y33.683
X-15.552 Y34.024
X-16.34 Y34.318
X-17.145 Y34.563
X-17.962 Y34.76
X-18.79 Y34.909
X-19.625 Y35.008
X-20.465 Y35.057
X-21.306 Y35.055
X-22.145 Y35.003
X-22.98 Y34.903
X-23.808 Y34.754
X-24.626 Y34.558
X-25.431 Y34.315
X-26.219 Y34.023
X-26.99 Y33.686
X-27.739 Y33.304
X-28.465 Y32.88
X-29.166 Y32.415
X-29.84 Y31.912
X-30.484 Y31.371
X-31.094 Y30.792
X-31.67 Y30.179
X-32.209 Y29.534
X-32.711 Y28.859
X-33.175 Y28.158
X-33.6 Y27.431
X-33.981 Y26.682
X-34.317 Y25.911
X-34.609 Y25.122
X-34.856 Y24.318
X-35.057 Y23.502
X-35.214 Y22.675
X-35.324 Y21.842
X-35.385 Y21.003
X-35.397 Y20.162
X-35.362 Y19.322
X-35.28 Y18.485
X-35.151 Y17.654
X-34.977 Y16.831
X-34.758 Y16.019
X-34.492 Y15.221
X-34.18 Y14.44
X-33.824 Y13.678
X-33.427 Y12.937
X-32.989 Y12.219
X-32.513 Y11.525
X-31.999 Y10.86
X-31.447 Y10.226
X-30.859 Y9.624
X-30.239 Y9.056
X-29.588 Y8.524
X-28.908 Y8.028
X-28.203 Y7.57
X-27.473 Y7.153
X-26.72 Y6.778
X-25.947 Y6.447
X-25.156 Y6.161
X-24.351 Y5.918
X-23.533 Y5.72
X-22.707 Y5.566
X-21.872 Y5.46
X-21.033 Y5.403
X-20.192 Y5.393
X-19.352 Y5.43
X-18.515 Y5.514
X-17.684 Y5.643
X-16.861 Y5.817
X-16.05 Y6.037
X-15.252 Y6.303
X-14.47 Y6.613
X-13.706 Y6.965
X-12.962 Y7.357
X-12.24 Y7.787
X-11.541 Y8.255
X-10.868 Y8.759
X-10.223 Y9.299
X-9.609 Y9.874
X-9.025 Y10.479
X-8.474 Y11.115
X-7.956 Y11.777
X-7.473 Y12.465
X-7.025 Y13.177
X-6.617 Y13.912
X-6.247 Y14.668
X-5.918 Y15.442
X-5.63 Y16.232
X-5.382 Y17.036
X-5.176 Y17.851
X-5.011 Y18.676
X-4.892 Y19.508
X-4.818 Y20.346
X-4.788 Y21.186
X-4.803 Y22.027
X-4.862 Y22.866
X-4.964 Y23.701
X-5.109 Y24.529
X-5.299 Y25.349
X-5.533 Y26.157
X-5.809 Y26.951
X-6.128 Y27.729
X-6.487 Y28.489
X-6.885 Y29.23
X-7.321 Y29.95
X-7.794 Y30.645
X-8.305 Y31.313
X-8.851 Y31.953
X-9.43 Y32.562
X-10.041 Y33.141
X-10.68 Y33.687
X-11.347 Y34.199
X-12.04 Y34.676
X-12.757 Y35.115
X-13.497 Y35.515
X-14.257 Y35.876
X-15.034 Y36.197
X-15.827 Y36.478
X-16.633 Y36.718
X-17.45 Y36.917
X-18.277 Y37.072
X-19.11 Y37.183
X-19.948 Y37.251
X-20.789 Y37.276
X-21.63 Y37.258
X-22.469 Y37.199
X-23.304 Y37.097
X-24.132 Y36.953
X-24.952 Y36.766
X-25.761 Y36.537
X-26.558 Y36.267
X-27.34 Y35.957
X-28.105 Y35.609
X-28.853 Y35.224
X-29.58 Y34.802
X-30.285 Y34.344
X-30.966 Y33.85
X-31.621 Y33.322
X-32.249 Y32.762
X-32.848 Y32.172
X-33.417 Y31.553
X-33.956 Y30.907
X-34.462 Y30.235
X-34.933 Y29.539
X-35.369 Y28.82
X-35.768 Y28.079
X-36.13 Y27.32
X-36.454 Y26.544
X-36.741 Y25.754
X-36.988 Y24.95
X-37.196 Y24.135
X-37.363 Y23.311
X-37.488 Y22.479
X-37.571 Y21.642
X-37.614 Y20.802
X-37.615 Y19.961
X-37.577 Y19.121
X-37.497 Y18.284
X-37.376 Y17.452
X-37.214 Y16.626
X-37.011 Y15.81
X-36.768 Y15.005
X-36.486 Y14.213
X-36.166 Y13.435
X-35.809 Y12.674
X-35.415 Y11.93
X-34.985 Y11.207
X-34.52 Y10.507
X-34.021 Y9.83
X-33.489 Y9.179
X-32.926 Y8.554
X-32.333 Y7.957
X-31.713 Y7.39
X-31.065 Y6.853
X-30.392 Y6.349
X-29.695 Y5.879
X-28.975 Y5.444
X-28.235 Y5.044
X-27.476 Y4.681
X-26.701 Y4.355
X-25.911 Y4.066
X-25.108 Y3.817
X-24.293 Y3.608
X-23.47 Y3.439
X-22.638 Y3.311
X-21.802 Y3.223
X-20.962 Y3.177
X-20.121 Y3.17
X-19.281 Y3.204
X-18.443 Y3.279
X-17.61 Y3.395
X-16.784 Y3.552
X-15.966 Y3.749
X-15.159 Y3.985
X-14.364 Y4.259
X-13.583 Y4.57
X-12.817 Y4.917
X-12.068 Y5.301
X-11.339 Y5.72
X-10.63 Y6.173
X-9.944 Y6.658
X-9.28 Y7.175
X-8.641 Y7.722
X-8.028 Y8.298
X-7.442 Y8.901
X-6.884 Y9.53
X-6.357 Y10.185
X-5.86 Y10.863
X-5.394 Y11.564
X-4.961 Y12.285
X-4.562 Y13.025
X-4.196 Y13.782
X-3.865 Y14.555
X-3.57 Y15.343
X-3.311 Y16.143
X-3.09 Y16.955
X-2.907 Y17.775
X-2.762 Y18.604
X-2.654 Y19.438
X-2.586 Y20.276
X-2.555 Y21.117
X-2.564 Y21.958
X-2.612 Y22.797
X-2.699 Y23.634
X-2.825 Y24.465
X-2.99 Y25.29
X-3.192 Y26.106
X-3.432 Y26.912
X-3.708 Y27.706
X-4.022 Y28.487
X-4.371 Y29.252
X-4.756 Y30.
X-5.175 Y30.729
X-5.628 Y31.437
X-6.113 Y32.124
X-6.629 Y32.788
X-7.176 Y33.428
X-7.751 Y34.041
X-8.354 Y34.627
X-8.985 Y35.184
X-9.64 Y35.711
X-10.319 Y36.208
X-11.019 Y36.673
X-11.741 Y37.105
X-12.481 Y37.504
X-13.239 Y37.869
X-14.012 Y38.199
X-14.801 Y38.492
X-15.601 Y38.749
X-16.413 Y38.97
X-17.234 Y39.153
X-18.062 Y39.299
X-18.896 Y39.408
X-19.734 Y39.479
X-20.574 Y39.512
X-21.415 Y39.507
X-22.255 Y39.463
X-23.092 Y39.383
X-23.925 Y39.264
X-24.751 Y39.109
X-25.57 Y38.917
X-26.379 Y38.689
X-27.178 Y38.424
X-27.964 Y38.125
X-28.735 Y37.79
X-29.491 Y37.421
X-30.23 Y37.02
X-30.95 Y36.586
X-31.651 Y36.121
X-32.331 Y35.625
X-32.988 Y35.1
X-33.621 Y34.547
X-34.229 Y33.965
X-34.81 Y33.358
X-35.365 Y32.725
X-35.891 Y32.069
X-36.388 Y31.391
X-36.855 Y30.692
X-37.291 Y29.973
X-37.695 Y29.235
X-38.066 Y28.48
X-38.404 Y27.71
X-38.707 Y26.926
X-38.976 Y26.129
X-39.211 Y25.321
X-39.41 Y24.504
X-39.574 Y23.679
X-39.701 Y22.848
X-39.792 Y22.012
X-39.846 Y21.173
X-39.864 Y20.332
X-39.845 Y19.491
X-39.789 Y18.652
X-39.698 Y17.816
X-39.57 Y16.984
X-39.407 Y16.159
X-39.209 Y15.342
X-38.974 Y14.535
X-38.704 Y13.738
X-38.4 Y12.954
X-38.063 Y12.184
X-37.692 Y11.429
X-37.29 Y10.69
X-36.856 Y9.97
X-36.391 Y9.269
X-35.897 Y8.589
X-35.372 Y7.931
X-34.82 Y7.297
X-34.241 Y6.687
X-33.636 Y6.102
X-33.007 Y5.544
X-32.354 Y5.014
X-31.68 Y4.512
X-30.984 Y4.04
X-30.268 Y3.599
X-29.533 Y3.189
X-28.781 Y2.812
X-28.014 Y2.467
X-27.233 Y2.156
X-26.439 Y1.879
X-25.634 Y1.635
X-24.819 Y1.427
X-23.996 Y1.254
X-23.166 Y1.117
X-22.331 Y1.017
X-21.493 Y0.953
X-20.652 Y0.925
X-19.811 Y0.933
X-18.972 Y0.977
X-18.134 Y1.057
X-17.301 Y1.172
X-16.474 Y1.323
X-15.654 Y1.51
X-14.843 Y1.732
X-14.042 Y1.989
X-13.252 Y2.279
X-12.476 Y2.601
X-11.713 Y2.956
X-10.966 Y3.343
X-10.236 Y3.76
X-9.524 Y4.207
X-8.831 Y4.684
X-8.159 Y5.19
X-7.509 Y5.723
X-6.881 Y6.282
X-6.276 Y6.867
X-5.696 Y7.475
X-5.141 Y8.107
X-4.612 Y8.761
X-4.11 Y9.436
X-3.637 Y10.131
X-3.193 Y10.846
X-2.778 Y11.577
X-2.394 Y12.325
X-2.04 Y13.088
X-1.717 Y13.865
X-1.426 Y14.654
X-1.167 Y15.454
X-0.941 Y16.264
X-0.75 Y17.083
X-0.592 Y17.909
X-0.469 Y18.741
X-0.379 Y19.577
X-0.324 Y20.416
X-0.304 Y21.257
X-0.317 Y22.098
X-0.365 Y22.938
X-0.448 Y23.775
X-0.566 Y24.607
X-0.718 Y25.434
X-0.905 Y26.254
X-1.125 Y27.066
X-1.378 Y27.868
X-1.664 Y28.659
X-1.982 Y29.438
X-2.331 Y30.203
X-2.712 Y30.952
X-3.124 Y31.685
X-3.567 Y32.401
X-4.039 Y33.097
X-4.539 Y33.773
X-5.066 Y34.428
X-5.62 Y35.061
X-6.199 Y35.671
X-6.802 Y36.257
X-7.429 Y36.817
X-8.079 Y37.351
X-8.751 Y37.857
X-9.443 Y38.335
X-10.154 Y38.784
X-10.882 Y39.205
X-11.627 Y39.595
X-12.387 Y39.955
X-13.161 Y40.284
X-13.948 Y40.581
X-14.396 Y40.729
X-14.539 Y40.768
X-14.687 Y40.792
X-14.836 Y40.8
X-24.812
X-25.652 Y40.758
X-26.071 Y40.718
X-26.879 Y40.608
X-27.7 Y40.428
X-28.507 Y40.191
X-29.298 Y39.905
X-30.073 Y39.577
X-30.83 Y39.212
X-31.569 Y38.811
X-32.291 Y38.378
X-32.993 Y37.915
X-33.675 Y37.423
X-34.336 Y36.904
X-34.975 Y36.357
X-35.592 Y35.785
X-36.185 Y35.189
X-36.753 Y34.569
X-37.297 Y33.927
X-37.815 Y33.265
X-38.307 Y32.583
X-38.772 Y31.882
X-39.21 Y31.164
X-39.619 Y30.429
X-39.998 Y29.678
X-40.347 Y28.913
X-40.665 Y28.135
X-40.953 Y27.345
X-41.211 Y26.544
X-41.437 Y25.734
X-41.631 Y24.916
X-41.794 Y24.091
X-41.925 Y23.26
X-42.023 Y22.425
X-42.087 Y21.586
X-42.119 Y20.746
X-42.118 Y19.905
X-42.084 Y19.064
X-42.018 Y18.226
X-41.92 Y17.391
X-41.789 Y16.56
X-41.627 Y15.735
X-41.433 Y14.916
X-41.206 Y14.107
X-40.948 Y13.306
X-40.658 Y12.517
X-40.339 Y11.739
X-39.989 Y10.974
X-39.611 Y10.223
X-39.204 Y9.487
X-38.769 Y8.767
X-38.306 Y8.065
X-37.816 Y7.381
X-37.3 Y6.717
X-36.758 Y6.074
X-36.191 Y5.453
X-35.601 Y4.854
X-34.988 Y4.277
X-34.354 Y3.725
X-33.699 Y3.198
X-33.024 Y2.696
X-32.331 Y2.22
X-31.619 Y1.773
X-30.89 Y1.353
X-30.145 Y0.963
X-29.385 Y0.602
X-28.613 Y0.27
X-28.154 Y0.093
X-27.991 Y0.042
X-27.823 Y0.01
X-27.652 Y0.
X-15.257
X-14.417 Y0.042
X-13.999 Y0.091
X-13.224 Y0.219
X-12.408 Y0.423
X-11.608 Y0.684
X-10.827 Y0.994
X-10.063 Y1.347
X-9.318 Y1.737
X-8.592 Y2.161
X-7.885 Y2.616
X-7.197 Y3.101
X-6.53 Y3.612
X-5.882 Y4.149
X-5.256 Y4.711
X-4.652 Y5.295
X-4.069 Y5.902
X-3.51 Y6.53
X-2.974 Y7.178
X-2.464 Y7.847
X-1.979 Y8.534
X-1.52 Y9.239
X-1.087 Y9.96
X-0.681 Y10.696
X-0.302 Y11.447
X-0.128 Y11.824
X-0.057 Y12.012
X-0.014 Y12.208
X0. Y12.409
Y28.232
X-0.033 Y28.891
X-0.113 Y29.501
X-0.265 Y30.209
X-0.506 Y31.015
X-0.811 Y31.799
X-1.167 Y32.561
X-1.566 Y33.301
X-2.003 Y34.02
X-2.473 Y34.717
X-2.973 Y35.393
X-3.501 Y36.048
X-4.055 Y36.681
X-4.633 Y37.292
X-5.234 Y37.88
X-5.857 Y38.445
X-6.501 Y38.985
X-7.166 Y39.501
X-7.849 Y39.991
X-8.551 Y40.455
X-8.781 Y40.595
X-9.01 Y40.708
X-9.256 Y40.777
X-9.51 Y40.8
X-14.836
G3 X-15.201 Y39.741 I0.021 J-0.6
G1 X-0.986 Y27.793
G3 X0. Y28.232 I0.386 J0.459
G1 Y32.626
X-0.026 Y33.146
X-0.081 Y33.566
X-0.183 Y34.041
X-0.347 Y34.588
X-0.595 Y35.226
X-0.949 Y35.956
X-1.376 Y36.681
X-1.852 Y37.375
X-2.367 Y38.039
X-2.916 Y38.676
X-3.494 Y39.287
X-4.098 Y39.872
X-4.782 Y40.479
X-5.052 Y40.654
X-5.354 Y40.763
X-5.674 Y40.8
X-9.51
G3 X-9.878 Y39.743 I0.021 J-0.6
G1 X-0.988 Y32.19
G3 X0. Y32.626 I0.389 J0.457
G1 Y36.256
X-0.019 Y36.641
X-0.066 Y36.998
X-0.149 Y37.385
X-0.286 Y37.841
X-0.483 Y38.349
X-0.762 Y38.924
X-1.149 Y39.581
X-1.649 Y40.29
X-1.87 Y40.505
X-2.133 Y40.666
X-2.424 Y40.766
X-2.73 Y40.8
G3 X-3.238 Y39.916 I0.021 J-0.6
G1 X-1.128 Y35.993
G3 X0. Y36.256 I0.528 J0.284
G1 Y39.504
X-0.009 Y39.68
X-0.085 Y39.978
X-0.23 Y40.25
X-0.436 Y40.48
X-0.691 Y40.654
X-0.979 Y40.763
X-1.286 Y40.8
G3 X-1.692 Y39.779 I0.021 J-0.6
G1 X-1.027 Y39.104
G3 X0. Y39.504 I0.427 J0.421
G1 X-0.006 Y40.269
X-0.028 Y40.364
X-0.068 Y40.46
X-0.107 Y40.524
X-0.159 Y40.589
X-0.222 Y40.651
X-0.35 Y40.737
X-0.446 Y40.775
X-0.542 Y40.795
X-5.674 Y40.8
G3 X-5.902 Y40.746 I0.021 J-0.6
G1 X-5.987 Y40.707 Z-1.993
X-6.07 Y40.669 Z-1.971
X-6.15 Y40.633 Z-1.935
X-6.223 Y40.6 Z-1.885
X-6.288 Y40.57 Z-1.824
X-6.343 Y40.545 Z-1.753
X-6.388 Y40.525 Z-1.672
X-6.421 Y40.51 Z-1.585
X-6.441 Y40.501 Z-1.494
X-6.448 Y40.498 Z-1.4
G0 Z2.502
X-15.541 Y0.745
Z-0.8
G1 Z-1.4 F500.
X-15.54 Y0.738 Z-1.494
X-15.536 Y0.716 Z-1.585
X-15.529 Y0.681 Z-1.672
X-15.521 Y0.632 Z-1.753
X-15.51 Y0.572 Z-1.824
X-15.497 Y0.501 Z-1.885
X-15.483 Y0.422 Z-1.935
X-15.468 Y0.337 Z-1.971
X-15.452 Y0.247 Z-1.993
X-15.435 Y0.154 Z-2.
G3 X-15.257 Y0. I0.185 J0.033
G1 X-10.288
X-9.682 Y0.03
X-9.223 Y0.091
X-8.712 Y0.2
X-8.109 Y0.38
X-7.408 Y0.654
X-6.651 Y1.021
X-5.924 Y1.443
X-5.225 Y1.911
X-4.552 Y2.415
X-3.903 Y2.951
X-3.28 Y3.515
X-2.679 Y4.104
X-2.103 Y4.716
X-1.55 Y5.35
X-1.02 Y6.003
X-0.514 Y6.674
X-0.254 Y7.046
X-0.115 Y7.294
X-0.029 Y7.566
X0. Y7.849
Y12.409
G3 X-1.064 Y12.769 I-0.6 J-0.021
G1 X-10.731 Y0.98
G3 X-10.288 Y0. I0.464 J-0.38
G1 X-6.466
X-6.018 Y0.022
X-5.644 Y0.072
X-5.235 Y0.159
X-4.754 Y0.303
X-4.207 Y0.516
X-3.594 Y0.814
X-2.886 Y1.23
X-2.198 Y1.714
X-1.544 Y2.243
X-0.921 Y2.808
X-0.408 Y3.323
X-0.235 Y3.534
X-0.106 Y3.776
X-0.027 Y4.038
X0. Y4.311
Y7.849
G3 X-1.066 Y8.205 I-0.6 J-0.021
G1 X-6.912 Y0.977
G3 X-6.466 Y0. I0.467 J-0.377
G1 X-3.217
X-2.774 Y0.022
X-2.448 Y0.065
X-2.086 Y0.142
X-1.669 Y0.267
X-1.202 Y0.449
X-0.69 Y0.703
X-0.456 Y0.875
X-0.263 Y1.092
X-0.119 Y1.344
X-0.03 Y1.621
X0. Y1.909
G3 X-0.866 Y2.426 I-0.6 J-0.021
G1 X-3.463 Y1.137
G3 X-3.217 Y0. I0.267 J-0.537
G1 X-0.628 Y0.003
X-0.513 Y0.011
X-0.446 Y0.025
X-0.35 Y0.063
X-0.226 Y0.146
X-0.109 Y0.274
X-0.071 Y0.337
X-0.03 Y0.432
X-0.007 Y0.528
X0. Y1.101
Y4.311
G3 X-0.054 Y4.539 I-0.6 J-0.021
G1 X-0.093 Y4.624 Z-1.993
X-0.131 Y4.707 Z-1.971
X-0.167 Y4.787 Z-1.935
X-0.2 Y4.86 Z-1.885
X-0.23 Y4.925 Z-1.824
X-0.255 Y4.98 Z-1.753
X-0.275 Y5.025 Z-1.672
X-0.29 Y5.058 Z-1.585
X-0.299 Y5.078 Z-1.494
X-0.302 Y5.085 Z-1.4
G0 Z2.502
X-24.528 Y40.055
Z-0.8
G1 Z-1.4 F500.
X-24.53 Y40.062 Z-1.494
X-24.534 Y40.084 Z-1.585
X-24.54 Y40.119 Z-1.672
X-24.549 Y40.168 Z-1.753
X-24.559 Y40.228 Z-1.824
X-24.572 Y40.299 Z-1.885
X-24.586 Y40.378 Z-1.935
X-24.602 Y40.463 Z-1.971
X-24.618 Y40.553 Z-1.993
X-24.634 Y40.646 Z-2.
G3 X-24.812 Y40.8 I-0.185 J-0.033
G1 X-30.163
X-30.791 Y40.769
X-31.249 Y40.709
X-31.795 Y40.592
X-32.415 Y40.406
X-33.127 Y40.129
X-33.884 Y39.761
X-34.611 Y39.34
X-35.311 Y38.873
X-35.985 Y38.37
X-36.633 Y37.834
X-37.256 Y37.269
X-37.855 Y36.679
X-38.43 Y36.065
X-38.981 Y35.43
X-39.508 Y34.774
X-40.01 Y34.099
X-40.486 Y33.406
X-40.936 Y32.696
X-41.361 Y31.97
X-41.759 Y31.229
X-42.13 Y30.474
X-42.475 Y29.707
X-42.792 Y28.928
X-43.082 Y28.139
X-43.344 Y27.34
X-43.577 Y26.532
X-43.781 Y25.716
X-43.956 Y24.893
X-44.102 Y24.065
X-44.218 Y23.232
X-44.305 Y22.395
X-44.362 Y21.556
X-44.39 Y20.716
X-44.389 Y19.875
X-44.358 Y19.034
X-44.298 Y18.196
X-44.209 Y17.359
X-44.089 Y16.527
X-43.94 Y15.699
X-43.762 Y14.877
X-43.555 Y14.062
X-43.32 Y13.255
X-43.056 Y12.456
X-42.765 Y11.667
X-42.447 Y10.889
X-42.101 Y10.122
X-41.729 Y9.368
X-41.331 Y8.627
X-40.906 Y7.901
X-40.456 Y7.191
X-39.981 Y6.496
X-39.482 Y5.819
X-38.96 Y5.16
X-38.415 Y4.52
X-37.848 Y3.899
X-37.26 Y3.297
X-36.652 Y2.717
X-36.023 Y2.158
X-35.375 Y1.623
X-34.708 Y1.11
X-34.023 Y0.621
X-33.322 Y0.157
X-33.148 Y0.071
X-32.96 Y0.018
X-32.766 Y0.
X-27.652
G3 X-27.424 Y0.054 I-0.021 J0.6
G1 X-27.338 Y0.093 Z-1.993
X-27.255 Y0.131 Z-1.971
X-27.176 Y0.167 Z-1.935
X-27.103 Y0.2 Z-1.885
X-27.038 Y0.23 Z-1.824
X-26.982 Y0.255 Z-1.753
X-26.937 Y0.275 Z-1.672
X-26.904 Y0.29 Z-1.585
X-26.884 Y0.299 Z-1.494
X-26.878 Y0.302 Z-1.4
G0 Z2.502
X-29.88 Y40.055
Z-0.8
G1 Z-1.4 F500.
X-29.881 Y40.062 Z-1.494
X-29.885 Y40.084 Z-1.585
X-29.891 Y40.119 Z-1.672
X-29.9 Y40.168 Z-1.753
X-29.911 Y40.228 Z-1.824
X-29.923 Y40.299 Z-1.885
X-29.937 Y40.378 Z-1.935
X-29.953 Y40.463 Z-1.971
X-29.969 Y40.553 Z-1.993
X-29.985 Y40.646 Z-2.
G3 X-30.163 Y40.8 I-0.185 J-0.033
G1 X-34.177
X-34.488 Y40.784
X-34.866 Y40.735
X-35.275 Y40.647
X-35.759 Y40.502
X-36.304 Y40.29
X-36.918 Y39.992
X-37.625 Y39.576
X-38.313 Y39.092
X-38.967 Y38.563
X-39.589 Y37.997
X-40.182 Y37.401
X-40.746 Y36.778
X-41.285 Y36.131
X-41.797 Y35.465
X-42.284 Y34.779
X-42.746 Y34.076
X-43.183 Y33.357
X-43.594 Y32.624
X-43.98 Y31.877
X-44.342 Y31.117
X-44.678 Y30.347
X-44.989 Y29.565
X-45.274 Y28.774
X-45.534 Y27.974
X-45.768 Y27.166
X-45.976 Y26.351
X-46.157 Y25.53
X-46.311 Y24.703
X-46.437 Y23.872
X-46.537 Y23.037
X-46.61 Y22.199
X-46.656 Y21.359
X-46.675 Y20.518
X-46.668 Y19.678
X-46.633 Y18.837
X-46.572 Y17.998
X-46.484 Y17.162
X-46.369 Y16.329
X-46.227 Y15.5
X-46.058 Y14.676
X-45.863 Y13.858
X-45.641 Y13.047
X-45.394 Y12.243
X-45.121 Y11.448
X-44.823 Y10.661
X-44.5 Y9.885
X-44.152 Y9.119
X-43.78 Y8.365
X-43.384 Y7.623
X-42.965 Y6.894
X-42.522 Y6.179
X-42.056 Y5.479
X-41.568 Y4.794
X-41.058 Y4.125
X-40.526 Y3.473
X-39.975 Y2.838
X-39.404 Y2.221
X-38.813 Y1.622
X-38.204 Y1.043
X-37.576 Y0.483
X-37.388 Y0.326
X-37.188 Y0.187
X-36.968 Y0.084
X-36.732 Y0.021
X-36.49 Y0.
X-32.766
G3 X-32.538 Y0.054 I-0.021 J0.6
G1 X-32.453 Y0.093 Z-1.993
X-32.37 Y0.131 Z-1.971
X-32.29 Y0.167 Z-1.935
X-32.217 Y0.2 Z-1.885
X-32.152 Y0.23 Z-1.824
X-32.097 Y0.255 Z-1.753
X-32.052 Y0.275 Z-1.672
X-32.019 Y0.29 Z-1.585
X-31.999 Y0.299 Z-1.494
X-31.992 Y0.302 Z-1.4
G0 Z2.502
X-33.893 Y40.055
Z-0.8
G1 Z-1.4 F500.
X-33.894 Y40.062 Z-1.494
X-33.898 Y40.084 Z-1.585
X-33.904 Y40.119 Z-1.672
X-33.913 Y40.168 Z-1.753
X-33.924 Y40.228 Z-1.824
X-33.936 Y40.299 Z-1.885
X-33.951 Y40.378 Z-1.935
X-33.966 Y40.463 Z-1.971
X-33.982 Y40.553 Z-1.993
X-33.999 Y40.646 Z-2.
G3 X-34.177 Y40.8 I-0.185 J-0.033
G1 X-37.426
X-37.736 Y40.784
X-38.061 Y40.742
X-38.423 Y40.664
X-38.84 Y40.54
X-39.303 Y40.359
X-39.824 Y40.107
X-40.418 Y39.757
X-41.086 Y39.287
X-41.733 Y38.75
X-42.342 Y38.17
X-42.916 Y37.556
X-43.459 Y36.913
X-43.971 Y36.247
X-44.456 Y35.559
X-44.914 Y34.854
X-45.346 Y34.132
X-45.753 Y33.397
X-46.136 Y32.648
X-46.495 Y31.887
X-46.83 Y31.116
X-47.141 Y30.334
X-47.428 Y29.544
X-47.691 Y28.745
X-47.93 Y27.939
X-48.145 Y27.126
X-48.335 Y26.306
X-48.499 Y25.482
X-48.639 Y24.652
X-48.754 Y23.819
X-48.844 Y22.983
X-48.91 Y22.145
X-48.951 Y21.305
X-48.967 Y20.464
X-48.959 Y19.623
X-48.926 Y18.782
X-48.869 Y17.943
X-48.786 Y17.106
X-48.679 Y16.272
X-48.546 Y15.442
X-48.389 Y14.616
X-48.207 Y13.794
X-48.001 Y12.979
X-47.772 Y12.17
X-47.518 Y11.368
X-47.242 Y10.574
X-46.942 Y9.788
X-46.619 Y9.011
X-46.274 Y8.244
X-45.907 Y7.488
X-45.517 Y6.743
X-45.105 Y6.01
X-44.671 Y5.289
X-44.216 Y4.582
X-43.74 Y3.888
X-43.244 Y3.209
X-42.729 Y2.545
X-42.194 Y1.896
X-41.641 Y1.263
X-41.069 Y0.646
X-40.846 Y0.419
X-40.633 Y0.241
X-40.389 Y0.109
X-40.123 Y0.028
X-39.847 Y0.
X-36.49
G3 X-36.262 Y0.054 I-0.021 J0.6
G1 X-36.177 Y0.093 Z-1.993
X-36.093 Y0.131 Z-1.971
X-36.014 Y0.167 Z-1.935
X-35.941 Y0.2 Z-1.885
X-35.876 Y0.23 Z-1.824
X-35.82 Y0.255 Z-1.753
X-35.776 Y0.275 Z-1.672
X-35.743 Y0.29 Z-1.585
X-35.723 Y0.299 Z-1.494
X-35.716 Y0.302 Z-1.4
G0 Z2.502
X-37.142 Y40.055
Z-0.8
G1 Z-1.4 F500.
X-37.143 Y40.062 Z-1.494
X-37.147 Y40.084 Z-1.585
X-37.153 Y40.119 Z-1.672
X-37.162 Y40.168 Z-1.753
X-37.173 Y40.228 Z-1.824
X-37.185 Y40.299 Z-1.885
X-37.199 Y40.378 Z-1.935
X-37.215 Y40.463 Z-1.971
X-37.231 Y40.553 Z-1.993
X-37.248 Y40.646 Z-2.
G3 X-37.426 Y40.8 I-0.185 J-0.033
G1 X-40.483
X-40.724 Y40.788
X-41.013 Y40.75
X-41.354 Y40.677
X-41.727 Y40.565
X-42.153 Y40.4
X-42.617 Y40.175
X-43.147 Y39.862
X-43.737 Y39.448
X-44.384 Y38.911
X-44.986 Y38.324
X-45.548 Y37.698
X-46.075 Y37.042
X-46.569 Y36.361
X-47.033 Y35.66
X-47.469 Y34.941
X-47.879 Y34.207
X-48.265 Y33.459
X-48.626 Y32.7
X-48.963 Y31.929
X-49.277 Y31.149
X-49.569 Y30.36
X-49.837 Y29.563
X-50.083 Y28.759
X-50.305 Y27.948
X-50.504 Y27.131
X-50.68 Y26.308
X-50.832 Y25.481
X-50.962 Y24.65
X-51.068 Y23.816
X-51.152 Y22.979
X-51.213 Y22.14
X-51.251 Y21.3
X-51.267 Y20.459
X-51.259 Y19.618
X-51.229 Y18.778
X-51.176 Y17.939
X-51.1 Y17.101
X-51. Y16.266
X-50.877 Y15.434
X-50.731 Y14.606
X-50.563 Y13.782
X-50.372 Y12.963
X-50.158 Y12.149
X-49.923 Y11.342
X-49.667 Y10.541
X-49.388 Y9.747
X-49.089 Y8.962
X-48.768 Y8.184
X-48.426 Y7.416
X-48.064 Y6.657
X-47.68 Y5.908
X-47.276 Y5.171
X-46.851 Y4.445
X-46.407 Y3.731
X-45.943 Y3.029
X-45.461 Y2.341
X-44.96 Y1.665
X-44.44 Y1.003
X-44.029 Y0.506
X-43.808 Y0.293
X-43.546 Y0.133
X-43.256 Y0.034
X-42.951 Y0.
X-39.847
G3 X-39.619 Y0.054 I-0.021 J0.6
G1 X-39.534 Y0.093 Z-1.993
X-39.451 Y0.131 Z-1.971
X-39.371 Y0.167 Z-1.935
X-39.298 Y0.2 Z-1.885
X-39.233 Y0.23 Z-1.824
X-39.178 Y0.255 Z-1.753
X-39.133 Y0.275 Z-1.672
X-39.1 Y0.29 Z-1.585
X-39.08 Y0.299 Z-1.494
X-39.073 Y0.302 Z-1.4
G0 Z2.502
X-40.199 Y40.055
Z-0.8
G1 Z-1.4 F500.
X-40.201 Y40.062 Z-1.494
X-40.205 Y40.084 Z-1.585
X-40.211 Y40.119 Z-1.672
X-40.22 Y40.168 Z-1.753
X-40.23 Y40.228 Z-1.824
X-40.243 Y40.299 Z-1.885
X-40.257 Y40.378 Z-1.935
X-40.273 Y40.463 Z-1.971
X-40.289 Y40.553 Z-1.993
X-40.305 Y40.646 Z-2.
G3 X-40.483 Y40.8 I-0.185 J-0.033
G1 X-43.159
X-43.553 Y40.78
X-43.83 Y40.744
X-44.159 Y40.674
X-44.499 Y40.572
X-44.901 Y40.415
X-45.323 Y40.21
X-45.81 Y39.924
X-46.345 Y39.548
X-46.93 Y39.063
X-47.532 Y38.475
X-48.089 Y37.845
X-48.606 Y37.183
X-49.089 Y36.494
X-49.54 Y35.784
X-49.961 Y35.056
X-50.356 Y34.313
X-50.725 Y33.558
X-51.07 Y32.791
X-51.391 Y32.013
X-51.69 Y31.227
X-51.966 Y30.433
X-52.22 Y29.631
X-52.452 Y28.823
X-52.661 Y28.008
X-52.848 Y27.188
X-53.014 Y26.364
X-53.158 Y25.535
X-53.28 Y24.703
X-53.381 Y23.868
X-53.461 Y23.031
X-53.519 Y22.192
X-53.557 Y21.352
X-53.573 Y20.511
X-53.568 Y19.67
X-53.541 Y18.829
X-53.493 Y17.99
X-53.423 Y17.152
X-53.332 Y16.316
X-53.219 Y15.482
X-53.084 Y14.652
X-52.928 Y13.826
X-52.752 Y13.003
X-52.554 Y12.186
X-52.337 Y11.374
X-52.098 Y10.567
X-51.84 Y9.767
X-51.562 Y8.973
X-51.263 Y8.187
X-50.946 Y7.408
X-50.608 Y6.638
X-50.251 Y5.876
X-49.874 Y5.125
X-49.478 Y4.383
X-49.062 Y3.651
X-48.629 Y2.931
X-48.177 Y2.222
X-47.707 Y1.524
X-47.22 Y0.838
X-46.994 Y0.545
X-46.772 Y0.316
X-46.503 Y0.144
X-46.203 Y0.036
X-45.886 Y0.
X-42.951
G3 X-42.723 Y0.054 I-0.021 J0.6
G1 X-42.637 Y0.093 Z-1.993
X-42.554 Y0.131 Z-1.971
X-42.475 Y0.167 Z-1.935
X-42.402 Y0.2 Z-1.885
X-42.337 Y0.23 Z-1.824
X-42.281 Y0.255 Z-1.753
X-42.236 Y0.275 Z-1.672
X-42.204 Y0.29 Z-1.585
X-42.184 Y0.299 Z-1.494
X-42.177 Y0.302 Z-1.4
G0 Z2.502
X-42.875 Y40.055
Z-0.8
G1 Z-1.4 F500.
X-42.876 Y40.062 Z-1.494
X-42.88 Y40.084 Z-1.585
X-42.886 Y40.119 Z-1.672
X-42.895 Y40.168 Z-1.753
X-42.906 Y40.228 Z-1.824
X-42.919 Y40.299 Z-1.885
X-42.933 Y40.378 Z-1.935
X-42.948 Y40.463 Z-1.971
X-42.964 Y40.553 Z-1.993
X-42.981 Y40.646 Z-2.
G3 X-43.159 Y40.8 I-0.185 J-0.033
G1 X-46.025
X-46.246 Y40.789
X-46.522 Y40.753
X-46.83 Y40.687
X-47.16 Y40.588
X-47.544 Y40.438
X-47.946 Y40.244
X-48.403 Y39.974
X-48.909 Y39.619
X-49.452 Y39.168
X-50.054 Y38.581
X-50.607 Y37.948
X-51.118 Y37.279
X-51.591 Y36.584
X-52.031 Y35.867
X-52.44 Y35.132
X-52.821 Y34.383
X-53.177 Y33.621
X-53.508 Y32.847
X-53.815 Y32.065
X-54.1 Y31.273
X-54.362 Y30.474
X-54.603 Y29.669
X-54.822 Y28.857
X-55.02 Y28.039
X-55.197 Y27.217
X-55.354 Y26.391
X-55.49 Y25.561
X-55.606 Y24.728
X-55.701 Y23.892
X-55.777 Y23.055
X-55.833 Y22.216
X-55.869 Y21.375
X-55.885 Y20.535
X-55.881 Y19.694
X-55.856 Y18.853
X-55.812 Y18.013
X-55.748 Y17.174
X-55.663 Y16.338
X-55.558 Y15.503
X-55.433 Y14.672
X-55.288 Y13.843
X-55.123 Y13.019
X-54.939 Y12.198
X-54.735 Y11.382
X-54.513 Y10.571
X-54.271 Y9.765
X-54.011 Y8.966
X-53.732 Y8.172
X-53.434 Y7.386
X-53.118 Y6.607
X-52.783 Y5.835
X-52.43 Y5.072
X-52.059 Y4.317
X-51.669 Y3.572
X-51.262 Y2.836
X-50.837 Y2.11
X-50.395 Y1.394
X-49.934 Y0.691
X-49.836 Y0.561
X-49.613 Y0.326
X-49.342 Y0.148
X-49.038 Y0.038
X-48.716 Y0.
X-45.886
G3 X-45.658 Y0.054 I-0.021 J0.6
G1 X-45.572 Y0.093 Z-1.993
X-45.489 Y0.131 Z-1.971
X-45.41 Y0.167 Z-1.935
X-45.337 Y0.2 Z-1.885
X-45.272 Y0.23 Z-1.824
X-45.216 Y0.255 Z-1.753
X-45.171 Y0.275 Z-1.672
X-45.139 Y0.29 Z-1.585
X-45.119 Y0.299 Z-1.494
X-45.112 Y0.302 Z-1.4
G0 Z2.502
X-45.742 Y40.055
Z-0.8
G1 Z-1.4 F500.
X-45.743 Y40.062 Z-1.494
X-45.747 Y40.084 Z-1.585
X-45.753 Y40.119 Z-1.672
X-45.762 Y40.168 Z-1.753
X-45.773 Y40.228 Z-1.824
X-45.785 Y40.299 Z-1.885
X-45.799 Y40.378 Z-1.935
X-45.815 Y40.463 Z-1.971
X-45.831 Y40.553 Z-1.993
X-45.847 Y40.646 Z-2.
G3 X-46.025 Y40.8 I-0.185 J-0.033
G1 X-48.701
X-48.874 Y40.791
X-49.15 Y40.755
X-49.439 Y40.693
X-49.764 Y40.596
X-50.129 Y40.454
X-50.52 Y40.264
X-50.956 Y40.007
X-51.44 Y39.668
X-51.953 Y39.241
X-52.526 Y38.682
X-53.079 Y38.049
X-53.586 Y37.378
X-54.054 Y36.679
X-54.486 Y35.957
X-54.886 Y35.217
X-55.257 Y34.463
X-55.602 Y33.696
X-55.922 Y32.918
X-56.218 Y32.131
X-56.492 Y31.336
X-56.744 Y30.533
X-56.974 Y29.724
X-57.183 Y28.91
X-57.372 Y28.09
X-57.541 Y27.266
X-57.691 Y26.439
X-57.821 Y25.608
X-57.931 Y24.774
X-58.023 Y23.938
X-58.096 Y23.1
X-58.15 Y22.261
X-58.185 Y21.421
X-58.201 Y20.58
X-58.199 Y19.739
X-58.177 Y18.898
X-58.137 Y18.058
X-58.078 Y17.219
X-57.999 Y16.382
X-57.902 Y15.547
X-57.785 Y14.714
X-57.65 Y13.884
X-57.496 Y13.057
X-57.324 Y12.234
X-57.134 Y11.414
X-56.926 Y10.6
X-56.7 Y9.79
X-56.455 Y8.985
X-56.194 Y8.186
X-55.914 Y7.392
X-55.618 Y6.605
X-55.304 Y5.825
X-54.972 Y5.052
X-54.623 Y4.287
X-54.258 Y3.53
X-53.874 Y2.781
X-53.475 Y2.041
X-53.057 Y1.311
X-52.591 Y0.568
X-52.417 Y0.373
X-52.21 Y0.214
X-51.977 Y0.097
X-51.726 Y0.024
X-51.466 Y0.
X-48.716
G3 X-48.488 Y0.054 I-0.021 J0.6
G1 X-48.402 Y0.093 Z-1.993
X-48.319 Y0.131 Z-1.971
X-48.24 Y0.167 Z-1.935
X-48.167 Y0.2 Z-1.885
X-48.102 Y0.23 Z-1.824
X-48.046 Y0.255 Z-1.753
X-48.001 Y0.275 Z-1.672
X-47.969 Y0.29 Z-1.585
X-47.949 Y0.299 Z-1.494
X-47.942 Y0.302 Z-1.4
G0 Z2.502
X-48.417 Y40.055
Z-0.8
G1 Z-1.4 F500.
X-48.418 Y40.062 Z-1.494
X-48.422 Y40.084 Z-1.585
X-48.429 Y40.119 Z-1.672
X-48.437 Y40.168 Z-1.753
X-48.448 Y40.228 Z-1.824
X-48.461 Y40.299 Z-1.885
X-48.475 Y40.378 Z-1.935
X-48.49 Y40.463 Z-1.971
X-48.506 Y40.553 Z-1.993
X-48.523 Y40.646 Z-2.
G3 X-48.701 Y40.8 I-0.185 J-0.033
G1 X-51.185
X-51.455 Y40.787
X-51.725 Y40.751
X-52.001 Y40.692
X-52.325 Y40.595
X-52.673 Y40.46
X-53.058 Y40.273
X-53.476 Y40.027
X-53.945 Y39.697
X-54.437 Y39.289
X-54.983 Y38.755
X-55.536 Y38.122
X-56.041 Y37.449
X-56.504 Y36.747
X-56.929 Y36.021
X-57.322 Y35.278
X-57.685 Y34.519
X-58.02 Y33.748
X-58.331 Y32.966
X-58.617 Y32.175
X-58.881 Y31.377
X-59.123 Y30.572
X-59.344 Y29.76
X-59.545 Y28.943
X-59.726 Y28.122
X-59.888 Y27.297
X-60.031 Y26.468
X-60.156 Y25.636
X-60.262 Y24.802
X-60.35 Y23.966
X-60.42 Y23.128
X-60.472 Y22.288
X-60.506 Y21.448
X-60.522 Y20.607
X-60.52 Y19.766
X-60.501 Y18.925
X-60.464 Y18.085
X-60.409 Y17.246
X-60.336 Y16.408
X-60.245 Y15.572
X-60.136 Y14.738
X-60.009 Y13.907
X-59.865 Y13.078
X-59.703 Y12.253
X-59.525 Y11.431
X-59.329 Y10.613
X-59.116 Y9.8
X-58.886 Y8.991
X-58.639 Y8.187
X-58.376 Y7.388
X-58.096 Y6.595
X-57.8 Y5.808
X-57.487 Y5.027
X-57.158 Y4.253
X-56.813 Y3.486
X-56.451 Y2.727
X-56.074 Y1.975
X-55.677 Y1.234
X-55.286 Y0.587
X-55.112 Y0.386
X-54.903 Y0.222
X-54.666 Y0.1
X-54.411 Y0.025
X-54.147 Y0.
X-51.466
G3 X-51.238 Y0.054 I-0.021 J0.6
G1 X-51.153 Y0.093 Z-1.993
X-51.069 Y0.131 Z-1.971
X-50.99 Y0.167 Z-1.935
X-50.917 Y0.2 Z-1.885
X-50.852 Y0.23 Z-1.824
X-50.796 Y0.255 Z-1.753
X-50.751 Y0.275 Z-1.672
X-50.719 Y0.29 Z-1.585
X-50.699 Y0.299 Z-1.494
X-50.692 Y0.302 Z-1.4
G0 Z2.502
X-50.901 Y40.055
Z-0.8
G1 Z-1.4 F500.
X-50.903 Y40.062 Z-1.494
X-50.907 Y40.084 Z-1.585
X-50.913 Y40.119 Z-1.672
X-50.922 Y40.168 Z-1.753
X-50.932 Y40.228 Z-1.824
X-50.945 Y40.299 Z-1.885
X-50.959 Y40.378 Z-1.935
X-50.975 Y40.463 Z-1.971
X-50.991 Y40.553 Z-1.993
X-51.007 Y40.646 Z-2.
G3 X-51.185 Y40.8 I-0.185 J-0.033
G1 X-53.67
X-53.99 Y40.784
X-54.249 Y40.75
X-54.522 Y40.692
X-54.846 Y40.594
X-55.18 Y40.464
X-55.561 Y40.28
X-55.965 Y40.042
X-56.422 Y39.721
X-56.899 Y39.325
X-57.426 Y38.811
X-57.979 Y38.177
X-58.481 Y37.503
X-58.94 Y36.798
X-59.36 Y36.07
X-59.747 Y35.323
X-60.102 Y34.56
X-60.43 Y33.786
X-60.732 Y33.001
X-61.01 Y32.207
X-61.266 Y31.406
X-61.5 Y30.598
X-61.713 Y29.785
X-61.906 Y28.966
X-62.081 Y28.144
X-62.236 Y27.317
X-62.374 Y26.487
X-62.493 Y25.655
X-62.595 Y24.82
X-62.68 Y23.983
X-62.747 Y23.145
X-62.797 Y22.306
X-62.83 Y21.465
X-62.847 Y20.624
X-62.846 Y19.783
X-62.828 Y18.943
X-62.794 Y18.102
X-62.742 Y17.263
X-62.674 Y16.425
X-62.589 Y15.588
X-62.486 Y14.753
X-62.367 Y13.921
X-62.231 Y13.091
X-62.079 Y12.264
X-61.91 Y11.44
X-61.725 Y10.619
X-61.523 Y9.803
X-61.306 Y8.99
X-61.073 Y8.182
X-60.824 Y7.379
X-60.559 Y6.581
X-60.279 Y5.788
X-59.982 Y5.001
X-59.671 Y4.22
X-59.344 Y3.445
X-59.002 Y2.677
X-58.643 Y1.916
X-58.263 Y1.166
X-57.929 Y0.597
X-57.755 Y0.393
X-57.545 Y0.226
X-57.306 Y0.102
X-57.049 Y0.026
X-56.782 Y0.
X-54.147
G3 X-53.919 Y0.054 I-0.021 J0.6
G1 X-53.833 Y0.093 Z-1.993
X-53.75 Y0.131 Z-1.971
X-53.671 Y0.167 Z-1.935
X-53.598 Y0.2 Z-1.885
X-53.533 Y0.23 Z-1.824
X-53.477 Y0.255 Z-1.753
X-53.432 Y0.275 Z-1.672
X-53.4 Y0.29 Z-1.585
X-53.38 Y0.299 Z-1.494
X-53.373 Y0.302 Z-1.4
G0 Z2.502
X-53.386 Y40.055
Z-0.8
G1 Z-1.4 F500.
X-53.387 Y40.062 Z-1.494
X-53.391 Y40.084 Z-1.585
X-53.397 Y40.119 Z-1.672
X-53.406 Y40.168 Z-1.753
X-53.417 Y40.228 Z-1.824
X-53.43 Y40.299 Z-1.885
X-53.444 Y40.378 Z-1.935
X-53.459 Y40.463 Z-1.971
X-53.475 Y40.553 Z-1.993
X-53.492 Y40.646 Z-2.
G3 X-53.67 Y40.8 I-0.185 J-0.033
G1 X-56.154
X-56.49 Y40.783
X-56.739 Y40.75
X-57.012 Y40.692
X-57.335 Y40.596
X-57.66 Y40.469
X-58.037 Y40.286
X-58.43 Y40.054
X-58.878 Y39.74
X-59.342 Y39.354
X-59.854 Y38.855
X-60.407 Y38.221
X-60.908 Y37.545
X-61.364 Y36.838
X-61.779 Y36.107
X-62.16 Y35.358
X-62.51 Y34.593
X-62.831 Y33.815
X-63.126 Y33.028
X-63.397 Y32.232
X-63.645 Y31.428
X-63.872 Y30.618
X-64.079 Y29.803
X-64.266 Y28.983
X-64.434 Y28.159
X-64.585 Y27.332
X-64.717 Y26.501
X-64.832 Y25.668
X-64.931 Y24.833
X-65.012 Y23.996
X-65.077 Y23.157
X-65.126 Y22.318
X-65.158 Y21.477
X-65.174 Y20.637
Y19.796
X-65.158 Y18.955
X-65.126 Y18.114
X-65.078 Y17.275
X-65.014 Y16.436
X-64.934 Y15.599
X-64.837 Y14.764
X-64.725 Y13.93
X-64.596 Y13.099
X-64.452 Y12.27
X-64.292 Y11.445
X-64.117 Y10.622
X-63.926 Y9.803
X-63.72 Y8.988
X-63.498 Y8.177
X-63.262 Y7.369
X-63.011 Y6.567
X-62.744 Y5.769
X-62.463 Y4.976
X-62.167 Y4.189
X-61.857 Y3.408
X-61.531 Y2.632
X-61.188 Y1.864
X-60.82 Y1.108
X-60.584 Y0.699
X-60.412 Y0.462
X-60.194 Y0.267
X-59.941 Y0.121
X-59.663 Y0.031
X-59.372 Y0.
X-56.782
G3 X-56.554 Y0.054 I-0.021 J0.6
G1 X-56.469 Y0.093 Z-1.993
X-56.385 Y0.131 Z-1.971
X-56.306 Y0.167 Z-1.935
X-56.233 Y0.2 Z-1.885
X-56.168 Y0.23 Z-1.824
X-56.112 Y0.255 Z-1.753
X-56.068 Y0.275 Z-1.672
X-56.035 Y0.29 Z-1.585
X-56.015 Y0.299 Z-1.494
X-56.008 Y0.302 Z-1.4
G0 Z2.502
X-55.87 Y40.055
Z-0.8
G1 Z-1.4 F500.
X-55.872 Y40.062 Z-1.494
X-55.875 Y40.084 Z-1.585
X-55.882 Y40.119 Z-1.672
X-55.891 Y40.168 Z-1.753
X-55.901 Y40.228 Z-1.824
X-55.914 Y40.299 Z-1.885
X-55.928 Y40.378 Z-1.935
X-55.943 Y40.463 Z-1.971
X-55.96 Y40.553 Z-1.993
X-55.976 Y40.646 Z-2.
G3 X-56.154 Y40.8 I-0.185 J-0.033
G1 X-58.639
X-58.963 Y40.784
X-59.205 Y40.752
X-59.478 Y40.694
X-59.797 Y40.598
X-60.116 Y40.474
X-60.491 Y40.292
X-60.875 Y40.066
X-61.315 Y39.757
X-61.771 Y39.379
X-62.271 Y38.891
X-62.815 Y38.266
X-63.316 Y37.59
X-63.769 Y36.882
X-64.182 Y36.149
X-64.559 Y35.397
X-64.904 Y34.63
X-65.22 Y33.851
X-65.509 Y33.061
X-65.774 Y32.263
X-66.017 Y31.458
X-66.238 Y30.647
X-66.44 Y29.83
X-66.621 Y29.009
X-66.785 Y28.184
X-66.931 Y27.356
X-67.059 Y26.525
X-67.171 Y25.691
X-67.267 Y24.856
X-67.346 Y24.018
X-67.409 Y23.18
X-67.457 Y22.34
X-67.489 Y21.5
X-67.505 Y20.659
X-67.506 Y19.818
X-67.492 Y18.977
X-67.462 Y18.136
X-67.417 Y17.297
X-67.357 Y16.458
X-67.281 Y15.62
X-67.19 Y14.784
X-67.084 Y13.95
X-66.962 Y13.118
X-66.826 Y12.288
X-66.674 Y11.461
X-66.508 Y10.636
X-66.327 Y9.815
X-66.131 Y8.997
X-65.921 Y8.183
X-65.696 Y7.372
X-65.457 Y6.566
X-65.204 Y5.764
X-64.936 Y4.967
X-64.655 Y4.174
X-64.359 Y3.387
X-64.048 Y2.606
X-63.719 Y1.832
X-63.358 Y1.072
X-63.144 Y0.701
X-62.972 Y0.464
X-62.755 Y0.268
X-62.501 Y0.121
X-62.223 Y0.031
X-61.931 Y0.
X-59.372
G3 X-59.144 Y0.054 I-0.021 J0.6
G1 X-59.059 Y0.093 Z-1.993
X-58.975 Y0.131 Z-1.971
X-58.896 Y0.167 Z-1.935
X-58.823 Y0.2 Z-1.885
X-58.758 Y0.23 Z-1.824
X-58.702 Y0.255 Z-1.753
X-58.658 Y0.275 Z-1.672
X-58.625 Y0.29 Z-1.585
X-58.605 Y0.299 Z-1.494
X-58.598 Y0.302 Z-1.4
G0 Z2.502
X-58.355 Y40.055
Z-0.8
G1 Z-1.4 F500.
X-58.356 Y40.062 Z-1.494
X-58.36 Y40.084 Z-1.585
X-58.366 Y40.119 Z-1.672
X-58.375 Y40.168 Z-1.753
X-58.386 Y40.228 Z-1.824
X-58.398 Y40.299 Z-1.885
X-58.413 Y40.378 Z-1.935
X-58.428 Y40.463 Z-1.971
X-58.444 Y40.553 Z-1.993
X-58.461 Y40.646 Z-2.
G3 X-58.639 Y40.8 I-0.185 J-0.033
G1 X-61.123
X-61.413 Y40.785
X-61.651 Y40.754
X-61.923 Y40.696
X-62.237 Y40.602
X-62.554 Y40.479
X-62.927 Y40.298
X-63.304 Y40.076
X-63.737 Y39.771
X-64.186 Y39.399
X-64.677 Y38.92
X-65.211 Y38.308
X-65.711 Y37.632
X-66.163 Y36.923
X-66.574 Y36.189
X-66.947 Y35.436
X-67.288 Y34.667
X-67.6 Y33.886
X-67.885 Y33.095
X-68.146 Y32.295
X-68.384 Y31.489
X-68.601 Y30.676
X-68.797 Y29.858
X-68.975 Y29.036
X-69.134 Y28.211
X-69.276 Y27.382
X-69.402 Y26.55
X-69.511 Y25.716
X-69.604 Y24.88
X-69.681 Y24.043
X-69.743 Y23.204
X-69.79 Y22.364
X-69.821 Y21.524
X-69.838 Y20.683
X-69.84 Y19.842
X-69.828 Y19.001
X-69.8 Y18.161
X-69.758 Y17.321
X-69.702 Y16.482
X-69.63 Y15.644
X-69.544 Y14.807
X-69.444 Y13.972
X-69.329 Y13.139
X-69.199 Y12.308
X-69.055 Y11.479
X-68.897 Y10.653
X-68.725 Y9.83
X-68.539 Y9.01
X-68.339 Y8.193
X-68.125 Y7.38
X-67.897 Y6.57
X-67.656 Y5.765
X-67.401 Y4.963
X-67.132 Y4.166
X-66.849 Y3.374
X-66.551 Y2.588
X-66.232 Y1.81
X-65.89 Y1.073
X-65.684 Y0.71
X-65.513 Y0.47
X-65.295 Y0.271
X-65.04 Y0.123
X-64.76 Y0.031
X-64.466 Y0.
X-61.931
G3 X-61.703 Y0.054 I-0.021 J0.6
G1 X-61.618 Y0.093 Z-1.993
X-61.535 Y0.131 Z-1.971
X-61.455 Y0.167 Z-1.935
X-61.382 Y0.2 Z-1.885
X-61.317 Y0.23 Z-1.824
X-61.262 Y0.255 Z-1.753
X-61.217 Y0.275 Z-1.672
X-61.184 Y0.29 Z-1.585
X-61.164 Y0.299 Z-1.494
X-61.157 Y0.302 Z-1.4
G0 Z2.502
X-60.839 Y40.055
Z-0.8
G1 Z-1.4 F500.
X-60.84 Y40.062 Z-1.494
X-60.844 Y40.084 Z-1.585
X-60.851 Y40.119 Z-1.672
X-60.859 Y40.168 Z-1.753
X-60.87 Y40.228 Z-1.824
X-60.883 Y40.299 Z-1.885
X-60.897 Y40.378 Z-1.935
X-60.912 Y40.463 Z-1.971
X-60.928 Y40.553 Z-1.993
X-60.945 Y40.646 Z-2.
G3 X-61.123 Y40.8 I-0.185 J-0.033
G1 X-63.607
X-63.845 Y40.788
X-64.08 Y40.757
X-64.353 Y40.699
X-64.661 Y40.607
X-64.976 Y40.484
X-65.347 Y40.304
X-65.719 Y40.085
X-66.147 Y39.784
X-66.592 Y39.415
X-67.075 Y38.944
X-67.599 Y38.343
X-68.099 Y37.667
X-68.551 Y36.957
X-68.959 Y36.222
X-69.33 Y35.467
X-69.668 Y34.697
X-69.977 Y33.915
X-70.258 Y33.122
X-70.514 Y32.321
X-70.748 Y31.514
X-70.961 Y30.7
X-71.153 Y29.881
X-71.327 Y29.058
X-71.483 Y28.232
X-71.622 Y27.403
X-71.745 Y26.57
X-71.851 Y25.736
X-71.942 Y24.9
X-72.018 Y24.063
X-72.079 Y23.224
X-72.125 Y22.384
X-72.157 Y21.544
X-72.174 Y20.703
X-72.177 Y19.862
X-72.166 Y19.021
X-72.14 Y18.18
X-72.101 Y17.34
X-72.048 Y16.501
X-71.98 Y15.663
X-71.899 Y14.826
X-71.804 Y13.99
X-71.694 Y13.156
X-71.571 Y12.324
X-71.434 Y11.494
X-71.283 Y10.667
X-71.119 Y9.842
X-70.942 Y9.02
X-70.751 Y8.201
X-70.547 Y7.385
X-70.329 Y6.573
X-70.099 Y5.764
X-69.855 Y4.959
X-69.598 Y4.158
X-69.327 Y3.362
X-69.038 Y2.572
X-68.729 Y1.79
X-68.405 Y1.08
X-68.203 Y0.719
X-68.032 Y0.476
X-67.814 Y0.275
X-67.558 Y0.125
X-67.276 Y0.031
X-66.98 Y0.
X-64.466
G3 X-64.238 Y0.054 I-0.021 J0.6
G1 X-64.153 Y0.093 Z-1.993
X-64.07 Y0.131 Z-1.971
X-63.991 Y0.167 Z-1.935
X-63.918 Y0.2 Z-1.885
X-63.852 Y0.23 Z-1.824
X-63.797 Y0.255 Z-1.753
X-63.752 Y0.275 Z-1.672
X-63.719 Y0.29 Z-1.585
X-63.699 Y0.299 Z-1.494
X-63.692 Y0.302 Z-1.4
G0 Z2.502
X-63.324 Y40.055
Z-0.8
G1 Z-1.4 F500.
X-63.325 Y40.062 Z-1.494
X-63.329 Y40.084 Z-1.585
X-63.335 Y40.119 Z-1.672
X-63.344 Y40.168 Z-1.753
X-63.355 Y40.228 Z-1.824
X-63.367 Y40.299 Z-1.885
X-63.381 Y40.378 Z-1.935
X-63.397 Y40.463 Z-1.971
X-63.413 Y40.553 Z-1.993
X-63.429 Y40.646 Z-2.
G3 X-63.607 Y40.8 I-0.185 J-0.033
G1 X-66.092
X-66.263 Y40.791
X-66.495 Y40.761
X-66.768 Y40.703
X-67.071 Y40.612
X-67.387 Y40.489
X-67.754 Y40.311
X-68.124 Y40.093
X-68.547 Y39.796
X-68.988 Y39.43
X-69.464 Y38.965
X-69.982 Y38.372
X-70.482 Y37.696
X-70.932 Y36.986
X-71.339 Y36.25
X-71.708 Y35.494
X-72.043 Y34.723
X-72.349 Y33.939
X-72.627 Y33.145
X-72.88 Y32.343
X-73.11 Y31.535
X-73.319 Y30.72
X-73.509 Y29.901
X-73.679 Y29.077
X-73.832 Y28.25
X-73.969 Y27.42
X-74.089 Y26.588
X-74.193 Y25.753
X-74.282 Y24.917
X-74.357 Y24.079
X-74.417 Y23.24
X-74.462 Y22.401
X-74.494 Y21.56
X-74.511 Y20.719
X-74.515 Y19.879
X-74.506 Y19.038
X-74.482 Y18.197
X-74.445 Y17.357
X-74.395 Y16.517
X-74.331 Y15.679
X-74.254 Y14.841
X-74.163 Y14.005
X-74.059 Y13.17
X-73.942 Y12.338
X-73.812 Y11.507
X-73.668 Y10.678
X-73.511 Y9.852
X-73.341 Y9.028
X-73.159 Y8.207
X-72.964 Y7.389
X-72.756 Y6.574
X-72.535 Y5.763
X-72.301 Y4.955
X-72.054 Y4.151
X-71.793 Y3.352
X-71.514 Y2.559
X-71.211 Y1.774
X-70.902 Y1.087
X-70.704 Y0.726
X-70.533 Y0.481
X-70.314 Y0.278
X-70.057 Y0.126
X-69.774 Y0.032
X-69.477 Y0.
X-66.98
G3 X-66.752 Y0.054 I-0.021 J0.6
G1 X-66.667 Y0.093 Z-1.993
X-66.584 Y0.131 Z-1.971
X-66.505 Y0.167 Z-1.935
X-66.432 Y0.2 Z-1.885
X-66.366 Y0.23 Z-1.824
X-66.311 Y0.255 Z-1.753
X-66.266 Y0.275 Z-1.672
X-66.233 Y0.29 Z-1.585
X-66.213 Y0.299 Z-1.494
X-66.206 Y0.302 Z-1.4
G0 Z2.502
X-65.808 Y40.055
Z-0.8
G1 Z-1.4 F500.
X-65.809 Y40.062 Z-1.494
X-65.813 Y40.084 Z-1.585
X-65.82 Y40.119 Z-1.672
X-65.828 Y40.168 Z-1.753
X-65.839 Y40.228 Z-1.824
X-65.852 Y40.299 Z-1.885
X-65.866 Y40.378 Z-1.935
X-65.881 Y40.463 Z-1.971
X-65.897 Y40.553 Z-1.993
X-65.914 Y40.646 Z-2.
G3 X-66.092 Y40.8 I-0.185 J-0.033
G1 X-68.385
X-68.678 Y40.785
X-68.908 Y40.755
X-69.181 Y40.697
X-69.478 Y40.608
X-69.794 Y40.485
X-70.158 Y40.308
X-70.525 Y40.092
X-70.943 Y39.799
X-71.381 Y39.435
X-71.851 Y38.976
X-72.361 Y38.391
X-72.862 Y37.715
X-73.311 Y37.004
X-73.717 Y36.267
X-74.084 Y35.511
X-74.417 Y34.738
X-74.719 Y33.954
X-74.994 Y33.159
X-75.244 Y32.356
X-75.472 Y31.546
X-75.678 Y30.731
X-75.864 Y29.911
X-76.032 Y29.087
X-76.182 Y28.259
X-76.316 Y27.429
X-76.434 Y26.596
X-76.536 Y25.762
X-76.624 Y24.925
X-76.697 Y24.087
X-76.756 Y23.248
X-76.801 Y22.409
X-76.833 Y21.568
X-76.851 Y20.727
X-76.856 Y19.886
X-76.847 Y19.045
X-76.825 Y18.205
X-76.791 Y17.364
X-76.743 Y16.525
X-76.683 Y15.686
X-76.609 Y14.848
X-76.523 Y14.012
X-76.424 Y13.176
X-76.312 Y12.343
X-76.187 Y11.511
X-76.049 Y10.682
X-75.899 Y9.854
X-75.737 Y9.029
X-75.562 Y8.206
X-75.375 Y7.386
X-75.175 Y6.569
X-74.964 Y5.755
X-74.739 Y4.945
X-74.501 Y4.138
X-74.247 Y3.337
X-73.975 Y2.541
X-73.678 Y1.754
X-73.383 Y1.089
X-73.189 Y0.732
X-73.018 Y0.485
X-72.799 Y0.28
X-72.541 Y0.127
X-72.257 Y0.032
X-71.959 Y0.
X-69.477
G3 X-69.249 Y0.054 I-0.021 J0.6
G1 X-69.164 Y0.093 Z-1.993
X-69.08 Y0.131 Z-1.971
X-69.001 Y0.167 Z-1.935
X-68.928 Y0.2 Z-1.885
X-68.863 Y0.23 Z-1.824
X-68.807 Y0.255 Z-1.753
X-68.762 Y0.275 Z-1.672
X-68.73 Y0.29 Z-1.585
X-68.71 Y0.299 Z-1.494
X-68.703 Y0.302 Z-1.4
G0 Z2.502
X-68.101 Y40.055
Z-0.8
G1 Z-1.4 F500.
X-68.103 Y40.062 Z-1.494
X-68.106 Y40.084 Z-1.585
X-68.113 Y40.119 Z-1.672
X-68.121 Y40.168 Z-1.753
X-68.132 Y40.228 Z-1.824
X-68.145 Y40.299 Z-1.885
X-68.159 Y40.378 Z-1.935
X-68.174 Y40.463 Z-1.971
X-68.191 Y40.553 Z-1.993
X-68.207 Y40.646 Z-2.
G3 X-68.385 Y40.8 I-0.185 J-0.033
G1 X-70.87
X-71.071 Y40.79
X-71.301 Y40.76
X-71.573 Y40.701
X-71.868 Y40.613
X-72.184 Y40.49
X-72.546 Y40.315
X-72.911 Y40.099
X-73.327 Y39.807
X-73.762 Y39.446
X-74.229 Y38.991
X-74.734 Y38.411
X-75.235 Y37.735
X-75.684 Y37.024
X-76.088 Y36.287
X-76.454 Y35.529
X-76.785 Y34.756
X-77.085 Y33.971
X-77.358 Y33.175
X-77.605 Y32.371
X-77.83 Y31.561
X-78.066 Y30.599
X-78.096 Y30.395
X-78.1 Y30.293
Y11.418
X-78.014 Y9.739
X-77.927 Y8.902
X-77.807 Y8.07
X-77.66 Y7.242
X-77.491 Y6.418
X-77.303 Y5.598
X-77.096 Y4.783
X-76.871 Y3.972
X-76.628 Y3.168
X-76.361 Y2.37
X-76.064 Y1.583
X-75.801 Y1.001
X-75.646 Y0.722
X-75.475 Y0.478
X-75.256 Y0.276
X-75. Y0.125
X-74.717 Y0.032
X-74.421 Y0.
X-71.959
G3 X-71.445 Y0.873 I-0.021 J0.6
G1 X-76.966 Y11.671
G3 X-78.1 Y11.418 I-0.534 J-0.273
G1 Y3.012
X-78.063 Y2.271
X-78.004 Y1.819
X-77.913 Y1.394
X-77.805 Y1.035
X-77.75 Y0.892
X-77.623 Y0.643
X-77.449 Y0.424
X-77.235 Y0.244
X-76.99 Y0.11
X-76.723 Y0.028
X-76.445 Y0.
G3 X-75.915 Y0.838 I-0.021 J0.6
G1 X-76.95 Y3.229
G3 X-78.1 Y3.012 I-0.551 J-0.238
G1 Y0.719
X-78.093 Y0.528
X-78.07 Y0.432
X-78.029 Y0.337
X-77.941 Y0.212
X-77.874 Y0.146
X-77.75 Y0.063
X-77.654 Y0.025
X-77.558 Y0.005
X-74.421 Y0.
G3 X-74.193 Y0.054 I-0.021 J0.6
G1 X-74.108 Y0.093 Z-1.993
X-74.024 Y0.131 Z-1.971
X-73.945 Y0.167 Z-1.935
X-73.872 Y0.2 Z-1.885
X-73.807 Y0.23 Z-1.824
X-73.751 Y0.255 Z-1.753
X-73.707 Y0.275 Z-1.672
X-73.674 Y0.29 Z-1.585
X-73.654 Y0.299 Z-1.494
X-73.647 Y0.302 Z-1.4
G0 Z2.502
X-70.586 Y40.055
Z-0.8
G1 Z-1.4 F500.
X-70.587 Y40.062 Z-1.494
X-70.591 Y40.084 Z-1.585
X-70.597 Y40.119 Z-1.672
X-70.606 Y40.168 Z-1.753
X-70.617 Y40.228 Z-1.824
X-70.629 Y40.299 Z-1.885
X-70.643 Y40.378 Z-1.935
X-70.659 Y40.463 Z-1.971
X-70.675 Y40.553 Z-1.993
X-70.692 Y40.646 Z-2.
G3 X-70.87 Y40.8 I-0.185 J-0.033
G1 X-73.163
X-73.466 Y40.785
X-73.696 Y40.755
X-73.969 Y40.696
X-74.259 Y40.609
X-74.574 Y40.487
X-74.933 Y40.313
X-75.298 Y40.098
X-75.709 Y39.809
X-76.143 Y39.449
X-76.605 Y38.998
X-77.106 Y38.424
X-77.606 Y37.748
X-77.884 Y37.306
X-78.003 Y37.072
X-78.075 Y36.82
X-78.1 Y36.56
G3 X-77.115 Y36.121 I0.6 J0.021
G1 X-72.798 Y39.741
G3 X-73.163 Y40.8 I-0.386 J0.46
G1 X-75.647
X-75.844 Y40.79
X-76.073 Y40.76
X-76.346 Y40.702
X-76.635 Y40.615
X-76.951 Y40.492
X-77.308 Y40.319
X-77.41 Y40.259
X-77.644 Y40.086
X-77.837 Y39.869
X-77.981 Y39.617
X-78.07 Y39.341
X-78.1 Y39.052
G3 X-77.186 Y38.562 I0.6 J0.021
G1 X-75.354 Y39.689
G3 X-75.647 Y40.8 I-0.314 J0.511
G1 X-77.558 Y40.795
X-77.654 Y40.775
X-77.75 Y40.737
X-77.878 Y40.651
X-77.941 Y40.589
X-77.993 Y40.524
X-78.032 Y40.46
X-78.072 Y40.364
X-78.094 Y40.269
X-78.1 Y39.504
Y30.293
X-78.088 Y30.239 Z-1.993
X-78.077 Y30.188 Z-1.974
X-78.067 Y30.144 Z-1.943
X-78.059 Y30.107 Z-1.902
X-78.053 Y30.081 Z-1.853
X-78.048 Y30.069 Z-1.81
X-78.046 Y30.065 Z-1.764
G0 Z2.502
X-19.472 Y17.711
Z1.1
G1 Z0.5 F500.
G3 X-21.362 Y23.089 Z0.187 I-0.945 J2.689 F167.
X-19.472 Y17.711 Z-0.125 I0.945 J-2.689
X-21.362 Y23.089 Z-0.438 I-0.945 J2.689
X-19.472 Y17.711 Z-0.751 I0.945 J-2.689
X-21.362 Y23.089 Z-1.063 I-0.945 J2.689
X-19.472 Y17.711 Z-1.376 I0.945 J-2.689
X-21.362 Y23.089 Z-1.689 I-0.945 J2.689
X-19.472 Y17.711 Z-2.001 I0.945 J-2.689
X-21.362 Y23.089 Z-2.314 I-0.945 J2.689
X-19.472 Y17.711 Z-2.627 I0.945 J-2.689
X-21.362 Y23.089 Z-2.939 I-0.945 J2.689
X-19.472 Y17.711 Z-3.252 I0.945 J-2.689
X-21.362 Y23.089 Z-3.565 I-0.945 J2.689
X-19.472 Y17.711 Z-3.877 I0.945 J-2.689
X-17.567 Y20.4 Z-4. I-0.945 J2.689
X-23.267 I-2.85 J0.
X-17.567 I2.85 J0.
G1 X-17.564 Y20.61 F500.
X-17.426 Y21.44
X-17.386 Y21.537
X-17.346 Y21.666
X-17.319 Y21.798
X-17.304 Y21.932
X-17.3 Y22.075
X-17.309 Y22.229
X-17.331 Y22.393
X-17.368 Y22.565
X-17.422 Y22.744
X-17.495 Y22.929
X-17.587 Y23.116
X-17.699 Y23.305
X-17.831 Y23.493
X-17.985 Y23.677
X-18.16 Y23.856
X-18.356 Y24.026
X-18.573 Y24.185
X-18.809 Y24.33
X-19.062 Y24.46
X-19.333 Y24.572
X-19.618 Y24.664
X-19.917 Y24.735
X-20.226 Y24.782
X-20.544 Y24.805
X-20.867 Y24.802
X-21.195 Y24.773
X-21.522 Y24.717
X-21.848 Y24.634
X-22.17 Y24.523
X-22.484 Y24.386
X-22.789 Y24.223
X-23.082 Y24.035
X-23.361 Y23.822
X-23.623 Y23.587
X-23.867 Y23.33
X-24.09 Y23.053
X-24.291 Y22.758
X-24.468 Y22.446
X-24.62 Y22.121
X-24.746 Y21.783
X-24.844 Y21.436
X-24.915 Y21.081
X-24.956 Y20.722
X-24.969 Y20.359
X-24.953 Y19.996
X-24.907 Y19.635
X-24.833 Y19.279
X-24.73 Y18.929
X-24.6 Y18.589
X-24.442 Y18.26
X-24.258 Y17.944
X-24.05 Y17.644
X-23.818 Y17.362
X-23.564 Y17.099
X-23.289 Y16.857
X-22.997 Y16.638
X-22.687 Y16.443
X-22.362 Y16.274
X-22.025 Y16.131
X-21.678 Y16.015
X-21.322 Y15.928
X-20.961 Y15.87
X-20.595 Y15.841
X-20.229
X-19.864 Y15.87
X-19.502 Y15.929
X-19.147 Y16.017
X-18.799 Y16.133
X-18.462 Y16.277
X-18.137 Y16.447
X-17.827 Y16.642
X-17.534 Y16.862
X-17.26 Y17.105
X-17.005 Y17.369
X-16.773 Y17.652
X-16.564 Y17.954
X-16.26 Y18.478
X-15.921 Y19.188
X-15.714 Y19.731
X-15.571 Y20.218
X-15.478 Y20.667
X-15.424 Y21.101
X-15.406 Y21.521
X-15.421 Y21.928
X-15.468 Y22.326
X-15.545 Y22.714
X-15.654 Y23.094
X-15.792 Y23.464
X-15.961 Y23.823
X-16.159 Y24.17
X-16.386 Y24.502
X-16.641 Y24.818
X-16.924 Y25.116
X-17.234 Y25.394
X-17.569 Y25.649
X-17.929 Y25.879
X-18.312 Y26.083
X-18.715 Y26.258
X-19.136 Y26.402
X-19.573 Y26.513
X-20.023 Y26.589
X-20.483 Y26.63
X-20.95 Y26.633
X-21.42 Y26.599
X-21.891 Y26.526
X-22.357 Y26.415
X-22.817 Y26.266
X-23.266 Y26.079
X-23.702 Y25.855
X-24.121 Y25.596
X-24.52 Y25.302
X-24.896 Y24.975
X-25.246 Y24.617
X-25.568 Y24.231
X-25.858 Y23.819
X-26.116 Y23.383
X-26.339 Y22.926
X-26.524 Y22.452
X-26.672 Y21.963
X-26.78 Y21.463
X-26.847 Y20.954
X-26.874 Y20.441
X-26.859 Y19.927
X-26.803 Y19.415
X-26.706 Y18.908
X-26.569 Y18.41
X-26.391 Y17.925
X-26.176 Y17.455
X-25.923 Y17.003
X-25.634 Y16.573
X-25.312 Y16.167
X-24.958 Y15.788
X-24.574 Y15.439
X-24.164 Y15.121
X-23.729 Y14.838
X-23.273 Y14.59
X-22.798 Y14.379
X-22.308 Y14.207
X-21.805 Y14.076
X-21.294 Y13.984
X-20.776 Y13.934
X-20.256 Y13.926
X-19.738 Y13.96
X-19.223 Y14.035
X-18.716 Y14.151
X-18.221 Y14.308
X-17.739 Y14.503
X-17.274 Y14.737
X-16.83 Y15.007
X-16.409 Y15.313
X-15.977 Y15.681
X-15.531 Y16.13
X-15.111 Y16.625
X-14.723 Y17.167
X-14.379 Y17.738
X-14.088 Y18.323
X-13.851 Y18.914
X-13.667 Y19.507
X-13.534 Y20.099
X-13.45 Y20.69
X-13.415 Y21.276
X-13.427 Y21.858
X-13.485 Y22.43
X-13.588 Y22.993
X-13.735 Y23.544
X-13.925 Y24.079
X-14.158 Y24.598
X-14.432 Y25.097
X-14.747 Y25.574
X-15.1 Y26.026
X-15.49 Y26.451
X-15.917 Y26.845
X-16.377 Y27.207
X-16.868 Y27.534
X-17.389 Y27.822
X-17.935 Y28.07
X-18.505 Y28.275
X-19.094 Y28.435
X-19.699 Y28.548
X-20.315 Y28.612
X-20.939 Y28.627
X-21.566 Y28.592
X-22.193 Y28.506
X-22.815 Y28.369
X-23.427 Y28.181
X-24.026 Y27.943
X-24.607 Y27.657
X-25.167 Y27.323
X-25.7 Y26.943
X-26.203 Y26.52
X-26.672 Y26.056
X-27.104 Y25.555
X-27.496 Y25.018
X-27.845 Y24.449
X-28.148 Y23.853
X-28.403 Y23.233
X-28.607 Y22.592
X-28.76 Y21.936
X-28.86 Y21.269
X-28.906 Y20.595
X-28.898 Y19.918
X-28.835 Y19.243
X-28.719 Y18.575
X-28.549 Y17.917
X-28.326 Y17.275
X-28.052 Y16.652
X-27.73 Y16.053
X-27.359 Y15.481
X-26.944 Y14.94
X-26.487 Y14.434
X-25.99 Y13.967
X-25.457 Y13.54
X-24.892 Y13.158
X-24.297 Y12.822
X-23.678 Y12.535
X-23.037 Y12.299
X-22.379 Y12.114
X-21.708 Y11.983
X-21.029 Y11.906
X-20.346 Y11.884
X-19.663 Y11.917
X-18.985 Y12.005
X-18.316 Y12.147
X-17.661 Y12.342
X-17.023 Y12.589
X-16.397 Y12.891
X-15.776 Y13.255
X-15.167 Y13.681
X-14.577 Y14.169
X-14.017 Y14.713
X-13.496 Y15.309
X-13.022 Y15.946
X-12.602 Y16.619
X-12.239 Y17.32
X-11.935 Y18.042
X-11.693 Y18.78
X-11.512 Y19.528
X-11.392 Y20.282
X-11.335 Y21.038
X-11.338 Y21.79
X-11.4 Y22.536
X-11.523 Y23.271
X-11.703 Y23.992
X-11.94 Y24.695
X-12.232 Y25.376
X-12.579 Y26.032
X-12.977 Y26.659
X-13.426 Y27.254
X-13.923 Y27.813
X-14.466 Y28.332
X-15.052 Y28.809
X-15.677 Y29.24
X-16.339 Y29.621
X-17.034 Y29.949
X-17.756 Y30.223
X-18.503 Y30.439
X-19.27 Y30.595
X-20.05 Y30.69
X-20.841 Y30.722
X-21.636 Y30.69
X-22.43 Y30.594
X-23.217 Y30.434
X-23.993 Y30.21
X-24.753 Y29.923
X-25.49 Y29.575
X-26.199 Y29.166
X-26.877 Y28.701
X-27.517 Y28.18
X-28.115 Y27.608
X-28.667 Y26.988
X-29.17 Y26.323
X-29.618 Y25.619
X-30.009 Y24.878
X-30.341 Y24.107
X-30.61 Y23.311
X-30.814 Y22.495
X-30.953 Y21.665
X-31.024 Y20.827
X-31.029 Y19.986
X-30.966 Y19.148
X-30.837 Y18.317
X-30.642 Y17.499
X-30.383 Y16.699
X-30.061 Y15.922
X-29.678 Y15.173
X-29.238 Y14.456
X-28.742 Y13.777
X-28.193 Y13.14
X-27.596 Y12.547
X-26.954 Y12.004
X-26.271 Y11.514
X-25.551 Y11.079
X-24.799 Y10.702
X-24.02 Y10.386
X-23.218 Y10.133
X-22.398 Y9.944
X-21.566 Y9.82
X-20.727 Y9.763
X-19.886 Y9.771
X-19.049 Y9.847
X-18.22 Y9.988
X-17.404 Y10.194
X-16.608 Y10.464
X-15.834 Y10.794
X-15.089 Y11.183
X-14.374 Y11.626
X-13.694 Y12.121
X-13.051 Y12.663
X-12.448 Y13.25
X-11.889 Y13.878
X-11.377 Y14.545
X-10.914 Y15.247
X-10.502 Y15.98
X-10.142 Y16.741
X-9.837 Y17.524
X-9.588 Y18.328
X-9.397 Y19.146
X-9.264 Y19.977
X-9.193 Y20.815
X-9.184 Y21.656
X-9.236 Y22.495
X-9.351 Y23.328
X-9.526 Y24.151
X-9.761 Y24.959
X-10.055 Y25.747
X-10.406 Y26.511
X-10.811 Y27.248
X-11.27 Y27.953
X-11.778 Y28.622
X-12.334 Y29.253
X-12.936 Y29.841
X-13.579 Y30.383
X-14.26 Y30.877
X-14.975 Y31.319
X-15.72 Y31.709
X-16.491 Y32.045
X-17.284 Y32.326
X-18.094 Y32.55
X-18.919 Y32.717
X-19.753 Y32.825
X-20.592 Y32.872
X-21.433 Y32.86
X-22.271 Y32.789
X-23.103 Y32.661
X-23.923 Y32.477
X-24.729 Y32.238
X-25.517 Y31.943
X-26.282 Y31.593
X-27.021 Y31.192
X-27.731 Y30.741
X-28.41 Y30.245
X-29.054 Y29.704
X-29.66 Y29.121
X-30.224 Y28.497
X-30.744 Y27.836
X-31.219 Y27.143
X-31.648 Y26.419
X-32.028 Y25.669
X-32.357 Y24.895
X-32.632 Y24.1
X-32.854 Y23.289
X-33.021 Y22.464
X-33.134 Y21.631
X-33.193 Y20.792
X-33.195 Y19.951
X-33.14 Y19.112
X-33.03 Y18.278
X-32.865 Y17.454
X-32.647 Y16.641
X-32.377 Y15.845
X-32.054 Y15.068
X-31.68 Y14.315
X-31.256 Y13.589
X-30.786 Y12.891
X-30.272 Y12.226
X-29.716 Y11.595
X-29.119 Y11.002
X-28.483 Y10.452
X-27.812 Y9.944
X-27.11 Y9.482
X-26.38 Y9.065
X-25.624 Y8.696
X-24.845 Y8.379
X-24.046 Y8.116
X-23.232 Y7.905
X-22.406 Y7.747
X-21.571 Y7.643
X-20.732 Y7.594
X-19.891 Y7.601
X-19.052 Y7.664
X-18.219 Y7.782
X-17.396 Y7.954
X-16.585 Y8.177
X-15.791 Y8.452
X-15.016 Y8.779
X-14.264 Y9.155
X-13.537 Y9.578
X-12.837 Y10.044
X-12.166 Y10.552
X-11.527 Y11.099
X-10.924 Y11.685
X-10.358 Y12.307
X-9.831 Y12.962
X-9.345 Y13.648
X-8.899 Y14.362
X-8.497 Y15.1
X-8.139 Y15.861
X-7.829 Y16.643
X-7.567 Y17.442
X-7.353 Y18.256
X-7.189 Y19.08
X-7.074 Y19.914
X-7.01 Y20.752
X-6.999 Y21.593
X-7.041 Y22.433
X-7.134 Y23.269
X-7.278 Y24.097
X-7.473 Y24.916
X-7.716 Y25.721
X-8.009 Y26.509
X-8.351 Y27.277
X-8.74 Y28.023
X-9.174 Y28.743
X-9.651 Y29.436
X-10.168 Y30.099
X-10.726 Y30.728
X-11.323 Y31.321
X-11.955 Y31.875
X-12.62 Y32.39
X-13.315 Y32.864
X-14.037 Y33.296
X-14.783 Y33.683
X-15.552 Y34.024
X-16.34 Y34.318
X-17.145 Y34.563
X-17.962 Y34.76
X-18.79 Y34.909
X-19.625 Y35.008
X-20.465 Y35.057
X-21.306 Y35.055
X-22.145 Y35.003
X-22.98 Y34.903
X-23.808 Y34.754
X-24.626 Y34.558
X-25.431 Y34.315
X-26.219 Y34.023
X-26.99 Y33.686
X-27.739 Y33.304
X-28.465 Y32.88
X-29.166 Y32.415
X-29.84 Y31.912
X-30.484 Y31.371
X-31.094 Y30.792
X-31.67 Y30.179
X-32.209 Y29.534
X-32.711 Y28.859
X-33.175 Y28.158
X-33.6 Y27.431
X-33.981 Y26.682
X-34.317 Y25.911
X-34.609 Y25.122
X-34.856 Y24.318
X-35.057 Y23.502
X-35.214 Y22.675
X-35.324 Y21.842
X-35.385 Y21.003
X-35.397 Y20.162
X-35.362 Y19.322
X-35.28 Y18.485
X-35.151 Y17.654
X-34.977 Y16.831
X-34.758 Y16.019
X-34.492 Y15.221
X-34.18 Y14.44
X-33.824 Y13.678
X-33.427 Y12.937
X-32.989 Y12.219
X-32.513 Y11.525
X-31.999 Y10.86
X-31.447 Y10.226
X-30.859 Y9.624
X-30.239 Y9.056
X-29.588 Y8.524
X-28.908 Y8.028
X-28.203 Y7.57
X-27.473 Y7.153
X-26.72 Y6.778
X-25.947 Y6.447
X-25.156 Y6.161
X-24.351 Y5.918
X-23.533 Y5.72
X-22.707 Y5.566
X-21.872 Y5.46
X-21.033 Y5.403
X-20.192 Y5.393
X-19.352 Y5.43
X-18.515 Y5.514
X-17.684 Y5.643
X-16.861 Y5.817
X-16.05 Y6.037
X-15.252 Y6.303
X-14.47 Y6.613
X-13.706 Y6.965
X-12.962 Y7.357
X-12.24 Y7.787
X-11.541 Y8.255
X-10.868 Y8.759
X-10.223 Y9.299
X-9.609 Y9.874
X-9.025 Y10.479
X-8.474 Y11.115
X-7.956 Y11.777
X-7.473 Y12.465
X-7.025 Y13.177
X-6.617 Y13.912
X-6.247 Y14.668
X-5.918 Y15.442
X-5.63 Y16.232
X-5.382 Y17.036
X-5.176 Y17.851
X-5.011 Y18.676
X-4.892 Y19.508
X-4.818 Y20.346
X-4.788 Y21.186
X-4.803 Y22.027
X-4.862 Y22.866
X-4.964 Y23.701
X-5.109 Y24.529
X-5.299 Y25.349
X-5.533 Y26.157
X-5.809 Y26.951
X-6.128 Y27.729
X-6.487 Y28.489
X-6.885 Y29.23
X-7.321 Y29.95
X-7.794 Y30.645
X-8.305 Y31.313
X-8.851 Y31.953
X-9.43 Y32.562
X-10.041 Y33.141
X-10.68 Y33.687
X-11.347 Y34.199
X-12.04 Y34.676
X-12.757 Y35.115
X-13.497 Y35.515
X-14.257 Y35.876
X-15.034 Y36.197
X-15.827 Y36.478
X-16.633 Y36.718
X-17.45 Y36.917
X-18.277 Y37.072
X-19.11 Y37.183
X-19.948 Y37.251
X-20.789 Y37.276
X-21.63 Y37.258
X-22.469 Y37.199
X-23.304 Y37.097
X-24.132 Y36.953
X-24.952 Y36.766
X-25.761 Y36.537
X-26.558 Y36.267
X-27.34 Y35.957
X-28.105 Y35.609
X-28.853 Y35.224
X-29.58 Y34.802
X-30.285 Y34.344
X-30.966 Y33.85
X-31.621 Y33.322
X-32.249 Y32.762
X-32.848 Y32.172
X-33.417 Y31.553
X-33.956 Y30.907
X-34.462 Y30.235
X-34.933 Y29.539
X-35.369 Y28.82
X-35.768 Y28.079
X-36.13 Y27.32
X-36.454 Y26.544
X-36.741 Y25.754
X-36.988 Y24.95
X-37.196 Y24.135
X-37.363 Y23.311
X-37.488 Y22.479
X-37.571 Y21.642
X-37.614 Y20.802
X-37.615 Y19.961
X-37.577 Y19.121
X-37.497 Y18.284
X-37.376 Y17.452
X-37.214 Y16.626
X-37.011 Y15.81
X-36.768 Y15.005
X-36.486 Y14.213
X-36.166 Y13.435
X-35.809 Y12.674
X-35.415 Y11.93
X-34.985 Y11.207
X-34.52 Y10.507
X-34.021 Y9.83
X-33.489 Y9.179
X-32.926 Y8.554
X-32.333 Y7.957
X-31.713 Y7.39
X-31.065 Y6.853
X-30.392 Y6.349
X-29.695 Y5.879
X-28.975 Y5.444
X-28.235 Y5.044
X-27.476 Y4.681
X-26.701 Y4.355
X-25.911 Y4.066
X-25.108 Y3.817
X-24.293 Y3.608
X-23.47 Y3.439
X-22.638 Y3.311
X-21.802 Y3.223
X-20.962 Y3.177
X-20.121 Y3.17
X-19.281 Y3.204
X-18.443 Y3.279
X-17.61 Y3.395
X-16.784 Y3.552
X-15.966 Y3.749
X-15.159 Y3.985
X-14.364 Y4.259
X-13.583 Y4.57
X-12.817 Y4.917
X-12.068 Y5.301
X-11.339 Y5.72
X-10.63 Y6.173
X-9.944 Y6.658
X-9.28 Y7.175
X-8.641 Y7.722
X-8.028 Y8.298
X-7.442 Y8.901
X-6.884 Y9.53
X-6.357 Y10.185
X-5.86 Y10.863
X-5.394 Y11.564
X-4.961 Y12.285
X-4.562 Y13.025
X-4.196 Y13.782
X-3.865 Y14.555
X-3.57 Y15.343
X-3.311 Y16.143
X-3.09 Y16.955
X-2.907 Y17.775
X-2.762 Y18.604
X-2.654 Y19.438
X-2.586 Y20.276
X-2.555 Y21.117
X-2.564 Y21.958
X-2.612 Y22.797
X-2.699 Y23.634
X-2.825 Y24.465
X-2.99 Y25.29
X-3.192 Y26.106
X-3.432 Y26.912
X-3.708 Y27.706
X-4.022 Y28.487
X-4.371 Y29.252
X-4.756 Y30.
X-5.175 Y30.729
X-5.628 Y31.437
X-6.113 Y32.124
X-6.629 Y32.788
X-7.176 Y33.428
X-7.751 Y34.041
X-8.354 Y34.627
X-8.985 Y35.184
X-9.64 Y35.711
X-10.319 Y36.208
X-11.019 Y36.673
X-11.741 Y37.105
X-12.481 Y37.504
X-13.239 Y37.869
X-14.012 Y38.199
X-14.801 Y38.492
X-15.601 Y38.749
X-16.413 Y38.97
X-17.234 Y39.153
X-18.062 Y39.299
X-18.896 Y39.408
X-19.734 Y39.479
X-20.574 Y39.512
X-21.415 Y39.507
X-22.255 Y39.463
X-23.092 Y39.383
X-23.925 Y39.264
X-24.751 Y39.109
X-25.57 Y38.917
X-26.379 Y38.689
X-27.178 Y38.424
X-27.964 Y38.125
X-28.735 Y37.79
X-29.491 Y37.421
X-30.23 Y37.02
X-30.95 Y36.586
X-31.651 Y36.121
X-32.331 Y35.625
X-32.988 Y35.1
X-33.621 Y34.547
X-34.229 Y33.965
X-34.81 Y33.358
X-35.365 Y32.725
X-35.891 Y32.069
X-36.388 Y31.391
X-36.855 Y30.692
X-37.291 Y29.973
X-37.695 Y29.235
X-38.066 Y28.48
X-38.404 Y27.71
X-38.707 Y26.926
X-38.976 Y26.129
X-39.211 Y25.321
X-39.41 Y24.504
X-39.574 Y23.679
X-39.701 Y22.848
X-39.792 Y22.012
X-39.846 Y21.173
X-39.864 Y20.332
X-39.845 Y19.491
X-39.789 Y18.652
X-39.698 Y17.816
X-39.57 Y16.984
X-39.407 Y16.159
X-39.209 Y15.342
X-38.974 Y14.535
X-38.704 Y13.738
X-38.4 Y12.954
X-38.063 Y12.184
X-37.692 Y11.429
X-37.29 Y10.69
X-36.856 Y9.97
X-36.391 Y9.269
X-35.897 Y8.589
X-35.372 Y7.931
X-34.82 Y7.297
X-34.241 Y6.687
X-33.636 Y6.102
X-33.007 Y5.544
X-32.354 Y5.014
X-31.68 Y4.512
X-30.984 Y4.04
X-30.268 Y3.599
X-29.533 Y3.189
X-28.781 Y2.812
X-28.014 Y2.467
X-27.233 Y2.156
X-26.439 Y1.879
X-25.634 Y1.635
X-24.819 Y1.427
X-23.996 Y1.254
X-23.166 Y1.117
X-22.331 Y1.017
X-21.493 Y0.953
X-20.652 Y0.925
X-19.811 Y0.933
X-18.972 Y0.977
X-18.134 Y1.057
X-17.301 Y1.172
X-16.474 Y1.323
X-15.654 Y1.51
X-14.843 Y1.732
X-14.042 Y1.989
X-13.252 Y2.279
X-12.476 Y2.601
X-11.713 Y2.956
X-10.966 Y3.343
X-10.236 Y3.76
X-9.524 Y4.207
X-8.831 Y4.684
X-8.159 Y5.19
X-7.509 Y5.723
X-6.881 Y6.282
X-6.276 Y6.867
X-5.696 Y7.475
X-5.141 Y8.107
X-4.612 Y8.761
X-4.11 Y9.436
X-3.637 Y10.131
X-3.193 Y10.846
X-2.778 Y11.577
X-2.394 Y12.325
X-2.04 Y13.088
X-1.717 Y13.865
X-1.426 Y14.654
X-1.167 Y15.454
X-0.941 Y16.264
X-0.75 Y17.083
X-0.592 Y17.909
X-0.469 Y18.741
X-0.379 Y19.577
X-0.324 Y20.416
X-0.304 Y21.257
X-0.317 Y22.098
X-0.365 Y22.938
X-0.448 Y23.775
X-0.566 Y24.607
X-0.718 Y25.434
X-0.905 Y26.254
X-1.125 Y27.066
X-1.378 Y27.868
X-1.664 Y28.659
X-1.982 Y29.438
X-2.331 Y30.203
X-2.712 Y30.952
X-3.124 Y31.685
X-3.567 Y32.401
X-4.039 Y33.097
X-4.539 Y33.773
X-5.066 Y34.428
X-5.62 Y35.061
X-6.199 Y35.671
X-6.802 Y36.257
X-7.429 Y36.817
X-8.079 Y37.351
X-8.751 Y37.857
X-9.443 Y38.335
X-10.154 Y38.784
X-10.882 Y39.205
X-11.627 Y39.595
X-12.387 Y39.955
X-13.161 Y40.284
X-13.948 Y40.581
X-14.396 Y40.729
X-14.539 Y40.768
X-14.687 Y40.792
X-14.836 Y40.8
X-24.812
X-25.652 Y40.758
X-26.071 Y40.718
X-26.879 Y40.608
X-27.7 Y40.428
X-28.507 Y40.191
X-29.298 Y39.905
X-30.073 Y39.577
X-30.83 Y39.212
X-31.569 Y38.811
X-32.291 Y38.378
X-32.993 Y37.915
X-33.675 Y37.423
X-34.336 Y36.904
X-34.975 Y36.357
X-35.592 Y35.785
X-36.185 Y35.189
X-36.753 Y34.569
X-37.297 Y33.927
X-37.815 Y33.265
X-38.307 Y32.583
X-38.772 Y31.882
X-39.21 Y31.164
X-39.619 Y30.429
X-39.998 Y29.678
X-40.347 Y28.913
X-40.665 Y28.135
X-40.953 Y27.345
X-41.211 Y26.544
X-41.437 Y25.734
X-41.631 Y24.916
X-41.794 Y24.091
X-41.925 Y23.26
X-42.023 Y22.425
X-42.087 Y21.586
X-42.119 Y20.746
X-42.118 Y19.905
X-42.084 Y19.064
X-42.018 Y18.226
X-41.92 Y17.391
X-41.789 Y16.56
X-41.627 Y15.735
X-41.433 Y14.916
X-41.206 Y14.107
X-40.948 Y13.306
X-40.658 Y12.517
X-40.339 Y11.739
X-39.989 Y10.974
X-39.611 Y10.223
X-39.204 Y9.487
X-38.769 Y8.767
X-38.306 Y8.065
X-37.816 Y7.381
X-37.3 Y6.717
X-36.758 Y6.074
X-36.191 Y5.453
X-35.601 Y4.854
X-34.988 Y4.277
X-34.354 Y3.725
X-33.699 Y3.198
X-33.024 Y2.696
X-32.331 Y2.22
X-31.619 Y1.773
X-30.89 Y1.353
X-30.145 Y0.963
X-29.385 Y0.602
X-28.613 Y0.27
X-28.154 Y0.093
X-27.991 Y0.042
X-27.823 Y0.01
X-27.652 Y0.
X-15.257
X-14.417 Y0.042
X-13.999 Y0.091
X-13.224 Y0.219
X-12.408 Y0.423
X-11.608 Y0.684
X-10.827 Y0.994
X-10.063 Y1.347
X-9.318 Y1.737
X-8.592 Y2.161
X-7.885 Y2.616
X-7.197 Y3.101
X-6.53 Y3.612
X-5.882 Y4.149
X-5.256 Y4.711
X-4.652 Y5.295
X-4.069 Y5.902
X-3.51 Y6.53
X-2.974 Y7.178
X-2.464 Y7.847
X-1.979 Y8.534
X-1.52 Y9.239
X-1.087 Y9.96
X-0.681 Y10.696
X-0.302 Y11.447
X-0.128 Y11.824
X-0.057 Y12.012
X-0.014 Y12.208
X0. Y12.409
Y28.232
X-0.033 Y28.891
X-0.113 Y29.501
X-0.265 Y30.209
X-0.506 Y31.015
X-0.811 Y31.799
X-1.167 Y32.561
X-1.566 Y33.301
X-2.003 Y34.02
X-2.473 Y34.717
X-2.973 Y35.393
X-3.501 Y36.048
X-4.055 Y36.681
X-4.633 Y37.292
X-5.234 Y37.88
X-5.857 Y38.445
X-6.501 Y38.985
X-7.166 Y39.501
X-7.849 Y39.991
X-8.551 Y40.455
X-8.781 Y40.595
X-9.01 Y40.708
X-9.256 Y40.777
X-9.51 Y40.8
X-14.836
G3 X-15.201 Y39.741 I0.021 J-0.6
G1 X-0.986 Y27.793
G3 X0. Y28.232 I0.386 J0.459
G1 Y32.626
X-0.026 Y33.146
X-0.081 Y33.566
X-0.183 Y34.041
X-0.347 Y34.588
X-0.595 Y35.226
X-0.949 Y35.956
X-1.376 Y36.681
X-1.852 Y37.375
X-2.367 Y38.039
X-2.916 Y38.676
X-3.494 Y39.287
X-4.098 Y39.872
X-4.782 Y40.479
X-5.052 Y40.654
X-5.354 Y40.763
X-5.674 Y40.8
X-9.51
G3 X-9.878 Y39.743 I0.021 J-0.6
G1 X-0.988 Y32.19
G3 X0. Y32.626 I0.389 J0.457
G1 Y36.256
X-0.019 Y36.641
X-0.066 Y36.998
X-0.149 Y37.385
X-0.286 Y37.841
X-0.483 Y38.349
X-0.762 Y38.924
X-1.149 Y39.581
X-1.649 Y40.29
X-1.87 Y40.505
X-2.133 Y40.666
X-2.424 Y40.766
X-2.73 Y40.8
G3 X-3.238 Y39.916 I0.021 J-0.6
G1 X-1.128 Y35.993
G3 X0. Y36.256 I0.528 J0.284
G1 Y39.504
X-0.009 Y39.68
X-0.085 Y39.978
X-0.23 Y40.25
X-0.436 Y40.48
X-0.691 Y40.654
X-0.979 Y40.763
X-1.286 Y40.8
G3 X-1.692 Y39.779 I0.021 J-0.6
G1 X-1.027 Y39.104
G3 X0. Y39.504 I0.427 J0.421
G1 X-0.006 Y40.269
X-0.028 Y40.364
X-0.068 Y40.46
X-0.107 Y40.524
X-0.159 Y40.589
X-0.222 Y40.651
X-0.35 Y40.737
X-0.446 Y40.775
X-0.542 Y40.795
X-5.674 Y40.8
G3 X-5.902 Y40.746 I0.021 J-0.6
G1 X-5.987 Y40.707 Z-3.993
X-6.07 Y40.669 Z-3.971
X-6.15 Y40.633 Z-3.935
X-6.223 Y40.6 Z-3.885
X-6.288 Y40.57 Z-3.824
X-6.343 Y40.545 Z-3.753
X-6.388 Y40.525 Z-3.672
X-6.421 Y40.51 Z-3.585
X-6.441 Y40.501 Z-3.494
X-6.448 Y40.498 Z-3.4
G0 Z2.502
X-15.541 Y0.745
Z-2.8
G1 Z-3.4 F500.
X-15.54 Y0.738 Z-3.494
X-15.536 Y0.716 Z-3.585
X-15.529 Y0.681 Z-3.672
X-15.521 Y0.632 Z-3.753
X-15.51 Y0.572 Z-3.824
X-15.497 Y0.501 Z-3.885
X-15.483 Y0.422 Z-3.935
X-15.468 Y0.337 Z-3.971
X-15.452 Y0.247 Z-3.993
X-15.435 Y0.154 Z-4.
G3 X-15.257 Y0. I0.185 J0.033
G1 X-10.288
X-9.682 Y0.03
X-9.223 Y0.091
X-8.712 Y0.2
X-8.109 Y0.38
X-7.408 Y0.654
X-6.651 Y1.021
X-5.924 Y1.443
X-5.225 Y1.911
X-4.552 Y2.415
X-3.903 Y2.951
X-3.28 Y3.515
X-2.679 Y4.104
X-2.103 Y4.716
X-1.55 Y5.35
X-1.02 Y6.003
X-0.514 Y6.674
X-0.254 Y7.046
X-0.115 Y7.294
X-0.029 Y7.566
X0. Y7.849
Y12.409
G3 X-1.064 Y12.769 I-0.6 J-0.021
G1 X-10.731 Y0.98
G3 X-10.288 Y0. I0.464 J-0.38
G1 X-6.466
X-6.018 Y0.022
X-5.644 Y0.072
X-5.235 Y0.159
X-4.754 Y0.303
X-4.207 Y0.516
X-3.594 Y0.814
X-2.886 Y1.23
X-2.198 Y1.714
X-1.544 Y2.243
X-0.921 Y2.808
X-0.408 Y3.323
X-0.235 Y3.534
X-0.106 Y3.776
X-0.027 Y4.038
X0. Y4.311
Y7.849
G3 X-1.066 Y8.205 I-0.6 J-0.021
G1 X-6.912 Y0.977
G3 X-6.466 Y0. I0.467 J-0.377
G1 X-3.217
X-2.774 Y0.022
X-2.448 Y0.065
X-2.086 Y0.142
X-1.669 Y0.267
X-1.202 Y0.449
X-0.69 Y0.703
X-0.456 Y0.875
X-0.263 Y1.092
X-0.119 Y1.344
X-0.03 Y1.621
X0. Y1.909
G3 X-0.866 Y2.426 I-0.6 J-0.021
G1 X-3.463 Y1.137
G3 X-3.217 Y0. I0.267 J-0.537
G1 X-0.628 Y0.003
X-0.513 Y0.011
X-0.446 Y0.025
X-0.35 Y0.063
X-0.226 Y0.146
X-0.109 Y0.274
X-0.071 Y0.337
X-0.03 Y0.432
X-0.007 Y0.528
X0. Y1.101
Y4.311
G3 X-0.054 Y4.539 I-0.6 J-0.021
G1 X-0.093 Y4.624 Z-3.993
X-0.131 Y4.707 Z-3.971
X-0.167 Y4.787 Z-3.935
X-0.2 Y4.86 Z-3.885
X-0.23 Y4.925 Z-3.824
X-0.255 Y4.98 Z-3.753
X-0.275 Y5.025 Z-3.672
X-0.29 Y5.058 Z-3.585
X-0.299 Y5.078 Z-3.494
X-0.302 Y5.085 Z-3.4
G0 Z2.502
X-24.528 Y40.055
Z-2.8
G1 Z-3.4 F500.
X-24.53 Y40.062 Z-3.494
X-24.534 Y40.084 Z-3.585
X-24.54 Y40.119 Z-3.672
X-24.549 Y40.168 Z-3.753
X-24.559 Y40.228 Z-3.824
X-24.572 Y40.299 Z-3.885
X-24.586 Y40.378 Z-3.935
X-24.602 Y40.463 Z-3.971
X-24.618 Y40.553 Z-3.993
X-24.634 Y40.646 Z-4.
G3 X-24.812 Y40.8 I-0.185 J-0.033
G1 X-30.163
X-30.791 Y40.769
X-31.249 Y40.709
X-31.795 Y40.592
X-32.415 Y40.406
X-33.127 Y40.129
X-33.884 Y39.761
X-34.611 Y39.34
X-35.311 Y38.873
X-35.985 Y38.37
X-36.633 Y37.834
X-37.256 Y37.269
X-37.855 Y36.679
X-38.43 Y36.065
X-38.981 Y35.43
X-39.508 Y34.774
X-40.01 Y34.099
X-40.486 Y33.406
X-40.936 Y32.696
X-41.361 Y31.97
X-41.759 Y31.229
X-42.13 Y30.474
X-42.475 Y29.707
X-42.792 Y28.928
X-43.082 Y28.139
X-43.344 Y27.34
X-43.577 Y26.532
X-43.781 Y25.716
X-43.956 Y24.893
X-44.102 Y24.065
X-44.218 Y23.232
X-44.305 Y22.395
X-44.362 Y21.556
X-44.39 Y20.716
X-44.389 Y19.875
X-44.358 Y19.034
X-44.298 Y18.196
X-44.209 Y17.359
X-44.089 Y16.527
X-43.94 Y15.699
X-43.762 Y14.877
X-43.555 Y14.062
X-43.32 Y13.255
X-43.056 Y12.456
X-42.765 Y11.667
X-42.447 Y10.889
X-42.101 Y10.122
X-41.729 Y9.368
X-41.331 Y8.627
X-40.906 Y7.901
X-40.456 Y7.191
X-39.981 Y6.496
X-39.482 Y5.819
X-38.96 Y5.16
X-38.415 Y4.52
X-37.848 Y3.899
X-37.26 Y3.297
X-36.652 Y2.717
X-36.023 Y2.158
X-35.375 Y1.623
X-34.708 Y1.11
X-34.023 Y0.621
X-33.322 Y0.157
X-33.148 Y0.071
X-32.96 Y0.018
X-32.766 Y0.
X-27.652
G3 X-27.424 Y0.054 I-0.021 J0.6
G1 X-27.338 Y0.093 Z-3.993
X-27.255 Y0.131 Z-3.971
X-27.176 Y0.167 Z-3.935
X-27.103 Y0.2 Z-3.885
X-27.038 Y0.23 Z-3.824
X-26.982 Y0.255 Z-3.753
X-26.937 Y0.275 Z-3.672
X-26.904 Y0.29 Z-3.585
X-26.884 Y0.299 Z-3.494
X-26.878 Y0.302 Z-3.4
G0 Z2.502
X-29.88 Y40.055
Z-2.8
G1 Z-3.4 F500.
X-29.881 Y40.062 Z-3.494
X-29.885 Y40.084 Z-3.585
X-29.891 Y40.119 Z-3.672
X-29.9 Y40.168 Z-3.753
X-29.911 Y40.228 Z-3.824
X-29.923 Y40.299 Z-3.885
X-29.937 Y40.378 Z-3.935
X-29.953 Y40.463 Z-3.971
X-29.969 Y40.553 Z-3.993
X-29.985 Y40.646 Z-4.
G3 X-30.163 Y40.8 I-0.185 J-0.033
G1 X-34.177
X-34.488 Y40.784
X-34.866 Y40.735
X-35.275 Y40.647
X-35.759 Y40.502
X-36.304 Y40.29
X-36.918 Y39.992
X-37.625 Y39.576
X-38.313 Y39.092
X-38.967 Y38.563
X-39.589 Y37.997
X-40.182 Y37.401
X-40.746 Y36.778
X-41.285 Y36.131
X-41.797 Y35.465
X-42.284 Y34.779
X-42.746 Y34.076
X-43.183 Y33.357
X-43.594 Y32.624
X-43.98 Y31.877
X-44.342 Y31.117
X-44.678 Y30.347
X-44.989 Y29.565
X-45.274 Y28.774
X-45.534 Y27.974
X-45.768 Y27.166
X-45.976 Y26.351
X-46.157 Y25.53
X-46.311 Y24.703
X-46.437 Y23.872
X-46.537 Y23.037
X-46.61 Y22.199
X-46.656 Y21.359
X-46.675 Y20.518
X-46.668 Y19.678
X-46.633 Y18.837
X-46.572 Y17.998
X-46.484 Y17.162
X-46.369 Y16.329
X-46.227 Y15.5
X-46.058 Y14.676
X-45.863 Y13.858
X-45.641 Y13.047
X-45.394 Y12.243
X-45.121 Y11.448
X-44.823 Y10.661
X-44.5 Y9.885
X-44.152 Y9.119
X-43.78 Y8.365
X-43.384 Y7.623
X-42.965 Y6.894
X-42.522 Y6.179
X-42.056 Y5.479
X-41.568 Y4.794
X-41.058 Y4.125
X-40.526 Y3.473
X-39.975 Y2.838
X-39.404 Y2.221
X-38.813 Y1.622
X-38.204 Y1.043
X-37.576 Y0.483
X-37.388 Y0.326
X-37.188 Y0.187
X-36.968 Y0.084
X-36.732 Y0.021
X-36.49 Y0.
X-32.766
G3 X-32.538 Y0.054 I-0.021 J0.6
G1 X-32.453 Y0.093 Z-3.993
X-32.37 Y0.131 Z-3.971
X-32.29 Y0.167 Z-3.935
X-32.217 Y0.2 Z-3.885
X-32.152 Y0.23 Z-3.824
X-32.097 Y0.255 Z-3.753
X-32.052 Y0.275 Z-3.672
X-32.019 Y0.29 Z-3.585
X-31.999 Y0.299 Z-3.494
X-31.992 Y0.302 Z-3.4
G0 Z2.502
X-33.893 Y40.055
Z-2.8
G1 Z-3.4 F500.
X-33.894 Y40.062 Z-3.494
X-33.898 Y40.084 Z-3.585
X-33.904 Y40.119 Z-3.672
X-33.913 Y40.168 Z-3.753
X-33.924 Y40.228 Z-3.824
X-33.936 Y40.299 Z-3.885
X-33.951 Y40.378 Z-3.935
X-33.966 Y40.463 Z-3.971
X-33.982 Y40.553 Z-3.993
X-33.999 Y40.646 Z-4.
G3 X-34.177 Y40.8 I-0.185 J-0.033
G1 X-37.426
X-37.736 Y40.784
X-38.061 Y40.742
X-38.423 Y40.664
X-38.84 Y40.54
X-39.303 Y40.359
X-39.824 Y40.107
X-40.418 Y39.757
X-41.086 Y39.287
X-41.733 Y38.75
X-42.342 Y38.17
X-42.916 Y37.556
X-43.459 Y36.913
X-43.971 Y36.247
X-44.456 Y35.559
X-44.914 Y34.854
X-45.346 Y34.132
X-45.753 Y33.397
X-46.136 Y32.648
X-46.495 Y31.887
X-46.83 Y31.116
X-47.141 Y30.334
X-47.428 Y29.544
X-47.691 Y28.745
X-47.93 Y27.939
X-48.145 Y27.126
X-48.335 Y26.306
X-48.499 Y25.482
X-48.639 Y24.652
X-48.754 Y23.819
X-48.844 Y22.983
X-48.91 Y22.145
X-48.951 Y21.305
X-48.967 Y20.464
X-48.959 Y19.623
X-48.926 Y18.782
X-48.869 Y17.943
X-48.786 Y17.106
X-48.679 Y16.272
X-48.546 Y15.442
X-48.389 Y14.616
X-48.207 Y13.794
X-48.001 Y12.979
X-47.772 Y12.17
X-47.518 Y11.368
X-47.242 Y10.574
X-46.942 Y9.788
X-46.619 Y9.011
X-46.274 Y8.244
X-45.907 Y7.488
X-45.517 Y6.743
X-45.105 Y6.01
X-44.671 Y5.289
X-44.216 Y4.582
X-43.74 Y3.888
X-43.244 Y3.209
X-42.729 Y2.545
X-42.194 Y1.896
X-41.641 Y1.263
X-41.069 Y0.646
X-40.846 Y0.419
X-40.633 Y0.241
X-40.389 Y0.109
X-40.123 Y0.028
X-39.847 Y0.
X-36.49
G3 X-36.262 Y0.054 I-0.021 J0.6
G1 X-36.177 Y0.093 Z-3.993
X-36.093 Y0.131 Z-3.971
X-36.014 Y0.167 Z-3.935
X-35.941 Y0.2 Z-3.885
X-35.876 Y0.23 Z-3.824
X-35.82 Y0.255 Z-3.753
X-35.776 Y0.275 Z-3.672
X-35.743 Y0.29 Z-3.585
X-35.723 Y0.299 Z-3.494
X-35.716 Y0.302 Z-3.4
G0 Z2.502
X-37.142 Y40.055
Z-2.8
G1 Z-3.4 F500.
X-37.143 Y40.062 Z-3.494
X-37.147 Y40.084 Z-3.585
X-37.153 Y40.119 Z-3.672
X-37.162 Y40.168 Z-3.753
X-37.173 Y40.228 Z-3.824
X-37.185 Y40.299 Z-3.885
X-37.199 Y40.378 Z-3.935
X-37.215 Y40.463 Z-3.971
X-37.231 Y40.553 Z-3.993
X-37.248 Y40.646 Z-4.
G3 X-37.426 Y40.8 I-0.185 J-0.033
G1 X-40.483
X-40.724 Y40.788
X-41.013 Y40.75
X-41.354 Y40.677
X-41.727 Y40.565
X-42.153 Y40.4
X-42.617 Y40.175
X-43.147 Y39.862
X-43.737 Y39.448
X-44.384 Y38.911
X-44.986 Y38.324
X-45.548 Y37.698
X-46.075 Y37.042
X-46.569 Y36.361
X-47.033 Y35.66
X-47.469 Y34.941
X-47.879 Y34.207
X-48.265 Y33.459
X-48.626 Y32.7
X-48.963 Y31.929
X-49.277 Y31.149
X-49.569 Y30.36
X-49.837 Y29.563
X-50.083 Y28.759
X-50.305 Y27.948
X-50.504 Y27.131
X-50.68 Y26.308
X-50.832 Y25.481
X-50.962 Y24.65
X-51.068 Y23.816
X-51.152 Y22.979
X-51.213 Y22.14
X-51.251 Y21.3
X-51.267 Y20.459
X-51.259 Y19.618
X-51.229 Y18.778
X-51.176 Y17.939
X-51.1 Y17.101
X-51. Y16.266
X-50.877 Y15.434
X-50.731 Y14.606
X-50.563 Y13.782
X-50.372 Y12.963
X-50.158 Y12.149
X-49.923 Y11.342
X-49.667 Y10.541
X-49.388 Y9.747
X-49.089 Y8.962
X-48.768 Y8.184
X-48.426 Y7.416
X-48.064 Y6.657
X-47.68 Y5.908
X-47.276 Y5.171
X-46.851 Y4.445
X-46.407 Y3.731
X-45.943 Y3.029
X-45.461 Y2.341
X-44.96 Y1.665
X-44.44 Y1.003
X-44.029 Y0.506
X-43.808 Y0.293
X-43.546 Y0.133
X-43.256 Y0.034
X-42.951 Y0.
X-39.847
G3 X-39.619 Y0.054 I-0.021 J0.6
G1 X-39.534 Y0.093 Z-3.993
X-39.451 Y0.131 Z-3.971
X-39.371 Y0.167 Z-3.935
X-39.298 Y0.2 Z-3.885
X-39.233 Y0.23 Z-3.824
X-39.178 Y0.255 Z-3.753
X-39.133 Y0.275 Z-3.672
X-39.1 Y0.29 Z-3.585
X-39.08 Y0.299 Z-3.494
X-39.073 Y0.302 Z-3.4
G0 Z2.502
X-40.199 Y40.055
Z-2.8
G1 Z-3.4 F500.
X-40.201 Y40.062 Z-3.494
X-40.205 Y40.084 Z-3.585
X-40.211 Y40.119 Z-3.672
X-40.22 Y40.168 Z-3.753
X-40.23 Y40.228 Z-3.824
X-40.243 Y40.299 Z-3.885
X-40.257 Y40.378 Z-3.935
X-40.273 Y40.463 Z-3.971
X-40.289 Y40.553 Z-3.993
X-40.305 Y40.646 Z-4.
G3 X-40.483 Y40.8 I-0.185 J-0.033
G1 X-43.159
X-43.553 Y40.78
X-43.83 Y40.744
X-44.159 Y40.674
X-44.499 Y40.572
X-44.901 Y40.415
X-45.323 Y40.21
X-45.81 Y39.924
X-46.345 Y39.548
X-46.93 Y39.063
X-47.532 Y38.475
X-48.089 Y37.845
X-48.606 Y37.183
X-49.089 Y36.494
X-49.54 Y35.784
X-49.961 Y35.056
X-50.356 Y34.313
X-50.725 Y33.558
X-51.07 Y32.791
X-51.391 Y32.013
X-51.69 Y31.227
X-51.966 Y30.433
X-52.22 Y29.631
X-52.452 Y28.823
X-52.661 Y28.008
X-52.848 Y27.188
X-53.014 Y26.364
X-53.158 Y25.535
X-53.28 Y24.703
X-53.381 Y23.868
X-53.461 Y23.031
X-53.519 Y22.192
X-53.557 Y21.352
X-53.573 Y20.511
X-53.568 Y19.67
X-53.541 Y18.829
X-53.493 Y17.99
X-53.423 Y17.152
X-53.332 Y16.316
X-53.219 Y15.482
X-53.084 Y14.652
X-52.928 Y13.826
X-52.752 Y13.003
X-52.554 Y12.186
X-52.337 Y11.374
X-52.098 Y10.567
X-51.84 Y9.767
X-51.562 Y8.973
X-51.263 Y8.187
X-50.946 Y7.408
X-50.608 Y6.638
X-50.251 Y5.876
X-49.874 Y5.125
X-49.478 Y4.383
X-49.062 Y3.651
X-48.629 Y2.931
X-48.177 Y2.222
X-47.707 Y1.524
X-47.22 Y0.838
X-46.994 Y0.545
X-46.772 Y0.316
X-46.503 Y0.144
X-46.203 Y0.036
X-45.886 Y0.
X-42.951
G3 X-42.723 Y0.054 I-0.021 J0.6
G1 X-42.637 Y0.093 Z-3.993
X-42.554 Y0.131 Z-3.971
X-42.475 Y0.167 Z-3.935
X-42.402 Y0.2 Z-3.885
X-42.337 Y0.23 Z-3.824
X-42.281 Y0.255 Z-3.753
X-42.236 Y0.275 Z-3.672
X-42.204 Y0.29 Z-3.585
X-42.184 Y0.299 Z-3.494
X-42.177 Y0.302 Z-3.4
G0 Z2.502
X-42.875 Y40.055
Z-2.8
G1 Z-3.4 F500.
X-42.876 Y40.062 Z-3.494
X-42.88 Y40.084 Z-3.585
X-42.886 Y40.119 Z-3.672
X-42.895 Y40.168 Z-3.753
X-42.906 Y40.228 Z-3.824
X-42.919 Y40.299 Z-3.885
X-42.933 Y40.378 Z-3.935
X-42.948 Y40.463 Z-3.971
X-42.964 Y40.553 Z-3.993
X-42.981 Y40.646 Z-4.
G3 X-43.159 Y40.8 I-0.185 J-0.033
G1 X-46.025
X-46.246 Y40.789
X-46.522 Y40.753
X-46.83 Y40.687
X-47.16 Y40.588
X-47.544 Y40.438
X-47.946 Y40.244
X-48.403 Y39.974
X-48.909 Y39.619
X-49.452 Y39.168
X-50.054 Y38.581
X-50.607 Y37.948
X-51.118 Y37.279
X-51.591 Y36.584
X-52.031 Y35.867
X-52.44 Y35.132
X-52.821 Y34.383
X-53.177 Y33.621
X-53.508 Y32.847
X-53.815 Y32.065
X-54.1 Y31.273
X-54.362 Y30.474
X-54.603 Y29.669
X-54.822 Y28.857
X-55.02 Y28.039
X-55.197 Y27.217
X-55.354 Y26.391
X-55.49 Y25.561
X-55.606 Y24.728
X-55.701 Y23.892
X-55.777 Y23.055
X-55.833 Y22.216
X-55.869 Y21.375
X-55.885 Y20.535
X-55.881 Y19.694
X-55.856 Y18.853
X-55.812 Y18.013
X-55.748 Y17.174
X-55.663 Y16.338
X-55.558 Y15.503
X-55.433 Y14.672
X-55.288 Y13.843
X-55.123 Y13.019
X-54.939 Y12.198
X-54.735 Y11.382
X-54.513 Y10.571
X-54.271 Y9.765
X-54.011 Y8.966
X-53.732 Y8.172
X-53.434 Y7.386
X-53.118 Y6.607
X-52.783 Y5.835
X-52.43 Y5.072
X-52.059 Y4.317
X-51.669 Y3.572
X-51.262 Y2.836
X-50.837 Y2.11
X-50.395 Y1.394
X-49.934 Y0.691
X-49.836 Y0.561
X-49.613 Y0.326
X-49.342 Y0.148
X-49.038 Y0.038
X-48.716 Y0.
X-45.886
G3 X-45.658 Y0.054 I-0.021 J0.6
G1 X-45.572 Y0.093 Z-3.993
X-45.489 Y0.131 Z-3.971
X-45.41 Y0.167 Z-3.935
X-45.337 Y0.2 Z-3.885
X-45.272 Y0.23 Z-3.824
X-45.216 Y0.255 Z-3.753
X-45.171 Y0.275 Z-3.672
X-45.139 Y0.29 Z-3.585
X-45.119 Y0.299 Z-3.494
X-45.112 Y0.302 Z-3.4
G0 Z2.502
X-45.742 Y40.055
Z-2.8
G1 Z-3.4 F500.
X-45.743 Y40.062 Z-3.494
X-45.747 Y40.084 Z-3.585
X-45.753 Y40.119 Z-3.672
X-45.762 Y40.168 Z-3.753
X-45.773 Y40.228 Z-3.824
X-45.785 Y40.299 Z-3.885
X-45.799 Y40.378 Z-3.935
X-45.815 Y40.463 Z-3.971
X-45.831 Y40.553 Z-3.993
X-45.847 Y40.646 Z-4.
G3 X-46.025 Y40.8 I-0.185 J-0.033
G1 X-48.701
X-48.874 Y40.791
X-49.15 Y40.755
X-49.439 Y40.693
X-49.764 Y40.596
X-50.129 Y40.454
X-50.52 Y40.264
X-50.956 Y40.007
X-51.44 Y39.668
X-51.953 Y39.241
X-52.526 Y38.682
X-53.079 Y38.049
X-53.586 Y37.378
X-54.054 Y36.679
X-54.486 Y35.957
X-54.886 Y35.217
X-55.257 Y34.463
X-55.602 Y33.696
X-55.922 Y32.918
X-56.218 Y32.131
X-56.492 Y31.336
X-56.744 Y30.533
X-56.974 Y29.724
X-57.183 Y28.91
X-57.372 Y28.09
X-57.541 Y27.266
X-57.691 Y26.439
X-57.821 Y25.608
X-57.931 Y24.774
X-58.023 Y23.938
X-58.096 Y23.1
X-58.15 Y22.261
X-58.185 Y21.421
X-58.201 Y20.58
X-58.199 Y19.739
X-58.177 Y18.898
X-58.137 Y18.058
X-58.078 Y17.219
X-57.999 Y16.382
X-57.902 Y15.547
X-57.785 Y14.714
X-57.65 Y13.884
X-57.496 Y13.057
X-57.324 Y12.234
X-57.134 Y11.414
X-56.926 Y10.6
X-56.7 Y9.79
X-56.455 Y8.985
X-56.194 Y8.186
X-55.914 Y7.392
X-55.618 Y6.605
X-55.304 Y5.825
X-54.972 Y5.052
X-54.623 Y4.287
X-54.258 Y3.53
X-53.874 Y2.781
X-53.475 Y2.041
X-53.057 Y1.311
X-52.591 Y0.568
X-52.417 Y0.373
X-52.21 Y0.214
X-51.977 Y0.097
X-51.726 Y0.024
X-51.466 Y0.
X-48.716
G3 X-48.488 Y0.054 I-0.021 J0.6
G1 X-48.402 Y0.093 Z-3.993
X-48.319 Y0.131 Z-3.971
X-48.24 Y0.167 Z-3.935
X-48.167 Y0.2 Z-3.885
X-48.102 Y0.23 Z-3.824
X-48.046 Y0.255 Z-3.753
X-48.001 Y0.275 Z-3.672
X-47.969 Y0.29 Z-3.585
X-47.949 Y0.299 Z-3.494
X-47.942 Y0.302 Z-3.4
G0 Z2.502
X-48.417 Y40.055
Z-2.8
G1 Z-3.4 F500.
X-48.418 Y40.062 Z-3.494
X-48.422 Y40.084 Z-3.585
X-48.429 Y40.119 Z-3.672
X-48.437 Y40.168 Z-3.753
X-48.448 Y40.228 Z-3.824
X-48.461 Y40.299 Z-3.885
X-48.475 Y40.378 Z-3.935
X-48.49 Y40.463 Z-3.971
X-48.506 Y40.553 Z-3.993
X-48.523 Y40.646 Z-4.
G3 X-48.701 Y40.8 I-0.185 J-0.033
G1 X-51.185
X-51.455 Y40.787
X-51.725 Y40.751
X-52.001 Y40.692
X-52.325 Y40.595
X-52.673 Y40.46
X-53.058 Y40.273
X-53.476 Y40.027
X-53.945 Y39.697
X-54.437 Y39.289
X-54.983 Y38.755
X-55.536 Y38.122
X-56.041 Y37.449
X-56.504 Y36.747
X-56.929 Y36.021
X-57.322 Y35.278
X-57.685 Y34.519
X-58.02 Y33.748
X-58.331 Y32.966
X-58.617 Y32.175
X-58.881 Y31.377
X-59.123 Y30.572
X-59.344 Y29.76
X-59.545 Y28.943
X-59.726 Y28.122
X-59.888 Y27.297
X-60.031 Y26.468
X-60.156 Y25.636
X-60.262 Y24.802
X-60.35 Y23.966
X-60.42 Y23.128
X-60.472 Y22.288
X-60.506 Y21.448
X-60.522 Y20.607
X-60.52 Y19.766
X-60.501 Y18.925
X-60.464 Y18.085
X-60.409 Y17.246
X-60.336 Y16.408
X-60.245 Y15.572
X-60.136 Y14.738
X-60.009 Y13.907
X-59.865 Y13.078
X-59.703 Y12.253
X-59.525 Y11.431
X-59.329 Y10.613
X-59.116 Y9.8
X-58.886 Y8.991
X-58.639 Y8.187
X-58.376 Y7.388
X-58.096 Y6.595
X-57.8 Y5.808
X-57.487 Y5.027
X-57.158 Y4.253
X-56.813 Y3.486
X-56.451 Y2.727
X-56.074 Y1.975
X-55.677 Y1.234
X-55.286 Y0.587
X-55.112 Y0.386
X-54.903 Y0.222
X-54.666 Y0.1
X-54.411 Y0.025
X-54.147 Y0.
X-51.466
G3 X-51.238 Y0.054 I-0.021 J0.6
G1 X-51.153 Y0.093 Z-3.993
X-51.069 Y0.131 Z-3.971
X-50.99 Y0.167 Z-3.935
X-50.917 Y0.2 Z-3.885
X-50.852 Y0.23 Z-3.824
X-50.796 Y0.255 Z-3.753
X-50.751 Y0.275 Z-3.672
X-50.719 Y0.29 Z-3.585
X-50.699 Y0.299 Z-3.494
X-50.692 Y0.302 Z-3.4
G0 Z2.502
X-50.901 Y40.055
Z-2.8
G1 Z-3.4 F500.
X-50.903 Y40.062 Z-3.494
X-50.907 Y40.084 Z-3.585
X-50.913 Y40.119 Z-3.672
X-50.922 Y40.168 Z-3.753
X-50.932 Y40.228 Z-3.824
X-50.945 Y40.299 Z-3.885
X-50.959 Y40.378 Z-3.935
X-50.975 Y40.463 Z-3.971
X-50.991 Y40.553 Z-3.993
X-51.007 Y40.646 Z-4.
G3 X-51.185 Y40.8 I-0.185 J-0.033
G1 X-53.67
X-53.99 Y40.784
X-54.249 Y40.75
X-54.522 Y40.692
X-54.846 Y40.594
X-55.18 Y40.464
X-55.561 Y40.28
X-55.965 Y40.042
X-56.422 Y39.721
X-56.899 Y39.325
X-57.426 Y38.811
X-57.979 Y38.177
X-58.481 Y37.503
X-58.94 Y36.798
X-59.36 Y36.07
X-59.747 Y35.323
X-60.102 Y34.56
X-60.43 Y33.786
X-60.732 Y33.001
X-61.01 Y32.207
X-61.266 Y31.406
X-61.5 Y30.598
X-61.713 Y29.785
X-61.906 Y28.966
X-62.081 Y28.144
X-62.236 Y27.317
X-62.374 Y26.487
X-62.493 Y25.655
X-62.595 Y24.82
X-62.68 Y23.983
X-62.747 Y23.145
X-62.797 Y22.306
X-62.83 Y21.465
X-62.847 Y20.624
X-62.846 Y19.783
X-62.828 Y18.943
X-62.794 Y18.102
X-62.742 Y17.263
X-62.674 Y16.425
X-62.589 Y15.588
X-62.486 Y14.753
X-62.367 Y13.921
X-62.231 Y13.091
X-62.079 Y12.264
X-61.91 Y11.44
X-61.725 Y10.619
X-61.523 Y9.803
X-61.306 Y8.99
X-61.073 Y8.182
X-60.824 Y7.379
X-60.559 Y6.581
X-60.279 Y5.788
X-59.982 Y5.001
X-59.671 Y4.22
X-59.344 Y3.445
X-59.002 Y2.677
X-58.643 Y1.916
X-58.263 Y1.166
X-57.929 Y0.597
X-57.755 Y0.393
X-57.545 Y0.226
X-57.306 Y0.102
X-57.049 Y0.026
X-56.782 Y0.
X-54.147
G3 X-53.919 Y0.054 I-0.021 J0.6
G1 X-53.833 Y0.093 Z-3.993
X-53.75 Y0.131 Z-3.971
X-53.671 Y0.167 Z-3.935
X-53.598 Y0.2 Z-3.885
X-53.533 Y0.23 Z-3.824
X-53.477 Y0.255 Z-3.753
X-53.432 Y0.275 Z-3.672
X-53.4 Y0.29 Z-3.585
X-53.38 Y0.299 Z-3.494
X-53.373 Y0.302 Z-3.4
G0 Z2.502
X-53.386 Y40.055
Z-2.8
G1 Z-3.4 F500.
X-53.387 Y40.062 Z-3.494
X-53.391 Y40.084 Z-3.585
X-53.397 Y40.119 Z-3.672
X-53.406 Y40.168 Z-3.753
X-53.417 Y40.228 Z-3.824
X-53.43 Y40.299 Z-3.885
X-53.444 Y40.378 Z-3.935
X-53.459 Y40.463 Z-3.971
X-53.475 Y40.553 Z-3.993
X-53.492 Y40.646 Z-4.
G3 X-53.67 Y40.8 I-0.185 J-0.033
G1 X-56.154
X-56.49 Y40.783
X-56.739 Y40.75
X-57.012 Y40.692
X-57.335 Y40.596
X-57.66 Y40.469
X-58.037 Y40.286
X-58.43 Y40.054
X-58.878 Y39.74
X-59.342 Y39.354
X-59.854 Y38.855
X-60.407 Y38.221
X-60.908 Y37.545
X-61.364 Y36.838
X-61.779 Y36.107
X-62.16 Y35.358
X-62.51 Y34.593
X-62.831 Y33.815
X-63.126 Y33.028
X-63.397 Y32.232
X-63.645 Y31.428
X-63.872 Y30.618
X-64.079 Y29.803
X-64.266 Y28.983
X-64.434 Y28.159
X-64.585 Y27.332
X-64.717 Y26.501
X-64.832 Y25.668
X-64.931 Y24.833
X-65.012 Y23.996
X-65.077 Y23.157
X-65.126 Y22.318
X-65.158 Y21.477
X-65.174 Y20.637
Y19.796
X-65.158 Y18.955
X-65.126 Y18.114
X-65.078 Y17.275
X-65.014 Y16.436
X-64.934 Y15.599
X-64.837 Y14.764
X-64.725 Y13.93
X-64.596 Y13.099
X-64.452 Y12.27
X-64.292 Y11.445
X-64.117 Y10.622
X-63.926 Y9.803
X-63.72 Y8.988
X-63.498 Y8.177
X-63.262 Y7.369
X-63.011 Y6.567
X-62.744 Y5.769
X-62.463 Y4.976
X-62.167 Y4.189
X-61.857 Y3.408
X-61.531 Y2.632
X-61.188 Y1.864
X-60.82 Y1.108
X-60.584 Y0.699
X-60.412 Y0.462
X-60.194 Y0.267
X-59.941 Y0.121
X-59.663 Y0.031
X-59.372 Y0.
X-56.782
G3 X-56.554 Y0.054 I-0.021 J0.6
G1 X-56.469 Y0.093 Z-3.993
X-56.385 Y0.131 Z-3.971
X-56.306 Y0.167 Z-3.935
X-56.233 Y0.2 Z-3.885
X-56.168 Y0.23 Z-3.824
X-56.112 Y0.255 Z-3.753
X-56.068 Y0.275 Z-3.672
X-56.035 Y0.29 Z-3.585
X-56.015 Y0.299 Z-3.494
X-56.008 Y0.302 Z-3.4
G0 Z2.502
X-55.87 Y40.055
Z-2.8
G1 Z-3.4 F500.
X-55.872 Y40.062 Z-3.494
X-55.875 Y40.084 Z-3.585
X-55.882 Y40.119 Z-3.672
X-55.891 Y40.168 Z-3.753
X-55.901 Y40.228 Z-3.824
X-55.914 Y40.299 Z-3.885
X-55.928 Y40.378 Z-3.935
X-55.943 Y40.463 Z-3.971
X-55.96 Y40.553 Z-3.993
X-55.976 Y40.646 Z-4.
G3 X-56.154 Y40.8 I-0.185 J-0.033
G1 X-58.639
X-58.963 Y40.784
X-59.205 Y40.752
X-59.478 Y40.694
X-59.797 Y40.598
X-60.116 Y40.474
X-60.491 Y40.292
X-60.875 Y40.066
X-61.315 Y39.757
X-61.771 Y39.379
X-62.271 Y38.891
X-62.815 Y38.266
X-63.316 Y37.59
X-63.769 Y36.882
X-64.182 Y36.149
X-64.559 Y35.397
X-64.904 Y34.63
X-65.22 Y33.851
X-65.509 Y33.061
X-65.774 Y32.263
X-66.017 Y31.458
X-66.238 Y30.647
X-66.44 Y29.83
X-66.621 Y29.009
X-66.785 Y28.184
X-66.931 Y27.356
X-67.059 Y26.525
X-67.171 Y25.691
X-67.267 Y24.856
X-67.346 Y24.018
X-67.409 Y23.18
X-67.457 Y22.34
X-67.489 Y21.5
X-67.505 Y20.659
X-67.506 Y19.818
X-67.492 Y18.977
X-67.462 Y18.136
X-67.417 Y17.297
X-67.357 Y16.458
X-67.281 Y15.62
X-67.19 Y14.784
X-67.084 Y13.95
X-66.962 Y13.118
X-66.826 Y12.288
X-66.674 Y11.461
X-66.508 Y10.636
X-66.327 Y9.815
X-66.131 Y8.997
X-65.921 Y8.183
X-65.696 Y7.372
X-65.457 Y6.566
X-65.204 Y5.764
X-64.936 Y4.967
X-64.655 Y4.174
X-64.359 Y3.387
X-64.048 Y2.606
X-63.719 Y1.832
X-63.358 Y1.072
X-63.144 Y0.701
X-62.972 Y0.464
X-62.755 Y0.268
X-62.501 Y0.121
X-62.223 Y0.031
X-61.931 Y0.
X-59.372
G3 X-59.144 Y0.054 I-0.021 J0.6
G1 X-59.059 Y0.093 Z-3.993
X-58.975 Y0.131 Z-3.971
X-58.896 Y0.167 Z-3.935
X-58.823 Y0.2 Z-3.885
X-58.758 Y0.23 Z-3.824
X-58.702 Y0.255 Z-3.753
X-58.658 Y0.275 Z-3.672
X-58.625 Y0.29 Z-3.585
X-58.605 Y0.299 Z-3.494
X-58.598 Y0.302 Z-3.4
G0 Z2.502
X-58.355 Y40.055
Z-2.8
G1 Z-3.4 F500.
X-58.356 Y40.062 Z-3.494
X-58.36 Y40.084 Z-3.585
X-58.366 Y40.119 Z-3.672
X-58.375 Y40.168 Z-3.753
X-58.386 Y40.228 Z-3.824
X-58.398 Y40.299 Z-3.885
X-58.413 Y40.378 Z-3.935
X-58.428 Y40.463 Z-3.971
X-58.444 Y40.553 Z-3.993
X-58.461 Y40.646 Z-4.
G3 X-58.639 Y40.8 I-0.185 J-0.033
G1 X-61.123
X-61.413 Y40.785
X-61.651 Y40.754
X-61.923 Y40.696
X-62.237 Y40.602
X-62.554 Y40.479
X-62.927 Y40.298
X-63.304 Y40.076
X-63.737 Y39.771
X-64.186 Y39.399
X-64.677 Y38.92
X-65.211 Y38.308
X-65.711 Y37.632
X-66.163 Y36.923
X-66.574 Y36.189
X-66.947 Y35.436
X-67.288 Y34.667
X-67.6 Y33.886
X-67.885 Y33.095
X-68.146 Y32.295
X-68.384 Y31.489
X-68.601 Y30.676
X-68.797 Y29.858
X-68.975 Y29.036
X-69.134 Y28.211
X-69.276 Y27.382
X-69.402 Y26.55
X-69.511 Y25.716
X-69.604 Y24.88
X-69.681 Y24.043
X-69.743 Y23.204
X-69.79 Y22.364
X-69.821 Y21.524
X-69.838 Y20.683
X-69.84 Y19.842
X-69.828 Y19.001
X-69.8 Y18.161
X-69.758 Y17.321
X-69.702 Y16.482
X-69.63 Y15.644
X-69.544 Y14.807
X-69.444 Y13.972
X-69.329 Y13.139
X-69.199 Y12.308
X-69.055 Y11.479
X-68.897 Y10.653
X-68.725 Y9.83
X-68.539 Y9.01
X-68.339 Y8.193
X-68.125 Y7.38
X-67.897 Y6.57
X-67.656 Y5.765
X-67.401 Y4.963
X-67.132 Y4.166
X-66.849 Y3.374
X-66.551 Y2.588
X-66.232 Y1.81
X-65.89 Y1.073
X-65.684 Y0.71
X-65.513 Y0.47
X-65.295 Y0.271
X-65.04 Y0.123
X-64.76 Y0.031
X-64.466 Y0.
X-61.931
G3 X-61.703 Y0.054 I-0.021 J0.6
G1 X-61.618 Y0.093 Z-3.993
X-61.535 Y0.131 Z-3.971
X-61.455 Y0.167 Z-3.935
X-61.382 Y0.2 Z-3.885
X-61.317 Y0.23 Z-3.824
X-61.262 Y0.255 Z-3.753
X-61.217 Y0.275 Z-3.672
X-61.184 Y0.29 Z-3.585
X-61.164 Y0.299 Z-3.494
X-61.157 Y0.302 Z-3.4
G0 Z2.502
X-60.839 Y40.055
Z-2.8
G1 Z-3.4 F500.
X-60.84 Y40.062 Z-3.494
X-60.844 Y40.084 Z-3.585
X-60.851 Y40.119 Z-3.672
X-60.859 Y40.168 Z-3.753
X-60.87 Y40.228 Z-3.824
X-60.883 Y40.299 Z-3.885
X-60.897 Y40.378 Z-3.935
X-60.912 Y40.463 Z-3.971
X-60.928 Y40.553 Z-3.993
X-60.945 Y40.646 Z-4.
G3 X-61.123 Y40.8 I-0.185 J-0.033
G1 X-63.607
X-63.845 Y40.788
X-64.08 Y40.757
X-64.353 Y40.699
X-64.661 Y40.607
X-64.976 Y40.484
X-65.347 Y40.304
X-65.719 Y40.085
X-66.147 Y39.784
X-66.592 Y39.415
X-67.075 Y38.944
X-67.599 Y38.343
X-68.099 Y37.667
X-68.551 Y36.957
X-68.959 Y36.222
X-69.33 Y35.467
X-69.668 Y34.697
X-69.977 Y33.915
X-70.258 Y33.122
X-70.514 Y32.321
X-70.748 Y31.514
X-70.961 Y30.7
X-71.153 Y29.881
X-71.327 Y29.058
X-71.483 Y28.232
X-71.622 Y27.403
X-71.745 Y26.57
X-71.851 Y25.736
X-71.942 Y24.9
X-72.018 Y24.063
X-72.079 Y23.224
X-72.125 Y22.384
X-72.157 Y21.544
X-72.174 Y20.703
X-72.177 Y19.862
X-72.166 Y19.021
X-72.14 Y18.18
X-72.101 Y17.34
X-72.048 Y16.501
X-71.98 Y15.663
X-71.899 Y14.826
X-71.804 Y13.99
X-71.694 Y13.156
X-71.571 Y12.324
X-71.434 Y11.494
X-71.283 Y10.667
X-71.119 Y9.842
X-70.942 Y9.02
X-70.751 Y8.201
X-70.547 Y7.385
X-70.329 Y6.573
X-70.099 Y5.764
X-69.855 Y4.959
X-69.598 Y4.158
X-69.327 Y3.362
X-69.038 Y2.572
X-68.729 Y1.79
X-68.405 Y1.08
X-68.203 Y0.719
X-68.032 Y0.476
X-67.814 Y0.275
X-67.558 Y0.125
X-67.276 Y0.031
X-66.98 Y0.
X-64.466
G3 X-64.238 Y0.054 I-0.021 J0.6
G1 X-64.153 Y0.093 Z-3.993
X-64.07 Y0.131 Z-3.971
X-63.991 Y0.167 Z-3.935
X-63.918 Y0.2 Z-3.885
X-63.852 Y0.23 Z-3.824
X-63.797 Y0.255 Z-3.753
X-63.752 Y0.275 Z-3.672
X-63.719 Y0.29 Z-3.585
X-63.699 Y0.299 Z-3.494
X-63.692 Y0.302 Z-3.4
G0 Z2.502
X-63.324 Y40.055
Z-2.8
G1 Z-3.4 F500.
X-63.325 Y40.062 Z-3.494
X-63.329 Y40.084 Z-3.585
X-63.335 Y40.119 Z-3.672
X-63.344 Y40.168 Z-3.753
X-63.355 Y40.228 Z-3.824
X-63.367 Y40.299 Z-3.885
X-63.381 Y40.378 Z-3.935
X-63.397 Y40.463 Z-3.971
X-63.413 Y40.553 Z-3.993
X-63.429 Y40.646 Z-4.
G3 X-63.607 Y40.8 I-0.185 J-0.033
G1 X-66.092
X-66.263 Y40.791
X-66.495 Y40.761
X-66.768 Y40.703
X-67.071 Y40.612
X-67.387 Y40.489
X-67.754 Y40.311
X-68.124 Y40.093
X-68.547 Y39.796
X-68.988 Y39.43
X-69.464 Y38.965
X-69.982 Y38.372
X-70.482 Y37.696
X-70.932 Y36.986
X-71.339 Y36.25
X-71.708 Y35.494
X-72.043 Y34.723
X-72.349 Y33.939
X-72.627 Y33.145
X-72.88 Y32.343
X-73.11 Y31.535
X-73.319 Y30.72
X-73.509 Y29.901
X-73.679 Y29.077
X-73.832 Y28.25
X-73.969 Y27.42
X-74.089 Y26.588
X-74.193 Y25.753
X-74.282 Y24.917
X-74.357 Y24.079
X-74.417 Y23.24
X-74.462 Y22.401
X-74.494 Y21.56
X-74.511 Y20.719
X-74.515 Y19.879
X-74.506 Y19.038
X-74.482 Y18.197
X-74.445 Y17.357
X-74.395 Y16.517
X-74.331 Y15.679
X-74.254 Y14.841
X-74.163 Y14.005
X-74.059 Y13.17
X-73.942 Y12.338
X-73.812 Y11.507
X-73.668 Y10.678
X-73.511 Y9.852
X-73.341 Y9.028
X-73.159 Y8.207
X-72.964 Y7.389
X-72.756 Y6.574
X-72.535 Y5.763
X-72.301 Y4.955
X-72.054 Y4.151
X-71.793 Y3.352
X-71.514 Y2.559
X-71.211 Y1.774
X-70.902 Y1.087
X-70.704 Y0.726
X-70.533 Y0.481
X-70.314 Y0.278
X-70.057 Y0.126
X-69.774 Y0.032
X-69.477 Y0.
X-66.98
G3 X-66.752 Y0.054 I-0.021 J0.6
G1 X-66.667 Y0.093 Z-3.993
X-66.584 Y0.131 Z-3.971
X-66.505 Y0.167 Z-3.935
X-66.432 Y0.2 Z-3.885
X-66.366 Y0.23 Z-3.824
X-66.311 Y0.255 Z-3.753
X-66.266 Y0.275 Z-3.672
X-66.233 Y0.29 Z-3.585
X-66.213 Y0.299 Z-3.494
X-66.206 Y0.302 Z-3.4
G0 Z2.502
X-65.808 Y40.055
Z-2.8
G1 Z-3.4 F500.
X-65.809 Y40.062 Z-3.494
X-65.813 Y40.084 Z-3.585
X-65.82 Y40.119 Z-3.672
X-65.828 Y40.168 Z-3.753
X-65.839 Y40.228 Z-3.824
X-65.852 Y40.299 Z-3.885
X-65.866 Y40.378 Z-3.935
X-65.881 Y40.463 Z-3.971
X-65.897 Y40.553 Z-3.993
X-65.914 Y40.646 Z-4.
G3 X-66.092 Y40.8 I-0.185 J-0.033
G1 X-68.385
X-68.678 Y40.785
X-68.908 Y40.755
X-69.181 Y40.697
X-69.478 Y40.608
X-69.794 Y40.485
X-70.158 Y40.308
X-70.525 Y40.092
X-70.943 Y39.799
X-71.381 Y39.435
X-71.851 Y38.976
X-72.361 Y38.391
X-72.862 Y37.715
X-73.311 Y37.004
X-73.717 Y36.267
X-74.084 Y35.511
X-74.417 Y34.738
X-74.719 Y33.954
X-74.994 Y33.159
X-75.244 Y32.356
X-75.472 Y31.546
X-75.678 Y30.731
X-75.864 Y29.911
X-76.032 Y29.087
X-76.182 Y28.259
X-76.316 Y27.429
X-76.434 Y26.596
X-76.536 Y25.762
X-76.624 Y24.925
X-76.697 Y24.087
X-76.756 Y23.248
X-76.801 Y22.409
X-76.833 Y21.568
X-76.851 Y20.727
X-76.856 Y19.886
X-76.847 Y19.045
X-76.825 Y18.205
X-76.791 Y17.364
X-76.743 Y16.525
X-76.683 Y15.686
X-76.609 Y14.848
X-76.523 Y14.012
X-76.424 Y13.176
X-76.312 Y12.343
X-76.187 Y11.511
X-76.049 Y10.682
X-75.899 Y9.854
X-75.737 Y9.029
X-75.562 Y8.206
X-75.375 Y7.386
X-75.175 Y6.569
X-74.964 Y5.755
X-74.739 Y4.945
X-74.501 Y4.138
X-74.247 Y3.337
X-73.975 Y2.541
X-73.678 Y1.754
X-73.383 Y1.089
X-73.189 Y0.732
X-73.018 Y0.485
X-72.799 Y0.28
X-72.541 Y0.127
X-72.257 Y0.032
X-71.959 Y0.
X-69.477
G3 X-69.249 Y0.054 I-0.021 J0.6
G1 X-69.164 Y0.093 Z-3.993
X-69.08 Y0.131 Z-3.971
X-69.001 Y0.167 Z-3.935
X-68.928 Y0.2 Z-3.885
X-68.863 Y0.23 Z-3.824
X-68.807 Y0.255 Z-3.753
X-68.762 Y0.275 Z-3.672
X-68.73 Y0.29 Z-3.585
X-68.71 Y0.299 Z-3.494
X-68.703 Y0.302 Z-3.4
G0 Z2.502
X-68.101 Y40.055
Z-2.8
G1 Z-3.4 F500.
X-68.103 Y40.062 Z-3.494
X-68.106 Y40.084 Z-3.585
X-68.113 Y40.119 Z-3.672
X-68.121 Y40.168 Z-3.753
X-68.132 Y40.228 Z-3.824
X-68.145 Y40.299 Z-3.885
X-68.159 Y40.378 Z-3.935
X-68.174 Y40.463 Z-3.971
X-68.191 Y40.553 Z-3.993
X-68.207 Y40.646 Z-4.
G3 X-68.385 Y40.8 I-0.185 J-0.033
G1 X-70.87
X-71.071 Y40.79
X-71.301 Y40.76
X-71.573 Y40.701
X-71.868 Y40.613
X-72.184 Y40.49
X-72.546 Y40.315
X-72.911 Y40.099
X-73.327 Y39.807
X-73.762 Y39.446
X-74.229 Y38.991
X-74.734 Y38.411
X-75.235 Y37.735
X-75.684 Y37.024
X-76.088 Y36.287
X-76.454 Y35.529
X-76.785 Y34.756
X-77.085 Y33.971
X-77.358 Y33.175
X-77.605 Y32.371
X-77.83 Y31.561
X-78.066 Y30.599
X-78.096 Y30.395
X-78.1 Y30.293
Y11.418
X-78.014 Y9.739
X-77.927 Y8.902
X-77.807 Y8.07
X-77.66 Y7.242
X-77.491 Y6.418
X-77.303 Y5.598
X-77.096 Y4.783
X-76.871 Y3.972
X-76.628 Y3.168
X-76.361 Y2.37
X-76.064 Y1.583
X-75.801 Y1.001
X-75.646 Y0.722
X-75.475 Y0.478
X-75.256 Y0.276
X-75. Y0.125
X-74.717 Y0.032
X-74.421 Y0.
X-71.959
G3 X-71.445 Y0.873 I-0.021 J0.6
G1 X-76.966 Y11.671
G3 X-78.1 Y11.418 I-0.534 J-0.273
G1 Y3.012
X-78.063 Y2.271
X-78.004 Y1.819
X-77.913 Y1.394
X-77.805 Y1.035
X-77.75 Y0.892
X-77.623 Y0.643
X-77.449 Y0.424
X-77.235 Y0.244
X-76.99 Y0.11
X-76.723 Y0.028
X-76.445 Y0.
G3 X-75.915 Y0.838 I-0.021 J0.6
G1 X-76.95 Y3.229
G3 X-78.1 Y3.012 I-0.551 J-0.238
G1 Y0.719
X-78.093 Y0.528
X-78.07 Y0.432
X-78.029 Y0.337
X-77.941 Y0.212
X-77.874 Y0.146
X-77.75 Y0.063
X-77.654 Y0.025
X-77.558 Y0.005
X-74.421 Y0.
G3 X-74.193 Y0.054 I-0.021 J0.6
G1 X-74.108 Y0.093 Z-3.993
X-74.024 Y0.131 Z-3.971
X-73.945 Y0.167 Z-3.935
X-73.872 Y0.2 Z-3.885
X-73.807 Y0.23 Z-3.824
X-73.751 Y0.255 Z-3.753
X-73.707 Y0.275 Z-3.672
X-73.674 Y0.29 Z-3.585
X-73.654 Y0.299 Z-3.494
X-73.647 Y0.302 Z-3.4
G0 Z2.502
X-70.586 Y40.055
Z-2.8
G1 Z-3.4 F500.
X-70.587 Y40.062 Z-3.494
X-70.591 Y40.084 Z-3.585
X-70.597 Y40.119 Z-3.672
X-70.606 Y40.168 Z-3.753
X-70.617 Y40.228 Z-3.824
X-70.629 Y40.299 Z-3.885
X-70.643 Y40.378 Z-3.935
X-70.659 Y40.463 Z-3.971
X-70.675 Y40.553 Z-3.993
X-70.692 Y40.646 Z-4.
G3 X-70.87 Y40.8 I-0.185 J-0.033
G1 X-73.163
X-73.466 Y40.785
X-73.696 Y40.755
X-73.969 Y40.696
X-74.259 Y40.609
X-74.574 Y40.487
X-74.933 Y40.313
X-75.298 Y40.098
X-75.709 Y39.809
X-76.143 Y39.449
X-76.605 Y38.998
X-77.106 Y38.424
X-77.606 Y37.748
X-77.884 Y37.306
X-78.003 Y37.072
X-78.075 Y36.82
X-78.1 Y36.56
G3 X-77.115 Y36.121 I0.6 J0.021
G1 X-72.798 Y39.741
G3 X-73.163 Y40.8 I-0.386 J0.46
G1 X-75.647
X-75.844 Y40.79
X-76.073 Y40.76
X-76.346 Y40.702
X-76.635 Y40.615
X-76.951 Y40.492
X-77.308 Y40.319
X-77.41 Y40.259
X-77.644 Y40.086
X-77.837 Y39.869
X-77.981 Y39.617
X-78.07 Y39.341
X-78.1 Y39.052
G3 X-77.186 Y38.562 I0.6 J0.021
G1 X-75.354 Y39.689
G3 X-75.647 Y40.8 I-0.314 J0.511
G1 X-77.558 Y40.795
X-77.654 Y40.775
X-77.75 Y40.737
X-77.878 Y40.651
X-77.941 Y40.589
X-77.993 Y40.524
X-78.032 Y40.46
X-78.072 Y40.364
X-78.094 Y40.269
X-78.1 Y39.504
Y30.293
X-78.088 Y30.239 Z-3.993
X-78.077 Y30.188 Z-3.974
X-78.067 Y30.144 Z-3.943
X-78.059 Y30.107 Z-3.902
