(2.ADAPTIVE2)
(T1  D=6. CR=0. - ZMIN=-4.998 - FLAT END MILL)
G0 G90 G94 G17
G21
G53 Z0.

(ADAPTIVE2)
M5
M9
T1
M3 S18000
G54
M9
G0 X-59.953 Y125.476
Z2.502
G1 Z2. F500.
G3 X-55.413 Y128.924 Z1.687 I2.27 J1.724 F167.
X-59.953 Y125.476 Z1.375 I-2.27 J-1.724
X-55.413 Y128.924 Z1.062 I2.27 J1.724
X-59.953 Y125.476 Z0.749 I-2.27 J-1.724
X-55.413 Y128.924 Z0.437 I2.27 J1.724
X-59.953 Y125.476 Z0.124 I-2.27 J-1.724
X-55.413 Y128.924 Z-0.189 I2.27 J1.724
X-59.953 Y125.476 Z-0.501 I-2.27 J-1.724
X-55.413 Y128.924 Z-0.814 I2.27 J1.724
X-59.953 Y125.476 Z-1.127 I-2.27 J-1.724
X-55.413 Y128.924 Z-1.439 I2.27 J1.724
X-59.953 Y125.476 Z-1.752 I-2.27 J-1.724
X-54.833 Y127.2 Z-2. I2.27 J1.724
X-60.533 I-2.85 J0.
X-54.833 I2.85 J0.
G1 X-54.83 Y127.41 F500.
X-54.692 Y128.24
X-54.641 Y128.365
X-54.604 Y128.495
X-54.58 Y128.627
X-54.568 Y128.762
X-54.566 Y128.907
X-54.577 Y129.064
X-54.603 Y129.229
X-54.644 Y129.403
X-54.702 Y129.584
X-54.778 Y129.769
X-54.875 Y129.957
X-54.991 Y130.146
X-55.129 Y130.334
X-55.287 Y130.517
X-55.467 Y130.694
X-55.668 Y130.861
X-55.888 Y131.018
X-56.128 Y131.16
X-56.386 Y131.286
X-56.66 Y131.394
X-56.948 Y131.482
X-57.249 Y131.548
X-57.561 Y131.59
X-57.88 Y131.607
X-58.205 Y131.598
X-58.532 Y131.563
X-58.86 Y131.501
X-59.185 Y131.412
X-59.505 Y131.296
X-59.818 Y131.153
X-60.121 Y130.984
X-60.411 Y130.791
X-60.686 Y130.573
X-60.944 Y130.333
X-61.183 Y130.071
X-61.402 Y129.79
X-61.598 Y129.491
X-61.769 Y129.177
X-61.916 Y128.848
X-62.036 Y128.508
X-62.128 Y128.159
X-62.192 Y127.803
X-62.228 Y127.443
X-62.234 Y127.08
X-62.212 Y126.717
X-62.16 Y126.357
X-62.079 Y126.002
X-61.97 Y125.654
X-61.834 Y125.316
X-61.67 Y124.99
X-61.481 Y124.677
X-61.267 Y124.381
X-61.03 Y124.103
X-60.772 Y123.844
X-60.493 Y123.607
X-60.196 Y123.393
X-59.883 Y123.204
X-59.556 Y123.04
X-59.217 Y122.903
X-58.867 Y122.794
X-58.51 Y122.713
X-58.147 Y122.661
X-57.782 Y122.638
X-57.416 Y122.645
X-57.051 Y122.681
X-56.69 Y122.746
X-56.336 Y122.84
X-55.991 Y122.962
X-55.656 Y123.111
X-55.335 Y123.287
X-55.028 Y123.488
X-54.739 Y123.713
X-54.469 Y123.961
X-54.219 Y124.229
X-53.992 Y124.517
X-53.788 Y124.822
X-53.431 Y125.464
X-53.134 Y126.115
X-52.943 Y126.643
X-52.813 Y127.118
X-52.729 Y127.563
X-52.683 Y127.993
X-52.672 Y128.41
X-52.694 Y128.815
X-52.747 Y129.211
X-52.832 Y129.597
X-52.947 Y129.975
X-53.092 Y130.343
X-53.267 Y130.7
X-53.471 Y131.043
X-53.704 Y131.373
X-53.966 Y131.685
X-54.255 Y131.979
X-54.57 Y132.251
X-54.911 Y132.501
X-55.276 Y132.726
X-55.663 Y132.924
X-56.071 Y133.092
X-56.496 Y133.229
X-56.936 Y133.333
X-57.389 Y133.401
X-57.851 Y133.434
X-58.319 Y133.429
X-58.789 Y133.387
X-59.259 Y133.306
X-59.724 Y133.186
X-60.182 Y133.029
X-60.629 Y132.834
X-61.061 Y132.602
X-61.476 Y132.335
X-61.87 Y132.033
X-62.241 Y131.7
X-62.585 Y131.335
X-62.9 Y130.943
X-63.184 Y130.526
X-63.434 Y130.085
X-63.648 Y129.624
X-63.826 Y129.146
X-63.965 Y128.655
X-64.064 Y128.152
X-64.123 Y127.643
X-64.14 Y127.129
X-64.117 Y126.615
X-64.052 Y126.104
X-63.946 Y125.599
X-63.799 Y125.103
X-63.614 Y124.621
X-63.39 Y124.155
X-63.129 Y123.707
X-62.833 Y123.282
X-62.503 Y122.882
X-62.143 Y122.51
X-61.753 Y122.167
X-61.337 Y121.857
X-60.897 Y121.581
X-60.437 Y121.341
X-59.958 Y121.138
X-59.465 Y120.975
X-58.96 Y120.852
X-58.447 Y120.77
X-57.929 Y120.729
X-57.409 Y120.73
X-56.891 Y120.773
X-56.378 Y120.857
X-55.873 Y120.982
X-55.38 Y121.147
X-54.902 Y121.351
X-54.442 Y121.593
X-54.002 Y121.871
X-53.586 Y122.184
X-53.143 Y122.577
X-52.702 Y123.035
X-52.288 Y123.541
X-51.908 Y124.091
X-51.576 Y124.666
X-51.297 Y125.252
X-51.071 Y125.844
X-50.899 Y126.437
X-50.777 Y127.028
X-50.704 Y127.618
X-50.679 Y128.204
X-50.701 Y128.783
X-50.769 Y129.354
X-50.881 Y129.914
X-51.038 Y130.462
X-51.238 Y130.994
X-51.48 Y131.508
X-51.763 Y132.003
X-52.086 Y132.474
X-52.447 Y132.921
X-52.846 Y133.34
X-53.28 Y133.727
X-53.747 Y134.082
X-54.245 Y134.4
X-54.772 Y134.68
X-55.324 Y134.919
X-55.898 Y135.114
X-56.491 Y135.264
X-57.098 Y135.367
X-57.716 Y135.42
X-58.342 Y135.424
X-58.969 Y135.378
X-59.595 Y135.28
X-60.216 Y135.132
X-60.826 Y134.934
X-61.421 Y134.685
X-61.998 Y134.388
X-62.551 Y134.044
X-63.078 Y133.655
X-63.574 Y133.223
X-64.036 Y132.75
X-64.46 Y132.24
X-64.842 Y131.696
X-65.181 Y131.122
X-65.474 Y130.52
X-65.718 Y129.895
X-65.911 Y129.251
X-66.053 Y128.592
X-66.141 Y127.922
X-66.175 Y127.247
X-66.155 Y126.57
X-66.081 Y125.897
X-65.952 Y125.23
X-65.771 Y124.576
X-65.537 Y123.937
X-65.252 Y123.319
X-64.919 Y122.725
X-64.539 Y122.16
X-64.114 Y121.627
X-63.648 Y121.129
X-63.143 Y120.67
X-62.603 Y120.253
X-62.031 Y119.881
X-61.43 Y119.555
X-60.806 Y119.279
X-60.161 Y119.054
X-59.5 Y118.881
X-58.827 Y118.762
X-58.146 Y118.697
X-57.463 Y118.687
X-56.781 Y118.732
X-56.104 Y118.831
X-55.438 Y118.985
X-54.786 Y119.191
X-54.153 Y119.449
X-53.527 Y119.765
X-52.907 Y120.143
X-52.302 Y120.583
X-51.718 Y121.083
X-51.165 Y121.64
X-50.653 Y122.245
X-50.191 Y122.891
X-49.783 Y123.571
X-49.432 Y124.276
X-49.142 Y125.002
X-48.913 Y125.742
X-48.746 Y126.492
X-48.64 Y127.247
X-48.595 Y128.002
X-48.612 Y128.754
X-48.688 Y129.498
X-48.822 Y130.23
X-49.015 Y130.947
X-49.264 Y131.645
X-49.569 Y132.321
X-49.927 Y132.971
X-50.336 Y133.592
X-50.796 Y134.179
X-51.304 Y134.73
X-51.856 Y135.24
X-52.451 Y135.707
X-53.084 Y136.127
X-53.754 Y136.497
X-54.455 Y136.814
X-55.183 Y137.075
X-55.935 Y137.278
X-56.705 Y137.421
X-57.488 Y137.502
X-58.28 Y137.521
X-59.075 Y137.475
X-59.868 Y137.365
X-60.654 Y137.191
X-61.427 Y136.953
X-62.182 Y136.652
X-62.913 Y136.291
X-63.616 Y135.87
X-64.286 Y135.392
X-64.917 Y134.86
X-65.506 Y134.277
X-66.048 Y133.647
X-66.538 Y132.973
X-66.974 Y132.26
X-67.353 Y131.513
X-67.671 Y130.736
X-67.926 Y129.934
X-68.116 Y129.115
X-68.24 Y128.283
X-68.297 Y127.444
X-68.287 Y126.603
X-68.21 Y125.766
X-68.066 Y124.937
X-67.857 Y124.123
X-67.584 Y123.327
X-67.249 Y122.556
X-66.853 Y121.814
X-66.4 Y121.105
X-65.893 Y120.435
X-65.333 Y119.807
X-64.726 Y119.225
X-64.075 Y118.693
X-63.383 Y118.214
X-62.656 Y117.792
X-61.897 Y117.428
X-61.113 Y117.126
X-60.307 Y116.886
X-59.484 Y116.711
X-58.65 Y116.602
X-57.81 Y116.559
X-56.969 Y116.582
X-56.133 Y116.672
X-55.307 Y116.827
X-54.495 Y117.047
X-53.703 Y117.33
X-52.936 Y117.674
X-52.196 Y118.075
X-51.489 Y118.53
X-50.817 Y119.035
X-50.182 Y119.587
X-49.588 Y120.183
X-49.04 Y120.82
X-48.538 Y121.495
X-48.086 Y122.204
X-47.685 Y122.943
X-47.337 Y123.709
X-47.044 Y124.497
X-46.807 Y125.304
X-46.628 Y126.126
X-46.509 Y126.959
X-46.451 Y127.798
X-46.455 Y128.639
X-46.522 Y129.477
X-46.649 Y130.308
X-46.837 Y131.128
X-47.085 Y131.932
X-47.392 Y132.715
X-47.754 Y133.474
X-48.172 Y134.204
X-48.641 Y134.901
X-49.161 Y135.563
X-49.727 Y136.185
X-50.337 Y136.763
X-50.989 Y137.295
X-51.678 Y137.777
X-52.4 Y138.209
X-53.151 Y138.587
X-53.927 Y138.911
X-54.724 Y139.18
X-55.538 Y139.392
X-56.364 Y139.546
X-57.2 Y139.64
X-58.04 Y139.675
X-58.881 Y139.65
X-59.718 Y139.567
X-60.547 Y139.427
X-61.365 Y139.23
X-62.168 Y138.979
X-62.951 Y138.672
X-63.71 Y138.311
X-64.443 Y137.899
X-65.147 Y137.438
X-65.818 Y136.932
X-66.454 Y136.382
X-67.052 Y135.789
X-67.606 Y135.157
X-68.117 Y134.489
X-68.582 Y133.789
X-69.001 Y133.059
X-69.37 Y132.304
X-69.688 Y131.525
X-69.951 Y130.726
X-70.16 Y129.912
X-70.316 Y129.085
X-70.417 Y128.25
X-70.464 Y127.41
X-70.454 Y126.57
X-70.387 Y125.731
X-70.265 Y124.899
X-70.088 Y124.077
X-69.859 Y123.268
X-69.578 Y122.475
X-69.244 Y121.703
X-68.858 Y120.956
X-68.424 Y120.235
X-67.945 Y119.545
X-67.421 Y118.886
X-66.856 Y118.263
X-66.251 Y117.68
X-65.607 Y117.139
X-64.929 Y116.641
X-64.221 Y116.188
X-63.485 Y115.781
X-62.723 Y115.423
X-61.94 Y115.118
X-61.138 Y114.866
X-60.321 Y114.666
X-59.492 Y114.52
X-58.656 Y114.428
X-57.816 Y114.39
X-56.975 Y114.41
X-56.138 Y114.485
X-55.307 Y114.614
X-54.486 Y114.797
X-53.678 Y115.032
X-52.888 Y115.319
X-52.118 Y115.656
X-51.371 Y116.043
X-50.649 Y116.475
X-49.955 Y116.95
X-49.292 Y117.467
X-48.66 Y118.022
X-48.064 Y118.616
X-47.507 Y119.246
X-46.988 Y119.908
X-46.511 Y120.6
X-46.075 Y121.319
X-45.681 Y122.062
X-45.334 Y122.828
X-45.034 Y123.614
X-44.782 Y124.416
X-44.579 Y125.232
X-44.425 Y126.059
X-44.322 Y126.894
X-44.269 Y127.733
Y128.574
X-44.322 Y129.414
X-44.426 Y130.248
X-44.582 Y131.075
X-44.786 Y131.89
X-45.04 Y132.692
X-45.344 Y133.476
X-45.697 Y134.24
X-46.095 Y134.98
X-46.539 Y135.695
X-47.024 Y136.381
X-47.551 Y137.038
X-48.117 Y137.659
X-48.722 Y138.244
X-49.361 Y138.79
X-50.033 Y139.296
X-50.734 Y139.761
X-51.461 Y140.183
X-52.212 Y140.561
X-52.986 Y140.892
X-53.778 Y141.175
X-54.585 Y141.41
X-55.405 Y141.597
X-56.235 Y141.735
X-57.071 Y141.824
X-57.911 Y141.861
X-58.752 Y141.849
X-59.591 Y141.786
X-60.424 Y141.675
X-61.25 Y141.516
X-62.065 Y141.31
X-62.867 Y141.056
X-63.652 Y140.755
X-64.418 Y140.408
X-65.163 Y140.016
X-65.884 Y139.584
X-66.579 Y139.111
X-67.247 Y138.6
X-67.884 Y138.05
X-68.487 Y137.464
X-69.055 Y136.843
X-69.586 Y136.192
X-70.08 Y135.511
X-70.536 Y134.804
X-70.951 Y134.073
X-71.323 Y133.318
X-71.65 Y132.544
X-71.932 Y131.751
X-72.169 Y130.944
X-72.361 Y130.126
X-72.507 Y129.297
X-72.607 Y128.462
X-72.658 Y127.623
X-72.66 Y126.782
X-72.615 Y125.942
X-72.522 Y125.106
X-72.384 Y124.277
X-72.201 Y123.456
X-71.971 Y122.647
X-71.695 Y121.852
X-71.374 Y121.075
X-71.009 Y120.317
X-70.603 Y119.581
X-70.157 Y118.868
X-69.673 Y118.18
X-69.15 Y117.521
X-68.59 Y116.894
X-67.995 Y116.299
X-67.368 Y115.739
X-66.711 Y115.215
X-66.026 Y114.727
X-65.315 Y114.277
X-64.58 Y113.869
X-63.822 Y113.504
X-63.045 Y113.182
X-62.251 Y112.905
X-61.443 Y112.672
X-60.623 Y112.483
X-59.795 Y112.339
X-58.959 Y112.244
X-58.119 Y112.197
X-57.278
X-56.439 Y112.244
X-55.603 Y112.338
X-54.773 Y112.476
X-53.953 Y112.66
X-53.144 Y112.89
X-52.349 Y113.166
X-51.571 Y113.485
X-50.811 Y113.845
X-50.072 Y114.245
X-49.354 Y114.684
X-48.66 Y115.159
X-47.993 Y115.672
X-47.355 Y116.219
X-46.747 Y116.801
X-46.171 Y117.413
X-45.626 Y118.054
X-45.116 Y118.722
X-44.64 Y119.415
X-44.2 Y120.133
X-43.8 Y120.872
X-43.439 Y121.632
X-43.119 Y122.409
X-42.839 Y123.202
X-42.6 Y124.009
X-42.402 Y124.826
X-42.247 Y125.653
X-42.138 Y126.487
X-42.073 Y127.325
X-42.053 Y128.166
X-42.077 Y129.007
X-42.145 Y129.845
X-42.257 Y130.678
X-42.411 Y131.505
X-42.61 Y132.322
X-42.854 Y133.127
X-43.139 Y133.918
X-43.467 Y134.693
X-43.834 Y135.449
X-44.24 Y136.186
X-44.684 Y136.9
X-45.166 Y137.59
X-45.684 Y138.252
X-46.237 Y138.885
X-46.823 Y139.488
X-47.44 Y140.06
X-48.086 Y140.599
X-48.758 Y141.104
X-49.457 Y141.573
X-50.179 Y142.004
X-50.923 Y142.395
X-51.687 Y142.748
X-52.467 Y143.06
X-53.263 Y143.333
X-54.072 Y143.564
X-54.891 Y143.754
X-55.719 Y143.899
X-56.554 Y144.002
X-57.393 Y144.06
X-58.234 Y144.076
X-59.074 Y144.049
X-59.913 Y143.981
X-60.746 Y143.87
X-61.573 Y143.717
X-62.391 Y143.521
X-63.198 Y143.283
X-63.991 Y143.005
X-64.77 Y142.687
X-65.532 Y142.331
X-66.275 Y141.938
X-66.998 Y141.508
X-67.698 Y141.042
X-68.374 Y140.541
X-69.023 Y140.006
X-69.644 Y139.439
X-70.237 Y138.843
X-70.8 Y138.218
X-71.332 Y137.567
X-71.831 Y136.89
X-72.295 Y136.188
X-72.723 Y135.464
X-73.114 Y134.72
X-73.468 Y133.957
X-73.784 Y133.178
X-74.063 Y132.384
X-74.302 Y131.578
X-74.501 Y130.761
X-74.659 Y129.935
X-74.775 Y129.102
X-74.85 Y128.264
X-74.884 Y127.424
X-74.877 Y126.583
X-74.829 Y125.743
X-74.741 Y124.907
X-74.611 Y124.076
X-74.44 Y123.252
X-74.229 Y122.438
X-73.977 Y121.636
X-73.687 Y120.846
X-73.359 Y120.072
X-72.995 Y119.314
X-72.593 Y118.575
X-72.156 Y117.857
X-71.683 Y117.161
X-71.177 Y116.49
X-70.638 Y115.844
X-70.069 Y115.225
X-69.47 Y114.634
X-68.844 Y114.073
X-68.191 Y113.543
X-67.512 Y113.046
X-66.81 Y112.583
X-66.086 Y112.156
X-65.342 Y111.764
X-64.579 Y111.409
X-63.801 Y111.091
X-63.008 Y110.81
X-62.202 Y110.569
X-61.385 Y110.369
X-60.56 Y110.208
X-59.727 Y110.089
X-58.89 Y110.01
X-58.05 Y109.972
X-57.209 Y109.974
X-56.369 Y110.016
X-55.532 Y110.1
X-54.701 Y110.225
X-53.876 Y110.391
X-53.06 Y110.596
X-52.256 Y110.84
X-51.463 Y111.122
X-50.685 Y111.441
X-49.923 Y111.796
X-49.178 Y112.187
X-48.453 Y112.613
X-47.749 Y113.073
X-47.067 Y113.565
X-46.409 Y114.088
X-45.775 Y114.642
X-45.168 Y115.223
X-44.587 Y115.832
X-44.036 Y116.467
X-43.515 Y117.127
X-43.024 Y117.81
X-42.566 Y118.515
X-42.14 Y119.24
X-41.747 Y119.984
X-41.389 Y120.745
X-41.065 Y121.521
X-40.778 Y122.311
X-40.527 Y123.114
X-40.314 Y123.928
X-40.138 Y124.75
X-40.001 Y125.58
X-39.902 Y126.415
X-39.841 Y127.254
X-39.819 Y128.095
X-39.836 Y128.935
X-39.892 Y129.774
X-39.988 Y130.61
X-40.122 Y131.44
X-40.295 Y132.263
X-40.505 Y133.078
X-40.753 Y133.881
X-41.037 Y134.673
X-41.358 Y135.45
X-41.715 Y136.212
X-42.107 Y136.956
X-42.534 Y137.68
X-42.993 Y138.385
X-43.485 Y139.067
X-44.008 Y139.726
X-44.56 Y140.36
X-45.142 Y140.968
X-45.751 Y141.547
X-46.387 Y142.098
X-47.047 Y142.619
X-47.73 Y143.109
X-48.436 Y143.567
X-49.161 Y143.992
X-49.905 Y144.385
X-50.666 Y144.742
X-51.443 Y145.064
X-52.234 Y145.35
X-53.037 Y145.599
X-53.851 Y145.812
X-54.674 Y145.988
X-55.503 Y146.126
X-56.338 Y146.227
X-57.177 Y146.29
X-58.017 Y146.314
X-58.858 Y146.301
X-59.698 Y146.25
X-60.534 Y146.161
X-61.365 Y146.035
X-62.19 Y145.872
X-63.007 Y145.672
X-63.815 Y145.436
X-64.611 Y145.164
X-65.393 Y144.857
X-66.162 Y144.515
X-66.914 Y144.14
X-67.649 Y143.731
X-68.366 Y143.291
X-69.062 Y142.819
X-69.737 Y142.317
X-70.389 Y141.786
X-71.017 Y141.227
X-71.619 Y140.64
X-72.195 Y140.027
X-72.744 Y139.389
X-73.264 Y138.729
X-73.755 Y138.046
X-74.215 Y137.342
X-74.645 Y136.619
X-75.042 Y135.878
X-75.406 Y135.119
X-75.736 Y134.346
X-76.033 Y133.559
X-76.295 Y132.76
X-76.522 Y131.95
X-76.713 Y131.131
X-76.87 Y130.305
X-76.99 Y129.472
X-77.073 Y128.636
X-77.119 Y127.796
X-77.129 Y126.955
X-77.102 Y126.114
X-77.039 Y125.276
X-76.94 Y124.441
X-76.805 Y123.61
X-76.635 Y122.787
X-76.428 Y121.972
X-76.186 Y121.166
X-75.909 Y120.372
X-75.598 Y119.591
X-75.254 Y118.824
X-74.876 Y118.072
X-74.467 Y117.337
X-74.027 Y116.621
X-73.556 Y115.924
X-73.055 Y115.248
X-72.525 Y114.596
X-71.967 Y113.966
X-71.382 Y113.362
X-70.772 Y112.783
X-70.138 Y112.23
X-69.48 Y111.706
X-68.801 Y111.21
X-68.101 Y110.744
X-67.381 Y110.31
X-66.643 Y109.907
X-65.888 Y109.537
X-65.117 Y109.199
X-64.333 Y108.895
X-63.537 Y108.625
X-62.73 Y108.389
X-61.913 Y108.188
X-61.088 Y108.022
X-60.257 Y107.893
X-59.422 Y107.801
X-58.582 Y107.744
X-57.742 Y107.724
X-56.901 Y107.739
X-56.061 Y107.791
X-55.225 Y107.878
X-54.393 Y108.001
X-53.567 Y108.16
X-52.749 Y108.354
X-51.94 Y108.584
X-51.141 Y108.847
X-50.354 Y109.144
X-49.58 Y109.473
X-48.821 Y109.835
X-48.078 Y110.228
X-47.351 Y110.651
X-46.643 Y111.105
X-45.954 Y111.588
X-45.287 Y112.1
X-44.641 Y112.638
X-44.018 Y113.203
X-43.418 Y113.792
X-42.843 Y114.406
X-42.293 Y115.043
X-41.77 Y115.701
X-41.274 Y116.38
X-40.807 Y117.08
X-40.369 Y117.798
X-39.961 Y118.533
X-39.582 Y119.284
X-39.235 Y120.05
X-38.919 Y120.829
X-38.635 Y121.621
X-38.383 Y122.423
X-38.164 Y123.235
X-37.979 Y124.056
X-37.829 Y124.883
X-37.713 Y125.716
X-37.631 Y126.553
X-37.583 Y127.393
X-37.569 Y128.233
X-37.59 Y129.074
X-37.645 Y129.913
X-37.735 Y130.75
X-37.86 Y131.581
X-38.02 Y132.407
X-38.213 Y133.225
X-38.44 Y134.035
X-38.701 Y134.835
X-38.993 Y135.623
X-39.318 Y136.399
X-39.674 Y137.161
X-40.061 Y137.907
X-40.48 Y138.637
X-40.929 Y139.348
X-41.406 Y140.04
X-41.912 Y140.712
X-42.445 Y141.363
X-43.004 Y141.991
X-43.589 Y142.596
X-44.197 Y143.176
X-44.829 Y143.731
X-45.484 Y144.259
X-46.16 Y144.759
X-46.856 Y145.232
X-47.57 Y145.675
X-48.302 Y146.089
X-49.051 Y146.473
X-49.814 Y146.826
X-50.591 Y147.149
X-51.38 Y147.439
X-51.671 Y147.533
X-51.811 Y147.57
X-51.955 Y147.592
X-52.099 Y147.6
X-62.079
X-62.919 Y147.558
X-63.337 Y147.519
X-64.151 Y147.407
X-64.972 Y147.225
X-65.779 Y146.988
X-66.57 Y146.702
X-67.344 Y146.374
X-68.101 Y146.009
X-68.841 Y145.608
X-69.562 Y145.176
X-70.265 Y144.713
X-70.946 Y144.221
X-71.607 Y143.7
X-72.246 Y143.153
X-72.862 Y142.58
X-73.454 Y141.984
X-74.023 Y141.364
X-74.567 Y140.723
X-75.085 Y140.061
X-75.578 Y139.379
X-76.043 Y138.678
X-76.48 Y137.959
X-76.887 Y137.224
X-77.266 Y136.473
X-77.614 Y135.707
X-77.933 Y134.929
X-78.015 Y134.703
X-78.062 Y134.547
X-78.09 Y134.386
X-78.1 Y134.223
Y122.043
X-78.058 Y121.213
X-77.962 Y120.475
X-77.786 Y119.653
X-77.547 Y118.847
X-77.255 Y118.058
X-76.919 Y117.287
X-76.542 Y116.535
X-76.13 Y115.802
X-75.686 Y115.088
X-75.211 Y114.394
X-74.707 Y113.721
X-74.176 Y113.068
X-73.62 Y112.438
X-73.039 Y111.829
X-72.434 Y111.245
X-71.807 Y110.685
X-71.158 Y110.15
X-70.489 Y109.64
X-69.8 Y109.158
X-69.093 Y108.702
X-68.369 Y108.275
X-67.629 Y107.875
X-66.874 Y107.504
X-66.106 Y107.162
X-65.446 Y106.899
X-65.278 Y106.844
X-65.105 Y106.811
X-64.928 Y106.8
X-52.523
X-51.683 Y106.842
X-51.266 Y106.891
X-50.493 Y107.018
X-49.677 Y107.221
X-48.878 Y107.482
X-48.096 Y107.793
X-47.333 Y108.146
X-46.588 Y108.536
X-45.862 Y108.96
X-45.154 Y109.415
X-44.467 Y109.899
X-43.799 Y110.41
X-43.151 Y110.946
X-42.524 Y111.507
X-41.919 Y112.091
X-41.337 Y112.698
X-40.778 Y113.327
X-40.243 Y113.976
X-39.733 Y114.644
X-39.248 Y115.331
X-38.788 Y116.036
X-38.355 Y116.756
X-37.948 Y117.492
X-37.568 Y118.243
X-37.216 Y119.006
X-36.892 Y119.783
X-36.598 Y120.57
X-36.333 Y121.369
X-36.098 Y122.176
X-35.893 Y122.992
X-35.719 Y123.814
X-35.574 Y124.643
X-35.46 Y125.476
X-35.377 Y126.313
X-35.324 Y127.152
X-35.302 Y127.993
X-35.313 Y128.834
X-35.354 Y129.674
X-35.428 Y130.512
X-35.532 Y131.346
X-35.667 Y132.176
X-35.832 Y133.001
X-36.028 Y133.819
X-36.254 Y134.629
X-36.509 Y135.43
X-36.794 Y136.222
X-37.109 Y137.002
X-37.453 Y137.769
X-37.825 Y138.523
X-38.225 Y139.263
X-38.652 Y139.987
X-39.106 Y140.695
X-39.585 Y141.386
X-40.09 Y142.059
X-40.619 Y142.713
X-41.172 Y143.347
X-41.748 Y143.959
X-42.347 Y144.549
X-42.968 Y145.117
X-43.609 Y145.661
X-44.27 Y146.181
X-44.95 Y146.677
X-45.647 Y147.147
X-46.033 Y147.388
X-46.265 Y147.504
X-46.515 Y147.576
X-46.774 Y147.6
X-52.099
G3 X-52.327 Y147.546 I0.021 J-0.6
G1 X-52.413 Y147.507 Z-1.993
X-52.496 Y147.469 Z-1.971
X-52.575 Y147.433 Z-1.935
X-52.648 Y147.4 Z-1.885
X-52.713 Y147.37 Z-1.824
X-52.769 Y147.345 Z-1.753
X-52.814 Y147.325 Z-1.672
X-52.847 Y147.31 Z-1.585
X-52.867 Y147.301 Z-1.494
X-52.873 Y147.298 Z-1.4
G0 Z2.502
X-77.355 Y122.327
Z-0.8
G1 Z-1.4 F500.
X-77.362 Y122.326 Z-1.494
X-77.384 Y122.322 Z-1.585
X-77.419 Y122.315 Z-1.672
X-77.468 Y122.307 Z-1.753
X-77.528 Y122.296 Z-1.824
X-77.599 Y122.283 Z-1.885
X-77.678 Y122.269 Z-1.935
X-77.763 Y122.254 Z-1.971
X-77.853 Y122.238 Z-1.993
X-77.946 Y122.221 Z-2.
G3 X-78.1 Y122.043 I0.033 J-0.185
G1 Y117.075
X-78.075 Y116.584
X-78.017 Y116.142
X-77.905 Y115.617
X-77.73 Y115.031
X-77.464 Y114.348
X-77.097 Y113.592
X-76.672 Y112.866
X-76.203 Y112.168
X-75.695 Y111.498
X-75.155 Y110.853
X-74.586 Y110.233
X-73.992 Y109.639
X-73.374 Y109.068
X-72.734 Y108.522
X-72.073 Y108.002
X-71.394 Y107.506
X-70.659 Y107.012
X-70.427 Y106.896
X-70.177 Y106.824
X-69.918 Y106.8
X-64.928
G3 X-64.583 Y107.875 I-0.021 J0.6
G1 X-77.135 Y117.53
G3 X-78.1 Y117.075 I-0.366 J-0.476
G1 Y113.254
X-78.085 Y112.958
X-78.037 Y112.587
X-77.951 Y112.186
X-77.809 Y111.711
X-77.601 Y111.178
X-77.309 Y110.577
X-76.903 Y109.887
X-76.419 Y109.198
X-75.889 Y108.546
X-75.321 Y107.926
X-74.722 Y107.336
X-74.523 Y107.158
X-74.318 Y107.005
X-74.089 Y106.893
X-73.843 Y106.823
X-73.588 Y106.8
X-69.918
G3 X-69.573 Y107.875 I-0.021 J0.6
G1 X-77.134 Y113.708
G3 X-78.1 Y113.254 I-0.367 J-0.475
G1 Y110.006
X-78.087 Y109.748
X-78.045 Y109.427
X-77.968 Y109.069
X-77.845 Y108.658
X-77.667 Y108.2
X-77.421 Y107.693
X-77.301 Y107.49
X-77.129 Y107.256
X-76.912 Y107.063
X-76.66 Y106.919
X-76.383 Y106.83
X-76.095 Y106.8
G3 X-75.587 Y107.683 I-0.021 J0.6
G1 X-76.971 Y110.269
G3 X-78.1 Y110.006 I-0.529 J-0.283
G1 Y107.522
X-78.087 Y107.302
X-78.072 Y107.236
X-78.032 Y107.14
X-77.993 Y107.076
X-77.941 Y107.011
X-77.878 Y106.949
X-77.75 Y106.863
X-77.654 Y106.825
X-77.558 Y106.805
X-73.588 Y106.8
G3 X-73.36 Y106.854 I-0.021 J0.6
G1 X-73.275 Y106.893 Z-1.993
X-73.192 Y106.931 Z-1.971
X-73.113 Y106.967 Z-1.935
X-73.04 Y107. Z-1.885
X-72.974 Y107.03 Z-1.824
X-72.919 Y107.055 Z-1.753
X-72.874 Y107.075 Z-1.672
X-72.841 Y107.09 Z-1.585
X-72.821 Y107.099 Z-1.494
X-72.814 Y107.102 Z-1.4
G0 Z2.502
X-61.795 Y146.855
Z-0.8
G1 Z-1.4 F500.
X-61.796 Y146.862 Z-1.494
X-61.8 Y146.884 Z-1.585
X-61.806 Y146.919 Z-1.672
X-61.815 Y146.968 Z-1.753
X-61.826 Y147.028 Z-1.824
X-61.838 Y147.099 Z-1.885
X-61.852 Y147.178 Z-1.935
X-61.868 Y147.263 Z-1.971
X-61.884 Y147.353 Z-1.993
X-61.901 Y147.446 Z-2.
G3 X-62.079 Y147.6 I-0.185 J-0.033
G1 X-67.43
X-68.058 Y147.569
X-68.518 Y147.508
X-69.064 Y147.391
X-69.683 Y147.206
X-70.393 Y146.93
X-71.149 Y146.563
X-71.877 Y146.141
X-72.576 Y145.674
X-73.25 Y145.17
X-73.898 Y144.634
X-74.521 Y144.07
X-75.12 Y143.48
X-75.696 Y142.866
X-76.247 Y142.231
X-76.774 Y141.576
X-77.276 Y140.901
X-77.752 Y140.207
X-77.882 Y140.001
X-78.002 Y139.767
X-78.075 Y139.514
X-78.1 Y139.252
Y134.223
G3 X-77.029 Y133.873 I0.6 J0.021
G1 X-66.979 Y146.629
G3 X-67.202 Y147.546 I-0.471 J0.371
X-67.43 Y147.6 I-0.249 J-0.546
G1 X-71.443
X-71.754 Y147.584
X-72.131 Y147.535
X-72.54 Y147.447
X-73.024 Y147.302
X-73.569 Y147.09
X-74.184 Y146.792
X-74.892 Y146.375
X-75.58 Y145.892
X-76.233 Y145.363
X-76.856 Y144.797
X-77.448 Y144.201
X-77.737 Y143.882
X-77.892 Y143.676
X-78.006 Y143.446
X-78.076 Y143.198
X-78.1 Y142.942
Y139.252
G3 X-77.028 Y138.903 I0.6 J0.021
G1 X-70.991 Y146.631
G3 X-71.215 Y147.546 I-0.473 J0.369
X-71.443 Y147.6 I-0.249 J-0.546
G1 X-74.692
X-75.002 Y147.584
X-75.327 Y147.542
X-75.689 Y147.464
X-76.106 Y147.339
X-76.57 Y147.159
X-77.09 Y146.906
X-77.41 Y146.718
X-77.644 Y146.546
X-77.837 Y146.329
X-77.981 Y146.077
X-78.07 Y145.8
X-78.1 Y145.512
G3 X-77.221 Y145.002 I0.6 J0.021
G1 X-74.433 Y146.469
G3 X-74.464 Y147.546 I-0.28 J0.531
X-74.692 Y147.6 I-0.249 J-0.546
G1 X-77.367
X-77.399 Y147.599
X-77.426 Y147.598
X-77.604 Y147.58
X-77.75 Y147.537
G3 X-78.05 Y146.852 I0.35 J-0.562
X-76.813 Y147.087 I0.618 J0.118
X-77.426 Y147.598 I-0.618 J-0.118
G1 X-77.558 Y147.595
X-77.654 Y147.575
X-77.75 Y147.537
X-77.874 Y147.454
X-77.991 Y147.326
X-78.029 Y147.263
X-78.07 Y147.168
X-78.093 Y147.072
X-78.1 Y146.499
Y142.942
G3 X-78.046 Y142.714 I0.6 J0.021
G1 X-78.007 Y142.628 Z-1.993
X-77.969 Y142.545 Z-1.971
X-77.933 Y142.466 Z-1.935
X-77.9 Y142.393 Z-1.885
X-77.87 Y142.328 Z-1.824
X-77.845 Y142.272 Z-1.753
X-77.825 Y142.227 Z-1.672
X-77.81 Y142.195 Z-1.585
X-77.801 Y142.175 Z-1.494
X-77.798 Y142.168 Z-1.4
G0 Z2.502
X-52.807 Y107.545
Z-0.8
G1 Z-1.4 F500.
X-52.806 Y107.538 Z-1.494
X-52.802 Y107.516 Z-1.585
X-52.796 Y107.481 Z-1.672
X-52.787 Y107.432 Z-1.753
X-52.776 Y107.372 Z-1.824
X-52.763 Y107.301 Z-1.885
X-52.749 Y107.222 Z-1.935
X-52.734 Y107.137 Z-1.971
X-52.718 Y107.047 Z-1.993
X-52.701 Y106.954 Z-2.
G3 X-52.523 Y106.8 I0.185 J0.033
G1 X-47.554
X-46.951 Y106.83
X-46.491 Y106.891
X-45.98 Y107.
X-45.375 Y107.181
X-44.673 Y107.454
X-43.916 Y107.822
X-43.189 Y108.244
X-42.49 Y108.711
X-41.816 Y109.215
X-41.168 Y109.751
X-40.544 Y110.315
X-39.944 Y110.904
X-39.368 Y111.517
X-38.815 Y112.151
X-38.286 Y112.804
X-37.779 Y113.475
X-37.297 Y114.164
X-36.837 Y114.869
X-36.402 Y115.588
X-35.992 Y116.322
X-35.606 Y117.07
X-35.246 Y117.83
X-34.913 Y118.602
X-34.606 Y119.385
X-34.326 Y120.178
X-34.072 Y120.98
X-33.846 Y121.79
X-33.646 Y122.607
X-33.474 Y123.43
X-33.329 Y124.258
X-33.211 Y125.091
X-33.122 Y125.927
X-33.062 Y126.766
X-33.03 Y127.606
X-33.027 Y128.447
X-33.052 Y129.288
X-33.106 Y130.127
X-33.188 Y130.964
X-33.297 Y131.798
X-33.435 Y132.628
X-33.6 Y133.453
X-33.792 Y134.271
X-34.012 Y135.083
X-34.26 Y135.887
X-34.535 Y136.681
X-34.837 Y137.466
X-35.165 Y138.24
X-35.52 Y139.003
X-35.9 Y139.753
X-36.305 Y140.491
X-36.734 Y141.214
X-37.187 Y141.922
X-37.663 Y142.615
X-38.163 Y143.292
X-38.686 Y143.951
X-39.23 Y144.591
X-39.797 Y145.213
X-40.384 Y145.815
X-40.991 Y146.398
X-41.617 Y146.959
X-42.261 Y147.499
X-42.35 Y147.554
X-42.449 Y147.588
X-42.553 Y147.6
X-46.774
G3 X-47.002 Y147.546 I0.021 J-0.6
G1 X-47.087 Y147.507 Z-1.993
X-47.17 Y147.469 Z-1.971
X-47.249 Y147.433 Z-1.935
X-47.322 Y147.4 Z-1.885
X-47.388 Y147.37 Z-1.824
X-47.443 Y147.345 Z-1.753
X-47.488 Y147.325 Z-1.672
X-47.521 Y147.31 Z-1.585
X-47.541 Y147.301 Z-1.494
X-47.548 Y147.298 Z-1.4
G0 Z2.502
X-47.838 Y107.545
Z-0.8
G1 Z-1.4 F500.
X-47.837 Y107.538 Z-1.494
X-47.833 Y107.516 Z-1.585
X-47.827 Y107.481 Z-1.672
X-47.818 Y107.432 Z-1.753
X-47.807 Y107.372 Z-1.824
X-47.795 Y107.301 Z-1.885
X-47.78 Y107.222 Z-1.935
X-47.765 Y107.137 Z-1.971
X-47.749 Y107.047 Z-1.993
X-47.732 Y106.954 Z-2.
G3 X-47.554 Y106.8 I0.185 J0.033
G1 X-43.732
X-43.283 Y106.822
X-42.908 Y106.872
X-42.499 Y106.959
X-42.018 Y107.103
X-41.472 Y107.316
X-40.86 Y107.613
X-40.153 Y108.029
X-39.464 Y108.513
X-38.811 Y109.042
X-38.188 Y109.607
X-37.594 Y110.203
X-37.028 Y110.824
X-36.487 Y111.468
X-35.97 Y112.132
X-35.478 Y112.814
X-35.009 Y113.512
X-34.563 Y114.225
X-34.142 Y114.953
X-33.745 Y115.694
X-33.371 Y116.448
X-33.022 Y117.213
X-32.697 Y117.989
X-32.396 Y118.774
X-32.12 Y119.568
X-31.868 Y120.371
X-31.641 Y121.18
X-31.439 Y121.997
X-31.261 Y122.819
X-31.109 Y123.646
X-30.983 Y124.477
X-30.883 Y125.313
X-30.81 Y126.15
X-30.762 Y126.99
X-30.74 Y127.831
X-30.744 Y128.672
X-30.774 Y129.512
X-30.83 Y130.351
X-30.911 Y131.188
X-31.018 Y132.023
X-31.15 Y132.853
X-31.308 Y133.679
X-31.492 Y134.5
X-31.701 Y135.314
X-31.936 Y136.122
X-32.195 Y136.922
X-32.48 Y137.713
X-32.788 Y138.496
X-33.121 Y139.268
X-33.477 Y140.03
X-33.856 Y140.781
X-34.258 Y141.519
X-34.682 Y142.246
X-35.129 Y142.958
X-35.598 Y143.656
X-36.089 Y144.339
X-36.6 Y145.007
X-37.132 Y145.658
X-37.684 Y146.293
X-38.255 Y146.91
X-38.523 Y147.182
X-38.736 Y147.359
X-38.98 Y147.491
X-39.245 Y147.573
X-39.521 Y147.6
X-42.553
G3 X-42.781 Y147.546 I0.021 J-0.6
G1 X-42.867 Y147.507 Z-1.993
X-42.95 Y147.469 Z-1.971
X-43.029 Y147.433 Z-1.935
X-43.102 Y147.4 Z-1.885
X-43.167 Y147.37 Z-1.824
X-43.223 Y147.345 Z-1.753
X-43.268 Y147.325 Z-1.672
X-43.301 Y147.31 Z-1.585
X-43.321 Y147.301 Z-1.494
X-43.327 Y147.298 Z-1.4
G0 Z2.502
X-44.016 Y107.545
Z-0.8
G1 Z-1.4 F500.
X-44.015 Y107.538 Z-1.494
X-44.011 Y107.516 Z-1.585
X-44.005 Y107.481 Z-1.672
X-43.996 Y107.432 Z-1.753
X-43.985 Y107.372 Z-1.824
X-43.972 Y107.301 Z-1.885
X-43.958 Y107.222 Z-1.935
X-43.943 Y107.137 Z-1.971
X-43.927 Y107.047 Z-1.993
X-43.91 Y106.954 Z-2.
G3 X-43.732 Y106.8 I0.185 J0.033
G1 X-40.483
X-40.04 Y106.822
X-39.714 Y106.865
X-39.352 Y106.942
X-38.935 Y107.067
X-38.469 Y107.249
X-37.946 Y107.503
X-37.347 Y107.855
X-36.67 Y108.33
X-36.023 Y108.867
X-35.414 Y109.447
X-34.838 Y110.059
X-34.292 Y110.699
X-33.775 Y111.363
X-33.285 Y112.046
X-32.82 Y112.747
X-32.38 Y113.464
X-31.964 Y114.195
X-31.572 Y114.939
X-31.203 Y115.694
X-30.856 Y116.461
X-30.533 Y117.237
X-30.232 Y118.022
X-29.954 Y118.816
X-29.699 Y119.618
X-29.467 Y120.426
X-29.258 Y121.24
X-29.073 Y122.061
X-28.911 Y122.886
X-28.774 Y123.716
X-28.66 Y124.549
X-28.57 Y125.385
X-28.505 Y126.224
X-28.463 Y127.064
X-28.444 Y127.904
X-28.45 Y128.745
X-28.479 Y129.586
X-28.532 Y130.425
X-28.608 Y131.263
X-28.709 Y132.098
X-28.833 Y132.93
X-28.982 Y133.757
X-29.154 Y134.581
X-29.35 Y135.398
X-29.569 Y136.21
X-29.811 Y137.016
X-30.076 Y137.814
X-30.363 Y138.604
X-30.673 Y139.386
X-31.005 Y140.159
X-31.358 Y140.922
X-31.732 Y141.675
X-32.128 Y142.417
X-32.546 Y143.147
X-32.984 Y143.865
X-33.443 Y144.57
X-33.921 Y145.262
X-34.42 Y145.939
X-34.937 Y146.602
X-35.343 Y147.092
X-35.564 Y147.306
X-35.826 Y147.467
X-36.116 Y147.566
X-36.422 Y147.6
X-39.521
G3 X-39.749 Y147.546 I0.021 J-0.6
G1 X-39.834 Y147.507 Z-1.993
X-39.918 Y147.469 Z-1.971
X-39.997 Y147.433 Z-1.935
X-40.07 Y147.4 Z-1.885
X-40.135 Y147.37 Z-1.824
X-40.191 Y147.345 Z-1.753
X-40.235 Y147.325 Z-1.672
X-40.268 Y147.31 Z-1.585
X-40.288 Y147.301 Z-1.494
X-40.295 Y147.298 Z-1.4
G0 Z2.502
X-40.767 Y107.545
Z-0.8
G1 Z-1.4 F500.
X-40.766 Y107.538 Z-1.494
X-40.762 Y107.516 Z-1.585
X-40.756 Y107.481 Z-1.672
X-40.747 Y107.432 Z-1.753
X-40.736 Y107.372 Z-1.824
X-40.724 Y107.301 Z-1.885
X-40.709 Y107.222 Z-1.935
X-40.694 Y107.137 Z-1.971
X-40.678 Y107.047 Z-1.993
X-40.661 Y106.954 Z-2.
G3 X-40.483 Y106.8 I0.185 J0.033
G1 X-37.426
X-37.044 Y106.819
X-36.754 Y106.857
X-36.412 Y106.93
X-36.035 Y107.043
X-35.606 Y107.21
X-35.137 Y107.438
X-34.599 Y107.754
X-33.997 Y108.178
X-33.35 Y108.715
X-32.746 Y109.3
X-32.182 Y109.924
X-31.652 Y110.577
X-31.154 Y111.254
X-30.684 Y111.952
X-30.241 Y112.667
X-29.823 Y113.397
X-29.43 Y114.14
X-29.06 Y114.895
X-28.712 Y115.661
X-28.387 Y116.436
X-28.083 Y117.221
X-27.801 Y118.013
X-27.541 Y118.813
X-27.303 Y119.619
X-27.087 Y120.432
X-26.893 Y121.251
X-26.722 Y122.074
X-26.572 Y122.902
X-26.445 Y123.733
X-26.34 Y124.567
X-26.258 Y125.404
X-26.197 Y126.243
X-26.158 Y127.083
X-26.142 Y127.924
X-26.147 Y128.765
X-26.174 Y129.606
X-26.223 Y130.445
X-26.294 Y131.283
X-26.388 Y132.119
X-26.504 Y132.952
X-26.643 Y133.781
X-26.804 Y134.607
X-26.986 Y135.428
X-27.19 Y136.244
X-27.416 Y137.054
X-27.663 Y137.858
X-27.931 Y138.655
X-28.219 Y139.445
X-28.528 Y140.227
X-28.858 Y141.001
X-29.207 Y141.766
X-29.577 Y142.521
X-29.967 Y143.266
X-30.377 Y144.001
X-30.806 Y144.724
X-31.255 Y145.435
X-31.722 Y146.135
X-32.207 Y146.821
X-32.39 Y147.057
X-32.612 Y147.285
X-32.88 Y147.457
X-33.18 Y147.564
X-33.497 Y147.6
X-36.422
G3 X-36.65 Y147.546 I0.021 J-0.6
G1 X-36.735 Y147.507 Z-1.993
X-36.818 Y147.469 Z-1.971
X-36.897 Y147.433 Z-1.935
X-36.97 Y147.4 Z-1.885
X-37.036 Y147.37 Z-1.824
X-37.091 Y147.345 Z-1.753
X-37.136 Y147.325 Z-1.672
X-37.169 Y147.31 Z-1.585
X-37.189 Y147.301 Z-1.494
X-37.195 Y147.298 Z-1.4
G0 Z2.502
X-37.709 Y107.545
Z-0.8
G1 Z-1.4 F500.
X-37.708 Y107.538 Z-1.494
X-37.704 Y107.516 Z-1.585
X-37.698 Y107.481 Z-1.672
X-37.689 Y107.432 Z-1.753
X-37.678 Y107.372 Z-1.824
X-37.666 Y107.301 Z-1.885
X-37.652 Y107.222 Z-1.935
X-37.636 Y107.137 Z-1.971
X-37.62 Y107.047 Z-1.993
X-37.604 Y106.954 Z-2.
G3 X-37.426 Y106.8 I0.185 J0.033
G1 X-34.559
X-34.209 Y106.818
X-33.931 Y106.854
X-33.598 Y106.925
X-33.254 Y107.028
X-32.846 Y107.187
X-32.417 Y107.395
X-31.922 Y107.687
X-31.374 Y108.072
X-30.775 Y108.569
X-30.173 Y109.157
X-29.614 Y109.785
X-29.094 Y110.446
X-28.608 Y111.132
X-28.152 Y111.839
X-27.725 Y112.563
X-27.323 Y113.303
X-26.946 Y114.054
X-26.593 Y114.817
X-26.262 Y115.591
X-25.952 Y116.373
X-25.665 Y117.163
X-25.398 Y117.96
X-25.152 Y118.765
X-24.928 Y119.575
X-24.725 Y120.391
X-24.543 Y121.212
X-24.381 Y122.038
X-24.241 Y122.867
X-24.121 Y123.699
X-24.022 Y124.535
X-23.944 Y125.372
X-23.886 Y126.211
X-23.849 Y127.051
X-23.832 Y127.892
X-23.836 Y128.733
X-23.86 Y129.574
X-23.905 Y130.413
X-23.971 Y131.252
X-24.058 Y132.088
X-24.165 Y132.922
X-24.294 Y133.754
X-24.443 Y134.581
X-24.613 Y135.405
X-24.803 Y136.224
X-25.013 Y137.039
X-25.243 Y137.848
X-25.492 Y138.651
X-25.761 Y139.447
X-26.05 Y140.238
X-26.357 Y141.02
X-26.683 Y141.795
X-27.029 Y142.562
X-27.393 Y143.32
X-27.777 Y144.069
X-28.179 Y144.807
X-28.599 Y145.536
X-29.038 Y146.253
X-29.497 Y146.958
X-29.561 Y147.043
X-29.784 Y147.276
X-30.055 Y147.453
X-30.358 Y147.563
X-30.679 Y147.6
X-33.497
G3 X-33.725 Y147.546 I0.021 J-0.6
G1 X-33.81 Y147.507 Z-1.993
X-33.893 Y147.469 Z-1.971
X-33.973 Y147.433 Z-1.935
X-34.046 Y147.4 Z-1.885
X-34.111 Y147.37 Z-1.824
X-34.166 Y147.345 Z-1.753
X-34.211 Y147.325 Z-1.672
X-34.244 Y147.31 Z-1.585
X-34.264 Y147.301 Z-1.494
X-34.271 Y147.298 Z-1.4
G0 Z2.502
X-34.843 Y107.545
Z-0.8
G1 Z-1.4 F500.
X-34.842 Y107.538 Z-1.494
X-34.838 Y107.516 Z-1.585
X-34.831 Y107.481 Z-1.672
X-34.823 Y107.432 Z-1.753
X-34.812 Y107.372 Z-1.824
X-34.799 Y107.301 Z-1.885
X-34.785 Y107.222 Z-1.935
X-34.77 Y107.137 Z-1.971
X-34.754 Y107.047 Z-1.993
X-34.737 Y106.954 Z-2.
G3 X-34.559 Y106.8 I0.185 J0.033
G1 X-31.692
X-31.492 Y106.81
X-31.216 Y106.846
X-30.902 Y106.913
X-30.57 Y107.013
X-30.181 Y107.164
X-29.775 Y107.361
X-29.309 Y107.635
X-28.794 Y107.997
X-28.238 Y108.459
X-27.636 Y109.046
X-27.082 Y109.678
X-26.568 Y110.344
X-26.091 Y111.037
X-25.647 Y111.751
X-25.232 Y112.482
X-24.844 Y113.228
X-24.481 Y113.987
X-24.141 Y114.756
X-23.824 Y115.535
X-23.529 Y116.323
X-23.254 Y117.118
X-23.001 Y117.92
X-22.768 Y118.728
X-22.556 Y119.541
X-22.364 Y120.36
X-22.191 Y121.183
X-22.039 Y122.011
X-21.906 Y122.841
X-21.793 Y123.674
X-21.699 Y124.51
X-21.625 Y125.348
X-21.57 Y126.187
X-21.534 Y127.027
X-21.518 Y127.868
X-21.52 Y128.709
X-21.542 Y129.55
X-21.584 Y130.39
X-21.645 Y131.229
X-21.725 Y132.066
X-21.826 Y132.901
X-21.946 Y133.733
X-22.085 Y134.562
X-22.243 Y135.388
X-22.421 Y136.21
X-22.617 Y137.028
X-22.833 Y137.841
X-23.066 Y138.649
X-23.318 Y139.451
X-23.588 Y140.248
X-23.877 Y141.038
X-24.183 Y141.821
X-24.507 Y142.597
X-24.849 Y143.365
X-25.209 Y144.126
X-25.587 Y144.877
X-25.982 Y145.619
X-26.395 Y146.352
X-26.82 Y147.033
X-26.994 Y147.227
X-27.201 Y147.386
X-27.434 Y147.503
X-27.685 Y147.576
X-27.945 Y147.6
X-30.679
G3 X-30.907 Y147.546 I0.021 J-0.6
G1 X-30.992 Y147.507 Z-1.993
X-31.076 Y147.469 Z-1.971
X-31.155 Y147.433 Z-1.935
X-31.228 Y147.4 Z-1.885
X-31.293 Y147.37 Z-1.824
X-31.349 Y147.345 Z-1.753
X-31.393 Y147.325 Z-1.672
X-31.426 Y147.31 Z-1.585
X-31.446 Y147.301 Z-1.494
X-31.453 Y147.298 Z-1.4
G0 Z2.502
X-31.976 Y107.545
Z-0.8
G1 Z-1.4 F500.
X-31.975 Y107.538 Z-1.494
X-31.971 Y107.516 Z-1.585
X-31.965 Y107.481 Z-1.672
X-31.956 Y107.432 Z-1.753
X-31.945 Y107.372 Z-1.824
X-31.933 Y107.301 Z-1.885
X-31.918 Y107.222 Z-1.935
X-31.903 Y107.137 Z-1.971
X-31.887 Y107.047 Z-1.993
X-31.87 Y106.954 Z-2.
G3 X-31.692 Y106.8 I0.185 J0.033
G1 X-29.017
X-28.844 Y106.809
X-28.568 Y106.845
X-28.274 Y106.908
X-27.947 Y107.006
X-27.576 Y107.15
X-27.182 Y107.341
X-26.739 Y107.602
X-26.246 Y107.948
X-25.722 Y108.383
X-25.135 Y108.956
X-24.582 Y109.59
X-24.073 Y110.259
X-23.603 Y110.957
X-23.167 Y111.676
X-22.762 Y112.413
X-22.385 Y113.164
X-22.033 Y113.928
X-21.705 Y114.703
X-21.4 Y115.486
X-21.116 Y116.278
X-20.854 Y117.077
X-20.612 Y117.883
X-20.39 Y118.694
X-20.187 Y119.51
X-20.005 Y120.331
X-19.841 Y121.156
X-19.696 Y121.984
X-19.57 Y122.816
X-19.462 Y123.65
X-19.373 Y124.486
X-19.302 Y125.324
X-19.249 Y126.163
X-19.215 Y127.004
X-19.198 Y127.845
X-19.2 Y128.686
X-19.22 Y129.526
X-19.258 Y130.367
X-19.315 Y131.206
X-19.39 Y132.043
X-19.484 Y132.879
X-19.596 Y133.712
X-19.727 Y134.543
X-19.875 Y135.371
X-20.042 Y136.195
X-20.226 Y137.016
X-20.428 Y137.832
X-20.648 Y138.644
X-20.885 Y139.451
X-21.139 Y140.253
X-21.411 Y141.049
X-21.699 Y141.839
X-22.004 Y142.622
X-22.326 Y143.399
X-22.665 Y144.169
X-23.021 Y144.931
X-23.394 Y145.685
X-23.787 Y146.428
X-24.083 Y146.92
X-24.255 Y147.151
X-24.472 Y147.341
X-24.722 Y147.483
X-24.997 Y147.57
X-25.283 Y147.6
X-27.945
G3 X-28.173 Y147.546 I0.021 J-0.6
G1 X-28.259 Y147.507 Z-1.993
X-28.342 Y147.469 Z-1.971
X-28.421 Y147.433 Z-1.935
X-28.494 Y147.4 Z-1.885
X-28.559 Y147.37 Z-1.824
X-28.615 Y147.345 Z-1.753
X-28.66 Y147.325 Z-1.672
X-28.692 Y147.31 Z-1.585
X-28.712 Y147.301 Z-1.494
X-28.719 Y147.298 Z-1.4
G0 Z2.502
X-29.301 Y107.545
Z-0.8
G1 Z-1.4 F500.
X-29.299 Y107.538 Z-1.494
X-29.296 Y107.516 Z-1.585
X-29.289 Y107.481 Z-1.672
X-29.28 Y107.432 Z-1.753
X-29.27 Y107.372 Z-1.824
X-29.257 Y107.301 Z-1.885
X-29.243 Y107.222 Z-1.935
X-29.228 Y107.137 Z-1.971
X-29.211 Y107.047 Z-1.993
X-29.195 Y106.954 Z-2.
G3 X-29.017 Y106.8 I0.185 J0.033
G1 X-26.532
X-26.245 Y106.814
X-25.971 Y106.85
X-25.692 Y106.91
X-25.368 Y107.007
X-25.014 Y107.145
X-24.627 Y107.333
X-24.202 Y107.583
X-23.726 Y107.917
X-23.224 Y108.334
X-22.665 Y108.879
X-22.112 Y109.513
X-21.606 Y110.185
X-21.141 Y110.885
X-20.711 Y111.608
X-20.313 Y112.349
X-19.945 Y113.105
X-19.602 Y113.873
X-19.284 Y114.652
X-18.989 Y115.439
X-18.715 Y116.234
X-18.462 Y117.036
X-18.23 Y117.845
X-18.017 Y118.658
X-17.823 Y119.477
X-17.648 Y120.299
X-17.492 Y121.126
X-17.353 Y121.955
X-17.232 Y122.787
X-17.129 Y123.622
X-17.044 Y124.459
X-16.976 Y125.297
X-16.925 Y126.136
X-16.891 Y126.977
X-16.875 Y127.818
X-16.876 Y128.659
X-16.894 Y129.499
X-16.929 Y130.34
X-16.982 Y131.179
X-17.052 Y132.017
X-17.14 Y132.853
X-17.245 Y133.688
X-17.368 Y134.52
X-17.507 Y135.349
X-17.664 Y136.175
X-17.838 Y136.998
X-18.028 Y137.818
X-18.235 Y138.633
X-18.459 Y139.443
X-18.698 Y140.25
X-18.955 Y141.051
X-19.227 Y141.846
X-19.515 Y142.636
X-19.82 Y143.42
X-20.14 Y144.198
X-20.476 Y144.969
X-20.83 Y145.732
X-21.208 Y146.483
X-21.46 Y146.911
X-21.632 Y147.144
X-21.849 Y147.337
X-22.101 Y147.481
X-22.377 Y147.57
X-22.666 Y147.6
X-25.283
G3 X-25.511 Y147.546 I0.021 J-0.6
G1 X-25.596 Y147.507 Z-1.993
X-25.68 Y147.469 Z-1.971
X-25.759 Y147.433 Z-1.935
X-25.832 Y147.4 Z-1.885
X-25.897 Y147.37 Z-1.824
X-25.953 Y147.345 Z-1.753
X-25.997 Y147.325 Z-1.672
X-26.03 Y147.31 Z-1.585
X-26.05 Y147.301 Z-1.494
X-26.057 Y147.298 Z-1.4
G0 Z2.502
X-26.816 Y107.545
Z-0.8
G1 Z-1.4 F500.
X-26.815 Y107.538 Z-1.494
X-26.811 Y107.516 Z-1.585
X-26.805 Y107.481 Z-1.672
X-26.796 Y107.432 Z-1.753
X-26.785 Y107.372 Z-1.824
X-26.773 Y107.301 Z-1.885
X-26.758 Y107.222 Z-1.935
X-26.743 Y107.137 Z-1.971
X-26.727 Y107.047 Z-1.993
X-26.71 Y106.954 Z-2.
G3 X-26.532 Y106.8 I0.185 J0.033
G1 X-24.048
X-23.693 Y106.818
X-23.428 Y106.853
X-23.155 Y106.911
X-22.83 Y107.008
X-22.49 Y107.141
X-22.107 Y107.327
X-21.696 Y107.568
X-21.233 Y107.894
X-20.747 Y108.297
X-20.209 Y108.822
X-19.656 Y109.456
X-19.152 Y110.129
X-18.691 Y110.832
X-18.267 Y111.558
X-17.876 Y112.303
X-17.514 Y113.062
X-17.18 Y113.834
X-16.87 Y114.616
X-16.583 Y115.406
X-16.318 Y116.204
X-16.074 Y117.009
X-15.85 Y117.82
X-15.645 Y118.635
X-15.459 Y119.456
X-15.291 Y120.28
X-15.141 Y121.107
X-15.008 Y121.938
X-14.892 Y122.771
X-14.793 Y123.606
X-14.711 Y124.443
X-14.645 Y125.281
X-14.596 Y126.121
X-14.564 Y126.961
X-14.548 Y127.802
Y128.643
X-14.565 Y129.484
X-14.598 Y130.324
X-14.647 Y131.164
X-14.713 Y132.002
X-14.796 Y132.839
X-14.895 Y133.674
X-15.01 Y134.507
X-15.142 Y135.338
X-15.29 Y136.166
X-15.454 Y136.991
X-15.634 Y137.812
X-15.83 Y138.63
X-16.042 Y139.444
X-16.269 Y140.254
X-16.511 Y141.059
X-16.77 Y141.859
X-17.043 Y142.655
X-17.331 Y143.445
X-17.635 Y144.229
X-17.955 Y145.007
X-18.292 Y145.777
X-18.66 Y146.533
X-18.878 Y146.906
X-19.051 Y147.141
X-19.268 Y147.335
X-19.52 Y147.48
X-19.798 Y147.57
X-20.087 Y147.6
X-22.666
G3 X-22.894 Y147.546 I0.021 J-0.6
G1 X-22.979 Y147.507 Z-1.993
X-23.063 Y147.469 Z-1.971
X-23.142 Y147.433 Z-1.935
X-23.215 Y147.4 Z-1.885
X-23.28 Y147.37 Z-1.824
X-23.335 Y147.345 Z-1.753
X-23.38 Y147.325 Z-1.672
X-23.413 Y147.31 Z-1.585
X-23.433 Y147.301 Z-1.494
X-23.44 Y147.298 Z-1.4
G0 Z2.502
X-24.332 Y107.545
Z-0.8
G1 Z-1.4 F500.
X-24.331 Y107.538 Z-1.494
X-24.327 Y107.516 Z-1.585
X-24.32 Y107.481 Z-1.672
X-24.312 Y107.432 Z-1.753
X-24.301 Y107.372 Z-1.824
X-24.288 Y107.301 Z-1.885
X-24.274 Y107.222 Z-1.935
X-24.259 Y107.137 Z-1.971
X-24.243 Y107.047 Z-1.993
X-24.226 Y106.954 Z-2.
G3 X-24.048 Y106.8 I0.185 J0.033
G1 X-21.372
X-21.186 Y106.809
X-20.93 Y106.843
X-20.657 Y106.901
X-20.333 Y106.998
X-20.002 Y107.127
X-19.622 Y107.312
X-19.221 Y107.547
X-18.767 Y107.867
X-18.294 Y108.259
X-17.771 Y108.77
X-17.218 Y109.403
X-16.716 Y110.078
X-16.258 Y110.783
X-15.838 Y111.512
X-15.452 Y112.259
X-15.097 Y113.022
X-14.769 Y113.796
X-14.467 Y114.581
X-14.187 Y115.374
X-13.93 Y116.175
X-13.693 Y116.981
X-13.476 Y117.794
X-13.278 Y118.611
X-13.098 Y119.433
X-12.936 Y120.258
X-12.791 Y121.087
X-12.663 Y121.918
X-12.551 Y122.751
X-12.456 Y123.587
X-12.376 Y124.424
X-12.313 Y125.263
X-12.265 Y126.102
X-12.234 Y126.943
X-12.218 Y127.784
X-12.217 Y128.625
X-12.232 Y129.466
X-12.263 Y130.306
X-12.31 Y131.146
X-12.372 Y131.984
X-12.449 Y132.822
X-12.543 Y133.658
X-12.652 Y134.492
X-12.776 Y135.323
X-12.917 Y136.152
X-13.072 Y136.979
X-13.243 Y137.802
X-13.429 Y138.623
X-13.629 Y139.439
X-13.845 Y140.252
X-14.075 Y141.061
X-14.32 Y141.866
X-14.58 Y142.666
X-14.854 Y143.461
X-15.144 Y144.25
X-15.449 Y145.034
X-15.774 Y145.81
X-16.125 Y146.551
X-16.326 Y146.899
X-16.498 Y147.136
X-16.715 Y147.332
X-16.969 Y147.479
X-17.247 Y147.569
X-17.539 Y147.6
X-20.087
G3 X-20.315 Y147.546 I0.021 J-0.6
G1 X-20.4 Y147.507 Z-1.993
X-20.484 Y147.469 Z-1.971
X-20.563 Y147.433 Z-1.935
X-20.636 Y147.4 Z-1.885
X-20.701 Y147.37 Z-1.824
X-20.757 Y147.345 Z-1.753
X-20.802 Y147.325 Z-1.672
X-20.834 Y147.31 Z-1.585
X-20.854 Y147.301 Z-1.494
X-20.861 Y147.298 Z-1.4
G0 Z2.502
X-21.656 Y107.545
Z-0.8
G1 Z-1.4 F500.
X-21.655 Y107.538 Z-1.494
X-21.651 Y107.516 Z-1.585
X-21.645 Y107.481 Z-1.672
X-21.636 Y107.432 Z-1.753
X-21.625 Y107.372 Z-1.824
X-21.613 Y107.301 Z-1.885
X-21.599 Y107.222 Z-1.935
X-21.583 Y107.137 Z-1.971
X-21.567 Y107.047 Z-1.993
X-21.55 Y106.954 Z-2.
G3 X-21.372 Y106.8 I0.185 J0.033
G1 X-18.888
X-18.694 Y106.81
X-18.447 Y106.842
X-18.174 Y106.901
X-17.852 Y106.997
X-17.529 Y107.123
X-17.152 Y107.306
X-16.761 Y107.536
X-16.315 Y107.849
X-15.852 Y108.233
X-15.342 Y108.731
X-14.789 Y109.365
X-14.289 Y110.041
X-13.833 Y110.748
X-13.417 Y111.479
X-13.037 Y112.228
X-12.687 Y112.993
X-12.365 Y113.77
X-12.068 Y114.557
X-11.795 Y115.353
X-11.544 Y116.155
X-11.314 Y116.964
X-11.103 Y117.778
X-10.911 Y118.597
X-10.736 Y119.42
X-10.58 Y120.246
X-10.439 Y121.075
X-10.316 Y121.907
X-10.208 Y122.741
X-10.116 Y123.577
X-10.039 Y124.415
X-9.978 Y125.253
X-9.932 Y126.093
X-9.901 Y126.934
X-9.885 Y127.774
X-9.884 Y128.615
X-9.897 Y129.456
X-9.926 Y130.297
X-9.97 Y131.137
X-10.029 Y131.976
X-10.102 Y132.813
X-10.191 Y133.65
X-10.294 Y134.484
X-10.412 Y135.317
X-10.545 Y136.147
X-10.693 Y136.975
X-10.855 Y137.801
X-11.032 Y138.623
X-11.223 Y139.442
X-11.428 Y140.257
X-11.648 Y141.069
X-11.881 Y141.877
X-12.129 Y142.681
X-12.391 Y143.48
X-12.667 Y144.274
X-12.961 Y145.062
X-13.276 Y145.842
X-13.604 Y146.548
X-13.797 Y146.89
X-13.969 Y147.13
X-14.187 Y147.328
X-14.442 Y147.477
X-14.722 Y147.569
X-15.016 Y147.6
X-17.539
G3 X-17.767 Y147.546 I0.021 J-0.6
G1 X-17.852 Y147.507 Z-1.993
X-17.935 Y147.469 Z-1.971
X-18.014 Y147.433 Z-1.935
X-18.088 Y147.4 Z-1.885
X-18.153 Y147.37 Z-1.824
X-18.208 Y147.345 Z-1.753
X-18.253 Y147.325 Z-1.672
X-18.286 Y147.31 Z-1.585
X-18.306 Y147.301 Z-1.494
X-18.313 Y147.298 Z-1.4
G0 Z2.502
X-19.172 Y107.545
Z-0.8
G1 Z-1.4 F500.
X-19.171 Y107.538 Z-1.494
X-19.167 Y107.516 Z-1.585
X-19.16 Y107.481 Z-1.672
X-19.152 Y107.432 Z-1.753
X-19.141 Y107.372 Z-1.824
X-19.128 Y107.301 Z-1.885
X-19.114 Y107.222 Z-1.935
X-19.099 Y107.137 Z-1.971
X-19.083 Y107.047 Z-1.993
X-19.066 Y106.954 Z-2.
G3 X-18.888 Y106.8 I0.185 J0.033
G1 X-16.404
X-16.227 Y106.809
X-15.986 Y106.84
X-15.713 Y106.899
X-15.395 Y106.994
X-15.076 Y107.118
X-14.701 Y107.3
X-14.318 Y107.526
X-13.879 Y107.834
X-13.424 Y108.212
X-12.924 Y108.7
X-12.379 Y109.324
X-11.879 Y110.
X-11.425 Y110.708
X-11.012 Y111.441
X-10.635 Y112.192
X-10.289 Y112.959
X-9.972 Y113.738
X-9.68 Y114.527
X-9.412 Y115.324
X-9.166 Y116.128
X-8.941 Y116.939
X-8.736 Y117.754
X-8.548 Y118.574
X-8.379 Y119.398
X-8.226 Y120.225
X-8.09 Y121.055
X-7.97 Y121.887
X-7.865 Y122.721
X-7.775 Y123.558
X-7.701 Y124.395
X-7.641 Y125.234
X-7.596 Y126.074
X-7.565 Y126.914
X-7.549 Y127.755
X-7.547 Y128.596
X-7.56 Y129.437
X-7.587 Y130.278
X-7.628 Y131.118
X-7.683 Y131.957
X-7.753 Y132.795
X-7.836 Y133.632
X-7.934 Y134.467
X-8.047 Y135.301
X-8.173 Y136.132
X-8.314 Y136.961
X-8.468 Y137.788
X-8.636 Y138.612
X-8.818 Y139.433
X-9.014 Y140.251
X-9.223 Y141.065
X-9.446 Y141.876
X-9.683 Y142.684
X-9.933 Y143.486
X-10.199 Y144.284
X-10.482 Y145.076
X-10.789 Y145.859
X-11.099 Y146.539
X-11.29 Y146.881
X-11.461 Y147.124
X-11.679 Y147.325
X-11.935 Y147.475
X-12.217 Y147.569
X-12.513 Y147.6
X-15.016
G3 X-15.243 Y147.546 I0.021 J-0.6
G1 X-15.329 Y147.507 Z-1.993
X-15.412 Y147.469 Z-1.971
X-15.491 Y147.433 Z-1.935
X-15.564 Y147.4 Z-1.885
X-15.629 Y147.37 Z-1.824
X-15.685 Y147.345 Z-1.753
X-15.73 Y147.325 Z-1.672
X-15.763 Y147.31 Z-1.585
X-15.783 Y147.301 Z-1.494
X-15.789 Y147.298 Z-1.4
G0 Z2.502
X-16.688 Y107.545
Z-0.8
G1 Z-1.4 F500.
X-16.686 Y107.538 Z-1.494
X-16.682 Y107.516 Z-1.585
X-16.676 Y107.481 Z-1.672
X-16.667 Y107.432 Z-1.753
X-16.657 Y107.372 Z-1.824
X-16.644 Y107.301 Z-1.885
X-16.63 Y107.222 Z-1.935
X-16.614 Y107.137 Z-1.971
X-16.598 Y107.047 Z-1.993
X-16.582 Y106.954 Z-2.
G3 X-16.404 Y106.8 I0.185 J0.033
G1 X-14.11
X-13.769 Y106.817
X-13.533 Y106.848
X-13.261 Y106.906
X-12.948 Y107.
X-12.632 Y107.123
X-12.26 Y107.304
X-11.884 Y107.525
X-11.452 Y107.829
X-11.002 Y108.202
X-10.512 Y108.68
X-9.978 Y109.293
X-9.477 Y109.969
X-9.025 Y110.678
X-8.614 Y111.411
X-8.239 Y112.164
X-7.897 Y112.933
X-7.584 Y113.713
X-7.296 Y114.503
X-7.033 Y115.302
X-6.792 Y116.108
X-6.571 Y116.919
X-6.37 Y117.736
X-6.187 Y118.557
X-6.022 Y119.381
X-5.873 Y120.209
X-5.74 Y121.039
X-5.623 Y121.872
X-5.52 Y122.707
X-5.433 Y123.544
X-5.36 Y124.381
X-5.302 Y125.22
X-5.258 Y126.06
X-5.228 Y126.901
X-5.211 Y127.741
X-5.209 Y128.582
X-5.22 Y129.423
X-5.245 Y130.264
X-5.284 Y131.104
X-5.336 Y131.944
X-5.402 Y132.782
X-5.482 Y133.619
X-5.575 Y134.455
X-5.682 Y135.289
X-5.802 Y136.122
X-5.936 Y136.952
X-6.083 Y137.78
X-6.244 Y138.605
X-6.418 Y139.428
X-6.605 Y140.248
X-6.805 Y141.065
X-7.018 Y141.878
X-7.245 Y142.688
X-7.485 Y143.494
X-7.741 Y144.295
X-8.016 Y145.09
X-8.317 Y145.876
X-8.612 Y146.533
X-8.8 Y146.874
X-8.97 Y147.119
X-9.189 Y147.322
X-9.446 Y147.474
X-9.73 Y147.568
X-10.026 Y147.6
X-12.513
G3 X-12.74 Y147.546 I0.021 J-0.6
G1 X-12.826 Y147.507 Z-1.993
X-12.909 Y147.469 Z-1.971
X-12.988 Y147.433 Z-1.935
X-13.061 Y147.4 Z-1.885
X-13.127 Y147.37 Z-1.824
X-13.182 Y147.345 Z-1.753
X-13.227 Y147.325 Z-1.672
X-13.26 Y147.31 Z-1.585
X-13.28 Y147.301 Z-1.494
X-13.286 Y147.298 Z-1.4
G0 Z2.502
X-14.394 Y107.545
Z-0.8
G1 Z-1.4 F500.
X-14.393 Y107.538 Z-1.494
X-14.389 Y107.516 Z-1.585
X-14.383 Y107.481 Z-1.672
X-14.374 Y107.432 Z-1.753
X-14.363 Y107.372 Z-1.824
X-14.351 Y107.301 Z-1.885
X-14.336 Y107.222 Z-1.935
X-14.321 Y107.137 Z-1.971
X-14.305 Y107.047 Z-1.993
X-14.288 Y106.954 Z-2.
G3 X-14.11 Y106.8 I0.185 J0.033
G1 X-11.626
X-11.341 Y106.814
X-11.107 Y106.845
X-10.834 Y106.903
X-10.526 Y106.996
X-10.211 Y107.118
X-9.84 Y107.298
X-9.468 Y107.518
X-9.04 Y107.818
X-8.594 Y108.188
X-8.111 Y108.66
X-7.585 Y109.263
X-7.084 Y109.939
X-6.633 Y110.648
X-6.224 Y111.383
X-5.851 Y112.137
X-5.512 Y112.907
X-5.202 Y113.689
X-4.918 Y114.48
X-4.659 Y115.28
X-4.421 Y116.087
X-4.204 Y116.9
X-4.007 Y117.717
X-3.828 Y118.539
X-3.666 Y119.364
X-3.52 Y120.192
X-3.39 Y121.023
X-3.275 Y121.856
X-3.176 Y122.691
X-3.09 Y123.528
X-3.019 Y124.366
X-2.962 Y125.205
X-2.918 Y126.045
X-2.888 Y126.885
X-2.872 Y127.726
X-2.868 Y128.567
X-2.878 Y129.408
X-2.902 Y130.249
X-2.938 Y131.089
X-2.987 Y131.929
X-3.05 Y132.767
X-3.126 Y133.605
X-3.214 Y134.441
X-3.316 Y135.276
X-3.431 Y136.109
X-3.559 Y136.94
X-3.7 Y137.769
X-3.853 Y138.596
X-4.02 Y139.421
X-4.199 Y140.243
X-4.39 Y141.061
X-4.595 Y141.877
X-4.812 Y142.69
X-5.044 Y143.498
X-5.292 Y144.302
X-5.56 Y145.099
X-5.855 Y145.886
X-6.138 Y146.526
X-6.324 Y146.868
X-6.494 Y147.115
X-6.714 Y147.32
X-6.971 Y147.473
X-7.256 Y147.568
X-7.554 Y147.6
X-10.026
G3 X-10.254 Y147.546 I0.021 J-0.6
G1 X-10.34 Y147.507 Z-1.993
X-10.423 Y147.469 Z-1.971
X-10.502 Y147.433 Z-1.935
X-10.575 Y147.4 Z-1.885
X-10.64 Y147.37 Z-1.824
X-10.696 Y147.345 Z-1.753
X-10.741 Y147.325 Z-1.672
X-10.774 Y147.31 Z-1.585
X-10.794 Y147.301 Z-1.494
X-10.8 Y147.298 Z-1.4
G0 Z2.502
X-11.91 Y107.545
Z-0.8
G1 Z-1.4 F500.
X-11.909 Y107.538 Z-1.494
X-11.905 Y107.516 Z-1.585
X-11.898 Y107.481 Z-1.672
X-11.89 Y107.432 Z-1.753
X-11.879 Y107.372 Z-1.824
X-11.866 Y107.301 Z-1.885
X-11.852 Y107.222 Z-1.935
X-11.837 Y107.137 Z-1.971
X-11.821 Y107.047 Z-1.993
X-11.804 Y106.954 Z-2.
G3 X-11.626 Y106.8 I0.185 J0.033
G1 X-9.141
X-8.924 Y106.811
X-8.691 Y106.841
X-8.419 Y106.9
X-8.115 Y106.991
X-7.8 Y107.114
X-7.431 Y107.292
X-7.061 Y107.51
X-6.638 Y107.808
X-6.195 Y108.175
X-5.717 Y108.641
X-5.198 Y109.237
X-4.698 Y109.913
X-4.247 Y110.623
X-3.839 Y111.358
X-3.469 Y112.113
X-3.132 Y112.884
X-2.825 Y113.667
X-2.544 Y114.46
X-2.288 Y115.261
X-2.053 Y116.068
X-1.84 Y116.882
X-1.646 Y117.7
X-1.47 Y118.522
X-1.311 Y119.348
X-1.168 Y120.177
X-1.04 Y121.008
X-0.928 Y121.842
X-0.83 Y122.677
X-0.746 Y123.514
X-0.676 Y124.352
X-0.62 Y125.191
X-0.577 Y126.031
X-0.547 Y126.872
X-0.53 Y127.712
X-0.526 Y128.553
X-0.535 Y129.394
X-0.556 Y130.235
X-0.591 Y131.075
X-0.638 Y131.915
X-0.697 Y132.754
X-0.769 Y133.592
X-0.854 Y134.429
X-0.951 Y135.264
X-1.061 Y136.098
X-1.183 Y136.93
X-1.318 Y137.76
X-1.465 Y138.588
X-1.624 Y139.414
X-1.796 Y140.237
X-1.98 Y141.058
X-2.176 Y141.875
X-2.386 Y142.69
X-2.61 Y143.5
X-2.851 Y144.306
X-3.112 Y145.106
X-3.402 Y145.895
X-3.676 Y146.52
X-3.86 Y146.863
X-4.03 Y147.111
X-4.25 Y147.317
X-4.508 Y147.472
X-4.794 Y147.568
X-5.093 Y147.6
X-7.554
G3 X-7.782 Y147.546 I0.021 J-0.6
G1 X-7.867 Y147.507 Z-1.993
X-7.951 Y147.469 Z-1.971
X-8.03 Y147.433 Z-1.935
X-8.103 Y147.4 Z-1.885
X-8.168 Y147.37 Z-1.824
X-8.224 Y147.345 Z-1.753
X-8.268 Y147.325 Z-1.672
X-8.301 Y147.31 Z-1.585
X-8.321 Y147.301 Z-1.494
X-8.328 Y147.298 Z-1.4
G0 Z2.502
X-9.425 Y107.545
Z-0.8
G1 Z-1.4 F500.
X-9.424 Y107.538 Z-1.494
X-9.42 Y107.516 Z-1.585
X-9.414 Y107.481 Z-1.672
X-9.405 Y107.432 Z-1.753
X-9.394 Y107.372 Z-1.824
X-9.382 Y107.301 Z-1.885
X-9.368 Y107.222 Z-1.935
X-9.352 Y107.137 Z-1.971
X-9.336 Y107.047 Z-1.993
X-9.32 Y106.954 Z-2.
G3 X-9.141 Y106.8 I0.185 J0.033
G1 X-6.848
X-6.507 Y106.817
X-6.277 Y106.847
X-6.004 Y106.906
X-5.706 Y106.995
X-5.39 Y107.118
X-5.025 Y107.295
X-4.658 Y107.511
X-4.239 Y107.806
X-3.799 Y108.171
X-3.327 Y108.631
X-2.813 Y109.22
X-2.313 Y109.896
X-1.863 Y110.606
X-1.457 Y111.343
X-1.088 Y112.099
X-0.754 Y112.87
X-0.449 Y113.654
X-0.171 Y114.448
X-0.065 Y114.783
X-0.029 Y114.921
X-0.007 Y115.062
X0. Y115.205
Y140.194
X-0.042 Y141.034
X-0.098 Y141.873
X-0.208 Y142.707
X-0.361 Y143.534
X-0.551 Y144.353
X-0.777 Y145.163
X-1.044 Y145.961
X-1.278 Y146.521
X-1.444 Y146.842
X-1.613 Y147.097
X-1.834 Y147.309
X-2.095 Y147.468
X-2.384 Y147.567
X-2.688 Y147.6
G3 X-2.916 Y147.546 I0.021 J-0.6
X-3.241 Y146.825 I0.249 J-0.546
G1 X-1.174 Y140.04
G3 X0. Y140.194 I0.574 J0.175
G1 Y146.308
X-0.011 Y146.52
X-0.084 Y146.808
X-0.224 Y147.07
X-0.423 Y147.292
X-0.668 Y147.46
X-0.946 Y147.564
X-1.241 Y147.6
G3 X-1.469 Y147.546 I0.021 J-0.6
X-1.661 Y146.593 I0.249 J-0.546
G1 X-1.04 Y145.922
G3 X0. Y146.308 I0.441 J0.407
G1 Y146.881
X-0.007 Y147.072
X-0.03 Y147.168
X-0.071 Y147.263
X-0.159 Y147.388
X-0.226 Y147.454
X-0.35 Y147.537
X-0.446 Y147.575
X-0.542 Y147.595
X-5.093 Y147.6
G3 X-5.321 Y147.546 I0.021 J-0.6
G1 X-5.407 Y147.507 Z-1.993
X-5.49 Y147.469 Z-1.971
X-5.569 Y147.433 Z-1.935
X-5.642 Y147.4 Z-1.885
X-5.707 Y147.37 Z-1.824
X-5.763 Y147.345 Z-1.753
X-5.808 Y147.325 Z-1.672
X-5.841 Y147.31 Z-1.585
X-5.861 Y147.301 Z-1.494
X-5.867 Y147.298 Z-1.4
G0 Z2.502
X-7.132 Y107.545
Z-0.8
G1 Z-1.4 F500.
X-7.131 Y107.538 Z-1.494
X-7.127 Y107.516 Z-1.585
X-7.121 Y107.481 Z-1.672
X-7.112 Y107.432 Z-1.753
X-7.101 Y107.372 Z-1.824
X-7.088 Y107.301 Z-1.885
X-7.074 Y107.222 Z-1.935
X-7.059 Y107.137 Z-1.971
X-7.043 Y107.047 Z-1.993
X-7.026 Y106.954 Z-2.
G3 X-6.848 Y106.8 I0.185 J0.033
G1 X-4.364
X-4.112 Y106.813
X-3.881 Y106.843
X-3.609 Y106.901
X-3.313 Y106.99
X-2.997 Y107.113
X-2.634 Y107.289
X-2.267 Y107.505
X-1.85 Y107.798
X-1.413 Y108.16
X-0.945 Y108.618
X-0.436 Y109.201
X-0.275 Y109.419
X-0.124 Y109.675
X-0.031 Y109.956
X0. Y110.252
G3 X-0.962 Y110.709 I-0.6 J-0.021
G1 X-4.705 Y107.878
G3 X-4.364 Y106.8 I0.362 J-0.479
G1 X-1.879
X-1.721 Y106.808
X-1.491 Y106.838
X-1.219 Y106.896
X-0.892 Y106.997
X-0.643 Y107.124
X-0.424 Y107.298
X-0.244 Y107.512
X-0.11 Y107.757
X-0.028 Y108.024
X0. Y108.302
G3 X-0.944 Y108.772 I-0.6 J-0.021
G1 X-2.203 Y107.891
G3 X-1.879 Y106.8 I0.344 J-0.492
G1 X-0.542 Y106.805
X-0.446 Y106.825
X-0.35 Y106.863
X-0.222 Y106.949
X-0.159 Y107.011
X-0.107 Y107.076
X-0.068 Y107.14
X-0.028 Y107.236
X-0.006 Y107.331
X0. Y108.096
Y115.205
X-0.012 Y115.258 Z-1.993
X-0.023 Y115.309 Z-1.974
X-0.033 Y115.354 Z-1.943
X-0.041 Y115.39 Z-1.902
X-0.047 Y115.417 Z-1.853
X-0.052 Y115.429 Z-1.81
X-0.054 Y115.433 Z-1.764
G0 Z2.502
X-56.738 Y124.511
Z1.1
G1 Z0.5 F500.
G3 X-58.628 Y129.889 Z0.187 I-0.945 J2.689 F167.
X-56.738 Y124.511 Z-0.125 I0.945 J-2.689
X-58.628 Y129.889 Z-0.438 I-0.945 J2.689
X-56.738 Y124.511 Z-0.751 I0.945 J-2.689
X-58.628 Y129.889 Z-1.063 I-0.945 J2.689
X-56.738 Y124.511 Z-1.376 I0.945 J-2.689
X-58.628 Y129.889 Z-1.689 I-0.945 J2.689
X-56.738 Y124.511 Z-2.001 I0.945 J-2.689
X-58.628 Y129.889 Z-2.314 I-0.945 J2.689
X-56.738 Y124.511 Z-2.627 I0.945 J-2.689
X-58.628 Y129.889 Z-2.939 I-0.945 J2.689
X-56.738 Y124.511 Z-3.252 I0.945 J-2.689
X-58.628 Y129.889 Z-3.565 I-0.945 J2.689
X-56.738 Y124.511 Z-3.877 I0.945 J-2.689
X-54.833 Y127.2 Z-4. I-0.945 J2.689
X-60.533 I-2.85 J0.
X-54.833 I2.85 J0.
G1 X-54.83 Y127.41 F500.
X-54.692 Y128.24
X-54.641 Y128.365
X-54.604 Y128.495
X-54.58 Y128.627
X-54.568 Y128.762
X-54.566 Y128.907
X-54.577 Y129.064
X-54.603 Y129.229
X-54.644 Y129.403
X-54.702 Y129.584
X-54.778 Y129.769
X-54.875 Y129.957
X-54.991 Y130.146
X-55.129 Y130.334
X-55.287 Y130.517
X-55.467 Y130.694
X-55.668 Y130.861
X-55.888 Y131.018
X-56.128 Y131.16
X-56.386 Y131.286
X-56.66 Y131.394
X-56.948 Y131.482
X-57.249 Y131.548
X-57.561 Y131.59
X-57.88 Y131.607
X-58.205 Y131.598
X-58.532 Y131.563
X-58.86 Y131.501
X-59.185 Y131.412
X-59.505 Y131.296
X-59.818 Y131.153
X-60.121 Y130.984
X-60.411 Y130.791
X-60.686 Y130.573
X-60.944 Y130.333
X-61.183 Y130.071
X-61.402 Y129.79
X-61.598 Y129.491
X-61.769 Y129.177
X-61.916 Y128.848
X-62.036 Y128.508
X-62.128 Y128.159
X-62.192 Y127.803
X-62.228 Y127.443
X-62.234 Y127.08
X-62.212 Y126.717
X-62.16 Y126.357
X-62.079 Y126.002
X-61.97 Y125.654
X-61.834 Y125.316
X-61.67 Y124.99
X-61.481 Y124.677
X-61.267 Y124.381
X-61.03 Y124.103
X-60.772 Y123.844
X-60.493 Y123.607
X-60.196 Y123.393
X-59.883 Y123.204
X-59.556 Y123.04
X-59.217 Y122.903
X-58.867 Y122.794
X-58.51 Y122.713
X-58.147 Y122.661
X-57.782 Y122.638
X-57.416 Y122.645
X-57.051 Y122.681
X-56.69 Y122.746
X-56.336 Y122.84
X-55.991 Y122.962
X-55.656 Y123.111
X-55.335 Y123.287
X-55.028 Y123.488
X-54.739 Y123.713
X-54.469 Y123.961
X-54.219 Y124.229
X-53.992 Y124.517
X-53.788 Y124.822
X-53.431 Y125.464
X-53.134 Y126.115
X-52.943 Y126.643
X-52.813 Y127.118
X-52.729 Y127.563
X-52.683 Y127.993
X-52.672 Y128.41
X-52.694 Y128.815
X-52.747 Y129.211
X-52.832 Y129.597
X-52.947 Y129.975
X-53.092 Y130.343
X-53.267 Y130.7
X-53.471 Y131.043
X-53.704 Y131.373
X-53.966 Y131.685
X-54.255 Y131.979
X-54.57 Y132.251
X-54.911 Y132.501
X-55.276 Y132.726
X-55.663 Y132.924
X-56.071 Y133.092
X-56.496 Y133.229
X-56.936 Y133.333
X-57.389 Y133.401
X-57.851 Y133.434
X-58.319 Y133.429
X-58.789 Y133.387
X-59.259 Y133.306
X-59.724 Y133.186
X-60.182 Y133.029
X-60.629 Y132.834
X-61.061 Y132.602
X-61.476 Y132.335
X-61.87 Y132.033
X-62.241 Y131.7
X-62.585 Y131.335
X-62.9 Y130.943
X-63.184 Y130.526
X-63.434 Y130.085
X-63.648 Y129.624
X-63.826 Y129.146
X-63.965 Y128.655
X-64.064 Y128.152
X-64.123 Y127.643
X-64.14 Y127.129
X-64.117 Y126.615
X-64.052 Y126.104
X-63.946 Y125.599
X-63.799 Y125.103
X-63.614 Y124.621
X-63.39 Y124.155
X-63.129 Y123.707
X-62.833 Y123.282
X-62.503 Y122.882
X-62.143 Y122.51
X-61.753 Y122.167
X-61.337 Y121.857
X-60.897 Y121.581
X-60.437 Y121.341
X-59.958 Y121.138
X-59.465 Y120.975
X-58.96 Y120.852
X-58.447 Y120.77
X-57.929 Y120.729
X-57.409 Y120.73
X-56.891 Y120.773
X-56.378 Y120.857
X-55.873 Y120.982
X-55.38 Y121.147
X-54.902 Y121.351
X-54.442 Y121.593
X-54.002 Y121.871
X-53.586 Y122.184
X-53.143 Y122.577
X-52.702 Y123.035
X-52.288 Y123.541
X-51.908 Y124.091
X-51.576 Y124.666
X-51.297 Y125.252
X-51.071 Y125.844
X-50.899 Y126.437
X-50.777 Y127.028
X-50.704 Y127.618
X-50.679 Y128.204
X-50.701 Y128.783
X-50.769 Y129.354
X-50.881 Y129.914
X-51.038 Y130.462
X-51.238 Y130.994
X-51.48 Y131.508
X-51.763 Y132.003
X-52.086 Y132.474
X-52.447 Y132.921
X-52.846 Y133.34
X-53.28 Y133.727
X-53.747 Y134.082
X-54.245 Y134.4
X-54.772 Y134.68
X-55.324 Y134.919
X-55.898 Y135.114
X-56.491 Y135.264
X-57.098 Y135.367
X-57.716 Y135.42
X-58.342 Y135.424
X-58.969 Y135.378
X-59.595 Y135.28
X-60.216 Y135.132
X-60.826 Y134.934
X-61.421 Y134.685
X-61.998 Y134.388
X-62.551 Y134.044
X-63.078 Y133.655
X-63.574 Y133.223
X-64.036 Y132.75
X-64.46 Y132.24
X-64.842 Y131.696
X-65.181 Y131.122
X-65.474 Y130.52
X-65.718 Y129.895
X-65.911 Y129.251
X-66.053 Y128.592
X-66.141 Y127.922
X-66.175 Y127.247
X-66.155 Y126.57
X-66.081 Y125.897
X-65.952 Y125.23
X-65.771 Y124.576
X-65.537 Y123.937
X-65.252 Y123.319
X-64.919 Y122.725
X-64.539 Y122.16
X-64.114 Y121.627
X-63.648 Y121.129
X-63.143 Y120.67
X-62.603 Y120.253
X-62.031 Y119.881
X-61.43 Y119.555
X-60.806 Y119.279
X-60.161 Y119.054
X-59.5 Y118.881
X-58.827 Y118.762
X-58.146 Y118.697
X-57.463 Y118.687
X-56.781 Y118.732
X-56.104 Y118.831
X-55.438 Y118.985
X-54.786 Y119.191
X-54.153 Y119.449
X-53.527 Y119.765
X-52.907 Y120.143
X-52.302 Y120.583
X-51.718 Y121.083
X-51.165 Y121.64
X-50.653 Y122.245
X-50.191 Y122.891
X-49.783 Y123.571
X-49.432 Y124.276
X-49.142 Y125.002
X-48.913 Y125.742
X-48.746 Y126.492
X-48.64 Y127.247
X-48.595 Y128.002
X-48.612 Y128.754
X-48.688 Y129.498
X-48.822 Y130.23
X-49.015 Y130.947
X-49.264 Y131.645
X-49.569 Y132.321
X-49.927 Y132.971
X-50.336 Y133.592
X-50.796 Y134.179
X-51.304 Y134.73
X-51.856 Y135.24
X-52.451 Y135.707
X-53.084 Y136.127
X-53.754 Y136.497
X-54.455 Y136.814
X-55.183 Y137.075
X-55.935 Y137.278
X-56.705 Y137.421
X-57.488 Y137.502
X-58.28 Y137.521
X-59.075 Y137.475
X-59.868 Y137.365
X-60.654 Y137.191
X-61.427 Y136.953
X-62.182 Y136.652
X-62.913 Y136.291
X-63.616 Y135.87
X-64.286 Y135.392
X-64.917 Y134.86
X-65.506 Y134.277
X-66.048 Y133.647
X-66.538 Y132.973
X-66.974 Y132.26
X-67.353 Y131.513
X-67.671 Y130.736
X-67.926 Y129.934
X-68.116 Y129.115
X-68.24 Y128.283
X-68.297 Y127.444
X-68.287 Y126.603
X-68.21 Y125.766
X-68.066 Y124.937
X-67.857 Y124.123
X-67.584 Y123.327
X-67.249 Y122.556
X-66.853 Y121.814
X-66.4 Y121.105
X-65.893 Y120.435
X-65.333 Y119.807
X-64.726 Y119.225
X-64.075 Y118.693
X-63.383 Y118.214
X-62.656 Y117.792
X-61.897 Y117.428
X-61.113 Y117.126
X-60.307 Y116.886
X-59.484 Y116.711
X-58.65 Y116.602
X-57.81 Y116.559
X-56.969 Y116.582
X-56.133 Y116.672
X-55.307 Y116.827
X-54.495 Y117.047
X-53.703 Y117.33
X-52.936 Y117.674
X-52.196 Y118.075
X-51.489 Y118.53
X-50.817 Y119.035
X-50.182 Y119.587
X-49.588 Y120.183
X-49.04 Y120.82
X-48.538 Y121.495
X-48.086 Y122.204
X-47.685 Y122.943
X-47.337 Y123.709
X-47.044 Y124.497
X-46.807 Y125.304
X-46.628 Y126.126
X-46.509 Y126.959
X-46.451 Y127.798
X-46.455 Y128.639
X-46.522 Y129.477
X-46.649 Y130.308
X-46.837 Y131.128
X-47.085 Y131.932
X-47.392 Y132.715
X-47.754 Y133.474
X-48.172 Y134.204
X-48.641 Y134.901
X-49.161 Y135.563
X-49.727 Y136.185
X-50.337 Y136.763
X-50.989 Y137.295
X-51.678 Y137.777
X-52.4 Y138.209
X-53.151 Y138.587
X-53.927 Y138.911
X-54.724 Y139.18
X-55.538 Y139.392
X-56.364 Y139.546
X-57.2 Y139.64
X-58.04 Y139.675
X-58.881 Y139.65
X-59.718 Y139.567
X-60.547 Y139.427
X-61.365 Y139.23
X-62.168 Y138.979
X-62.951 Y138.672
X-63.71 Y138.311
X-64.443 Y137.899
X-65.147 Y137.438
X-65.818 Y136.932
X-66.454 Y136.382
X-67.052 Y135.789
X-67.606 Y135.157
X-68.117 Y134.489
X-68.582 Y133.789
X-69.001 Y133.059
X-69.37 Y132.304
X-69.688 Y131.525
X-69.951 Y130.726
X-70.16 Y129.912
X-70.316 Y129.085
X-70.417 Y128.25
X-70.464 Y127.41
X-70.454 Y126.57
X-70.387 Y125.731
X-70.265 Y124.899
X-70.088 Y124.077
X-69.859 Y123.268
X-69.578 Y122.475
X-69.244 Y121.703
X-68.858 Y120.956
X-68.424 Y120.235
X-67.945 Y119.545
X-67.421 Y118.886
X-66.856 Y118.263
X-66.251 Y117.68
X-65.607 Y117.139
X-64.929 Y116.641
X-64.221 Y116.188
X-63.485 Y115.781
X-62.723 Y115.423
X-61.94 Y115.118
X-61.138 Y114.866
X-60.321 Y114.666
X-59.492 Y114.52
X-58.656 Y114.428
X-57.816 Y114.39
X-56.975 Y114.41
X-56.138 Y114.485
X-55.307 Y114.614
X-54.486 Y114.797
X-53.678 Y115.032
X-52.888 Y115.319
X-52.118 Y115.656
X-51.371 Y116.043
X-50.649 Y116.475
X-49.955 Y116.95
X-49.292 Y117.467
X-48.66 Y118.022
X-48.064 Y118.616
X-47.507 Y119.246
X-46.988 Y119.908
X-46.511 Y120.6
X-46.075 Y121.319
X-45.681 Y122.062
X-45.334 Y122.828
X-45.034 Y123.614
X-44.782 Y124.416
X-44.579 Y125.232
X-44.425 Y126.059
X-44.322 Y126.894
X-44.269 Y127.733
Y128.574
X-44.322 Y129.414
X-44.426 Y130.248
X-44.582 Y131.075
X-44.786 Y131.89
X-45.04 Y132.692
X-45.344 Y133.476
X-45.697 Y134.24
X-46.095 Y134.98
X-46.539 Y135.695
X-47.024 Y136.381
X-47.551 Y137.038
X-48.117 Y137.659
X-48.722 Y138.244
X-49.361 Y138.79
X-50.033 Y139.296
X-50.734 Y139.761
X-51.461 Y140.183
X-52.212 Y140.561
X-52.986 Y140.892
X-53.778 Y141.175
X-54.585 Y141.41
X-55.405 Y141.597
X-56.235 Y141.735
X-57.071 Y141.824
X-57.911 Y141.861
X-58.752 Y141.849
X-59.591 Y141.786
X-60.424 Y141.675
X-61.25 Y141.516
X-62.065 Y141.31
X-62.867 Y141.056
X-63.652 Y140.755
X-64.418 Y140.408
X-65.163 Y140.016
X-65.884 Y139.584
X-66.579 Y139.111
X-67.247 Y138.6
X-67.884 Y138.05
X-68.487 Y137.464
X-69.055 Y136.843
X-69.586 Y136.192
X-70.08 Y135.511
X-70.536 Y134.804
X-70.951 Y134.073
X-71.323 Y133.318
X-71.65 Y132.544
X-71.932 Y131.751
X-72.169 Y130.944
X-72.361 Y130.126
X-72.507 Y129.297
X-72.607 Y128.462
X-72.658 Y127.623
X-72.66 Y126.782
X-72.615 Y125.942
X-72.522 Y125.106
X-72.384 Y124.277
X-72.201 Y123.456
X-71.971 Y122.647
X-71.695 Y121.852
X-71.374 Y121.075
X-71.009 Y120.317
X-70.603 Y119.581
X-70.157 Y118.868
X-69.673 Y118.18
X-69.15 Y117.521
X-68.59 Y116.894
X-67.995 Y116.299
X-67.368 Y115.739
X-66.711 Y115.215
X-66.026 Y114.727
X-65.315 Y114.277
X-64.58 Y113.869
X-63.822 Y113.504
X-63.045 Y113.182
X-62.251 Y112.905
X-61.443 Y112.672
X-60.623 Y112.483
X-59.795 Y112.339
X-58.959 Y112.244
X-58.119 Y112.197
X-57.278
X-56.439 Y112.244
X-55.603 Y112.338
X-54.773 Y112.476
X-53.953 Y112.66
X-53.144 Y112.89
X-52.349 Y113.166
X-51.571 Y113.485
X-50.811 Y113.845
X-50.072 Y114.245
X-49.354 Y114.684
X-48.66 Y115.159
X-47.993 Y115.672
X-47.355 Y116.219
X-46.747 Y116.801
X-46.171 Y117.413
X-45.626 Y118.054
X-45.116 Y118.722
X-44.64 Y119.415
X-44.2 Y120.133
X-43.8 Y120.872
X-43.439 Y121.632
X-43.119 Y122.409
X-42.839 Y123.202
X-42.6 Y124.009
X-42.402 Y124.826
X-42.247 Y125.653
X-42.138 Y126.487
X-42.073 Y127.325
X-42.053 Y128.166
X-42.077 Y129.007
X-42.145 Y129.845
X-42.257 Y130.678
X-42.411 Y131.505
X-42.61 Y132.322
X-42.854 Y133.127
X-43.139 Y133.918
X-43.467 Y134.693
X-43.834 Y135.449
X-44.24 Y136.186
X-44.684 Y136.9
X-45.166 Y137.59
X-45.684 Y138.252
X-46.237 Y138.885
X-46.823 Y139.488
X-47.44 Y140.06
X-48.086 Y140.599
X-48.758 Y141.104
X-49.457 Y141.573
X-50.179 Y142.004
X-50.923 Y142.395
X-51.687 Y142.748
X-52.467 Y143.06
X-53.263 Y143.333
X-54.072 Y143.564
X-54.891 Y143.754
X-55.719 Y143.899
X-56.554 Y144.002
X-57.393 Y144.06
X-58.234 Y144.076
X-59.074 Y144.049
X-59.913 Y143.981
X-60.746 Y143.87
X-61.573 Y143.717
X-62.391 Y143.521
X-63.198 Y143.283
X-63.991 Y143.005
X-64.77 Y142.687
X-65.532 Y142.331
X-66.275 Y141.938
X-66.998 Y141.508
X-67.698 Y141.042
X-68.374 Y140.541
X-69.023 Y140.006
X-69.644 Y139.439
X-70.237 Y138.843
X-70.8 Y138.218
X-71.332 Y137.567
X-71.831 Y136.89
X-72.295 Y136.188
X-72.723 Y135.464
X-73.114 Y134.72
X-73.468 Y133.957
X-73.784 Y133.178
X-74.063 Y132.384
X-74.302 Y131.578
X-74.501 Y130.761
X-74.659 Y129.935
X-74.775 Y129.102
X-74.85 Y128.264
X-74.884 Y127.424
X-74.877 Y126.583
X-74.829 Y125.743
X-74.741 Y124.907
X-74.611 Y124.076
X-74.44 Y123.252
X-74.229 Y122.438
X-73.977 Y121.636
X-73.687 Y120.846
X-73.359 Y120.072
X-72.995 Y119.314
X-72.593 Y118.575
X-72.156 Y117.857
X-71.683 Y117.161
X-71.177 Y116.49
X-70.638 Y115.844
X-70.069 Y115.225
X-69.47 Y114.634
X-68.844 Y114.073
X-68.191 Y113.543
X-67.512 Y113.046
X-66.81 Y112.583
X-66.086 Y112.156
X-65.342 Y111.764
X-64.579 Y111.409
X-63.801 Y111.091
X-63.008 Y110.81
X-62.202 Y110.569
X-61.385 Y110.369
X-60.56 Y110.208
X-59.727 Y110.089
X-58.89 Y110.01
X-58.05 Y109.972
X-57.209 Y109.974
X-56.369 Y110.016
X-55.532 Y110.1
X-54.701 Y110.225
X-53.876 Y110.391
X-53.06 Y110.596
X-52.256 Y110.84
X-51.463 Y111.122
X-50.685 Y111.441
X-49.923 Y111.796
X-49.178 Y112.187
X-48.453 Y112.613
X-47.749 Y113.073
X-47.067 Y113.565
X-46.409 Y114.088
X-45.775 Y114.642
X-45.168 Y115.223
X-44.587 Y115.832
X-44.036 Y116.467
X-43.515 Y117.127
X-43.024 Y117.81
X-42.566 Y118.515
X-42.14 Y119.24
X-41.747 Y119.984
X-41.389 Y120.745
X-41.065 Y121.521
X-40.778 Y122.311
X-40.527 Y123.114
X-40.314 Y123.928
X-40.138 Y124.75
X-40.001 Y125.58
X-39.902 Y126.415
X-39.841 Y127.254
X-39.819 Y128.095
X-39.836 Y128.935
X-39.892 Y129.774
X-39.988 Y130.61
X-40.122 Y131.44
X-40.295 Y132.263
X-40.505 Y133.078
X-40.753 Y133.881
X-41.037 Y134.673
X-41.358 Y135.45
X-41.715 Y136.212
X-42.107 Y136.956
X-42.534 Y137.68
X-42.993 Y138.385
X-43.485 Y139.067
X-44.008 Y139.726
X-44.56 Y140.36
X-45.142 Y140.968
X-45.751 Y141.547
X-46.387 Y142.098
X-47.047 Y142.619
X-47.73 Y143.109
X-48.436 Y143.567
X-49.161 Y143.992
X-49.905 Y144.385
X-50.666 Y144.742
X-51.443 Y145.064
X-52.234 Y145.35
X-53.037 Y145.599
X-53.851 Y145.812
X-54.674 Y145.988
X-55.503 Y146.126
X-56.338 Y146.227
X-57.177 Y146.29
X-58.017 Y146.314
X-58.858 Y146.301
X-59.698 Y146.25
X-60.534 Y146.161
X-61.365 Y146.035
X-62.19 Y145.872
X-63.007 Y145.672
X-63.815 Y145.436
X-64.611 Y145.164
X-65.393 Y144.857
X-66.162 Y144.515
X-66.914 Y144.14
X-67.649 Y143.731
X-68.366 Y143.291
X-69.062 Y142.819
X-69.737 Y142.317
X-70.389 Y141.786
X-71.017 Y141.227
X-71.619 Y140.64
X-72.195 Y140.027
X-72.744 Y139.389
X-73.264 Y138.729
X-73.755 Y138.046
X-74.215 Y137.342
X-74.645 Y136.619
X-75.042 Y135.878
X-75.406 Y135.119
X-75.736 Y134.346
X-76.033 Y133.559
X-76.295 Y132.76
X-76.522 Y131.95
X-76.713 Y131.131
X-76.87 Y130.305
X-76.99 Y129.472
X-77.073 Y128.636
X-77.119 Y127.796
X-77.129 Y126.955
X-77.102 Y126.114
X-77.039 Y125.276
X-76.94 Y124.441
X-76.805 Y123.61
X-76.635 Y122.787
X-76.428 Y121.972
X-76.186 Y121.166
X-75.909 Y120.372
X-75.598 Y119.591
X-75.254 Y118.824
X-74.876 Y118.072
X-74.467 Y117.337
X-74.027 Y116.621
X-73.556 Y115.924
X-73.055 Y115.248
X-72.525 Y114.596
X-71.967 Y113.966
X-71.382 Y113.362
X-70.772 Y112.783
X-70.138 Y112.23
X-69.48 Y111.706
X-68.801 Y111.21
X-68.101 Y110.744
X-67.381 Y110.31
X-66.643 Y109.907
X-65.888 Y109.537
X-65.117 Y109.199
X-64.333 Y108.895
X-63.537 Y108.625
X-62.73 Y108.389
X-61.913 Y108.188
X-61.088 Y108.022
X-60.257 Y107.893
X-59.422 Y107.801
X-58.582 Y107.744
X-57.742 Y107.724
X-56.901 Y107.739
X-56.061 Y107.791
X-55.225 Y107.878
X-54.393 Y108.001
X-53.567 Y108.16
X-52.749 Y108.354
X-51.94 Y108.584
X-51.141 Y108.847
X-50.354 Y109.144
X-49.58 Y109.473
X-48.821 Y109.835
X-48.078 Y110.228
X-47.351 Y110.651
X-46.643 Y111.105
X-45.954 Y111.588
X-45.287 Y112.1
X-44.641 Y112.638
X-44.018 Y113.203
X-43.418 Y113.792
X-42.843 Y114.406
X-42.293 Y115.043
X-41.77 Y115.701
X-41.274 Y116.38
X-40.807 Y117.08
X-40.369 Y117.798
X-39.961 Y118.533
X-39.582 Y119.284
X-39.235 Y120.05
X-38.919 Y120.829
X-38.635 Y121.621
X-38.383 Y122.423
X-38.164 Y123.235
X-37.979 Y124.056
X-37.829 Y124.883
X-37.713 Y125.716
X-37.631 Y126.553
X-37.583 Y127.393
X-37.569 Y128.233
X-37.59 Y129.074
X-37.645 Y129.913
X-37.735 Y130.75
X-37.86 Y131.581
X-38.02 Y132.407
X-38.213 Y133.225
X-38.44 Y134.035
X-38.701 Y134.835
X-38.993 Y135.623
X-39.318 Y136.399
X-39.674 Y137.161
X-40.061 Y137.907
X-40.48 Y138.637
X-40.929 Y139.348
X-41.406 Y140.04
X-41.912 Y140.712
X-42.445 Y141.363
X-43.004 Y141.991
X-43.589 Y142.596
X-44.197 Y143.176
X-44.829 Y143.731
X-45.484 Y144.259
X-46.16 Y144.759
X-46.856 Y145.232
X-47.57 Y145.675
X-48.302 Y146.089
X-49.051 Y146.473
X-49.814 Y146.826
X-50.591 Y147.149
X-51.38 Y147.439
X-51.671 Y147.533
X-51.811 Y147.57
X-51.955 Y147.592
X-52.099 Y147.6
X-62.079
X-62.919 Y147.558
X-63.337 Y147.519
X-64.151 Y147.407
X-64.972 Y147.225
X-65.779 Y146.988
X-66.57 Y146.702
X-67.344 Y146.374
X-68.101 Y146.009
X-68.841 Y145.608
X-69.562 Y145.176
X-70.265 Y144.713
X-70.946 Y144.221
X-71.607 Y143.7
X-72.246 Y143.153
X-72.862 Y142.58
X-73.454 Y141.984
X-74.023 Y141.364
X-74.567 Y140.723
X-75.085 Y140.061
X-75.578 Y139.379
X-76.043 Y138.678
X-76.48 Y137.959
X-76.887 Y137.224
X-77.266 Y136.473
X-77.614 Y135.707
X-77.933 Y134.929
X-78.015 Y134.703
X-78.062 Y134.547
X-78.09 Y134.386
X-78.1 Y134.223
Y122.043
X-78.058 Y121.213
X-77.962 Y120.475
X-77.786 Y119.653
X-77.547 Y118.847
X-77.255 Y118.058
X-76.919 Y117.287
X-76.542 Y116.535
X-76.13 Y115.802
X-75.686 Y115.088
X-75.211 Y114.394
X-74.707 Y113.721
X-74.176 Y113.068
X-73.62 Y112.438
X-73.039 Y111.829
X-72.434 Y111.245
X-71.807 Y110.685
X-71.158 Y110.15
X-70.489 Y109.64
X-69.8 Y109.158
X-69.093 Y108.702
X-68.369 Y108.275
X-67.629 Y107.875
X-66.874 Y107.504
X-66.106 Y107.162
X-65.446 Y106.899
X-65.278 Y106.844
X-65.105 Y106.811
X-64.928 Y106.8
X-52.523
X-51.683 Y106.842
X-51.266 Y106.891
X-50.493 Y107.018
X-49.677 Y107.221
X-48.878 Y107.482
X-48.096 Y107.793
X-47.333 Y108.146
X-46.588 Y108.536
X-45.862 Y108.96
X-45.154 Y109.415
X-44.467 Y109.899
X-43.799 Y110.41
X-43.151 Y110.946
X-42.524 Y111.507
X-41.919 Y112.091
X-41.337 Y112.698
X-40.778 Y113.327
X-40.243 Y113.976
X-39.733 Y114.644
X-39.248 Y115.331
X-38.788 Y116.036
X-38.355 Y116.756
X-37.948 Y117.492
X-37.568 Y118.243
X-37.216 Y119.006
X-36.892 Y119.783
X-36.598 Y120.57
X-36.333 Y121.369
X-36.098 Y122.176
X-35.893 Y122.992
X-35.719 Y123.814
X-35.574 Y124.643
X-35.46 Y125.476
X-35.377 Y126.313
X-35.324 Y127.152
X-35.302 Y127.993
X-35.313 Y128.834
X-35.354 Y129.674
X-35.428 Y130.512
X-35.532 Y131.346
X-35.667 Y132.176
X-35.832 Y133.001
X-36.028 Y133.819
X-36.254 Y134.629
X-36.509 Y135.43
X-36.794 Y136.222
X-37.109 Y137.002
X-37.453 Y137.769
X-37.825 Y138.523
X-38.225 Y139.263
X-38.652 Y139.987
X-39.106 Y140.695
X-39.585 Y141.386
X-40.09 Y142.059
X-40.619 Y142.713
X-41.172 Y143.347
X-41.748 Y143.959
X-42.347 Y144.549
X-42.968 Y145.117
X-43.609 Y145.661
X-44.27 Y146.181
X-44.95 Y146.677
X-45.647 Y147.147
X-46.033 Y147.388
X-46.265 Y147.504
X-46.515 Y147.576
X-46.774 Y147.6
X-52.099
G3 X-52.327 Y147.546 I0.021 J-0.6
G1 X-52.413 Y147.507 Z-3.993
X-52.496 Y147.469 Z-3.971
X-52.575 Y147.433 Z-3.935
X-52.648 Y147.4 Z-3.885
X-52.713 Y147.37 Z-3.824
X-52.769 Y147.345 Z-3.753
X-52.814 Y147.325 Z-3.672
X-52.847 Y147.31 Z-3.585
X-52.867 Y147.301 Z-3.494
X-52.873 Y147.298 Z-3.4
G0 Z2.502
X-77.355 Y122.327
Z-2.8
G1 Z-3.4 F500.
X-77.362 Y122.326 Z-3.494
X-77.384 Y122.322 Z-3.585
X-77.419 Y122.315 Z-3.672
X-77.468 Y122.307 Z-3.753
X-77.528 Y122.296 Z-3.824
X-77.599 Y122.283 Z-3.885
X-77.678 Y122.269 Z-3.935
X-77.763 Y122.254 Z-3.971
X-77.853 Y122.238 Z-3.993
X-77.946 Y122.221 Z-4.
G3 X-78.1 Y122.043 I0.033 J-0.185
G1 Y117.075
X-78.075 Y116.584
X-78.017 Y116.142
X-77.905 Y115.617
X-77.73 Y115.031
X-77.464 Y114.348
X-77.097 Y113.592
X-76.672 Y112.866
X-76.203 Y112.168
X-75.695 Y111.498
X-75.155 Y110.853
X-74.586 Y110.233
X-73.992 Y109.639
X-73.374 Y109.068
X-72.734 Y108.522
X-72.073 Y108.002
X-71.394 Y107.506
X-70.659 Y107.012
X-70.427 Y106.896
X-70.177 Y106.824
X-69.918 Y106.8
X-64.928
G3 X-64.583 Y107.875 I-0.021 J0.6
G1 X-77.135 Y117.53
G3 X-78.1 Y117.075 I-0.366 J-0.476
G1 Y113.254
X-78.085 Y112.958
X-78.037 Y112.587
X-77.951 Y112.186
X-77.809 Y111.711
X-77.601 Y111.178
X-77.309 Y110.577
X-76.903 Y109.887
X-76.419 Y109.198
X-75.889 Y108.546
X-75.321 Y107.926
X-74.722 Y107.336
X-74.523 Y107.158
X-74.318 Y107.005
X-74.089 Y106.893
X-73.843 Y106.823
X-73.588 Y106.8
X-69.918
G3 X-69.573 Y107.875 I-0.021 J0.6
G1 X-77.134 Y113.708
G3 X-78.1 Y113.254 I-0.367 J-0.475
G1 Y110.006
X-78.087 Y109.748
X-78.045 Y109.427
X-77.968 Y109.069
X-77.845 Y108.658
X-77.667 Y108.2
X-77.421 Y107.693
X-77.301 Y107.49
X-77.129 Y107.256
X-76.912 Y107.063
X-76.66 Y106.919
X-76.383 Y106.83
X-76.095 Y106.8
G3 X-75.587 Y107.683 I-0.021 J0.6
G1 X-76.971 Y110.269
G3 X-78.1 Y110.006 I-0.529 J-0.283
G1 Y107.522
X-78.087 Y107.302
X-78.072 Y107.236
X-78.032 Y107.14
X-77.993 Y107.076
X-77.941 Y107.011
X-77.878 Y106.949
X-77.75 Y106.863
X-77.654 Y106.825
X-77.558 Y106.805
X-73.588 Y106.8
G3 X-73.36 Y106.854 I-0.021 J0.6
G1 X-73.275 Y106.893 Z-3.993
X-73.192 Y106.931 Z-3.971
X-73.113 Y106.967 Z-3.935
X-73.04 Y107. Z-3.885
X-72.974 Y107.03 Z-3.824
X-72.919 Y107.055 Z-3.753
X-72.874 Y107.075 Z-3.672
X-72.841 Y107.09 Z-3.585
X-72.821 Y107.099 Z-3.494
X-72.814 Y107.102 Z-3.4
G0 Z2.502
X-61.795 Y146.855
Z-2.8
G1 Z-3.4 F500.
X-61.796 Y146.862 Z-3.494
X-61.8 Y146.884 Z-3.585
X-61.806 Y146.919 Z-3.672
X-61.815 Y146.968 Z-3.753
X-61.826 Y147.028 Z-3.824
X-61.838 Y147.099 Z-3.885
X-61.852 Y147.178 Z-3.935
X-61.868 Y147.263 Z-3.971
X-61.884 Y147.353 Z-3.993
X-61.901 Y147.446 Z-4.
G3 X-62.079 Y147.6 I-0.185 J-0.033
G1 X-67.43
X-68.058 Y147.569
X-68.518 Y147.508
X-69.064 Y147.391
X-69.683 Y147.206
X-70.393 Y146.93
X-71.149 Y146.563
X-71.877 Y146.141
X-72.576 Y145.674
X-73.25 Y145.17
X-73.898 Y144.634
X-74.521 Y144.07
X-75.12 Y143.48
X-75.696 Y142.866
X-76.247 Y142.231
X-76.774 Y141.576
X-77.276 Y140.901
X-77.752 Y140.207
X-77.882 Y140.001
X-78.002 Y139.767
X-78.075 Y139.514
X-78.1 Y139.252
Y134.223
G3 X-77.029 Y133.873 I0.6 J0.021
G1 X-66.979 Y146.629
G3 X-67.202 Y147.546 I-0.471 J0.371
X-67.43 Y147.6 I-0.249 J-0.546
G1 X-71.443
X-71.754 Y147.584
X-72.131 Y147.535
X-72.54 Y147.447
X-73.024 Y147.302
X-73.569 Y147.09
X-74.184 Y146.792
X-74.892 Y146.375
X-75.58 Y145.892
X-76.233 Y145.363
X-76.856 Y144.797
X-77.448 Y144.201
X-77.737 Y143.882
X-77.892 Y143.676
X-78.006 Y143.446
X-78.076 Y143.198
X-78.1 Y142.942
Y139.252
G3 X-77.028 Y138.903 I0.6 J0.021
G1 X-70.991 Y146.631
G3 X-71.215 Y147.546 I-0.473 J0.369
X-71.443 Y147.6 I-0.249 J-0.546
G1 X-74.692
X-75.002 Y147.584
X-75.327 Y147.542
X-75.689 Y147.464
X-76.106 Y147.339
X-76.57 Y147.159
X-77.09 Y146.906
X-77.41 Y146.718
X-77.644 Y146.546
X-77.837 Y146.329
X-77.981 Y146.077
X-78.07 Y145.8
X-78.1 Y145.512
G3 X-77.221 Y145.002 I0.6 J0.021
G1 X-74.433 Y146.469
G3 X-74.464 Y147.546 I-0.28 J0.531
X-74.692 Y147.6 I-0.249 J-0.546
G1 X-77.367
X-77.399 Y147.599
X-77.426 Y147.598
X-77.604 Y147.58
X-77.75 Y147.537
G3 X-78.05 Y146.852 I0.35 J-0.562
X-76.813 Y147.087 I0.618 J0.118
X-77.426 Y147.598 I-0.618 J-0.118
G1 X-77.558 Y147.595
X-77.654 Y147.575
X-77.75 Y147.537
X-77.874 Y147.454
X-77.991 Y147.326
X-78.029 Y147.263
X-78.07 Y147.168
X-78.093 Y147.072
X-78.1 Y146.499
Y142.942
G3 X-78.046 Y142.714 I0.6 J0.021
G1 X-78.007 Y142.628 Z-3.993
X-77.969 Y142.545 Z-3.971
X-77.933 Y142.466 Z-3.935
X-77.9 Y142.393 Z-3.885
X-77.87 Y142.328 Z-3.824
X-77.845 Y142.272 Z-3.753
X-77.825 Y142.227 Z-3.672
X-77.81 Y142.195 Z-3.585
X-77.801 Y142.175 Z-3.494
X-77.798 Y142.168 Z-3.4
G0 Z2.502
X-52.807 Y107.545
Z-2.8
G1 Z-3.4 F500.
X-52.806 Y107.538 Z-3.494
X-52.802 Y107.516 Z-3.585
X-52.796 Y107.481 Z-3.672
X-52.787 Y107.432 Z-3.753
X-52.776 Y107.372 Z-3.824
X-52.763 Y107.301 Z-3.885
X-52.749 Y107.222 Z-3.935
X-52.734 Y107.137 Z-3.971
X-52.718 Y107.047 Z-3.993
X-52.701 Y106.954 Z-4.
G3 X-52.523 Y106.8 I0.185 J0.033
G1 X-47.554
X-46.951 Y106.83
X-46.491 Y106.891
X-45.98 Y107.
X-45.375 Y107.181
X-44.673 Y107.454
X-43.916 Y107.822
X-43.189 Y108.244
X-42.49 Y108.711
X-41.816 Y109.215
X-41.168 Y109.751
X-40.544 Y110.315
X-39.944 Y110.904
X-39.368 Y111.517
X-38.815 Y112.151
X-38.286 Y112.804
X-37.779 Y113.475
X-37.297 Y114.164
X-36.837 Y114.869
X-36.402 Y115.588
X-35.992 Y116.322
X-35.606 Y117.07
X-35.246 Y117.83
X-34.913 Y118.602
X-34.606 Y119.385
X-34.326 Y120.178
X-34.072 Y120.98
X-33.846 Y121.79
X-33.646 Y122.607
X-33.474 Y123.43
X-33.329 Y124.258
X-33.211 Y125.091
X-33.122 Y125.927
X-33.062 Y126.766
X-33.03 Y127.606
X-33.027 Y128.447
X-33.052 Y129.288
X-33.106 Y130.127
X-33.188 Y130.964
X-33.297 Y131.798
X-33.435 Y132.628
X-33.6 Y133.453
X-33.792 Y134.271
X-34.012 Y135.083
X-34.26 Y135.887
X-34.535 Y136.681
X-34.837 Y137.466
X-35.165 Y138.24
X-35.52 Y139.003
X-35.9 Y139.753
X-36.305 Y140.491
X-36.734 Y141.214
X-37.187 Y141.922
X-37.663 Y142.615
X-38.163 Y143.292
X-38.686 Y143.951
X-39.23 Y144.591
X-39.797 Y145.213
X-40.384 Y145.815
X-40.991 Y146.398
X-41.617 Y146.959
X-42.261 Y147.499
X-42.35 Y147.554
X-42.449 Y147.588
X-42.553 Y147.6
X-46.774
G3 X-47.002 Y147.546 I0.021 J-0.6
G1 X-47.087 Y147.507 Z-3.993
X-47.17 Y147.469 Z-3.971
X-47.249 Y147.433 Z-3.935
X-47.322 Y147.4 Z-3.885
X-47.388 Y147.37 Z-3.824
X-47.443 Y147.345 Z-3.753
X-47.488 Y147.325 Z-3.672
X-47.521 Y147.31 Z-3.585
X-47.541 Y147.301 Z-3.494
X-47.548 Y147.298 Z-3.4
G0 Z2.502
X-47.838 Y107.545
Z-2.8
G1 Z-3.4 F500.
X-47.837 Y107.538 Z-3.494
X-47.833 Y107.516 Z-3.585
X-47.827 Y107.481 Z-3.672
X-47.818 Y107.432 Z-3.753
X-47.807 Y107.372 Z-3.824
X-47.795 Y107.301 Z-3.885
X-47.78 Y107.222 Z-3.935
X-47.765 Y107.137 Z-3.971
X-47.749 Y107.047 Z-3.993
X-47.732 Y106.954 Z-4.
G3 X-47.554 Y106.8 I0.185 J0.033
G1 X-43.732
X-43.283 Y106.822
X-42.908 Y106.872
X-42.499 Y106.959
X-42.018 Y107.103
X-41.472 Y107.316
X-40.86 Y107.613
X-40.153 Y108.029
X-39.464 Y108.513
X-38.811 Y109.042
X-38.188 Y109.607
X-37.594 Y110.203
X-37.028 Y110.824
X-36.487 Y111.468
X-35.97 Y112.132
X-35.478 Y112.814
X-35.009 Y113.512
X-34.563 Y114.225
X-34.142 Y114.953
X-33.745 Y115.694
X-33.371 Y116.448
X-33.022 Y117.213
X-32.697 Y117.989
X-32.396 Y118.774
X-32.12 Y119.568
X-31.868 Y120.371
X-31.641 Y121.18
X-31.439 Y121.997
X-31.261 Y122.819
X-31.109 Y123.646
X-30.983 Y124.477
X-30.883 Y125.313
X-30.81 Y126.15
X-30.762 Y126.99
X-30.74 Y127.831
X-30.744 Y128.672
X-30.774 Y129.512
X-30.83 Y130.351
X-30.911 Y131.188
X-31.018 Y132.023
X-31.15 Y132.853
X-31.308 Y133.679
X-31.492 Y134.5
X-31.701 Y135.314
X-31.936 Y136.122
X-32.195 Y136.922
X-32.48 Y137.713
X-32.788 Y138.496
X-33.121 Y139.268
X-33.477 Y140.03
X-33.856 Y140.781
X-34.258 Y141.519
X-34.682 Y142.246
X-35.129 Y142.958
X-35.598 Y143.656
X-36.089 Y144.339
X-36.6 Y145.007
X-37.132 Y145.658
X-37.684 Y146.293
X-38.255 Y146.91
X-38.523 Y147.182
X-38.736 Y147.359
X-38.98 Y147.491
X-39.245 Y147.573
X-39.521 Y147.6
X-42.553
G3 X-42.781 Y147.546 I0.021 J-0.6
G1 X-42.867 Y147.507 Z-3.993
X-42.95 Y147.469 Z-3.971
X-43.029 Y147.433 Z-3.935
X-43.102 Y147.4 Z-3.885
X-43.167 Y147.37 Z-3.824
X-43.223 Y147.345 Z-3.753
X-43.268 Y147.325 Z-3.672
X-43.301 Y147.31 Z-3.585
X-43.321 Y147.301 Z-3.494
X-43.327 Y147.298 Z-3.4
G0 Z2.502
X-44.016 Y107.545
Z-2.8
G1 Z-3.4 F500.
X-44.015 Y107.538 Z-3.494
X-44.011 Y107.516 Z-3.585
X-44.005 Y107.481 Z-3.672
X-43.996 Y107.432 Z-3.753
X-43.985 Y107.372 Z-3.824
X-43.972 Y107.301 Z-3.885
X-43.958 Y107.222 Z-3.935
X-43.943 Y107.137 Z-3.971
X-43.927 Y107.047 Z-3.993
X-43.91 Y106.954 Z-4.
G3 X-43.732 Y106.8 I0.185 J0.033
G1 X-40.483
X-40.04 Y106.822
X-39.714 Y106.865
X-39.352 Y106.942
X-38.935 Y107.067
X-38.469 Y107.249
X-37.946 Y107.503
X-37.347 Y107.855
X-36.67 Y108.33
X-36.023 Y108.867
X-35.414 Y109.447
X-34.838 Y110.059
X-34.292 Y110.699
X-33.775 Y111.363
X-33.285 Y112.046
X-32.82 Y112.747
X-32.38 Y113.464
X-31.964 Y114.195
X-31.572 Y114.939
X-31.203 Y115.694
X-30.856 Y116.461
X-30.533 Y117.237
X-30.232 Y118.022
X-29.954 Y118.816
X-29.699 Y119.618
X-29.467 Y120.426
X-29.258 Y121.24
X-29.073 Y122.061
X-28.911 Y122.886
X-28.774 Y123.716
X-28.66 Y124.549
X-28.57 Y125.385
X-28.505 Y126.224
X-28.463 Y127.064
X-28.444 Y127.904
X-28.45 Y128.745
X-28.479 Y129.586
X-28.532 Y130.425
X-28.608 Y131.263
X-28.709 Y132.098
X-28.833 Y132.93
X-28.982 Y133.757
X-29.154 Y134.581
X-29.35 Y135.398
X-29.569 Y136.21
X-29.811 Y137.016
X-30.076 Y137.814
X-30.363 Y138.604
X-30.673 Y139.386
X-31.005 Y140.159
X-31.358 Y140.922
X-31.732 Y141.675
X-32.128 Y142.417
X-32.546 Y143.147
X-32.984 Y143.865
X-33.443 Y144.57
X-33.921 Y145.262
X-34.42 Y145.939
X-34.937 Y146.602
X-35.343 Y147.092
X-35.564 Y147.306
X-35.826 Y147.467
X-36.116 Y147.566
X-36.422 Y147.6
X-39.521
G3 X-39.749 Y147.546 I0.021 J-0.6
G1 X-39.834 Y147.507 Z-3.993
X-39.918 Y147.469 Z-3.971
X-39.997 Y147.433 Z-3.935
X-40.07 Y147.4 Z-3.885
X-40.135 Y147.37 Z-3.824
X-40.191 Y147.345 Z-3.753
X-40.235 Y147.325 Z-3.672
X-40.268 Y147.31 Z-3.585
X-40.288 Y147.301 Z-3.494
X-40.295 Y147.298 Z-3.4
G0 Z2.502
X-40.767 Y107.545
Z-2.8
G1 Z-3.4 F500.
X-40.766 Y107.538 Z-3.494
X-40.762 Y107.516 Z-3.585
X-40.756 Y107.481 Z-3.672
X-40.747 Y107.432 Z-3.753
X-40.736 Y107.372 Z-3.824
X-40.724 Y107.301 Z-3.885
X-40.709 Y107.222 Z-3.935
X-40.694 Y107.137 Z-3.971
X-40.678 Y107.047 Z-3.993
X-40.661 Y106.954 Z-4.
G3 X-40.483 Y106.8 I0.185 J0.033
G1 X-37.426
X-37.044 Y106.819
X-36.754 Y106.857
X-36.412 Y106.93
X-36.035 Y107.043
X-35.606 Y107.21
X-35.137 Y107.438
X-34.599 Y107.754
X-33.997 Y108.178
X-33.35 Y108.715
X-32.746 Y109.3
X-32.182 Y109.924
X-31.652 Y110.577
X-31.154 Y111.254
X-30.684 Y111.952
X-30.241 Y112.667
X-29.823 Y113.397
X-29.43 Y114.14
X-29.06 Y114.895
X-28.712 Y115.661
X-28.387 Y116.436
X-28.083 Y117.221
X-27.801 Y118.013
X-27.541 Y118.813
X-27.303 Y119.619
X-27.087 Y120.432
X-26.893 Y121.251
X-26.722 Y122.074
X-26.572 Y122.902
X-26.445 Y123.733
X-26.34 Y124.567
X-26.258 Y125.404
X-26.197 Y126.243
X-26.158 Y127.083
X-26.142 Y127.924
X-26.147 Y128.765
X-26.174 Y129.606
X-26.223 Y130.445
X-26.294 Y131.283
X-26.388 Y132.119
X-26.504 Y132.952
X-26.643 Y133.781
X-26.804 Y134.607
X-26.986 Y135.428
X-27.19 Y136.244
X-27.416 Y137.054
X-27.663 Y137.858
X-27.931 Y138.655
X-28.219 Y139.445
X-28.528 Y140.227
X-28.858 Y141.001
X-29.207 Y141.766
X-29.577 Y142.521
X-29.967 Y143.266
X-30.377 Y144.001
X-30.806 Y144.724
X-31.255 Y145.435
X-31.722 Y146.135
X-32.207 Y146.821
X-32.39 Y147.057
X-32.612 Y147.285
X-32.88 Y147.457
X-33.18 Y147.564
X-33.497 Y147.6
X-36.422
G3 X-36.65 Y147.546 I0.021 J-0.6
G1 X-36.735 Y147.507 Z-3.993
X-36.818 Y147.469 Z-3.971
X-36.897 Y147.433 Z-3.935
X-36.97 Y147.4 Z-3.885
X-37.036 Y147.37 Z-3.824
X-37.091 Y147.345 Z-3.753
X-37.136 Y147.325 Z-3.672
X-37.169 Y147.31 Z-3.585
X-37.189 Y147.301 Z-3.494
X-37.195 Y147.298 Z-3.4
G0 Z2.502
X-37.709 Y107.545
Z-2.8
G1 Z-3.4 F500.
X-37.708 Y107.538 Z-3.494
X-37.704 Y107.516 Z-3.585
X-37.698 Y107.481 Z-3.672
X-37.689 Y107.432 Z-3.753
X-37.678 Y107.372 Z-3.824
X-37.666 Y107.301 Z-3.885
X-37.652 Y107.222 Z-3.935
X-37.636 Y107.137 Z-3.971
X-37.62 Y107.047 Z-3.993
X-37.604 Y106.954 Z-4.
G3 X-37.426 Y106.8 I0.185 J0.033
G1 X-34.559
X-34.209 Y106.818
X-33.931 Y106.854
X-33.598 Y106.925
X-33.254 Y107.028
X-32.846 Y107.187
X-32.417 Y107.395
X-31.922 Y107.687
X-31.374 Y108.072
X-30.775 Y108.569
X-30.173 Y109.157
X-29.614 Y109.785
X-29.094 Y110.446
X-28.608 Y111.132
X-28.152 Y111.839
X-27.725 Y112.563
X-27.323 Y113.303
X-26.946 Y114.054
X-26.593 Y114.817
X-26.262 Y115.591
X-25.952 Y116.373
X-25.665 Y117.163
X-25.398 Y117.96
X-25.152 Y118.765
X-24.928 Y119.575
X-24.725 Y120.391
X-24.543 Y121.212
X-24.381 Y122.038
X-24.241 Y122.867
X-24.121 Y123.699
X-24.022 Y124.535
X-23.944 Y125.372
X-23.886 Y126.211
X-23.849 Y127.051
X-23.832 Y127.892
X-23.836 Y128.733
X-23.86 Y129.574
X-23.905 Y130.413
X-23.971 Y131.252
X-24.058 Y132.088
X-24.165 Y132.922
X-24.294 Y133.754
X-24.443 Y134.581
X-24.613 Y135.405
X-24.803 Y136.224
X-25.013 Y137.039
X-25.243 Y137.848
X-25.492 Y138.651
X-25.761 Y139.447
X-26.05 Y140.238
X-26.357 Y141.02
X-26.683 Y141.795
X-27.029 Y142.562
X-27.393 Y143.32
X-27.777 Y144.069
X-28.179 Y144.807
X-28.599 Y145.536
X-29.038 Y146.253
X-29.497 Y146.958
X-29.561 Y147.043
X-29.784 Y147.276
X-30.055 Y147.453
X-30.358 Y147.563
X-30.679 Y147.6
X-33.497
G3 X-33.725 Y147.546 I0.021 J-0.6
G1 X-33.81 Y147.507 Z-3.993
X-33.893 Y147.469 Z-3.971
X-33.973 Y147.433 Z-3.935
X-34.046 Y147.4 Z-3.885
X-34.111 Y147.37 Z-3.824
X-34.166 Y147.345 Z-3.753
X-34.211 Y147.325 Z-3.672
X-34.244 Y147.31 Z-3.585
X-34.264 Y147.301 Z-3.494
X-34.271 Y147.298 Z-3.4
G0 Z2.502
X-34.843 Y107.545
Z-2.8
G1 Z-3.4 F500.
X-34.842 Y107.538 Z-3.494
X-34.838 Y107.516 Z-3.585
X-34.831 Y107.481 Z-3.672
X-34.823 Y107.432 Z-3.753
X-34.812 Y107.372 Z-3.824
X-34.799 Y107.301 Z-3.885
X-34.785 Y107.222 Z-3.935
X-34.77 Y107.137 Z-3.971
X-34.754 Y107.047 Z-3.993
X-34.737 Y106.954 Z-4.
G3 X-34.559 Y106.8 I0.185 J0.033
G1 X-31.692
X-31.492 Y106.81
X-31.216 Y106.846
X-30.902 Y106.913
X-30.57 Y107.013
X-30.181 Y107.164
X-29.775 Y107.361
X-29.309 Y107.635
X-28.794 Y107.997
X-28.238 Y108.459
X-27.636 Y109.046
X-27.082 Y109.678
X-26.568 Y110.344
X-26.091 Y111.037
X-25.647 Y111.751
X-25.232 Y112.482
X-24.844 Y113.228
X-24.481 Y113.987
X-24.141 Y114.756
X-23.824 Y115.535
X-23.529 Y116.323
X-23.254 Y117.118
X-23.001 Y117.92
X-22.768 Y118.728
X-22.556 Y119.541
X-22.364 Y120.36
X-22.191 Y121.183
X-22.039 Y122.011
X-21.906 Y122.841
X-21.793 Y123.674
X-21.699 Y124.51
X-21.625 Y125.348
X-21.57 Y126.187
X-21.534 Y127.027
X-21.518 Y127.868
X-21.52 Y128.709
X-21.542 Y129.55
X-21.584 Y130.39
X-21.645 Y131.229
X-21.725 Y132.066
X-21.826 Y132.901
X-21.946 Y133.733
X-22.085 Y134.562
X-22.243 Y135.388
X-22.421 Y136.21
X-22.617 Y137.028
X-22.833 Y137.841
X-23.066 Y138.649
X-23.318 Y139.451
X-23.588 Y140.248
X-23.877 Y141.038
X-24.183 Y141.821
X-24.507 Y142.597
X-24.849 Y143.365
X-25.209 Y144.126
X-25.587 Y144.877
X-25.982 Y145.619
X-26.395 Y146.352
X-26.82 Y147.033
X-26.994 Y147.227
X-27.201 Y147.386
X-27.434 Y147.503
X-27.685 Y147.576
X-27.945 Y147.6
X-30.679
G3 X-30.907 Y147.546 I0.021 J-0.6
G1 X-30.992 Y147.507 Z-3.993
X-31.076 Y147.469 Z-3.971
X-31.155 Y147.433 Z-3.935
X-31.228 Y147.4 Z-3.885
X-31.293 Y147.37 Z-3.824
X-31.349 Y147.345 Z-3.753
X-31.393 Y147.325 Z-3.672
X-31.426 Y147.31 Z-3.585
X-31.446 Y147.301 Z-3.494
X-31.453 Y147.298 Z-3.4
G0 Z2.502
X-31.976 Y107.545
Z-2.8
G1 Z-3.4 F500.
X-31.975 Y107.538 Z-3.494
X-31.971 Y107.516 Z-3.585
X-31.965 Y107.481 Z-3.672
X-31.956 Y107.432 Z-3.753
X-31.945 Y107.372 Z-3.824
X-31.933 Y107.301 Z-3.885
X-31.918 Y107.222 Z-3.935
X-31.903 Y107.137 Z-3.971
X-31.887 Y107.047 Z-3.993
X-31.87 Y106.954 Z-4.
G3 X-31.692 Y106.8 I0.185 J0.033
G1 X-29.017
X-28.844 Y106.809
X-28.568 Y106.845
X-28.274 Y106.908
X-27.947 Y107.006
X-27.576 Y107.15
X-27.182 Y107.341
X-26.739 Y107.602
X-26.246 Y107.948
X-25.722 Y108.383
X-25.135 Y108.956
X-24.582 Y109.59
X-24.073 Y110.259
X-23.603 Y110.957
X-23.167 Y111.676
X-22.762 Y112.413
X-22.385 Y113.164
X-22.033 Y113.928
X-21.705 Y114.703
X-21.4 Y115.486
X-21.116 Y116.278
X-20.854 Y117.077
X-20.612 Y117.883
X-20.39 Y118.694
X-20.187 Y119.51
X-20.005 Y120.331
X-19.841 Y121.156
X-19.696 Y121.984
X-19.57 Y122.816
X-19.462 Y123.65
X-19.373 Y124.486
X-19.302 Y125.324
X-19.249 Y126.163
X-19.215 Y127.004
X-19.198 Y127.845
X-19.2 Y128.686
X-19.22 Y129.526
X-19.258 Y130.367
X-19.315 Y131.206
X-19.39 Y132.043
X-19.484 Y132.879
X-19.596 Y133.712
X-19.727 Y134.543
X-19.875 Y135.371
X-20.042 Y136.195
X-20.226 Y137.016
X-20.428 Y137.832
X-20.648 Y138.644
X-20.885 Y139.451
X-21.139 Y140.253
X-21.411 Y141.049
X-21.699 Y141.839
X-22.004 Y142.622
X-22.326 Y143.399
X-22.665 Y144.169
X-23.021 Y144.931
X-23.394 Y145.685
X-23.787 Y146.428
X-24.083 Y146.92
X-24.255 Y147.151
X-24.472 Y147.341
X-24.722 Y147.483
X-24.997 Y147.57
X-25.283 Y147.6
X-27.945
G3 X-28.173 Y147.546 I0.021 J-0.6
G1 X-28.259 Y147.507 Z-3.993
X-28.342 Y147.469 Z-3.971
X-28.421 Y147.433 Z-3.935
X-28.494 Y147.4 Z-3.885
X-28.559 Y147.37 Z-3.824
X-28.615 Y147.345 Z-3.753
X-28.66 Y147.325 Z-3.672
X-28.692 Y147.31 Z-3.585
X-28.712 Y147.301 Z-3.494
X-28.719 Y147.298 Z-3.4
G0 Z2.502
X-29.301 Y107.545
Z-2.8
G1 Z-3.4 F500.
X-29.299 Y107.538 Z-3.494
X-29.296 Y107.516 Z-3.585
X-29.289 Y107.481 Z-3.672
X-29.28 Y107.432 Z-3.753
X-29.27 Y107.372 Z-3.824
X-29.257 Y107.301 Z-3.885
X-29.243 Y107.222 Z-3.935
X-29.228 Y107.137 Z-3.971
X-29.211 Y107.047 Z-3.993
X-29.195 Y106.954 Z-4.
G3 X-29.017 Y106.8 I0.185 J0.033
G1 X-26.532
X-26.245 Y106.814
X-25.971 Y106.85
X-25.692 Y106.91
X-25.368 Y107.007
X-25.014 Y107.145
X-24.627 Y107.333
X-24.202 Y107.583
X-23.726 Y107.917
X-23.224 Y108.334
X-22.665 Y108.879
X-22.112 Y109.513
X-21.606 Y110.185
X-21.141 Y110.885
X-20.711 Y111.608
X-20.313 Y112.349
X-19.945 Y113.105
X-19.602 Y113.873
X-19.284 Y114.652
X-18.989 Y115.439
X-18.715 Y116.234
X-18.462 Y117.036
X-18.23 Y117.845
X-18.017 Y118.658
X-17.823 Y119.477
X-17.648 Y120.299
X-17.492 Y121.126
X-17.353 Y121.955
X-17.232 Y122.787
X-17.129 Y123.622
X-17.044 Y124.459
X-16.976 Y125.297
X-16.925 Y126.136
X-16.891 Y126.977
X-16.875 Y127.818
X-16.876 Y128.659
X-16.894 Y129.499
X-16.929 Y130.34
X-16.982 Y131.179
X-17.052 Y132.017
X-17.14 Y132.853
X-17.245 Y133.688
X-17.368 Y134.52
X-17.507 Y135.349
X-17.664 Y136.175
X-17.838 Y136.998
X-18.028 Y137.818
X-18.235 Y138.633
X-18.459 Y139.443
X-18.698 Y140.25
X-18.955 Y141.051
X-19.227 Y141.846
X-19.515 Y142.636
X-19.82 Y143.42
X-20.14 Y144.198
X-20.476 Y144.969
X-20.83 Y145.732
X-21.208 Y146.483
X-21.46 Y146.911
X-21.632 Y147.144
X-21.849 Y147.337
X-22.101 Y147.481
X-22.377 Y147.57
X-22.666 Y147.6
X-25.283
G3 X-25.511 Y147.546 I0.021 J-0.6
G1 X-25.596 Y147.507 Z-3.993
X-25.68 Y147.469 Z-3.971
X-25.759 Y147.433 Z-3.935
X-25.832 Y147.4 Z-3.885
X-25.897 Y147.37 Z-3.824
X-25.953 Y147.345 Z-3.753
X-25.997 Y147.325 Z-3.672
X-26.03 Y147.31 Z-3.585
X-26.05 Y147.301 Z-3.494
X-26.057 Y147.298 Z-3.4
G0 Z2.502
X-26.816 Y107.545
Z-2.8
G1 Z-3.4 F500.
X-26.815 Y107.538 Z-3.494
X-26.811 Y107.516 Z-3.585
X-26.805 Y107.481 Z-3.672
X-26.796 Y107.432 Z-3.753
X-26.785 Y107.372 Z-3.824
X-26.773 Y107.301 Z-3.885
X-26.758 Y107.222 Z-3.935
X-26.743 Y107.137 Z-3.971
X-26.727 Y107.047 Z-3.993
X-26.71 Y106.954 Z-4.
G3 X-26.532 Y106.8 I0.185 J0.033
G1 X-24.048
X-23.693 Y106.818
X-23.428 Y106.853
X-23.155 Y106.911
X-22.83 Y107.008
X-22.49 Y107.141
X-22.107 Y107.327
X-21.696 Y107.568
X-21.233 Y107.894
X-20.747 Y108.297
X-20.209 Y108.822
X-19.656 Y109.456
X-19.152 Y110.129
X-18.691 Y110.832
X-18.267 Y111.558
X-17.876 Y112.303
X-17.514 Y113.062
X-17.18 Y113.834
X-16.87 Y114.616
X-16.583 Y115.406
X-16.318 Y116.204
X-16.074 Y117.009
X-15.85 Y117.82
X-15.645 Y118.635
X-15.459 Y119.456
X-15.291 Y120.28
X-15.141 Y121.107
X-15.008 Y121.938
X-14.892 Y122.771
X-14.793 Y123.606
X-14.711 Y124.443
X-14.645 Y125.281
X-14.596 Y126.121
X-14.564 Y126.961
X-14.548 Y127.802
Y128.643
X-14.565 Y129.484
X-14.598 Y130.324
X-14.647 Y131.164
X-14.713 Y132.002
X-14.796 Y132.839
X-14.895 Y133.674
X-15.01 Y134.507
X-15.142 Y135.338
X-15.29 Y136.166
X-15.454 Y136.991
X-15.634 Y137.812
X-15.83 Y138.63
X-16.042 Y139.444
X-16.269 Y140.254
X-16.511 Y141.059
X-16.77 Y141.859
X-17.043 Y142.655
X-17.331 Y143.445
X-17.635 Y144.229
X-17.955 Y145.007
X-18.292 Y145.777
X-18.66 Y146.533
X-18.878 Y146.906
X-19.051 Y147.141
X-19.268 Y147.335
X-19.52 Y147.48
X-19.798 Y147.57
X-20.087 Y147.6
X-22.666
G3 X-22.894 Y147.546 I0.021 J-0.6
G1 X-22.979 Y147.507 Z-3.993
X-23.063 Y147.469 Z-3.971
X-23.142 Y147.433 Z-3.935
X-23.215 Y147.4 Z-3.885
X-23.28 Y147.37 Z-3.824
X-23.335 Y147.345 Z-3.753
X-23.38 Y147.325 Z-3.672
X-23.413 Y147.31 Z-3.585
X-23.433 Y147.301 Z-3.494
X-23.44 Y147.298 Z-3.4
G0 Z2.502
X-24.332 Y107.545
Z-2.8
G1 Z-3.4 F500.
X-24.331 Y107.538 Z-3.494
X-24.327 Y107.516 Z-3.585
X-24.32 Y107.481 Z-3.672
X-24.312 Y107.432 Z-3.753
X-24.301 Y107.372 Z-3.824
X-24.288 Y107.301 Z-3.885
X-24.274 Y107.222 Z-3.935
X-24.259 Y107.137 Z-3.971
X-24.243 Y107.047 Z-3.993
X-24.226 Y106.954 Z-4.
G3 X-24.048 Y106.8 I0.185 J0.033
G1 X-21.372
X-21.186 Y106.809
X-20.93 Y106.843
X-20.657 Y106.901
X-20.333 Y106.998
X-20.002 Y107.127
X-19.622 Y107.312
X-19.221 Y107.547
X-18.767 Y107.867
X-18.294 Y108.259
X-17.771 Y108.77
X-17.218 Y109.403
X-16.716 Y110.078
X-16.258 Y110.783
X-15.838 Y111.512
X-15.452 Y112.259
X-15.097 Y113.022
X-14.769 Y113.796
X-14.467 Y114.581
X-14.187 Y115.374
X-13.93 Y116.175
X-13.693 Y116.981
X-13.476 Y117.794
X-13.278 Y118.611
X-13.098 Y119.433
X-12.936 Y120.258
X-12.791 Y121.087
X-12.663 Y121.918
X-12.551 Y122.751
X-12.456 Y123.587
X-12.376 Y124.424
X-12.313 Y125.263
X-12.265 Y126.102
X-12.234 Y126.943
X-12.218 Y127.784
X-12.217 Y128.625
X-12.232 Y129.466
X-12.263 Y130.306
X-12.31 Y131.146
X-12.372 Y131.984
X-12.449 Y132.822
X-12.543 Y133.658
X-12.652 Y134.492
X-12.776 Y135.323
X-12.917 Y136.152
X-13.072 Y136.979
X-13.243 Y137.802
X-13.429 Y138.623
X-13.629 Y139.439
X-13.845 Y140.252
X-14.075 Y141.061
X-14.32 Y141.866
X-14.58 Y142.666
X-14.854 Y143.461
X-15.144 Y144.25
X-15.449 Y145.034
X-15.774 Y145.81
X-16.125 Y146.551
X-16.326 Y146.899
X-16.498 Y147.136
X-16.715 Y147.332
X-16.969 Y147.479
X-17.247 Y147.569
X-17.539 Y147.6
X-20.087
G3 X-20.315 Y147.546 I0.021 J-0.6
G1 X-20.4 Y147.507 Z-3.993
X-20.484 Y147.469 Z-3.971
X-20.563 Y147.433 Z-3.935
X-20.636 Y147.4 Z-3.885
X-20.701 Y147.37 Z-3.824
X-20.757 Y147.345 Z-3.753
X-20.802 Y147.325 Z-3.672
X-20.834 Y147.31 Z-3.585
X-20.854 Y147.301 Z-3.494
X-20.861 Y147.298 Z-3.4
G0 Z2.502
X-21.656 Y107.545
Z-2.8
G1 Z-3.4 F500.
X-21.655 Y107.538 Z-3.494
X-21.651 Y107.516 Z-3.585
X-21.645 Y107.481 Z-3.672
X-21.636 Y107.432 Z-3.753
X-21.625 Y107.372 Z-3.824
X-21.613 Y107.301 Z-3.885
X-21.599 Y107.222 Z-3.935
X-21.583 Y107.137 Z-3.971
X-21.567 Y107.047 Z-3.993
X-21.55 Y106.954 Z-4.
G3 X-21.372 Y106.8 I0.185 J0.033
G1 X-18.888
X-18.694 Y106.81
X-18.447 Y106.842
X-18.174 Y106.901
X-17.852 Y106.997
X-17.529 Y107.123
X-17.152 Y107.306
X-16.761 Y107.536
X-16.315 Y107.849
X-15.852 Y108.233
X-15.342 Y108.731
X-14.789 Y109.365
X-14.289 Y110.041
X-13.833 Y110.748
X-13.417 Y111.479
X-13.037 Y112.228
X-12.687 Y112.993
X-12.365 Y113.77
X-12.068 Y114.557
X-11.795 Y115.353
X-11.544 Y116.155
X-11.314 Y116.964
X-11.103 Y117.778
X-10.911 Y118.597
X-10.736 Y119.42
X-10.58 Y120.246
X-10.439 Y121.075
X-10.316 Y121.907
X-10.208 Y122.741
X-10.116 Y123.577
X-10.039 Y124.415
X-9.978 Y125.253
X-9.932 Y126.093
X-9.901 Y126.934
X-9.885 Y127.774
X-9.884 Y128.615
X-9.897 Y129.456
X-9.926 Y130.297
X-9.97 Y131.137
X-10.029 Y131.976
X-10.102 Y132.813
X-10.191 Y133.65
X-10.294 Y134.484
X-10.412 Y135.317
X-10.545 Y136.147
X-10.693 Y136.975
X-10.855 Y137.801
X-11.032 Y138.623
X-11.223 Y139.442
X-11.428 Y140.257
X-11.648 Y141.069
X-11.881 Y141.877
X-12.129 Y142.681
X-12.391 Y143.48
X-12.667 Y144.274
X-12.961 Y145.062
X-13.276 Y145.842
X-13.604 Y146.548
X-13.797 Y146.89
X-13.969 Y147.13
X-14.187 Y147.328
X-14.442 Y147.477
X-14.722 Y147.569
X-15.016 Y147.6
X-17.539
G3 X-17.767 Y147.546 I0.021 J-0.6
G1 X-17.852 Y147.507 Z-3.993
X-17.935 Y147.469 Z-3.971
X-18.014 Y147.433 Z-3.935
X-18.088 Y147.4 Z-3.885
X-18.153 Y147.37 Z-3.824
X-18.208 Y147.345 Z-3.753
X-18.253 Y147.325 Z-3.672
X-18.286 Y147.31 Z-3.585
X-18.306 Y147.301 Z-3.494
X-18.313 Y147.298 Z-3.4
G0 Z2.502
X-19.172 Y107.545
Z-2.8
G1 Z-3.4 F500.
X-19.171 Y107.538 Z-3.494
X-19.167 Y107.516 Z-3.585
X-19.16 Y107.481 Z-3.672
X-19.152 Y107.432 Z-3.753
X-19.141 Y107.372 Z-3.824
X-19.128 Y107.301 Z-3.885
X-19.114 Y107.222 Z-3.935
X-19.099 Y107.137 Z-3.971
X-19.083 Y107.047 Z-3.993
X-19.066 Y106.954 Z-4.
G3 X-18.888 Y106.8 I0.185 J0.033
G1 X-16.404
X-16.227 Y106.809
X-15.986 Y106.84
X-15.713 Y106.899
X-15.395 Y106.994
X-15.076 Y107.118
X-14.701 Y107.3
X-14.318 Y107.526
X-13.879 Y107.834
X-13.424 Y108.212
X-12.924 Y108.7
X-12.379 Y109.324
X-11.879 Y110.
X-11.425 Y110.708
X-11.012 Y111.441
X-10.635 Y112.192
X-10.289 Y112.959
X-9.972 Y113.738
X-9.68 Y114.527
X-9.412 Y115.324
X-9.166 Y116.128
X-8.941 Y116.939
X-8.736 Y117.754
X-8.548 Y118.574
X-8.379 Y119.398
X-8.226 Y120.225
X-8.09 Y121.055
X-7.97 Y121.887
X-7.865 Y122.721
X-7.775 Y123.558
X-7.701 Y124.395
X-7.641 Y125.234
X-7.596 Y126.074
X-7.565 Y126.914
X-7.549 Y127.755
X-7.547 Y128.596
X-7.56 Y129.437
X-7.587 Y130.278
X-7.628 Y131.118
X-7.683 Y131.957
X-7.753 Y132.795
X-7.836 Y133.632
X-7.934 Y134.467
X-8.047 Y135.301
X-8.173 Y136.132
X-8.314 Y136.961
X-8.468 Y137.788
X-8.636 Y138.612
X-8.818 Y139.433
X-9.014 Y140.251
X-9.223 Y141.065
X-9.446 Y141.876
X-9.683 Y142.684
X-9.933 Y143.486
X-10.199 Y144.284
X-10.482 Y145.076
X-10.789 Y145.859
X-11.099 Y146.539
X-11.29 Y146.881
X-11.461 Y147.124
X-11.679 Y147.325
X-11.935 Y147.475
X-12.217 Y147.569
X-12.513 Y147.6
X-15.016
G3 X-15.243 Y147.546 I0.021 J-0.6
G1 X-15.329 Y147.507 Z-3.993
X-15.412 Y147.469 Z-3.971
X-15.491 Y147.433 Z-3.935
X-15.564 Y147.4 Z-3.885
X-15.629 Y147.37 Z-3.824
X-15.685 Y147.345 Z-3.753
X-15.73 Y147.325 Z-3.672
X-15.763 Y147.31 Z-3.585
