(3.HOLES1)
(T1  D=6. CR=0. - ZMIN=-17. - FLAT END MILL)
G0 G90 G94 G17
G21
G53 Z0.

(HOLES1)
M5
M9
T1
M3 S18000
G54
M9
G0 X-65.783 Y9.086
Z2.
Z-1.005
G1 Z-4.555 F500.
X-65.784 Y9.085 Z-4.587
Y9.08 Z-4.618
Y9.071 Z-4.648
G3 X-65.783 Y9.06 Z-4.678 I0.295 J0.006
X-65.782 Y9.045 Z-4.706 I0.294 J0.017
X-65.779 Y9.028 Z-4.732 I0.293 J0.032
X-65.775 Y9.008 Z-4.756 I0.291 J0.049
X-65.769 Y8.986 Z-4.778 I0.287 J0.069
X-65.761 Y8.963 Z-4.797 I0.281 J0.091
X-65.749 Y8.939 Z-4.814 I0.272 J0.114
X-65.737 Y8.917 Z-4.826 I0.26 J0.138
X-65.722 Y8.896 Z-4.836 I0.248 J0.16
X-65.705 Y8.876 Z-4.843 I0.233 J0.181
X-65.685 Y8.857 Z-4.848 I0.216 J0.201
X-65.664 Y8.84 Z-4.85 I0.197 J0.22
X-65.313 Y9.314 Z-4.882 I0.175 J0.237
X-65.664 Y8.84 Z-4.915 I-0.175 J-0.237
X-65.313 Y9.314 Z-4.947 I0.175 J0.237
X-65.664 Y8.84 Z-4.979 I-0.175 J-0.237
X-65.313 Y9.314 Z-5.012 I0.175 J0.237
X-65.664 Y8.84 Z-5.044 I-0.175 J-0.237
X-65.313 Y9.314 Z-5.076 I0.175 J0.237
X-65.664 Y8.84 Z-5.109 I-0.175 J-0.237
X-65.313 Y9.314 Z-5.141 I0.175 J0.237
X-65.664 Y8.84 Z-5.174 I-0.175 J-0.237
X-65.313 Y9.314 Z-5.206 I0.175 J0.237
X-65.664 Y8.84 Z-5.238 I-0.175 J-0.237
X-65.313 Y9.314 Z-5.271 I0.175 J0.237
X-65.664 Y8.84 Z-5.303 I-0.175 J-0.237
X-65.313 Y9.314 Z-5.335 I0.175 J0.237
X-65.664 Y8.84 Z-5.368 I-0.175 J-0.237
X-65.313 Y9.314 Z-5.4 I0.175 J0.237
X-65.664 Y8.84 Z-5.432 I-0.175 J-0.237
X-65.313 Y9.314 Z-5.465 I0.175 J0.237
X-65.664 Y8.84 Z-5.497 I-0.175 J-0.237
X-65.313 Y9.314 Z-5.529 I0.175 J0.237
X-65.664 Y8.84 Z-5.562 I-0.175 J-0.237
X-65.313 Y9.314 Z-5.594 I0.175 J0.237
X-65.664 Y8.84 Z-5.627 I-0.175 J-0.237
X-65.313 Y9.314 Z-5.659 I0.175 J0.237
X-65.664 Y8.84 Z-5.691 I-0.175 J-0.237
X-65.313 Y9.314 Z-5.724 I0.175 J0.237
X-65.664 Y8.84 Z-5.756 I-0.175 J-0.237
X-65.313 Y9.314 Z-5.788 I0.175 J0.237
X-65.664 Y8.84 Z-5.821 I-0.175 J-0.237
X-65.313 Y9.314 Z-5.853 I0.175 J0.237
X-65.664 Y8.84 Z-5.885 I-0.175 J-0.237
X-65.313 Y9.314 Z-5.918 I0.175 J0.237
X-65.664 Y8.84 Z-5.95 I-0.175 J-0.237
X-65.313 Y9.314 Z-5.982 I0.175 J0.237
X-65.664 Y8.84 Z-6.015 I-0.175 J-0.237
X-65.313 Y9.314 Z-6.047 I0.175 J0.237
X-65.664 Y8.84 Z-6.08 I-0.175 J-0.237
X-65.313 Y9.314 Z-6.112 I0.175 J0.237
X-65.664 Y8.84 Z-6.144 I-0.175 J-0.237
X-65.313 Y9.314 Z-6.177 I0.175 J0.237
X-65.664 Y8.84 Z-6.209 I-0.175 J-0.237
X-65.313 Y9.314 Z-6.241 I0.175 J0.237
X-65.664 Y8.84 Z-6.274 I-0.175 J-0.237
X-65.313 Y9.314 Z-6.306 I0.175 J0.237
X-65.664 Y8.84 Z-6.338 I-0.175 J-0.237
X-65.313 Y9.314 Z-6.371 I0.175 J0.237
X-65.664 Y8.84 Z-6.403 I-0.175 J-0.237
X-65.313 Y9.314 Z-6.435 I0.175 J0.237
X-65.664 Y8.84 Z-6.468 I-0.175 J-0.237
X-65.313 Y9.314 Z-6.5 I0.175 J0.237
X-65.664 Y8.84 Z-6.533 I-0.175 J-0.237
X-65.313 Y9.314 Z-6.565 I0.175 J0.237
X-65.664 Y8.84 Z-6.597 I-0.175 J-0.237
X-65.313 Y9.314 Z-6.63 I0.175 J0.237
X-65.664 Y8.84 Z-6.662 I-0.175 J-0.237
X-65.313 Y9.314 Z-6.694 I0.175 J0.237
X-65.664 Y8.84 Z-6.727 I-0.175 J-0.237
X-65.313 Y9.314 Z-6.759 I0.175 J0.237
X-65.664 Y8.84 Z-6.791 I-0.175 J-0.237
X-65.313 Y9.314 Z-6.824 I0.175 J0.237
X-65.664 Y8.84 Z-6.856 I-0.175 J-0.237
X-65.313 Y9.314 Z-6.888 I0.175 J0.237
X-65.664 Y8.84 Z-6.921 I-0.175 J-0.237
X-65.313 Y9.314 Z-6.953 I0.175 J0.237
X-65.664 Y8.84 Z-6.986 I-0.175 J-0.237
X-65.313 Y9.314 Z-7.018 I0.175 J0.237
X-65.664 Y8.84 Z-7.05 I-0.175 J-0.237
X-65.313 Y9.314 Z-7.083 I0.175 J0.237
X-65.664 Y8.84 Z-7.115 I-0.175 J-0.237
X-65.313 Y9.314 Z-7.147 I0.175 J0.237
X-65.664 Y8.84 Z-7.18 I-0.175 J-0.237
X-65.313 Y9.314 Z-7.212 I0.175 J0.237
X-65.664 Y8.84 Z-7.244 I-0.175 J-0.237
X-65.313 Y9.314 Z-7.277 I0.175 J0.237
X-65.664 Y8.84 Z-7.309 I-0.175 J-0.237
X-65.313 Y9.314 Z-7.341 I0.175 J0.237
X-65.664 Y8.84 Z-7.374 I-0.175 J-0.237
X-65.313 Y9.314 Z-7.406 I0.175 J0.237
X-65.664 Y8.84 Z-7.439 I-0.175 J-0.237
X-65.313 Y9.314 Z-7.471 I0.175 J0.237
X-65.664 Y8.84 Z-7.503 I-0.175 J-0.237
X-65.313 Y9.314 Z-7.536 I0.175 J0.237
X-65.664 Y8.84 Z-7.568 I-0.175 J-0.237
X-65.313 Y9.314 Z-7.6 I0.175 J0.237
X-65.664 Y8.84 Z-7.633 I-0.175 J-0.237
X-65.313 Y9.314 Z-7.665 I0.175 J0.237
X-65.664 Y8.84 Z-7.697 I-0.175 J-0.237
X-65.313 Y9.314 Z-7.73 I0.175 J0.237
X-65.664 Y8.84 Z-7.762 I-0.175 J-0.237
X-65.313 Y9.314 Z-7.794 I0.175 J0.237
X-65.664 Y8.84 Z-7.827 I-0.175 J-0.237
X-65.313 Y9.314 Z-7.859 I0.175 J0.237
X-65.664 Y8.84 Z-7.892 I-0.175 J-0.237
X-65.313 Y9.314 Z-7.924 I0.175 J0.237
X-65.664 Y8.84 Z-7.956 I-0.175 J-0.237
X-65.313 Y9.314 Z-7.989 I0.175 J0.237
X-65.618 Y9.342 Z-8. I-0.175 J-0.237
X-65.627 Y9.338 I0.129 J-0.265
X-65.875 Y8.526 I0.282 J-0.53
G1 X-65.874 Y8.523
X-65.845 Y8.474
X-65.812 Y8.425
X-65.775 Y8.376
X-65.734 Y8.327
X-65.708 Y8.3
X-65.68 Y8.274
X-65.631 Y8.231
X-65.583 Y8.193
X-65.559 Y8.177
X-65.534 Y8.161
X-65.486 Y8.132
X-65.485 Y8.131
X-65.436 Y8.105
X-65.387 Y8.083
X-65.338 Y8.064
X-65.289 Y8.048
X-65.241 Y8.034
X-65.192 Y8.024
X-65.143 Y8.015
X-65.094 Y8.009
X-65.045 Y8.006
X-64.996 Y8.005
X-64.948 Y8.006
X-64.899 Y8.01
X-64.85 Y8.016
X-64.801 Y8.025
X-64.752 Y8.036
X-64.704 Y8.05
X-64.656 Y8.066
X-64.609 Y8.085
X-64.561 Y8.107
X-64.514 Y8.132
X-64.508 Y8.135
X-64.484 Y8.149
X-64.459 Y8.164
X-64.411 Y8.198
X-64.362 Y8.237
X-64.313 Y8.28
X-64.289 Y8.304
X-64.266 Y8.327
X-64.225 Y8.376
X-64.188 Y8.425
X-64.155 Y8.474
X-64.126 Y8.523
X-64.118 Y8.54
X-64.096 Y8.585
X-64.077 Y8.629
X-64.06 Y8.674
X-64.045 Y8.719
X-64.032 Y8.768
X-64.022 Y8.817
X-64.014 Y8.866
X-64.009 Y8.915
X-64.006 Y8.963
X-64.005 Y9.012
X-64.007 Y9.061
X-64.011 Y9.11
X-64.018 Y9.159
X-64.027 Y9.208
X-64.039 Y9.257
X-64.053 Y9.306
X-64.081 Y9.383
X-64.099 Y9.422
X-64.118 Y9.46
X-64.141 Y9.502
X-64.171 Y9.551
X-64.206 Y9.6
X-64.225 Y9.624
X-64.245 Y9.649
X-64.29 Y9.697
X-64.313 Y9.72
X-64.362 Y9.763
X-64.411 Y9.802
X-64.459 Y9.836
X-64.484 Y9.851
X-64.508 Y9.865
X-64.561 Y9.893
X-64.633 Y9.925
X-64.668 Y9.938
X-64.704 Y9.95
X-64.752 Y9.964
X-64.801 Y9.975
X-64.85 Y9.984
X-64.899 Y9.99
X-64.948 Y9.994
X-64.996 Y9.995
X-65.045 Y9.994
X-65.094 Y9.991
X-65.143 Y9.985
X-65.192 Y9.976
X-65.241 Y9.966
X-65.289 Y9.952
X-65.327 Y9.94
X-65.364 Y9.926
X-65.439 Y9.893
X-65.485 Y9.869
X-65.533 Y9.84
X-65.558 Y9.824
X-65.582 Y9.807
X-65.631 Y9.769
X-65.68 Y9.726
X-65.71 Y9.697
X-65.755 Y9.649
X-65.775 Y9.624
X-65.794 Y9.6
X-65.829 Y9.551
X-65.859 Y9.502
X-65.875 Y9.474
X-65.916 Y9.39
X-65.932 Y9.348
X-65.947 Y9.306
X-65.961 Y9.257
X-65.973 Y9.208
X-65.982 Y9.159
X-65.989 Y9.11
X-65.993 Y9.061
X-65.995 Y9.012
X-65.994 Y8.963
X-65.991 Y8.915
X-65.986 Y8.866
X-65.978 Y8.817
X-65.968 Y8.768
X-65.955 Y8.719
X-65.939 Y8.671
X-65.921 Y8.622
X-65.9 Y8.574
X-65.875 Y8.526
X-65.874 Y8.523 F167.
X-65.865 Y8.508
X-65.845 Y8.474 Z-8.002
X-65.812 Y8.425 Z-8.004
X-65.775 Y8.376 Z-8.006
X-65.734 Y8.327 Z-8.008
X-65.708 Y8.3 Z-8.009
X-65.68 Y8.274 Z-8.011
X-65.631 Y8.231 Z-8.013
X-65.583 Y8.193 Z-8.015
X-65.559 Y8.177 Z-8.016
X-65.534 Y8.161 Z-8.017
X-65.486 Y8.132 Z-8.019
X-65.485 Y8.131
X-65.436 Y8.105 Z-8.021
X-65.387 Y8.083 Z-8.023
X-65.338 Y8.064 Z-8.025
X-65.289 Y8.048 Z-8.027
X-65.241 Y8.034 Z-8.028
X-65.192 Y8.024 Z-8.03
X-65.143 Y8.015 Z-8.032
X-65.094 Y8.009 Z-8.034
X-65.045 Y8.006 Z-8.035
X-64.996 Y8.005 Z-8.037
X-64.948 Y8.006 Z-8.039
X-64.899 Y8.01 Z-8.041
X-64.85 Y8.016 Z-8.042
X-64.801 Y8.025 Z-8.044
X-64.752 Y8.036 Z-8.046
X-64.704 Y8.05 Z-8.047
X-64.656 Y8.066 Z-8.049
X-64.609 Y8.085 Z-8.051
X-64.561 Y8.107 Z-8.053
X-64.514 Y8.132 Z-8.055
X-64.508 Y8.135
X-64.484 Y8.149 Z-8.056
X-64.459 Y8.164 Z-8.057
X-64.411 Y8.198 Z-8.059
X-64.362 Y8.237 Z-8.061
X-64.313 Y8.28 Z-8.063
X-64.289 Y8.304 Z-8.065
X-64.266 Y8.327 Z-8.066
X-64.225 Y8.376 Z-8.068
X-64.188 Y8.425 Z-8.07
X-64.155 Y8.474 Z-8.072
X-64.126 Y8.523 Z-8.074
X-64.118 Y8.54 Z-8.075
X-64.096 Y8.585 Z-8.077
X-64.077 Y8.629 Z-8.078
X-64.06 Y8.674 Z-8.08
X-64.045 Y8.719 Z-8.082
X-64.032 Y8.768 Z-8.083
X-64.022 Y8.817 Z-8.085
X-64.014 Y8.866 Z-8.087
X-64.009 Y8.915 Z-8.089
X-64.006 Y8.963 Z-8.09
X-64.005 Y9.012 Z-8.092
X-64.007 Y9.061 Z-8.094
X-64.011 Y9.11 Z-8.095
X-64.018 Y9.159 Z-8.097
X-64.027 Y9.208 Z-8.099
X-64.039 Y9.257 Z-8.101
X-64.053 Y9.306 Z-8.102
X-64.081 Y9.383 Z-8.105
X-64.099 Y9.422 Z-8.107
X-64.118 Y9.46 Z-8.108
X-64.141 Y9.502 Z-8.11
X-64.171 Y9.551 Z-8.112
X-64.206 Y9.6 Z-8.114
X-64.225 Y9.624 Z-8.115
X-64.245 Y9.649 Z-8.116
X-64.29 Y9.697 Z-8.119
X-64.313 Y9.72 Z-8.12
X-64.362 Y9.763 Z-8.122
X-64.411 Y9.802 Z-8.124
X-64.459 Y9.836 Z-8.126
X-64.484 Y9.851 Z-8.127
X-64.508 Y9.865 Z-8.128
X-64.561 Y9.893 Z-8.13
X-64.633 Y9.925 Z-8.133
X-64.668 Y9.938 Z-8.134
X-64.704 Y9.95 Z-8.136
X-64.752 Y9.964 Z-8.137
X-64.801 Y9.975 Z-8.139
X-64.85 Y9.984 Z-8.141
X-64.899 Y9.99 Z-8.143
X-64.948 Y9.994 Z-8.144
X-64.996 Y9.995 Z-8.146
X-65.045 Y9.994 Z-8.148
X-65.094 Y9.991 Z-8.149
X-65.143 Y9.985 Z-8.151
X-65.192 Y9.976 Z-8.153
X-65.241 Y9.966 Z-8.155
X-65.289 Y9.952 Z-8.156
X-65.327 Y9.94 Z-8.158
X-65.364 Y9.926 Z-8.159
X-65.439 Y9.893 Z-8.162
X-65.485 Y9.869 Z-8.164
X-65.533 Y9.84 Z-8.166
X-65.558 Y9.824 Z-8.167
X-65.582 Y9.807 Z-8.168
X-65.631 Y9.769 Z-8.17
X-65.68 Y9.726 Z-8.172
X-65.71 Y9.697 Z-8.174
X-65.755 Y9.649 Z-8.176
X-65.775 Y9.624 Z-8.177
X-65.794 Y9.6 Z-8.178
X-65.829 Y9.551 Z-8.18
X-65.859 Y9.502 Z-8.182
X-65.875 Y9.474 Z-8.183
X-65.916 Y9.39 Z-8.187
X-65.932 Y9.348 Z-8.188
X-65.947 Y9.306 Z-8.19
X-65.961 Y9.257 Z-8.192
X-65.973 Y9.208 Z-8.193
X-65.982 Y9.159 Z-8.195
X-65.989 Y9.11 Z-8.197
X-65.993 Y9.061 Z-8.199
X-65.995 Y9.012 Z-8.2
X-65.994 Y8.963 Z-8.202
X-65.991 Y8.915 Z-8.204
X-65.986 Y8.866 Z-8.205
X-65.978 Y8.817 Z-8.207
X-65.968 Y8.768 Z-8.209
X-65.955 Y8.719 Z-8.211
X-65.939 Y8.671 Z-8.212
X-65.921 Y8.622 Z-8.214
X-65.9 Y8.574 Z-8.216
X-65.875 Y8.526 Z-8.218
X-65.874 Y8.523
X-65.845 Y8.474 Z-8.22
X-65.812 Y8.425 Z-8.222
X-65.775 Y8.376 Z-8.224
X-65.734 Y8.327 Z-8.226
X-65.708 Y8.3 Z-8.228
X-65.68 Y8.274 Z-8.229
X-65.631 Y8.231 Z-8.231
X-65.583 Y8.193 Z-8.234
X-65.559 Y8.177 Z-8.235
X-65.534 Y8.161 Z-8.236
X-65.486 Y8.132 Z-8.238
X-65.485 Y8.131
X-65.436 Y8.105 Z-8.24
X-65.387 Y8.083 Z-8.241
X-65.338 Y8.064 Z-8.243
X-65.289 Y8.048 Z-8.245
X-65.241 Y8.034 Z-8.247
X-65.192 Y8.024 Z-8.249
X-65.143 Y8.015 Z-8.25
X-65.094 Y8.009 Z-8.252
X-65.045 Y8.006 Z-8.254
X-64.996 Y8.005 Z-8.255
X-64.948 Y8.006 Z-8.257
X-64.899 Y8.01 Z-8.259
X-64.85 Y8.016 Z-8.261
X-64.801 Y8.025 Z-8.262
X-64.752 Y8.036 Z-8.264
X-64.704 Y8.05 Z-8.266
X-64.656 Y8.066 Z-8.268
X-64.609 Y8.085 Z-8.269
X-64.561 Y8.107 Z-8.271
X-64.514 Y8.132 Z-8.273
X-64.508 Y8.135
X-64.484 Y8.149 Z-8.274
X-64.459 Y8.164 Z-8.275
X-64.411 Y8.198 Z-8.277
X-64.362 Y8.237 Z-8.279
X-64.313 Y8.28 Z-8.282
X-64.289 Y8.304 Z-8.283
X-64.266 Y8.327 Z-8.284
X-64.225 Y8.376 Z-8.286
X-64.188 Y8.425 Z-8.288
X-64.155 Y8.474 Z-8.291
X-64.126 Y8.523 Z-8.292
X-64.118 Y8.54 Z-8.293
X-64.096 Y8.585 Z-8.295
X-64.077 Y8.629 Z-8.297
X-64.06 Y8.674 Z-8.298
X-64.045 Y8.719 Z-8.3
X-64.032 Y8.768 Z-8.302
X-64.022 Y8.817 Z-8.303
X-64.014 Y8.866 Z-8.305
X-64.009 Y8.915 Z-8.307
X-64.006 Y8.963 Z-8.309
X-64.005 Y9.012 Z-8.31
X-64.007 Y9.061 Z-8.312
X-64.011 Y9.11 Z-8.314
X-64.018 Y9.159 Z-8.315
X-64.027 Y9.208 Z-8.317
X-64.039 Y9.257 Z-8.319
X-64.053 Y9.306 Z-8.321
X-64.081 Y9.383 Z-8.324
X-64.099 Y9.422 Z-8.325
X-64.118 Y9.46 Z-8.327
X-64.141 Y9.502 Z-8.328
X-64.171 Y9.551 Z-8.33
X-64.206 Y9.6 Z-8.332
X-64.225 Y9.624 Z-8.333
X-64.245 Y9.649 Z-8.335
X-64.29 Y9.697 Z-8.337
X-64.313 Y9.72 Z-8.338
X-64.362 Y9.763 Z-8.34
X-64.411 Y9.802 Z-8.342
X-64.459 Y9.836 Z-8.344
X-64.484 Y9.851 Z-8.345
X-64.508 Y9.865 Z-8.346
X-64.561 Y9.893 Z-8.349
X-64.633 Y9.925 Z-8.351
X-64.668 Y9.938 Z-8.353
X-64.704 Y9.95 Z-8.354
X-64.752 Y9.964 Z-8.356
X-64.801 Y9.975 Z-8.357
X-64.85 Y9.984 Z-8.359
X-64.899 Y9.99 Z-8.361
X-64.948 Y9.994 Z-8.363
X-64.996 Y9.995 Z-8.364
X-65.045 Y9.994 Z-8.366
X-65.094 Y9.991 Z-8.368
X-65.143 Y9.985 Z-8.369
X-65.192 Y9.976 Z-8.371
X-65.241 Y9.966 Z-8.373
X-65.289 Y9.952 Z-8.375
X-65.327 Y9.94 Z-8.376
X-65.364 Y9.926 Z-8.377
X-65.439 Y9.893 Z-8.38
X-65.485 Y9.869 Z-8.382
X-65.533 Y9.84 Z-8.384
X-65.558 Y9.824 Z-8.385
X-65.582 Y9.807 Z-8.386
X-65.631 Y9.769 Z-8.388
X-65.68 Y9.726 Z-8.391
X-65.71 Y9.697 Z-8.392
X-65.755 Y9.649 Z-8.394
X-65.775 Y9.624 Z-8.395
X-65.794 Y9.6 Z-8.397
X-65.829 Y9.551 Z-8.399
X-65.859 Y9.502 Z-8.401
X-65.875 Y9.474 Z-8.402
X-65.916 Y9.39 Z-8.405
X-65.932 Y9.348 Z-8.407
X-65.947 Y9.306 Z-8.408
X-65.961 Y9.257 Z-8.41
X-65.973 Y9.208 Z-8.412
X-65.982 Y9.159 Z-8.413
X-65.989 Y9.11 Z-8.415
X-65.993 Y9.061 Z-8.417
X-65.995 Y9.012 Z-8.419
X-65.994 Y8.963 Z-8.42
X-65.991 Y8.915 Z-8.422
X-65.986 Y8.866 Z-8.424
X-65.978 Y8.817 Z-8.425
X-65.968 Y8.768 Z-8.427
X-65.955 Y8.719 Z-8.429
X-65.939 Y8.671 Z-8.431
X-65.921 Y8.622 Z-8.433
X-65.9 Y8.574 Z-8.434
X-65.875 Y8.526 Z-8.436
X-65.874 Y8.523
X-65.845 Y8.474 Z-8.438
X-65.812 Y8.425 Z-8.44
X-65.775 Y8.376 Z-8.443
X-65.734 Y8.327 Z-8.445
X-65.708 Y8.3 Z-8.446
X-65.68 Y8.274 Z-8.447
X-65.631 Y8.231 Z-8.45
X-65.583 Y8.193 Z-8.452
X-65.559 Y8.177 Z-8.453
X-65.534 Y8.161 Z-8.454
X-65.486 Y8.132 Z-8.456
X-65.485 Y8.131
X-65.436 Y8.105 Z-8.458
X-65.387 Y8.083 Z-8.46
X-65.338 Y8.064 Z-8.462
X-65.289 Y8.048 Z-8.463
X-65.241 Y8.034 Z-8.465
X-65.192 Y8.024 Z-8.467
X-65.143 Y8.015 Z-8.469
X-65.094 Y8.009 Z-8.47
X-65.045 Y8.006 Z-8.472
X-64.996 Y8.005 Z-8.474
X-64.948 Y8.006 Z-8.475
X-64.899 Y8.01 Z-8.477
X-64.85 Y8.016 Z-8.479
X-64.801 Y8.025 Z-8.481
X-64.752 Y8.036 Z-8.482
X-64.704 Y8.05 Z-8.484
X-64.656 Y8.066 Z-8.486
X-64.609 Y8.085 Z-8.488
X-64.561 Y8.107 Z-8.489
X-64.514 Y8.132 Z-8.491
X-64.508 Y8.135 Z-8.492
X-64.484 Y8.149 Z-8.493
X-64.459 Y8.164 Z-8.494
X-64.411 Y8.198 Z-8.496
X-64.362 Y8.237 Z-8.498
X-64.313 Y8.28 Z-8.5
X-64.289 Y8.304 Z-8.501
X-64.266 Y8.327 Z-8.502
X-64.225 Y8.376 Z-8.505
X-64.188 Y8.425 Z-8.507
X-64.155 Y8.474 Z-8.509
X-64.126 Y8.523 Z-8.511
X-64.118 Y8.54
X-64.096 Y8.585 Z-8.513
X-64.077 Y8.629 Z-8.515
X-64.06 Y8.674 Z-8.517
X-64.045 Y8.719 Z-8.518
X-64.032 Y8.768 Z-8.52
X-64.022 Y8.817 Z-8.522
X-64.014 Y8.866 Z-8.523
X-64.009 Y8.915 Z-8.525
X-64.006 Y8.963 Z-8.527
X-64.005 Y9.012 Z-8.529
X-64.007 Y9.061 Z-8.53
X-64.011 Y9.11 Z-8.532
X-64.018 Y9.159 Z-8.534
X-64.027 Y9.208 Z-8.535
X-64.039 Y9.257 Z-8.537
X-64.053 Y9.306 Z-8.539
X-64.081 Y9.383 Z-8.542
X-64.099 Y9.422 Z-8.543
X-64.118 Y9.46 Z-8.545
X-64.141 Y9.502 Z-8.547
X-64.171 Y9.551 Z-8.549
X-64.206 Y9.6 Z-8.551
X-64.225 Y9.624 Z-8.552
X-64.245 Y9.649 Z-8.553
X-64.29 Y9.697 Z-8.555
X-64.313 Y9.72 Z-8.556
X-64.362 Y9.763 Z-8.559
X-64.411 Y9.802 Z-8.561
X-64.459 Y9.836 Z-8.563
X-64.484 Y9.851 Z-8.564
X-64.508 Y9.865 Z-8.565
X-64.561 Y9.893 Z-8.567
X-64.633 Y9.925 Z-8.57
X-64.668 Y9.938 Z-8.571
X-64.704 Y9.95 Z-8.572
X-64.752 Y9.964 Z-8.574
X-64.801 Y9.975 Z-8.576
X-64.85 Y9.984 Z-8.577
X-64.899 Y9.99 Z-8.579
X-64.948 Y9.994 Z-8.581
X-64.996 Y9.995 Z-8.583
X-65.045 Y9.994 Z-8.584
X-65.094 Y9.991 Z-8.586
X-65.143 Y9.985 Z-8.588
X-65.192 Y9.976 Z-8.589
X-65.241 Y9.966 Z-8.591
X-65.289 Y9.952 Z-8.593
X-65.327 Y9.94 Z-8.594
X-65.364 Y9.926 Z-8.596
X-65.439 Y9.893 Z-8.599
X-65.485 Y9.869 Z-8.6
X-65.533 Y9.84 Z-8.602
X-65.558 Y9.824 Z-8.603
X-65.582 Y9.807 Z-8.604
X-65.631 Y9.769 Z-8.607
X-65.68 Y9.726 Z-8.609
X-65.71 Y9.697 Z-8.61
X-65.755 Y9.649 Z-8.613
X-65.775 Y9.624 Z-8.614
X-65.794 Y9.6 Z-8.615
X-65.829 Y9.551 Z-8.617
X-65.859 Y9.502 Z-8.619
X-65.875 Y9.474 Z-8.62
X-65.916 Y9.39 Z-8.623
X-65.932 Y9.348 Z-8.625
X-65.947 Y9.306 Z-8.626
X-65.961 Y9.257 Z-8.628
X-65.973 Y9.208 Z-8.63
X-65.982 Y9.159 Z-8.632
X-65.989 Y9.11 Z-8.633
X-65.993 Y9.061 Z-8.635
X-65.995 Y9.012 Z-8.637
X-65.994 Y8.963 Z-8.639
X-65.991 Y8.915 Z-8.64
X-65.986 Y8.866 Z-8.642
X-65.978 Y8.817 Z-8.644
X-65.968 Y8.768 Z-8.646
X-65.955 Y8.719 Z-8.647
X-65.939 Y8.671 Z-8.649
X-65.921 Y8.622 Z-8.651
X-65.9 Y8.574 Z-8.653
X-65.875 Y8.526 Z-8.655
X-65.874 Y8.523
X-65.845 Y8.474 Z-8.657
X-65.812 Y8.425 Z-8.659
X-65.775 Y8.376 Z-8.661
X-65.734 Y8.327 Z-8.663
X-65.708 Y8.3 Z-8.664
X-65.68 Y8.274 Z-8.666
X-65.631 Y8.231 Z-8.668
X-65.583 Y8.193 Z-8.67
X-65.559 Y8.177 Z-8.671
X-65.534 Y8.161 Z-8.672
X-65.486 Y8.132 Z-8.674
X-65.485 Y8.131
X-65.436 Y8.105 Z-8.676
X-65.387 Y8.083 Z-8.678
X-65.338 Y8.064 Z-8.68
X-65.289 Y8.048 Z-8.682
X-65.241 Y8.034 Z-8.683
X-65.192 Y8.024 Z-8.685
X-65.143 Y8.015 Z-8.687
X-65.094 Y8.009 Z-8.689
X-65.045 Y8.006 Z-8.69
X-64.996 Y8.005 Z-8.692
X-64.948 Y8.006 Z-8.694
X-64.899 Y8.01 Z-8.695
X-64.85 Y8.016 Z-8.697
X-64.801 Y8.025 Z-8.699
X-64.752 Y8.036 Z-8.701
X-64.704 Y8.05 Z-8.702
X-64.656 Y8.066 Z-8.704
X-64.609 Y8.085 Z-8.706
X-64.561 Y8.107 Z-8.708
X-64.514 Y8.132 Z-8.71
X-64.508 Y8.135
X-64.484 Y8.149 Z-8.711
X-64.459 Y8.164 Z-8.712
X-64.411 Y8.198 Z-8.714
X-64.362 Y8.237 Z-8.716
X-64.313 Y8.28 Z-8.718
X-64.289 Y8.304 Z-8.72
X-64.266 Y8.327 Z-8.721
X-64.225 Y8.376 Z-8.723
X-64.188 Y8.425 Z-8.725
X-64.155 Y8.474 Z-8.727
X-64.126 Y8.523 Z-8.729
X-64.118 Y8.54 Z-8.73
X-64.096 Y8.585 Z-8.732
X-64.077 Y8.629 Z-8.733
X-64.06 Y8.674 Z-8.735
X-64.045 Y8.719 Z-8.737
X-64.032 Y8.768 Z-8.738
X-64.022 Y8.817 Z-8.74
X-64.014 Y8.866 Z-8.742
X-64.009 Y8.915 Z-8.743
X-64.006 Y8.963 Z-8.745
X-64.005 Y9.012 Z-8.747
X-64.007 Y9.061 Z-8.749
X-64.011 Y9.11 Z-8.75
X-64.018 Y9.159 Z-8.752
X-64.027 Y9.208 Z-8.754
X-64.039 Y9.257 Z-8.756
X-64.053 Y9.306 Z-8.757
X-64.081 Y9.383 Z-8.76
X-64.099 Y9.422 Z-8.762
X-64.118 Y9.46 Z-8.763
X-64.141 Y9.502 Z-8.765
X-64.171 Y9.551 Z-8.767
X-64.206 Y9.6 Z-8.769
X-64.225 Y9.624 Z-8.77
X-64.245 Y9.649 Z-8.771
X-64.29 Y9.697 Z-8.773
X-64.313 Y9.72 Z-8.775
X-64.362 Y9.763 Z-8.777
X-64.411 Y9.802 Z-8.779
X-64.459 Y9.836 Z-8.781
X-64.484 Y9.851 Z-8.782
X-64.508 Y9.865 Z-8.783
X-64.561 Y9.893 Z-8.785
X-64.633 Y9.925 Z-8.788
X-64.668 Y9.938 Z-8.789
X-64.704 Y9.95 Z-8.791
X-64.752 Y9.964 Z-8.792
X-64.801 Y9.975 Z-8.794
X-64.85 Y9.984 Z-8.796
X-64.899 Y9.99 Z-8.798
X-64.948 Y9.994 Z-8.799
X-64.996 Y9.995 Z-8.801
X-65.045 Y9.994 Z-8.803
X-65.094 Y9.991 Z-8.804
X-65.143 Y9.985 Z-8.806
X-65.192 Y9.976 Z-8.808
X-65.241 Y9.966 Z-8.81
X-65.289 Y9.952 Z-8.811
X-65.327 Y9.94 Z-8.813
X-65.364 Y9.926 Z-8.814
X-65.439 Y9.893 Z-8.817
X-65.485 Y9.869 Z-8.819
X-65.533 Y9.84 Z-8.821
X-65.558 Y9.824 Z-8.822
X-65.582 Y9.807 Z-8.823
X-65.631 Y9.769 Z-8.825
X-65.68 Y9.726 Z-8.827
X-65.71 Y9.697 Z-8.829
X-65.755 Y9.649 Z-8.831
X-65.775 Y9.624 Z-8.832
X-65.794 Y9.6 Z-8.833
X-65.829 Y9.551 Z-8.835
X-65.859 Y9.502 Z-8.837
X-65.875 Y9.474 Z-8.838
X-65.916 Y9.39 Z-8.842
X-65.932 Y9.348 Z-8.843
X-65.947 Y9.306 Z-8.845
X-65.961 Y9.257 Z-8.847
X-65.973 Y9.208 Z-8.848
X-65.982 Y9.159 Z-8.85
X-65.989 Y9.11 Z-8.852
X-65.993 Y9.061 Z-8.853
X-65.995 Y9.012 Z-8.855
X-65.994 Y8.963 Z-8.857
X-65.991 Y8.915 Z-8.859
X-65.986 Y8.866 Z-8.86
X-65.978 Y8.817 Z-8.862
X-65.968 Y8.768 Z-8.864
X-65.955 Y8.719 Z-8.866
X-65.939 Y8.671 Z-8.867
X-65.921 Y8.622 Z-8.869
X-65.9 Y8.574 Z-8.871
X-65.875 Y8.526 Z-8.873
X-65.874 Y8.523
X-65.845 Y8.474 Z-8.875
X-65.812 Y8.425 Z-8.877
X-65.775 Y8.376 Z-8.879
X-65.734 Y8.327 Z-8.881
X-65.708 Y8.3 Z-8.883
X-65.68 Y8.274 Z-8.884
X-65.631 Y8.231 Z-8.886
X-65.583 Y8.193 Z-8.888
X-65.559 Y8.177 Z-8.89
X-65.534 Y8.161 Z-8.891
X-65.486 Y8.132 Z-8.892
X-65.485 Y8.131 Z-8.893
X-65.436 Y8.105 Z-8.894
X-65.387 Y8.083 Z-8.896
X-65.338 Y8.064 Z-8.898
X-65.289 Y8.048 Z-8.9
X-65.241 Y8.034 Z-8.902
X-65.192 Y8.024 Z-8.903
X-65.143 Y8.015 Z-8.905
X-65.094 Y8.009 Z-8.907
X-65.045 Y8.006 Z-8.909
X-64.996 Y8.005 Z-8.91
X-64.948 Y8.006 Z-8.912
X-64.899 Y8.01 Z-8.914
X-64.85 Y8.016 Z-8.915
X-64.801 Y8.025 Z-8.917
X-64.752 Y8.036 Z-8.919
X-64.704 Y8.05 Z-8.921
X-64.656 Y8.066 Z-8.922
X-64.609 Y8.085 Z-8.924
X-64.561 Y8.107 Z-8.926
X-64.514 Y8.132 Z-8.928
X-64.508 Y8.135
X-64.484 Y8.149 Z-8.929
X-64.459 Y8.164 Z-8.93
X-64.411 Y8.198 Z-8.932
X-64.362 Y8.237 Z-8.934
X-64.313 Y8.28 Z-8.937
X-64.289 Y8.304 Z-8.938
X-64.266 Y8.327 Z-8.939
X-64.225 Y8.376 Z-8.941
X-64.188 Y8.425 Z-8.943
X-64.155 Y8.474 Z-8.945
X-64.126 Y8.523 Z-8.947
X-64.118 Y8.54 Z-8.948
X-64.096 Y8.585 Z-8.95
X-64.077 Y8.629 Z-8.952
X-64.06 Y8.674 Z-8.953
X-64.045 Y8.719 Z-8.955
X-64.032 Y8.768 Z-8.957
X-64.022 Y8.817 Z-8.958
X-64.014 Y8.866 Z-8.96
X-64.009 Y8.915 Z-8.962
X-64.006 Y8.963 Z-8.964
X-64.005 Y9.012 Z-8.965
X-64.007 Y9.061 Z-8.967
X-64.011 Y9.11 Z-8.969
X-64.018 Y9.159 Z-8.97
X-64.027 Y9.208 Z-8.972
X-64.039 Y9.257 Z-8.974
X-64.053 Y9.306 Z-8.976
X-64.081 Y9.383 Z-8.979
X-64.099 Y9.422 Z-8.98
X-64.118 Y9.46 Z-8.982
X-64.141 Y9.502 Z-8.983
X-64.171 Y9.551 Z-8.985
X-64.206 Y9.6 Z-8.987
X-64.225 Y9.624 Z-8.988
X-64.245 Y9.649 Z-8.989
X-64.29 Y9.697 Z-8.992
X-64.313 Y9.72 Z-8.993
X-64.362 Y9.763 Z-8.995
X-64.411 Y9.802 Z-8.997
X-64.459 Y9.836 Z-8.999
X-64.484 Y9.851 Z-9.
X-64.508 Y9.865 Z-9.001
X-64.561 Y9.893 Z-9.004
X-64.633 Y9.925 Z-9.006
X-64.668 Y9.938 Z-9.008
X-64.704 Y9.95 Z-9.009
X-64.752 Y9.964 Z-9.011
X-64.801 Y9.975 Z-9.012
X-64.85 Y9.984 Z-9.014
X-64.899 Y9.99 Z-9.016
X-64.948 Y9.994 Z-9.018
X-64.996 Y9.995 Z-9.019
X-65.045 Y9.994 Z-9.021
X-65.094 Y9.991 Z-9.023
X-65.143 Y9.985 Z-9.024
X-65.192 Y9.976 Z-9.026
X-65.241 Y9.966 Z-9.028
X-65.289 Y9.952 Z-9.03
X-65.327 Y9.94 Z-9.031
X-65.364 Y9.926 Z-9.032
X-65.439 Y9.893 Z-9.035
X-65.485 Y9.869 Z-9.037
X-65.533 Y9.84 Z-9.039
X-65.558 Y9.824 Z-9.04
X-65.582 Y9.807 Z-9.041
X-65.631 Y9.769 Z-9.043
X-65.68 Y9.726 Z-9.046
X-65.71 Y9.697 Z-9.047
X-65.755 Y9.649 Z-9.049
X-65.775 Y9.624 Z-9.05
X-65.794 Y9.6 Z-9.051
X-65.829 Y9.551 Z-9.054
X-65.859 Y9.502 Z-9.056
X-65.875 Y9.474 Z-9.057
X-65.916 Y9.39 Z-9.06
X-65.932 Y9.348 Z-9.062
X-65.947 Y9.306 Z-9.063
X-65.961 Y9.257 Z-9.065
X-65.973 Y9.208 Z-9.067
X-65.982 Y9.159 Z-9.068
X-65.989 Y9.11 Z-9.07
X-65.993 Y9.061 Z-9.072
X-65.995 Y9.012 Z-9.074
X-65.994 Y8.963 Z-9.075
X-65.991 Y8.915 Z-9.077
X-65.986 Y8.866 Z-9.079
X-65.978 Y8.817 Z-9.08
X-65.968 Y8.768 Z-9.082
X-65.955 Y8.719 Z-9.084
X-65.939 Y8.671 Z-9.086
X-65.921 Y8.622 Z-9.087
X-65.9 Y8.574 Z-9.089
X-65.875 Y8.526 Z-9.091
X-65.874 Y8.523
X-65.845 Y8.474 Z-9.093
X-65.812 Y8.425 Z-9.095
X-65.775 Y8.376 Z-9.097
X-65.734 Y8.327 Z-9.1
X-65.708 Y8.3 Z-9.101
X-65.68 Y8.274 Z-9.102
X-65.631 Y8.231 Z-9.105
X-65.583 Y8.193 Z-9.107
X-65.559 Y8.177 Z-9.108
X-65.534 Y8.161 Z-9.109
X-65.486 Y8.132 Z-9.111
X-65.485 Y8.131
X-65.436 Y8.105 Z-9.113
X-65.387 Y8.083 Z-9.115
X-65.338 Y8.064 Z-9.116
X-65.289 Y8.048 Z-9.118
X-65.241 Y8.034 Z-9.12
X-65.192 Y8.024 Z-9.122
X-65.143 Y8.015 Z-9.124
X-65.094 Y8.009 Z-9.125
X-65.045 Y8.006 Z-9.127
X-64.996 Y8.005 Z-9.129
X-64.948 Y8.006 Z-9.13
X-64.899 Y8.01 Z-9.132
X-64.85 Y8.016 Z-9.134
X-64.801 Y8.025 Z-9.136
X-64.752 Y8.036 Z-9.137
X-64.704 Y8.05 Z-9.139
X-64.656 Y8.066 Z-9.141
X-64.609 Y8.085 Z-9.143
X-64.561 Y8.107 Z-9.144
X-64.514 Y8.132 Z-9.146
X-64.508 Y8.135
X-64.484 Y8.149 Z-9.147
X-64.459 Y8.164 Z-9.148
X-64.411 Y8.198 Z-9.151
X-64.362 Y8.237 Z-9.153
X-64.313 Y8.28 Z-9.155
X-64.289 Y8.304 Z-9.156
X-64.266 Y8.327 Z-9.157
X-64.225 Y8.376 Z-9.16
X-64.188 Y8.425 Z-9.162
X-64.155 Y8.474 Z-9.164
X-64.126 Y8.523 Z-9.166
X-64.118 Y8.54
X-64.096 Y8.585 Z-9.168
X-64.077 Y8.629 Z-9.17
X-64.06 Y8.674 Z-9.172
X-64.045 Y8.719 Z-9.173
X-64.032 Y8.768 Z-9.175
X-64.022 Y8.817 Z-9.177
X-64.014 Y8.866 Z-9.178
X-64.009 Y8.915 Z-9.18
X-64.006 Y8.963 Z-9.182
X-64.005 Y9.012 Z-9.184
X-64.007 Y9.061 Z-9.185
X-64.011 Y9.11 Z-9.187
X-64.018 Y9.159 Z-9.189
X-64.027 Y9.208 Z-9.19
X-64.039 Y9.257 Z-9.192
X-64.053 Y9.306 Z-9.194
X-64.081 Y9.383 Z-9.197
X-64.099 Y9.422 Z-9.198
X-64.118 Y9.46 Z-9.2
X-64.141 Y9.502 Z-9.201
X-64.171 Y9.551 Z-9.203
X-64.206 Y9.6 Z-9.206
X-64.225 Y9.624 Z-9.207
X-64.245 Y9.649 Z-9.208
X-64.29 Y9.697 Z-9.21
X-64.313 Y9.72 Z-9.211
X-64.362 Y9.763 Z-9.213
X-64.411 Y9.802 Z-9.216
X-64.459 Y9.836 Z-9.218
X-64.484 Y9.851 Z-9.219
X-64.508 Y9.865 Z-9.22
X-64.561 Y9.893 Z-9.222
X-64.633 Y9.925 Z-9.225
X-64.668 Y9.938 Z-9.226
X-64.704 Y9.95 Z-9.227
X-64.752 Y9.964 Z-9.229
X-64.801 Y9.975 Z-9.231
X-64.85 Y9.984 Z-9.232
X-64.899 Y9.99 Z-9.234
X-64.948 Y9.994 Z-9.236
X-64.996 Y9.995 Z-9.238
X-65.045 Y9.994 Z-9.239
X-65.094 Y9.991 Z-9.241
X-65.143 Y9.985 Z-9.243
X-65.192 Y9.976 Z-9.244
X-65.241 Y9.966 Z-9.246
X-65.289 Y9.952 Z-9.248
X-65.327 Y9.94 Z-9.249
X-65.364 Y9.926 Z-9.251
X-65.439 Y9.893 Z-9.254
X-65.485 Y9.869 Z-9.255
X-65.533 Y9.84 Z-9.257
X-65.558 Y9.824 Z-9.258
X-65.582 Y9.807 Z-9.259
X-65.631 Y9.769 Z-9.262
X-65.68 Y9.726 Z-9.264
X-65.71 Y9.697 Z-9.265
X-65.755 Y9.649 Z-9.268
X-65.775 Y9.624 Z-9.269
X-65.794 Y9.6 Z-9.27
X-65.829 Y9.551 Z-9.272
X-65.859 Y9.502 Z-9.274
X-65.875 Y9.474 Z-9.275
X-65.916 Y9.39 Z-9.278
X-65.932 Y9.348 Z-9.28
X-65.947 Y9.306 Z-9.281
X-65.961 Y9.257 Z-9.283
X-65.973 Y9.208 Z-9.285
X-65.982 Y9.159 Z-9.287
X-65.989 Y9.11 Z-9.288
X-65.993 Y9.061 Z-9.29
X-65.995 Y9.012 Z-9.292
X-65.994 Y8.963 Z-9.294
X-65.991 Y8.915 Z-9.295
X-65.986 Y8.866 Z-9.297
X-65.978 Y8.817 Z-9.299
X-65.968 Y8.768 Z-9.3
X-65.955 Y8.719 Z-9.302
X-65.939 Y8.671 Z-9.304
X-65.921 Y8.622 Z-9.306
X-65.9 Y8.574 Z-9.308
X-65.875 Y8.526 Z-9.31
X-65.874 Y8.523
X-65.845 Y8.474 Z-9.312
X-65.812 Y8.425 Z-9.314
X-65.775 Y8.376 Z-9.316
X-65.734 Y8.327 Z-9.318
X-65.708 Y8.3 Z-9.319
X-65.68 Y8.274 Z-9.321
X-65.631 Y8.231 Z-9.323
X-65.583 Y8.193 Z-9.325
X-65.559 Y8.177 Z-9.326
X-65.534 Y8.161 Z-9.327
X-65.486 Y8.132 Z-9.329
X-65.485 Y8.131
X-65.436 Y8.105 Z-9.331
X-65.387 Y8.083 Z-9.333
X-65.338 Y8.064 Z-9.335
X-65.289 Y8.048 Z-9.337
X-65.241 Y8.034 Z-9.338
X-65.192 Y8.024 Z-9.34
X-65.143 Y8.015 Z-9.342
X-65.094 Y8.009 Z-9.344
X-65.045 Y8.006 Z-9.345
X-64.996 Y8.005 Z-9.347
X-64.948 Y8.006 Z-9.349
X-64.899 Y8.01 Z-9.35
X-64.85 Y8.016 Z-9.352
X-64.801 Y8.025 Z-9.354
X-64.752 Y8.036 Z-9.356
X-64.704 Y8.05 Z-9.357
X-64.656 Y8.066 Z-9.359
X-64.609 Y8.085 Z-9.361
X-64.561 Y8.107 Z-9.363
X-64.514 Y8.132 Z-9.365
X-64.508 Y8.135
X-64.484 Y8.149 Z-9.366
X-64.459 Y8.164 Z-9.367
X-64.411 Y8.198 Z-9.369
X-64.362 Y8.237 Z-9.371
X-64.313 Y8.28 Z-9.373
X-64.289 Y8.304 Z-9.374
X-64.266 Y8.327 Z-9.376
X-64.225 Y8.376 Z-9.378
X-64.188 Y8.425 Z-9.38
X-64.155 Y8.474 Z-9.382
X-64.126 Y8.523 Z-9.384
X-64.118 Y8.54 Z-9.385
X-64.096 Y8.585 Z-9.386
X-64.077 Y8.629 Z-9.388
X-64.06 Y8.674 Z-9.39
X-64.045 Y8.719 Z-9.391
X-64.032 Y8.768 Z-9.393
X-64.022 Y8.817 Z-9.395
X-64.014 Y8.866 Z-9.397
X-64.009 Y8.915 Z-9.398
X-64.006 Y8.963 Z-9.4
X-64.005 Y9.012 Z-9.402
X-64.007 Y9.061 Z-9.404
X-64.011 Y9.11 Z-9.405
X-64.018 Y9.159 Z-9.407
X-64.027 Y9.208 Z-9.409
X-64.039 Y9.257 Z-9.411
X-64.053 Y9.306 Z-9.412
X-64.081 Y9.383 Z-9.415
X-64.099 Y9.422 Z-9.417
X-64.118 Y9.46 Z-9.418
X-64.141 Y9.502 Z-9.42
X-64.171 Y9.551 Z-9.422
X-64.206 Y9.6 Z-9.424
X-64.225 Y9.624 Z-9.425
X-64.245 Y9.649 Z-9.426
X-64.29 Y9.697 Z-9.428
X-64.313 Y9.72 Z-9.43
X-64.362 Y9.763 Z-9.432
X-64.411 Y9.802 Z-9.434
X-64.459 Y9.836 Z-9.436
X-64.484 Y9.851 Z-9.437
X-64.508 Y9.865 Z-9.438
X-64.561 Y9.893 Z-9.44
X-64.633 Y9.925 Z-9.443
X-64.668 Y9.938 Z-9.444
X-64.704 Y9.95 Z-9.445
X-64.752 Y9.964 Z-9.447
X-64.801 Y9.975 Z-9.449
X-64.85 Y9.984 Z-9.451
X-64.899 Y9.99 Z-9.452
X-64.948 Y9.994 Z-9.454
X-64.996 Y9.995 Z-9.456
X-65.045 Y9.994 Z-9.458
X-65.094 Y9.991 Z-9.459
X-65.143 Y9.985 Z-9.461
X-65.192 Y9.976 Z-9.463
X-65.241 Y9.966 Z-9.464
X-65.289 Y9.952 Z-9.466
X-65.327 Y9.94 Z-9.468
X-65.364 Y9.926 Z-9.469
X-65.439 Y9.893 Z-9.472
X-65.485 Y9.869 Z-9.474
X-65.533 Y9.84 Z-9.476
X-65.558 Y9.824 Z-9.477
X-65.582 Y9.807 Z-9.478
X-65.631 Y9.769 Z-9.48
X-65.68 Y9.726 Z-9.482
X-65.71 Y9.697 Z-9.484
X-65.755 Y9.649 Z-9.486
X-65.775 Y9.624 Z-9.487
X-65.794 Y9.6 Z-9.488
X-65.829 Y9.551 Z-9.49
X-65.859 Y9.502 Z-9.492
X-65.875 Y9.474 Z-9.493
X-65.916 Y9.39 Z-9.497
X-65.932 Y9.348 Z-9.498
X-65.947 Y9.306 Z-9.5
X-65.961 Y9.257 Z-9.502
X-65.973 Y9.208 Z-9.503
X-65.982 Y9.159 Z-9.505
X-65.989 Y9.11 Z-9.507
X-65.993 Y9.061 Z-9.508
X-65.995 Y9.012 Z-9.51
X-65.994 Y8.963 Z-9.512
X-65.991 Y8.915 Z-9.514
X-65.986 Y8.866 Z-9.515
X-65.978 Y8.817 Z-9.517
X-65.968 Y8.768 Z-9.519
X-65.955 Y8.719 Z-9.521
X-65.939 Y8.671 Z-9.522
X-65.921 Y8.622 Z-9.524
X-65.9 Y8.574 Z-9.526
X-65.875 Y8.526 Z-9.528
X-65.874 Y8.523
X-65.845 Y8.474 Z-9.53
X-65.812 Y8.425 Z-9.532
X-65.775 Y8.376 Z-9.534
X-65.734 Y8.327 Z-9.536
X-65.708 Y8.3 Z-9.538
X-65.68 Y8.274 Z-9.539
X-65.631 Y8.231 Z-9.541
X-65.583 Y8.193 Z-9.543
X-65.559 Y8.177 Z-9.544
X-65.534 Y8.161 Z-9.545
X-65.486 Y8.132 Z-9.547
X-65.485 Y8.131
X-65.436 Y8.105 Z-9.549
X-65.387 Y8.083 Z-9.551
X-65.338 Y8.064 Z-9.553
X-65.289 Y8.048 Z-9.555
X-65.241 Y8.034 Z-9.557
X-65.192 Y8.024 Z-9.558
X-65.143 Y8.015 Z-9.56
X-65.094 Y8.009 Z-9.562
X-65.045 Y8.006 Z-9.564
X-64.996 Y8.005 Z-9.565
X-64.948 Y8.006 Z-9.567
X-64.899 Y8.01 Z-9.569
X-64.85 Y8.016 Z-9.57
X-64.801 Y8.025 Z-9.572
X-64.752 Y8.036 Z-9.574
X-64.704 Y8.05 Z-9.576
X-64.656 Y8.066 Z-9.577
X-64.609 Y8.085 Z-9.579
X-64.561 Y8.107 Z-9.581
X-64.514 Y8.132 Z-9.583
X-64.508 Y8.135
X-64.484 Y8.149 Z-9.584
X-64.459 Y8.164 Z-9.585
X-64.411 Y8.198 Z-9.587
X-64.362 Y8.237 Z-9.589
X-64.313 Y8.28 Z-9.592
X-64.289 Y8.304 Z-9.593
X-64.266 Y8.327 Z-9.594
X-64.225 Y8.376 Z-9.596
X-64.188 Y8.425 Z-9.598
X-64.155 Y8.474 Z-9.6
X-64.126 Y8.523 Z-9.602
X-64.118 Y8.54 Z-9.603
X-64.096 Y8.585 Z-9.605
X-64.077 Y8.629 Z-9.606
X-64.06 Y8.674 Z-9.608
X-64.045 Y8.719 Z-9.61
X-64.032 Y8.768 Z-9.612
X-64.022 Y8.817 Z-9.613
X-64.014 Y8.866 Z-9.615
X-64.009 Y8.915 Z-9.617
X-64.006 Y8.963 Z-9.618
X-64.005 Y9.012 Z-9.62
X-64.007 Y9.061 Z-9.622
X-64.011 Y9.11 Z-9.624
X-64.018 Y9.159 Z-9.625
X-64.027 Y9.208 Z-9.627
X-64.039 Y9.257 Z-9.629
X-64.053 Y9.306 Z-9.631
X-64.081 Y9.383 Z-9.633
X-64.099 Y9.422 Z-9.635
X-64.118 Y9.46 Z-9.636
X-64.141 Y9.502 Z-9.638
X-64.171 Y9.551 Z-9.64
X-64.206 Y9.6 Z-9.642
X-64.225 Y9.624 Z-9.643
X-64.245 Y9.649 Z-9.644
X-64.29 Y9.697 Z-9.647
X-64.313 Y9.72 Z-9.648
X-64.362 Y9.763 Z-9.65
X-64.411 Y9.802 Z-9.652
X-64.459 Y9.836 Z-9.654
X-64.484 Y9.851 Z-9.655
X-64.508 Y9.865 Z-9.656
X-64.561 Y9.893 Z-9.658
X-64.633 Y9.925 Z-9.661
X-64.668 Y9.938 Z-9.662
X-64.704 Y9.95 Z-9.664
X-64.752 Y9.964 Z-9.666
X-64.801 Y9.975 Z-9.667
X-64.85 Y9.984 Z-9.669
X-64.899 Y9.99 Z-9.671
X-64.948 Y9.994 Z-9.672
X-64.996 Y9.995 Z-9.674
X-65.045 Y9.994 Z-9.676
X-65.094 Y9.991 Z-9.678
X-65.143 Y9.985 Z-9.679
X-65.192 Y9.976 Z-9.681
X-65.241 Y9.966 Z-9.683
X-65.289 Y9.952 Z-9.685
X-65.327 Y9.94 Z-9.686
X-65.364 Y9.926 Z-9.687
X-65.439 Y9.893 Z-9.69
X-65.485 Y9.869 Z-9.692
X-65.533 Y9.84 Z-9.694
X-65.558 Y9.824 Z-9.695
X-65.582 Y9.807 Z-9.696
X-65.631 Y9.769 Z-9.698
X-65.68 Y9.726 Z-9.7
X-65.71 Y9.697 Z-9.702
X-65.755 Y9.649 Z-9.704
X-65.775 Y9.624 Z-9.705
X-65.794 Y9.6 Z-9.706
X-65.829 Y9.551 Z-9.709
X-65.859 Y9.502 Z-9.711
X-65.875 Y9.474 Z-9.712
X-65.916 Y9.39 Z-9.715
X-65.932 Y9.348 Z-9.716
X-65.947 Y9.306 Z-9.718
X-65.961 Y9.257 Z-9.72
X-65.973 Y9.208 Z-9.722
X-65.982 Y9.159 Z-9.723
X-65.989 Y9.11 Z-9.725
X-65.993 Y9.061 Z-9.727
X-65.995 Y9.012 Z-9.728
X-65.994 Y8.963 Z-9.73
X-65.991 Y8.915 Z-9.732
X-65.986 Y8.866 Z-9.734
X-65.978 Y8.817 Z-9.735
X-65.968 Y8.768 Z-9.737
X-65.955 Y8.719 Z-9.739
X-65.939 Y8.671 Z-9.741
X-65.921 Y8.622 Z-9.742
X-65.9 Y8.574 Z-9.744
X-65.875 Y8.526 Z-9.746
X-65.874 Y8.523
X-65.845 Y8.474 Z-9.748
X-65.812 Y8.425 Z-9.75
X-65.775 Y8.376 Z-9.752
X-65.734 Y8.327 Z-9.755
X-65.708 Y8.3 Z-9.756
X-65.68 Y8.274 Z-9.757
X-65.631 Y8.231 Z-9.76
X-65.583 Y8.193 Z-9.762
X-65.559 Y8.177 Z-9.763
X-65.534 Y8.161 Z-9.764
X-65.486 Y8.132 Z-9.766
X-65.485 Y8.131
X-65.436 Y8.105 Z-9.768
X-65.387 Y8.083 Z-9.77
X-65.338 Y8.064 Z-9.771
X-65.289 Y8.048 Z-9.773
X-65.241 Y8.034 Z-9.775
X-65.192 Y8.024 Z-9.777
X-65.143 Y8.015 Z-9.778
X-65.094 Y8.009 Z-9.78
X-65.045 Y8.006 Z-9.782
X-64.996 Y8.005 Z-9.784
X-64.948 Y8.006 Z-9.785
X-64.899 Y8.01 Z-9.787
X-64.85 Y8.016 Z-9.789
X-64.801 Y8.025 Z-9.79
X-64.752 Y8.036 Z-9.792
X-64.704 Y8.05 Z-9.794
X-64.656 Y8.066 Z-9.796
X-64.609 Y8.085 Z-9.798
X-64.561 Y8.107 Z-9.799
X-64.514 Y8.132 Z-9.801
X-64.508 Y8.135
X-64.484 Y8.149 Z-9.802
X-64.459 Y8.164 Z-9.803
X-64.411 Y8.198 Z-9.805
X-64.362 Y8.237 Z-9.808
X-64.313 Y8.28 Z-9.81
X-64.289 Y8.304 Z-9.811
X-64.266 Y8.327 Z-9.812
X-64.225 Y8.376 Z-9.815
X-64.188 Y8.425 Z-9.817
X-64.155 Y8.474 Z-9.819
X-64.126 Y8.523 Z-9.821
X-64.118 Y8.54
X-64.096 Y8.585 Z-9.823
X-64.077 Y8.629 Z-9.825
X-64.06 Y8.674 Z-9.826
X-64.045 Y8.719 Z-9.828
X-64.032 Y8.768 Z-9.83
X-64.022 Y8.817 Z-9.832
X-64.014 Y8.866 Z-9.833
X-64.009 Y8.915 Z-9.835
X-64.006 Y8.963 Z-9.837
X-64.005 Y9.012 Z-9.838
X-64.007 Y9.061 Z-9.84
X-64.011 Y9.11 Z-9.842
X-64.018 Y9.159 Z-9.844
X-64.027 Y9.208 Z-9.845
X-64.039 Y9.257 Z-9.847
X-64.053 Y9.306 Z-9.849
X-64.081 Y9.383 Z-9.852
X-64.099 Y9.422 Z-9.853
X-64.118 Y9.46 Z-9.855
X-64.141 Y9.502 Z-9.856
X-64.171 Y9.551 Z-9.858
X-64.206 Y9.6 Z-9.861
X-64.225 Y9.624 Z-9.862
X-64.245 Y9.649 Z-9.863
X-64.29 Y9.697 Z-9.865
X-64.313 Y9.72 Z-9.866
X-64.362 Y9.763 Z-9.868
X-64.411 Y9.802 Z-9.871
X-64.459 Y9.836 Z-9.873
X-64.484 Y9.851 Z-9.874
X-64.508 Y9.865 Z-9.875
X-64.561 Y9.893 Z-9.877
X-64.633 Y9.925 Z-9.879
X-64.668 Y9.938 Z-9.881
X-64.704 Y9.95 Z-9.882
X-64.752 Y9.964 Z-9.884
X-64.801 Y9.975 Z-9.886
X-64.85 Y9.984 Z-9.887
X-64.899 Y9.99 Z-9.889
X-64.948 Y9.994 Z-9.891
X-64.996 Y9.995 Z-9.893
X-65.045 Y9.994 Z-9.894
X-65.094 Y9.991 Z-9.896
X-65.143 Y9.985 Z-9.898
X-65.192 Y9.976 Z-9.899
X-65.241 Y9.966 Z-9.901
X-65.289 Y9.952 Z-9.903
X-65.327 Y9.94 Z-9.904
X-65.364 Y9.926 Z-9.906
X-65.439 Y9.893 Z-9.908
X-65.485 Y9.869 Z-9.91
X-65.533 Y9.84 Z-9.912
X-65.558 Y9.824 Z-9.913
X-65.582 Y9.807 Z-9.914
X-65.631 Y9.769 Z-9.917
X-65.68 Y9.726 Z-9.919
X-65.71 Y9.697 Z-9.92
X-65.755 Y9.649 Z-9.923
X-65.775 Y9.624 Z-9.924
X-65.794 Y9.6 Z-9.925
X-65.829 Y9.551 Z-9.927
X-65.859 Y9.502 Z-9.929
X-65.875 Y9.474 Z-9.93
X-65.916 Y9.39 Z-9.933
X-65.932 Y9.348 Z-9.935
X-65.947 Y9.306 Z-9.936
X-65.961 Y9.257 Z-9.938
X-65.973 Y9.208 Z-9.94
X-65.982 Y9.159 Z-9.942
X-65.989 Y9.11 Z-9.943
X-65.993 Y9.061 Z-9.945
X-65.995 Y9.012 Z-9.947
X-65.994 Y8.963 Z-9.948
X-65.991 Y8.915 Z-9.95
X-65.986 Y8.866 Z-9.952
X-65.978 Y8.817 Z-9.954
X-65.968 Y8.768 Z-9.955
X-65.955 Y8.719 Z-9.957
X-65.939 Y8.671 Z-9.959
X-65.921 Y8.622 Z-9.961
X-65.9 Y8.574 Z-9.963
X-65.875 Y8.526 Z-9.964
X-65.874 Y8.523 Z-9.965
X-65.845 Y8.474 Z-9.967
X-65.812 Y8.425 Z-9.969
X-65.775 Y8.376 Z-9.971
X-65.734 Y8.327 Z-9.973
X-65.708 Y8.3 Z-9.974
X-65.68 Y8.274 Z-9.976
X-65.631 Y8.231 Z-9.978
X-65.583 Y8.193 Z-9.98
X-65.559 Y8.177 Z-9.981
X-65.534 Y8.161 Z-9.982
X-65.486 Y8.132 Z-9.984
X-65.485 Y8.131
X-65.436 Y8.105 Z-9.986
X-65.387 Y8.083 Z-9.988
X-65.338 Y8.064 Z-9.99
X-65.289 Y8.048 Z-9.992
X-65.241 Y8.034 Z-9.993
X-65.192 Y8.024 Z-9.995
X-65.143 Y8.015 Z-9.997
X-65.094 Y8.009 Z-9.998
X-65.045 Y8.006 Z-10.
X-64.996 Y8.005 Z-10.002
X-64.948 Y8.006 Z-10.004
X-64.899 Y8.01 Z-10.005
X-64.85 Y8.016 Z-10.007
X-64.801 Y8.025 Z-10.009
X-64.752 Y8.036 Z-10.011
X-64.704 Y8.05 Z-10.012
X-64.656 Y8.066 Z-10.014
X-64.609 Y8.085 Z-10.016
X-64.561 Y8.107 Z-10.018
X-64.514 Y8.132 Z-10.02
X-64.508 Y8.135
X-64.484 Y8.149 Z-10.021
X-64.459 Y8.164 Z-10.022
X-64.411 Y8.198 Z-10.024
X-64.362 Y8.237 Z-10.026
X-64.313 Y8.28 Z-10.028
X-64.289 Y8.304 Z-10.029
X-64.266 Y8.327 Z-10.031
X-64.225 Y8.376 Z-10.033
X-64.188 Y8.425 Z-10.035
X-64.155 Y8.474 Z-10.037
X-64.126 Y8.523 Z-10.039
X-64.118 Y8.54 Z-10.04
X-64.096 Y8.585 Z-10.041
X-64.077 Y8.629 Z-10.043
X-64.06 Y8.674 Z-10.045
X-64.045 Y8.719 Z-10.046
X-64.032 Y8.768 Z-10.048
X-64.022 Y8.817 Z-10.05
X-64.014 Y8.866 Z-10.052
X-64.009 Y8.915 Z-10.053
X-64.006 Y8.963 Z-10.055
X-64.005 Y9.012 Z-10.057
X-64.007 Y9.061 Z-10.059
X-64.011 Y9.11 Z-10.06
X-64.018 Y9.159 Z-10.062
X-64.027 Y9.208 Z-10.064
X-64.039 Y9.257 Z-10.065
X-64.053 Y9.306 Z-10.067
X-64.081 Y9.383 Z-10.07
X-64.099 Y9.422 Z-10.072
X-64.118 Y9.46 Z-10.073
X-64.141 Y9.502 Z-10.075
X-64.171 Y9.551 Z-10.077
X-64.206 Y9.6 Z-10.079
X-64.225 Y9.624 Z-10.08
X-64.245 Y9.649 Z-10.081
X-64.29 Y9.697 Z-10.083
X-64.313 Y9.72 Z-10.084
X-64.362 Y9.763 Z-10.087
X-64.411 Y9.802 Z-10.089
X-64.459 Y9.836 Z-10.091
X-64.484 Y9.851 Z-10.092
X-64.508 Y9.865 Z-10.093
X-64.561 Y9.893 Z-10.095
X-64.633 Y9.925 Z-10.098
X-64.668 Y9.938 Z-10.099
X-64.704 Y9.95 Z-10.1
X-64.752 Y9.964 Z-10.102
X-64.801 Y9.975 Z-10.104
X-64.85 Y9.984 Z-10.106
X-64.899 Y9.99 Z-10.107
X-64.948 Y9.994 Z-10.109
X-64.996 Y9.995 Z-10.111
X-65.045 Y9.994 Z-10.113
X-65.094 Y9.991 Z-10.114
X-65.143 Y9.985 Z-10.116
X-65.192 Y9.976 Z-10.118
X-65.241 Y9.966 Z-10.119
X-65.289 Y9.952 Z-10.121
X-65.327 Y9.94 Z-10.123
X-65.364 Y9.926 Z-10.124
X-65.439 Y9.893 Z-10.127
X-65.485 Y9.869 Z-10.129
X-65.533 Y9.84 Z-10.131
X-65.558 Y9.824 Z-10.132
X-65.582 Y9.807 Z-10.133
X-65.631 Y9.769 Z-10.135
X-65.68 Y9.726 Z-10.137
X-65.71 Y9.697 Z-10.139
X-65.755 Y9.649 Z-10.141
X-65.775 Y9.624 Z-10.142
X-65.794 Y9.6 Z-10.143
X-65.829 Y9.551 Z-10.145
X-65.859 Y9.502 Z-10.147
X-65.875 Y9.474 Z-10.148
X-65.916 Y9.39 Z-10.152
X-65.932 Y9.348 Z-10.153
X-65.947 Y9.306 Z-10.155
X-65.961 Y9.257 Z-10.156
X-65.973 Y9.208 Z-10.158
X-65.982 Y9.159 Z-10.16
X-65.989 Y9.11 Z-10.162
X-65.993 Y9.061 Z-10.163
X-65.995 Y9.012 Z-10.165
X-65.994 Y8.963 Z-10.167
X-65.991 Y8.915 Z-10.169
X-65.986 Y8.866 Z-10.17
X-65.978 Y8.817 Z-10.172
X-65.968 Y8.768 Z-10.174
X-65.955 Y8.719 Z-10.175
X-65.939 Y8.671 Z-10.177
X-65.921 Y8.622 Z-10.179
X-65.9 Y8.574 Z-10.181
X-65.875 Y8.526 Z-10.183
X-65.874 Y8.523
X-65.845 Y8.474 Z-10.185
X-65.812 Y8.425 Z-10.187
X-65.775 Y8.376 Z-10.189
X-65.734 Y8.327 Z-10.191
X-65.708 Y8.3 Z-10.193
X-65.68 Y8.274 Z-10.194
X-65.631 Y8.231 Z-10.196
X-65.583 Y8.193 Z-10.198
X-65.559 Y8.177 Z-10.199
X-65.534 Y8.161 Z-10.2
X-65.486 Y8.132 Z-10.202
X-65.485 Y8.131
X-65.436 Y8.105 Z-10.204
X-65.387 Y8.083 Z-10.206
X-65.338 Y8.064 Z-10.208
X-65.289 Y8.048 Z-10.21
X-65.241 Y8.034 Z-10.212
X-65.192 Y8.024 Z-10.213
X-65.143 Y8.015 Z-10.215
X-65.094 Y8.009 Z-10.217
X-65.045 Y8.006 Z-10.219
X-64.996 Y8.005 Z-10.22
X-64.948 Y8.006 Z-10.222
X-64.899 Y8.01 Z-10.224
X-64.85 Y8.016 Z-10.225
X-64.801 Y8.025 Z-10.227
X-64.752 Y8.036 Z-10.229
X-64.704 Y8.05 Z-10.231
X-64.656 Y8.066 Z-10.232
X-64.609 Y8.085 Z-10.234
X-64.561 Y8.107 Z-10.236
X-64.514 Y8.132 Z-10.238
X-64.508 Y8.135
X-64.484 Y8.149 Z-10.239
X-64.459 Y8.164 Z-10.24
X-64.411 Y8.198 Z-10.242
X-64.362 Y8.237 Z-10.244
X-64.313 Y8.28 Z-10.247
X-64.289 Y8.304 Z-10.248
X-64.266 Y8.327 Z-10.249
X-64.225 Y8.376 Z-10.251
X-64.188 Y8.425 Z-10.253
X-64.155 Y8.474 Z-10.255
X-64.126 Y8.523 Z-10.257
X-64.118 Y8.54 Z-10.258
X-64.096 Y8.585 Z-10.26
X-64.077 Y8.629 Z-10.261
X-64.06 Y8.674 Z-10.263
X-64.045 Y8.719 Z-10.265
X-64.032 Y8.768 Z-10.266
X-64.022 Y8.817 Z-10.268
X-64.014 Y8.866 Z-10.27
X-64.009 Y8.915 Z-10.272
X-64.006 Y8.963 Z-10.273
X-64.005 Y9.012 Z-10.275
X-64.007 Y9.061 Z-10.277
X-64.011 Y9.11 Z-10.279
X-64.018 Y9.159 Z-10.28
X-64.027 Y9.208 Z-10.282
X-64.039 Y9.257 Z-10.284
X-64.053 Y9.306 Z-10.286
X-64.081 Y9.383 Z-10.288
X-64.099 Y9.422 Z-10.29
X-64.118 Y9.46 Z-10.291
X-64.141 Y9.502 Z-10.293
X-64.171 Y9.551 Z-10.295
X-64.206 Y9.6 Z-10.297
X-64.225 Y9.624 Z-10.298
X-64.245 Y9.649 Z-10.299
X-64.29 Y9.697 Z-10.302
X-64.313 Y9.72 Z-10.303
X-64.362 Y9.763 Z-10.305
X-64.411 Y9.802 Z-10.307
X-64.459 Y9.836 Z-10.309
X-64.484 Y9.851 Z-10.31
X-64.508 Y9.865 Z-10.311
X-64.561 Y9.893 Z-10.313
X-64.633 Y9.925 Z-10.316
X-64.668 Y9.938 Z-10.317
X-64.704 Y9.95 Z-10.319
X-64.752 Y9.964 Z-10.321
X-64.801 Y9.975 Z-10.322
X-64.85 Y9.984 Z-10.324
X-64.899 Y9.99 Z-10.326
X-64.948 Y9.994 Z-10.327
X-64.996 Y9.995 Z-10.329
X-65.045 Y9.994 Z-10.331
X-65.094 Y9.991 Z-10.333
X-65.143 Y9.985 Z-10.334
X-65.192 Y9.976 Z-10.336
X-65.241 Y9.966 Z-10.338
X-65.289 Y9.952 Z-10.34
X-65.327 Y9.94 Z-10.341
X-65.364 Y9.926 Z-10.342
X-65.439 Y9.893 Z-10.345
X-65.485 Y9.869 Z-10.347
X-65.533 Y9.84 Z-10.349
X-65.558 Y9.824 Z-10.35
X-65.582 Y9.807 Z-10.351
X-65.631 Y9.769 Z-10.353
X-65.68 Y9.726 Z-10.355
X-65.71 Y9.697 Z-10.357
X-65.755 Y9.649 Z-10.359
X-65.775 Y9.624 Z-10.36
X-65.794 Y9.6 Z-10.361
X-65.829 Y9.551 Z-10.363
X-65.859 Y9.502 Z-10.365
X-65.875 Y9.474 Z-10.367
X-65.916 Y9.39 Z-10.37
X-65.932 Y9.348 Z-10.371
X-65.947 Y9.306 Z-10.373
X-65.961 Y9.257 Z-10.375
X-65.973 Y9.208 Z-10.377
X-65.982 Y9.159 Z-10.378
X-65.989 Y9.11 Z-10.38
X-65.993 Y9.061 Z-10.382
X-65.995 Y9.012 Z-10.383
X-65.994 Y8.963 Z-10.385
X-65.991 Y8.915 Z-10.387
X-65.986 Y8.866 Z-10.389
X-65.978 Y8.817 Z-10.39
X-65.968 Y8.768 Z-10.392
X-65.955 Y8.719 Z-10.394
X-65.939 Y8.671 Z-10.396
X-65.921 Y8.622 Z-10.397
X-65.9 Y8.574 Z-10.399
X-65.875 Y8.526 Z-10.401
X-65.874 Y8.523
X-65.845 Y8.474 Z-10.403
X-65.812 Y8.425 Z-10.405
X-65.775 Y8.376 Z-10.407
X-65.734 Y8.327 Z-10.41
X-65.708 Y8.3 Z-10.411
X-65.68 Y8.274 Z-10.412
X-65.631 Y8.231 Z-10.415
X-65.583 Y8.193 Z-10.417
X-65.559 Y8.177 Z-10.418
X-65.534 Y8.161 Z-10.419
X-65.486 Y8.132 Z-10.421
X-65.485 Y8.131
X-65.436 Y8.105 Z-10.423
X-65.387 Y8.083 Z-10.425
X-65.338 Y8.064 Z-10.426
X-65.289 Y8.048 Z-10.428
X-65.241 Y8.034 Z-10.43
X-65.192 Y8.024 Z-10.432
X-65.143 Y8.015 Z-10.433
X-65.094 Y8.009 Z-10.435
X-65.045 Y8.006 Z-10.437
X-64.996 Y8.005 Z-10.439
X-64.948 Y8.006 Z-10.44
X-64.899 Y8.01 Z-10.442
X-64.85 Y8.016 Z-10.444
X-64.801 Y8.025 Z-10.445
X-64.752 Y8.036 Z-10.447
X-64.704 Y8.05 Z-10.449
X-64.656 Y8.066 Z-10.451
X-64.609 Y8.085 Z-10.452
X-64.561 Y8.107 Z-10.454
X-64.514 Y8.132 Z-10.456
X-64.508 Y8.135
X-64.484 Y8.149 Z-10.457
X-64.459 Y8.164 Z-10.458
X-64.411 Y8.198 Z-10.46
X-64.362 Y8.237 Z-10.463
X-64.313 Y8.28 Z-10.465
X-64.289 Y8.304 Z-10.466
X-64.266 Y8.327 Z-10.467
X-64.225 Y8.376 Z-10.469
X-64.188 Y8.425 Z-10.472
X-64.155 Y8.474 Z-10.474
X-64.126 Y8.523 Z-10.476
X-64.118 Y8.54
X-64.096 Y8.585 Z-10.478
X-64.077 Y8.629 Z-10.48
X-64.06 Y8.674 Z-10.481
X-64.045 Y8.719 Z-10.483
X-64.032 Y8.768 Z-10.485
X-64.022 Y8.817 Z-10.487
X-64.014 Y8.866 Z-10.488
X-64.009 Y8.915 Z-10.49
X-64.006 Y8.963 Z-10.492
X-64.005 Y9.012 Z-10.493
X-64.007 Y9.061 Z-10.495
X-64.011 Y9.11 Z-10.497
X-64.018 Y9.159 Z-10.499
X-64.027 Y9.208 Z-10.5
X-64.039 Y9.257 Z-10.502
X-64.053 Y9.306 Z-10.504
X-64.081 Y9.383 Z-10.507
X-64.099 Y9.422 Z-10.508
X-64.118 Y9.46 Z-10.51
X-64.141 Y9.502 Z-10.511
X-64.171 Y9.551 Z-10.513
X-64.206 Y9.6 Z-10.515
X-64.225 Y9.624 Z-10.517
X-64.245 Y9.649 Z-10.518
X-64.29 Y9.697 Z-10.52
X-64.313 Y9.72 Z-10.521
X-64.362 Y9.763 Z-10.523
X-64.411 Y9.802 Z-10.526
X-64.459 Y9.836 Z-10.528
X-64.484 Y9.851 Z-10.529
X-64.508 Y9.865 Z-10.53
X-64.561 Y9.893 Z-10.532
X-64.633 Y9.925 Z-10.534
X-64.668 Y9.938 Z-10.536
X-64.704 Y9.95 Z-10.537
X-64.752 Y9.964 Z-10.539
X-64.801 Y9.975 Z-10.541
X-64.85 Y9.984 Z-10.542
X-64.899 Y9.99 Z-10.544
X-64.948 Y9.994 Z-10.546
X-64.996 Y9.995 Z-10.547
X-65.045 Y9.994 Z-10.549
X-65.094 Y9.991 Z-10.551
X-65.143 Y9.985 Z-10.553
X-65.192 Y9.976 Z-10.554
X-65.241 Y9.966 Z-10.556
X-65.289 Y9.952 Z-10.558
X-65.327 Y9.94 Z-10.559
X-65.364 Y9.926 Z-10.561
X-65.439 Y9.893 Z-10.563
X-65.485 Y9.869 Z-10.565
X-65.533 Y9.84 Z-10.567
X-65.558 Y9.824 Z-10.568
X-65.582 Y9.807 Z-10.569
X-65.631 Y9.769 Z-10.571
X-65.68 Y9.726 Z-10.574
X-65.71 Y9.697 Z-10.575
X-65.755 Y9.649 Z-10.577
X-65.775 Y9.624 Z-10.579
X-65.794 Y9.6 Z-10.58
X-65.829 Y9.551 Z-10.582
X-65.859 Y9.502 Z-10.584
X-65.875 Y9.474 Z-10.585
X-65.916 Y9.39 Z-10.588
X-65.932 Y9.348 Z-10.59
X-65.947 Y9.306 Z-10.591
X-65.961 Y9.257 Z-10.593
X-65.973 Y9.208 Z-10.595
X-65.982 Y9.159 Z-10.597
X-65.989 Y9.11 Z-10.598
X-65.993 Y9.061 Z-10.6
X-65.995 Y9.012 Z-10.602
X-65.994 Y8.963 Z-10.603
X-65.991 Y8.915 Z-10.605
X-65.986 Y8.866 Z-10.607
X-65.978 Y8.817 Z-10.609
X-65.968 Y8.768 Z-10.61
X-65.955 Y8.719 Z-10.612
X-65.939 Y8.671 Z-10.614
X-65.921 Y8.622 Z-10.616
X-65.9 Y8.574 Z-10.618
X-65.875 Y8.526 Z-10.619
X-65.874 Y8.523 Z-10.62
X-65.845 Y8.474 Z-10.621
X-65.812 Y8.425 Z-10.624
X-65.775 Y8.376 Z-10.626
X-65.734 Y8.327 Z-10.628
X-65.708 Y8.3 Z-10.629
X-65.68 Y8.274 Z-10.631
X-65.631 Y8.231 Z-10.633
X-65.583 Y8.193 Z-10.635
X-65.559 Y8.177 Z-10.636
X-65.534 Y8.161 Z-10.637
X-65.486 Y8.132 Z-10.639
X-65.485 Y8.131
X-65.436 Y8.105 Z-10.641
X-65.387 Y8.083 Z-10.643
X-65.338 Y8.064 Z-10.645
X-65.289 Y8.048 Z-10.646
X-65.241 Y8.034 Z-10.648
X-65.192 Y8.024 Z-10.65
X-65.143 Y8.015 Z-10.652
X-65.094 Y8.009 Z-10.653
X-65.045 Y8.006 Z-10.655
X-64.996 Y8.005 Z-10.657
X-64.948 Y8.006 Z-10.659
X-64.899 Y8.01 Z-10.66
X-64.85 Y8.016 Z-10.662
X-64.801 Y8.025 Z-10.664
X-64.752 Y8.036 Z-10.665
X-64.704 Y8.05 Z-10.667
X-64.656 Y8.066 Z-10.669
X-64.609 Y8.085 Z-10.671
X-64.561 Y8.107 Z-10.673
X-64.514 Y8.132 Z-10.674
X-64.508 Y8.135 Z-10.675
X-64.484 Y8.149 Z-10.676
X-64.459 Y8.164 Z-10.677
X-64.411 Y8.198 Z-10.679
X-64.362 Y8.237 Z-10.681
X-64.313 Y8.28 Z-10.683
X-64.289 Y8.304 Z-10.684
X-64.266 Y8.327 Z-10.686
X-64.225 Y8.376 Z-10.688
X-64.188 Y8.425 Z-10.69
X-64.155 Y8.474 Z-10.692
X-64.126 Y8.523 Z-10.694
X-64.118 Y8.54 Z-10.695
X-64.096 Y8.585 Z-10.696
X-64.077 Y8.629 Z-10.698
X-64.06 Y8.674 Z-10.7
X-64.045 Y8.719 Z-10.701
X-64.032 Y8.768 Z-10.703
X-64.022 Y8.817 Z-10.705
X-64.014 Y8.866 Z-10.707
X-64.009 Y8.915 Z-10.708
X-64.006 Y8.963 Z-10.71
X-64.005 Y9.012 Z-10.712
X-64.007 Y9.061 Z-10.713
X-64.011 Y9.11 Z-10.715
X-64.018 Y9.159 Z-10.717
X-64.027 Y9.208 Z-10.719
X-64.039 Y9.257 Z-10.72
X-64.053 Y9.306 Z-10.722
X-64.081 Y9.383 Z-10.725
X-64.099 Y9.422 Z-10.727
X-64.118 Y9.46 Z-10.728
X-64.141 Y9.502 Z-10.73
X-64.171 Y9.551 Z-10.732
X-64.206 Y9.6 Z-10.734
X-64.225 Y9.624 Z-10.735
X-64.245 Y9.649 Z-10.736
X-64.29 Y9.697 Z-10.738
X-64.313 Y9.72 Z-10.739
X-64.362 Y9.763 Z-10.742
X-64.411 Y9.802 Z-10.744
X-64.459 Y9.836 Z-10.746
X-64.484 Y9.851 Z-10.747
X-64.508 Y9.865 Z-10.748
X-64.561 Y9.893 Z-10.75
X-64.633 Y9.925 Z-10.753
X-64.668 Y9.938 Z-10.754
X-64.704 Y9.95 Z-10.755
X-64.752 Y9.964 Z-10.757
X-64.801 Y9.975 Z-10.759
X-64.85 Y9.984 Z-10.761
X-64.899 Y9.99 Z-10.762
X-64.948 Y9.994 Z-10.764
X-64.996 Y9.995 Z-10.766
X-65.045 Y9.994 Z-10.767
X-65.094 Y9.991 Z-10.769
X-65.143 Y9.985 Z-10.771
X-65.192 Y9.976 Z-10.773
X-65.241 Y9.966 Z-10.774
X-65.289 Y9.952 Z-10.776
X-65.327 Y9.94 Z-10.778
X-65.364 Y9.926 Z-10.779
X-65.439 Y9.893 Z-10.782
X-65.485 Y9.869 Z-10.784
X-65.533 Y9.84 Z-10.786
X-65.558 Y9.824 Z-10.787
X-65.582 Y9.807 Z-10.788
X-65.631 Y9.769 Z-10.79
X-65.68 Y9.726 Z-10.792
X-65.71 Y9.697 Z-10.793
X-65.755 Y9.649 Z-10.796
X-65.775 Y9.624 Z-10.797
X-65.794 Y9.6 Z-10.798
X-65.829 Y9.551 Z-10.8
X-65.859 Y9.502 Z-10.802
X-65.875 Y9.474 Z-10.803
X-65.916 Y9.39 Z-10.806
X-65.932 Y9.348 Z-10.808
X-65.947 Y9.306 Z-10.81
X-65.961 Y9.257 Z-10.811
X-65.973 Y9.208 Z-10.813
X-65.982 Y9.159 Z-10.815
X-65.989 Y9.11 Z-10.817
X-65.993 Y9.061 Z-10.818
X-65.995 Y9.012 Z-10.82
X-65.994 Y8.963 Z-10.822
X-65.991 Y8.915 Z-10.823
X-65.986 Y8.866 Z-10.825
X-65.978 Y8.817 Z-10.827
X-65.968 Y8.768 Z-10.829
X-65.955 Y8.719 Z-10.83
X-65.939 Y8.671 Z-10.832
X-65.921 Y8.622 Z-10.834
X-65.9 Y8.574 Z-10.836
X-65.875 Y8.526 Z-10.838
X-65.874 Y8.523
X-65.845 Y8.474 Z-10.84
X-65.812 Y8.425 Z-10.842
X-65.775 Y8.376 Z-10.844
X-65.734 Y8.327 Z-10.846
X-65.708 Y8.3 Z-10.848
X-65.68 Y8.274 Z-10.849
X-65.631 Y8.231 Z-10.851
X-65.583 Y8.193 Z-10.853
X-65.559 Y8.177 Z-10.854
X-65.534 Y8.161 Z-10.855
X-65.486 Y8.132 Z-10.857
X-65.485 Y8.131
X-65.436 Y8.105 Z-10.859
X-65.387 Y8.083 Z-10.861
X-65.338 Y8.064 Z-10.863
X-65.289 Y8.048 Z-10.865
X-65.241 Y8.034 Z-10.867
X-65.192 Y8.024 Z-10.868
X-65.143 Y8.015 Z-10.87
X-65.094 Y8.009 Z-10.872
X-65.045 Y8.006 Z-10.873
X-64.996 Y8.005 Z-10.875
X-64.948 Y8.006 Z-10.877
X-64.899 Y8.01 Z-10.879
X-64.85 Y8.016 Z-10.88
X-64.801 Y8.025 Z-10.882
X-64.752 Y8.036 Z-10.884
X-64.704 Y8.05 Z-10.886
X-64.656 Y8.066 Z-10.887
X-64.609 Y8.085 Z-10.889
X-64.561 Y8.107 Z-10.891
X-64.514 Y8.132 Z-10.893
X-64.508 Y8.135
X-64.484 Y8.149 Z-10.894
X-64.459 Y8.164 Z-10.895
X-64.411 Y8.198 Z-10.897
X-64.362 Y8.237 Z-10.899
X-64.313 Y8.28 Z-10.902
X-64.289 Y8.304 Z-10.903
X-64.266 Y8.327 Z-10.904
X-64.225 Y8.376 Z-10.906
X-64.188 Y8.425 Z-10.908
X-64.155 Y8.474 Z-10.91
X-64.126 Y8.523 Z-10.912
X-64.118 Y8.54 Z-10.913
X-64.096 Y8.585 Z-10.915
X-64.077 Y8.629 Z-10.916
X-64.06 Y8.674 Z-10.918
X-64.045 Y8.719 Z-10.92
X-64.032 Y8.768 Z-10.921
X-64.022 Y8.817 Z-10.923
X-64.014 Y8.866 Z-10.925
X-64.009 Y8.915 Z-10.927
X-64.006 Y8.963 Z-10.928
X-64.005 Y9.012 Z-10.93
X-64.007 Y9.061 Z-10.932
X-64.011 Y9.11 Z-10.933
X-64.018 Y9.159 Z-10.935
X-64.027 Y9.208 Z-10.937
X-64.039 Y9.257 Z-10.939
X-64.053 Y9.306 Z-10.94
X-64.081 Y9.383 Z-10.943
X-64.099 Y9.422 Z-10.945
X-64.118 Y9.46 Z-10.946
X-64.141 Y9.502 Z-10.948
X-64.171 Y9.551 Z-10.95
X-64.206 Y9.6 Z-10.952
X-64.225 Y9.624 Z-10.953
X-64.245 Y9.649 Z-10.954
X-64.29 Y9.697 Z-10.957
X-64.313 Y9.72 Z-10.958
X-64.362 Y9.763 Z-10.96
X-64.411 Y9.802 Z-10.962
X-64.459 Y9.836 Z-10.964
X-64.484 Y9.851 Z-10.965
X-64.508 Y9.865 Z-10.966
X-64.561 Y9.893 Z-10.968
X-64.633 Y9.925 Z-10.971
X-64.668 Y9.938 Z-10.972
X-64.704 Y9.95 Z-10.974
X-64.752 Y9.964 Z-10.975
X-64.801 Y9.975 Z-10.977
X-64.85 Y9.984 Z-10.979
X-64.899 Y9.99 Z-10.981
X-64.948 Y9.994 Z-10.982
X-64.996 Y9.995 Z-10.984
X-65.045 Y9.994 Z-10.986
X-65.094 Y9.991 Z-10.987
X-65.143 Y9.985 Z-10.989
X-65.192 Y9.976 Z-10.991
X-65.241 Y9.966 Z-10.993
X-65.289 Y9.952 Z-10.994
X-65.327 Y9.94 Z-10.996
X-65.364 Y9.926 Z-10.997
X-65.428 Y9.898 Z-11.
X-65.439 Y9.893
X-65.447 Y9.889
X-65.485 Y9.869 F500.
X-65.533 Y9.84
X-65.558 Y9.824
X-65.582 Y9.807
X-65.631 Y9.769
X-65.68 Y9.726
X-65.71 Y9.697
X-65.755 Y9.649
X-65.775 Y9.624
X-65.794 Y9.6
X-65.829 Y9.551
X-65.859 Y9.502
X-65.875 Y9.474
X-65.916 Y9.39
X-65.932 Y9.348
X-65.947 Y9.306
X-65.961 Y9.257
X-65.973 Y9.208
X-65.982 Y9.159
X-65.989 Y9.11
X-65.993 Y9.061
X-65.995 Y9.012
X-65.994 Y8.963
X-65.991 Y8.915
X-65.986 Y8.866
X-65.978 Y8.817
X-65.968 Y8.768
X-65.955 Y8.719
X-65.939 Y8.671
X-65.921 Y8.622
X-65.9 Y8.574
X-65.875 Y8.526
X-65.874 Y8.523
X-65.845 Y8.474
X-65.812 Y8.425
X-65.775 Y8.376
X-65.734 Y8.327
X-65.708 Y8.3
X-65.68 Y8.274
X-65.631 Y8.231
X-65.583 Y8.193
X-65.559 Y8.177
X-65.534 Y8.161
X-65.486 Y8.132
X-65.485 Y8.131
X-65.436 Y8.105
X-65.387 Y8.083
X-65.338 Y8.064
X-65.289 Y8.048
X-65.241 Y8.034
X-65.192 Y8.024
X-65.143 Y8.015
X-65.094 Y8.009
X-65.045 Y8.006
X-64.996 Y8.005
X-64.948 Y8.006
X-64.899 Y8.01
X-64.85 Y8.016
X-64.801 Y8.025
X-64.752 Y8.036
X-64.704 Y8.05
X-64.656 Y8.066
X-64.609 Y8.085
X-64.561 Y8.107
X-64.514 Y8.132
X-64.508 Y8.135
X-64.484 Y8.149
X-64.459 Y8.164
X-64.411 Y8.198
X-64.362 Y8.237
X-64.313 Y8.28
X-64.289 Y8.304
X-64.266 Y8.327
X-64.225 Y8.376
X-64.188 Y8.425
X-64.155 Y8.474
X-64.126 Y8.523
X-64.118 Y8.54
X-64.096 Y8.585
X-64.077 Y8.629
X-64.06 Y8.674
X-64.045 Y8.719
X-64.032 Y8.768
X-64.022 Y8.817
X-64.014 Y8.866
X-64.009 Y8.915
X-64.006 Y8.963
X-64.005 Y9.012
X-64.007 Y9.061
X-64.011 Y9.11
X-64.018 Y9.159
X-64.027 Y9.208
X-64.039 Y9.257
X-64.053 Y9.306
X-64.081 Y9.383
X-64.099 Y9.422
X-64.118 Y9.46
X-64.141 Y9.502
X-64.171 Y9.551
X-64.206 Y9.6
X-64.225 Y9.624
X-64.245 Y9.649
X-64.29 Y9.697
X-64.313 Y9.72
X-64.362 Y9.763
X-64.411 Y9.802
X-64.459 Y9.836
X-64.484 Y9.851
X-64.508 Y9.865
X-64.561 Y9.893
X-64.633 Y9.925
X-64.668 Y9.938
X-64.704 Y9.95
X-64.752 Y9.964
X-64.801 Y9.975
X-64.85 Y9.984
X-64.899 Y9.99
X-64.948 Y9.994
X-64.996 Y9.995
X-65.045 Y9.994
X-65.094 Y9.991
X-65.143 Y9.985
X-65.192 Y9.976
X-65.241 Y9.966
X-65.289 Y9.952
X-65.327 Y9.94
X-65.364 Y9.926
X-65.439 Y9.893
X-65.447 Y9.889
X-65.465 Y9.879 F167.
X-65.485 Y9.869 Z-11.001
X-65.533 Y9.84 Z-11.003
X-65.558 Y9.824 Z-11.004
X-65.582 Y9.807 Z-11.005
X-65.631 Y9.769 Z-11.007
X-65.68 Y9.726 Z-11.01
X-65.71 Y9.697 Z-11.011
X-65.755 Y9.649 Z-11.013
X-65.775 Y9.624 Z-11.014
X-65.794 Y9.6 Z-11.016
X-65.829 Y9.551 Z-11.018
X-65.859 Y9.502 Z-11.02
X-65.875 Y9.474 Z-11.021
X-65.916 Y9.39 Z-11.024
X-65.932 Y9.348 Z-11.026
X-65.947 Y9.306 Z-11.027
X-65.961 Y9.257 Z-11.029
X-65.973 Y9.208 Z-11.031
X-65.982 Y9.159 Z-11.032
X-65.989 Y9.11 Z-11.034
X-65.993 Y9.061 Z-11.036
X-65.995 Y9.012 Z-11.038
X-65.994 Y8.963 Z-11.039
X-65.991 Y8.915 Z-11.041
X-65.986 Y8.866 Z-11.043
X-65.978 Y8.817 Z-11.044
X-65.968 Y8.768 Z-11.046
X-65.955 Y8.719 Z-11.048
X-65.939 Y8.671 Z-11.05
X-65.921 Y8.622 Z-11.052
X-65.9 Y8.574 Z-11.053
X-65.875 Y8.526 Z-11.055
X-65.874 Y8.523
X-65.845 Y8.474 Z-11.057
X-65.812 Y8.425 Z-11.059
X-65.775 Y8.376 Z-11.062
X-65.734 Y8.327 Z-11.064
X-65.708 Y8.3 Z-11.065
X-65.68 Y8.274 Z-11.066
X-65.631 Y8.231 Z-11.069
X-65.583 Y8.193 Z-11.071
X-65.559 Y8.177 Z-11.072
X-65.534 Y8.161 Z-11.073
X-65.486 Y8.132 Z-11.075
X-65.485 Y8.131
X-65.436 Y8.105 Z-11.077
X-65.387 Y8.083 Z-11.079
X-65.338 Y8.064 Z-11.081
X-65.289 Y8.048 Z-11.082
X-65.241 Y8.034 Z-11.084
X-65.192 Y8.024 Z-11.086
X-65.143 Y8.015 Z-11.088
X-65.094 Y8.009 Z-11.089
X-65.045 Y8.006 Z-11.091
X-64.996 Y8.005 Z-11.093
X-64.948 Y8.006 Z-11.094
X-64.899 Y8.01 Z-11.096
X-64.85 Y8.016 Z-11.098
X-64.801 Y8.025 Z-11.1
X-64.752 Y8.036 Z-11.101
X-64.704 Y8.05 Z-11.103
X-64.656 Y8.066 Z-11.105
X-64.609 Y8.085 Z-11.107
X-64.561 Y8.107 Z-11.108
X-64.514 Y8.132 Z-11.11
X-64.508 Y8.135 Z-11.111
X-64.484 Y8.149 Z-11.112
X-64.459 Y8.164 Z-11.113
X-64.411 Y8.198 Z-11.115
X-64.362 Y8.237 Z-11.117
X-64.313 Y8.28 Z-11.119
X-64.289 Y8.304 Z-11.12
X-64.266 Y8.327 Z-11.121
X-64.225 Y8.376 Z-11.124
X-64.188 Y8.425 Z-11.126
X-64.155 Y8.474 Z-11.128
X-64.126 Y8.523 Z-11.13
X-64.118 Y8.54
X-64.096 Y8.585 Z-11.132
X-64.077 Y8.629 Z-11.134
X-64.06 Y8.674 Z-11.136
X-64.045 Y8.719 Z-11.137
X-64.032 Y8.768 Z-11.139
X-64.022 Y8.817 Z-11.141
X-64.014 Y8.866 Z-11.142
X-64.009 Y8.915 Z-11.144
X-64.006 Y8.963 Z-11.146
X-64.005 Y9.012 Z-11.148
X-64.007 Y9.061 Z-11.149
X-64.011 Y9.11 Z-11.151
X-64.018 Y9.159 Z-11.153
X-64.027 Y9.208 Z-11.155
X-64.039 Y9.257 Z-11.156
X-64.053 Y9.306 Z-11.158
X-64.081 Y9.383 Z-11.161
X-64.099 Y9.422 Z-11.162
X-64.118 Y9.46 Z-11.164
X-64.141 Y9.502 Z-11.166
X-64.171 Y9.551 Z-11.168
X-64.206 Y9.6 Z-11.17
X-64.225 Y9.624 Z-11.171
X-64.245 Y9.649 Z-11.172
X-64.29 Y9.697 Z-11.174
X-64.313 Y9.72 Z-11.175
X-64.362 Y9.763 Z-11.178
X-64.411 Y9.802 Z-11.18
X-64.459 Y9.836 Z-11.182
X-64.484 Y9.851 Z-11.183
X-64.508 Y9.865 Z-11.184
X-64.561 Y9.893 Z-11.186
X-64.633 Y9.925 Z-11.189
X-64.668 Y9.938 Z-11.19
X-64.704 Y9.95 Z-11.191
X-64.752 Y9.964 Z-11.193
X-64.801 Y9.975 Z-11.195
X-64.85 Y9.984 Z-11.197
X-64.899 Y9.99 Z-11.198
X-64.948 Y9.994 Z-11.2
X-64.996 Y9.995 Z-11.202
X-65.045 Y9.994 Z-11.203
X-65.094 Y9.991 Z-11.205
X-65.143 Y9.985 Z-11.207
X-65.192 Y9.976 Z-11.209
X-65.241 Y9.966 Z-11.21
X-65.289 Y9.952 Z-11.212
X-65.327 Y9.94 Z-11.213
X-65.364 Y9.926 Z-11.215
X-65.439 Y9.893 Z-11.218
X-65.485 Y9.869 Z-11.219
X-65.533 Y9.84 Z-11.221
X-65.558 Y9.824 Z-11.222
X-65.582 Y9.807 Z-11.223
X-65.631 Y9.769 Z-11.226
X-65.68 Y9.726 Z-11.228
X-65.71 Y9.697 Z-11.229
X-65.755 Y9.649 Z-11.232
X-65.775 Y9.624 Z-11.233
X-65.794 Y9.6 Z-11.234
X-65.829 Y9.551 Z-11.236
X-65.859 Y9.502 Z-11.238
X-65.875 Y9.474 Z-11.239
X-65.916 Y9.39 Z-11.242
X-65.932 Y9.348 Z-11.244
X-65.947 Y9.306 Z-11.245
X-65.961 Y9.257 Z-11.247
X-65.973 Y9.208 Z-11.249
X-65.982 Y9.159 Z-11.251
X-65.989 Y9.11 Z-11.252
X-65.993 Y9.061 Z-11.254
X-65.995 Y9.012 Z-11.256
X-65.994 Y8.963 Z-11.258
X-65.991 Y8.915 Z-11.259
X-65.986 Y8.866 Z-11.261
X-65.978 Y8.817 Z-11.263
X-65.968 Y8.768 Z-11.265
X-65.955 Y8.719 Z-11.266
X-65.939 Y8.671 Z-11.268
X-65.921 Y8.622 Z-11.27
X-65.9 Y8.574 Z-11.272
X-65.875 Y8.526 Z-11.274
X-65.874 Y8.523
X-65.845 Y8.474 Z-11.276
X-65.812 Y8.425 Z-11.278
X-65.775 Y8.376 Z-11.28
X-65.734 Y8.327 Z-11.282
X-65.708 Y8.3 Z-11.283
X-65.68 Y8.274 Z-11.285
X-65.631 Y8.231 Z-11.287
X-65.583 Y8.193 Z-11.289
X-65.559 Y8.177 Z-11.29
X-65.534 Y8.161 Z-11.291
X-65.486 Y8.132 Z-11.293
X-65.485 Y8.131
X-65.436 Y8.105 Z-11.295
X-65.387 Y8.083 Z-11.297
X-65.338 Y8.064 Z-11.299
X-65.289 Y8.048 Z-11.301
X-65.241 Y8.034 Z-11.302
X-65.192 Y8.024 Z-11.304
X-65.143 Y8.015 Z-11.306
X-65.094 Y8.009 Z-11.308
X-65.045 Y8.006 Z-11.309
X-64.996 Y8.005 Z-11.311
X-64.948 Y8.006 Z-11.313
X-64.899 Y8.01 Z-11.314
X-64.85 Y8.016 Z-11.316
X-64.801 Y8.025 Z-11.318
X-64.752 Y8.036 Z-11.32
X-64.704 Y8.05 Z-11.321
X-64.656 Y8.066 Z-11.323
X-64.609 Y8.085 Z-11.325
X-64.561 Y8.107 Z-11.327
X-64.514 Y8.132 Z-11.329
X-64.508 Y8.135
X-64.484 Y8.149 Z-11.33
X-64.459 Y8.164 Z-11.331
X-64.411 Y8.198 Z-11.333
X-64.362 Y8.237 Z-11.335
X-64.313 Y8.28 Z-11.337
X-64.289 Y8.304 Z-11.339
X-64.266 Y8.327 Z-11.34
X-64.225 Y8.376 Z-11.342
X-64.188 Y8.425 Z-11.344
X-64.155 Y8.474 Z-11.346
X-64.126 Y8.523 Z-11.348
X-64.118 Y8.54 Z-11.349
X-64.096 Y8.585 Z-11.351
X-64.077 Y8.629 Z-11.352
X-64.06 Y8.674 Z-11.354
X-64.045 Y8.719 Z-11.356
X-64.032 Y8.768 Z-11.357
X-64.022 Y8.817 Z-11.359
X-64.014 Y8.866 Z-11.361
X-64.009 Y8.915 Z-11.363
X-64.006 Y8.963 Z-11.364
X-64.005 Y9.012 Z-11.366
X-64.007 Y9.061 Z-11.368
X-64.011 Y9.11 Z-11.369
X-64.018 Y9.159 Z-11.371
X-64.027 Y9.208 Z-11.373
X-64.039 Y9.257 Z-11.375
X-64.053 Y9.306 Z-11.376
X-64.081 Y9.383 Z-11.379
X-64.099 Y9.422 Z-11.381
X-64.118 Y9.46 Z-11.382
X-64.141 Y9.502 Z-11.384
X-64.171 Y9.551 Z-11.386
X-64.206 Y9.6 Z-11.388
X-64.225 Y9.624 Z-11.389
X-64.245 Y9.649 Z-11.39
X-64.29 Y9.697 Z-11.392
X-64.313 Y9.72 Z-11.394
X-64.362 Y9.763 Z-11.396
X-64.411 Y9.802 Z-11.398
X-64.459 Y9.836 Z-11.4
X-64.484 Y9.851 Z-11.401
X-64.508 Y9.865 Z-11.402
X-64.561 Y9.893 Z-11.404
X-64.633 Y9.925 Z-11.407
X-64.668 Y9.938 Z-11.408
X-64.704 Y9.95 Z-11.41
X-64.752 Y9.964 Z-11.411
X-64.801 Y9.975 Z-11.413
X-64.85 Y9.984 Z-11.415
X-64.899 Y9.99 Z-11.417
X-64.948 Y9.994 Z-11.418
X-64.996 Y9.995 Z-11.42
X-65.045 Y9.994 Z-11.422
X-65.094 Y9.991 Z-11.423
X-65.143 Y9.985 Z-11.425
X-65.192 Y9.976 Z-11.427
X-65.241 Y9.966 Z-11.429
X-65.289 Y9.952 Z-11.43
X-65.327 Y9.94 Z-11.432
X-65.364 Y9.926 Z-11.433
X-65.439 Y9.893 Z-11.436
X-65.485 Y9.869 Z-11.438
X-65.533 Y9.84 Z-11.44
X-65.558 Y9.824 Z-11.441
X-65.582 Y9.807 Z-11.442
X-65.631 Y9.769 Z-11.444
X-65.68 Y9.726 Z-11.446
X-65.71 Y9.697 Z-11.448
X-65.755 Y9.649 Z-11.45
X-65.775 Y9.624 Z-11.451
X-65.794 Y9.6 Z-11.452
X-65.829 Y9.551 Z-11.454
X-65.859 Y9.502 Z-11.456
X-65.875 Y9.474 Z-11.457
X-65.916 Y9.39 Z-11.461
X-65.932 Y9.348 Z-11.462
X-65.947 Y9.306 Z-11.464
X-65.961 Y9.257 Z-11.466
X-65.973 Y9.208 Z-11.467
X-65.982 Y9.159 Z-11.469
X-65.989 Y9.11 Z-11.471
X-65.993 Y9.061 Z-11.473
X-65.995 Y9.012 Z-11.474
X-65.994 Y8.963 Z-11.476
X-65.991 Y8.915 Z-11.478
X-65.986 Y8.866 Z-11.479
X-65.978 Y8.817 Z-11.481
X-65.968 Y8.768 Z-11.483
X-65.955 Y8.719 Z-11.485
X-65.939 Y8.671 Z-11.486
X-65.921 Y8.622 Z-11.488
X-65.9 Y8.574 Z-11.49
X-65.875 Y8.526 Z-11.492
X-65.874 Y8.523
X-65.845 Y8.474 Z-11.494
X-65.812 Y8.425 Z-11.496
X-65.775 Y8.376 Z-11.498
X-65.734 Y8.327 Z-11.5
X-65.708 Y8.3 Z-11.502
X-65.68 Y8.274 Z-11.503
X-65.631 Y8.231 Z-11.505
X-65.583 Y8.193 Z-11.508
X-65.559 Y8.177 Z-11.509
X-65.534 Y8.161 Z-11.51
X-65.486 Y8.132 Z-11.512
X-65.485 Y8.131
X-65.436 Y8.105 Z-11.513
X-65.387 Y8.083 Z-11.515
X-65.338 Y8.064 Z-11.517
X-65.289 Y8.048 Z-11.519
X-65.241 Y8.034 Z-11.521
X-65.192 Y8.024 Z-11.523
X-65.143 Y8.015 Z-11.524
X-65.094 Y8.009 Z-11.526
X-65.045 Y8.006 Z-11.528
X-64.996 Y8.005 Z-11.529
X-64.948 Y8.006 Z-11.531
X-64.899 Y8.01 Z-11.533
X-64.85 Y8.016 Z-11.535
X-64.801 Y8.025 Z-11.536
X-64.752 Y8.036 Z-11.538
X-64.704 Y8.05 Z-11.54
X-64.656 Y8.066 Z-11.542
X-64.609 Y8.085 Z-11.543
X-64.561 Y8.107 Z-11.545
X-64.514 Y8.132 Z-11.547
X-64.508 Y8.135
X-64.484 Y8.149 Z-11.548
X-64.459 Y8.164 Z-11.549
X-64.411 Y8.198 Z-11.551
X-64.362 Y8.237 Z-11.553
X-64.313 Y8.28 Z-11.556
X-64.289 Y8.304 Z-11.557
X-64.266 Y8.327 Z-11.558
X-64.225 Y8.376 Z-11.56
X-64.188 Y8.425 Z-11.562
X-64.155 Y8.474 Z-11.564
X-64.126 Y8.523 Z-11.566
X-64.118 Y8.54 Z-11.567
X-64.096 Y8.585 Z-11.569
X-64.077 Y8.629 Z-11.571
X-64.06 Y8.674 Z-11.572
X-64.045 Y8.719 Z-11.574
X-64.032 Y8.768 Z-11.576
X-64.022 Y8.817 Z-11.577
X-64.014 Y8.866 Z-11.579
X-64.009 Y8.915 Z-11.581
X-64.006 Y8.963 Z-11.583
X-64.005 Y9.012 Z-11.584
X-64.007 Y9.061 Z-11.586
X-64.011 Y9.11 Z-11.588
X-64.018 Y9.159 Z-11.589
X-64.027 Y9.208 Z-11.591
X-64.039 Y9.257 Z-11.593
X-64.053 Y9.306 Z-11.595
X-64.081 Y9.383 Z-11.598
X-64.099 Y9.422 Z-11.599
X-64.118 Y9.46 Z-11.601
X-64.141 Y9.502 Z-11.602
X-64.171 Y9.551 Z-11.604
X-64.206 Y9.6 Z-11.606
X-64.225 Y9.624 Z-11.607
X-64.245 Y9.649 Z-11.608
X-64.29 Y9.697 Z-11.611
X-64.313 Y9.72 Z-11.612
X-64.362 Y9.763 Z-11.614
X-64.411 Y9.802 Z-11.616
X-64.459 Y9.836 Z-11.618
X-64.484 Y9.851 Z-11.619
X-64.508 Y9.865 Z-11.62
X-64.561 Y9.893 Z-11.623
X-64.633 Y9.925 Z-11.625
X-64.668 Y9.938 Z-11.627
X-64.704 Y9.95 Z-11.628
X-64.752 Y9.964 Z-11.63
X-64.801 Y9.975 Z-11.631
X-64.85 Y9.984 Z-11.633
X-64.899 Y9.99 Z-11.635
X-64.948 Y9.994 Z-11.637
X-64.996 Y9.995 Z-11.638
X-65.045 Y9.994 Z-11.64
X-65.094 Y9.991 Z-11.642
X-65.143 Y9.985 Z-11.643
X-65.192 Y9.976 Z-11.645
X-65.241 Y9.966 Z-11.647
X-65.289 Y9.952 Z-11.649
X-65.327 Y9.94 Z-11.65
X-65.364 Y9.926 Z-11.651
X-65.439 Y9.893 Z-11.654
X-65.485 Y9.869 Z-11.656
X-65.533 Y9.84 Z-11.658
X-65.558 Y9.824 Z-11.659
X-65.582 Y9.807 Z-11.66
X-65.631 Y9.769 Z-11.662
X-65.68 Y9.726 Z-11.665
X-65.71 Y9.697 Z-11.666
X-65.755 Y9.649 Z-11.668
X-65.775 Y9.624 Z-11.669
X-65.794 Y9.6 Z-11.671
X-65.829 Y9.551 Z-11.673
X-65.859 Y9.502 Z-11.675
X-65.875 Y9.474 Z-11.676
X-65.916 Y9.39 Z-11.679
X-65.932 Y9.348 Z-11.681
X-65.947 Y9.306 Z-11.682
X-65.961 Y9.257 Z-11.684
X-65.973 Y9.208 Z-11.686
X-65.982 Y9.159 Z-11.687
X-65.989 Y9.11 Z-11.689
X-65.993 Y9.061 Z-11.691
X-65.995 Y9.012 Z-11.693
X-65.994 Y8.963 Z-11.694
X-65.991 Y8.915 Z-11.696
X-65.986 Y8.866 Z-11.698
X-65.978 Y8.817 Z-11.699
X-65.968 Y8.768 Z-11.701
X-65.955 Y8.719 Z-11.703
X-65.939 Y8.671 Z-11.705
X-65.921 Y8.622 Z-11.706
X-65.9 Y8.574 Z-11.708
X-65.875 Y8.526 Z-11.71
X-65.874 Y8.523
X-65.845 Y8.474 Z-11.712
X-65.812 Y8.425 Z-11.714
X-65.775 Y8.376 Z-11.717
X-65.734 Y8.327 Z-11.719
X-65.708 Y8.3 Z-11.72
X-65.68 Y8.274 Z-11.721
X-65.631 Y8.231 Z-11.724
X-65.583 Y8.193 Z-11.726
X-65.559 Y8.177 Z-11.727
X-65.534 Y8.161 Z-11.728
X-65.486 Y8.132 Z-11.73
X-65.485 Y8.131
X-65.436 Y8.105 Z-11.732
X-65.387 Y8.083 Z-11.734
X-65.338 Y8.064 Z-11.736
X-65.289 Y8.048 Z-11.737
X-65.241 Y8.034 Z-11.739
X-65.192 Y8.024 Z-11.741
X-65.143 Y8.015 Z-11.743
X-65.094 Y8.009 Z-11.744
X-65.045 Y8.006 Z-11.746
X-64.996 Y8.005 Z-11.748
X-64.948 Y8.006 Z-11.749
X-64.899 Y8.01 Z-11.751
X-64.85 Y8.016 Z-11.753
X-64.801 Y8.025 Z-11.755
X-64.752 Y8.036 Z-11.756
X-64.704 Y8.05 Z-11.758
X-64.656 Y8.066 Z-11.76
X-64.609 Y8.085 Z-11.762
X-64.561 Y8.107 Z-11.763
X-64.514 Y8.132 Z-11.765
X-64.508 Y8.135 Z-11.766
X-64.484 Y8.149 Z-11.767
X-64.459 Y8.164 Z-11.768
X-64.411 Y8.198 Z-11.77
X-64.362 Y8.237 Z-11.772
X-64.313 Y8.28 Z-11.774
X-64.289 Y8.304 Z-11.775
X-64.266 Y8.327 Z-11.776
X-64.225 Y8.376 Z-11.779
X-64.188 Y8.425 Z-11.781
X-64.155 Y8.474 Z-11.783
X-64.126 Y8.523 Z-11.785
X-64.118 Y8.54
X-64.096 Y8.585 Z-11.787
X-64.077 Y8.629 Z-11.789
X-64.06 Y8.674 Z-11.791
X-64.045 Y8.719 Z-11.792
X-64.032 Y8.768 Z-11.794
X-64.022 Y8.817 Z-11.796
X-64.014 Y8.866 Z-11.797
X-64.009 Y8.915 Z-11.799
X-64.006 Y8.963 Z-11.801
X-64.005 Y9.012 Z-11.803
X-64.007 Y9.061 Z-11.804
X-64.011 Y9.11 Z-11.806
X-64.018 Y9.159 Z-11.808
X-64.027 Y9.208 Z-11.809
X-64.039 Y9.257 Z-11.811
X-64.053 Y9.306 Z-11.813
X-64.081 Y9.383 Z-11.816
X-64.099 Y9.422 Z-11.817
X-64.118 Y9.46 Z-11.819
X-64.141 Y9.502 Z-11.82
X-64.171 Y9.551 Z-11.823
X-64.206 Y9.6 Z-11.825
X-64.225 Y9.624 Z-11.826
X-64.245 Y9.649 Z-11.827
X-64.29 Y9.697 Z-11.829
X-64.313 Y9.72 Z-11.83
X-64.362 Y9.763 Z-11.833
X-64.411 Y9.802 Z-11.835
X-64.459 Y9.836 Z-11.837
X-64.484 Y9.851 Z-11.838
X-64.508 Y9.865 Z-11.839
X-64.561 Y9.893 Z-11.841
X-64.633 Y9.925 Z-11.844
X-64.668 Y9.938 Z-11.845
X-64.704 Y9.95 Z-11.846
X-64.752 Y9.964 Z-11.848
X-64.801 Y9.975 Z-11.85
X-64.85 Y9.984 Z-11.851
X-64.899 Y9.99 Z-11.853
X-64.948 Y9.994 Z-11.855
X-64.996 Y9.995 Z-11.857
X-65.045 Y9.994 Z-11.858
X-65.094 Y9.991 Z-11.86
X-65.143 Y9.985 Z-11.862
X-65.192 Y9.976 Z-11.863
X-65.241 Y9.966 Z-11.865
X-65.289 Y9.952 Z-11.867
X-65.327 Y9.94 Z-11.868
X-65.364 Y9.926 Z-11.87
X-65.439 Y9.893 Z-11.873
X-65.485 Y9.869 Z-11.874
X-65.533 Y9.84 Z-11.876
X-65.558 Y9.824 Z-11.877
X-65.582 Y9.807 Z-11.878
X-65.631 Y9.769 Z-11.881
X-65.68 Y9.726 Z-11.883
X-65.71 Y9.697 Z-11.884
X-65.755 Y9.649 Z-11.887
X-65.775 Y9.624 Z-11.888
X-65.794 Y9.6 Z-11.889
X-65.829 Y9.551 Z-11.891
X-65.859 Y9.502 Z-11.893
X-65.875 Y9.474 Z-11.894
X-65.916 Y9.39 Z-11.897
X-65.932 Y9.348 Z-11.899
X-65.947 Y9.306 Z-11.9
X-65.961 Y9.257 Z-11.902
X-65.973 Y9.208 Z-11.904
X-65.982 Y9.159 Z-11.906
X-65.989 Y9.11 Z-11.907
X-65.993 Y9.061 Z-11.909
X-65.995 Y9.012 Z-11.911
X-65.994 Y8.963 Z-11.913
X-65.991 Y8.915 Z-11.914
X-65.986 Y8.866 Z-11.916
X-65.978 Y8.817 Z-11.918
X-65.968 Y8.768 Z-11.919
X-65.955 Y8.719 Z-11.921
X-65.939 Y8.671 Z-11.923
X-65.921 Y8.622 Z-11.925
X-65.9 Y8.574 Z-11.927
X-65.875 Y8.526 Z-11.929
X-65.874 Y8.523
X-65.845 Y8.474 Z-11.931
X-65.812 Y8.425 Z-11.933
X-65.775 Y8.376 Z-11.935
X-65.734 Y8.327 Z-11.937
X-65.708 Y8.3 Z-11.938
X-65.68 Y8.274 Z-11.94
X-65.631 Y8.231 Z-11.942
X-65.583 Y8.193 Z-11.944
X-65.559 Y8.177 Z-11.945
X-65.534 Y8.161 Z-11.946
X-65.486 Y8.132 Z-11.948
X-65.485 Y8.131
X-65.436 Y8.105 Z-11.95
X-65.387 Y8.083 Z-11.952
X-65.338 Y8.064 Z-11.954
X-65.289 Y8.048 Z-11.956
X-65.241 Y8.034 Z-11.957
X-65.192 Y8.024 Z-11.959
X-65.143 Y8.015 Z-11.961
X-65.094 Y8.009 Z-11.963
X-65.045 Y8.006 Z-11.964
X-64.996 Y8.005 Z-11.966
X-64.948 Y8.006 Z-11.968
X-64.899 Y8.01 Z-11.969
X-64.85 Y8.016 Z-11.971
X-64.801 Y8.025 Z-11.973
X-64.752 Y8.036 Z-11.975
X-64.704 Y8.05 Z-11.976
X-64.656 Y8.066 Z-11.978
X-64.609 Y8.085 Z-11.98
X-64.561 Y8.107 Z-11.982
X-64.514 Y8.132 Z-11.984
X-64.508 Y8.135
X-64.484 Y8.149 Z-11.985
X-64.459 Y8.164 Z-11.986
X-64.411 Y8.198 Z-11.988
X-64.362 Y8.237 Z-11.99
X-64.313 Y8.28 Z-11.992
X-64.289 Y8.304 Z-11.994
X-64.266 Y8.327 Z-11.995
X-64.225 Y8.376 Z-11.997
X-64.188 Y8.425 Z-11.999
X-64.155 Y8.474 Z-12.001
X-64.126 Y8.523 Z-12.003
X-64.118 Y8.54 Z-12.004
X-64.096 Y8.585 Z-12.005
X-64.077 Y8.629 Z-12.007
X-64.06 Y8.674 Z-12.009
X-64.045 Y8.719 Z-12.01
X-64.032 Y8.768 Z-12.012
X-64.022 Y8.817 Z-12.014
X-64.014 Y8.866 Z-12.016
X-64.009 Y8.915 Z-12.017
X-64.006 Y8.963 Z-12.019
X-64.005 Y9.012 Z-12.021
X-64.007 Y9.061 Z-12.023
X-64.011 Y9.11 Z-12.024
X-64.018 Y9.159 Z-12.026
X-64.027 Y9.208 Z-12.028
X-64.039 Y9.257 Z-12.03
X-64.053 Y9.306 Z-12.031
X-64.081 Y9.383 Z-12.034
X-64.099 Y9.422 Z-12.036
X-64.118 Y9.46 Z-12.037
X-64.141 Y9.502 Z-12.039
X-64.171 Y9.551 Z-12.041
X-64.206 Y9.6 Z-12.043
X-64.225 Y9.624 Z-12.044
X-64.245 Y9.649 Z-12.045
X-64.29 Y9.697 Z-12.047
X-64.313 Y9.72 Z-12.049
X-64.362 Y9.763 Z-12.051
X-64.411 Y9.802 Z-12.053
X-64.459 Y9.836 Z-12.055
X-64.484 Y9.851 Z-12.056
X-64.508 Y9.865 Z-12.057
X-64.561 Y9.893 Z-12.059
X-64.633 Y9.925 Z-12.062
X-64.668 Y9.938 Z-12.063
X-64.704 Y9.95 Z-12.065
X-64.752 Y9.964 Z-12.066
X-64.801 Y9.975 Z-12.068
X-64.85 Y9.984 Z-12.07
X-64.899 Y9.99 Z-12.071
X-64.948 Y9.994 Z-12.073
X-64.996 Y9.995 Z-12.075
X-65.045 Y9.994 Z-12.077
X-65.094 Y9.991 Z-12.078
X-65.143 Y9.985 Z-12.08
X-65.192 Y9.976 Z-12.082
X-65.241 Y9.966 Z-12.084
X-65.289 Y9.952 Z-12.085
X-65.327 Y9.94 Z-12.087
X-65.364 Y9.926 Z-12.088
X-65.439 Y9.893 Z-12.091
X-65.485 Y9.869 Z-12.093
X-65.533 Y9.84 Z-12.095
X-65.558 Y9.824 Z-12.096
X-65.582 Y9.807 Z-12.097
X-65.631 Y9.769 Z-12.099
X-65.68 Y9.726 Z-12.101
X-65.71 Y9.697 Z-12.103
X-65.755 Y9.649 Z-12.105
X-65.775 Y9.624 Z-12.106
X-65.794 Y9.6 Z-12.107
X-65.829 Y9.551 Z-12.109
X-65.859 Y9.502 Z-12.111
X-65.875 Y9.474 Z-12.112
X-65.916 Y9.39 Z-12.116
X-65.932 Y9.348 Z-12.117
X-65.947 Y9.306 Z-12.119
X-65.961 Y9.257 Z-12.121
X-65.973 Y9.208 Z-12.122
X-65.982 Y9.159 Z-12.124
X-65.989 Y9.11 Z-12.126
X-65.993 Y9.061 Z-12.127
X-65.995 Y9.012 Z-12.129
X-65.994 Y8.963 Z-12.131
X-65.991 Y8.915 Z-12.133
X-65.986 Y8.866 Z-12.134
X-65.978 Y8.817 Z-12.136
X-65.968 Y8.768 Z-12.138
X-65.955 Y8.719 Z-12.14
X-65.939 Y8.671 Z-12.141
X-65.921 Y8.622 Z-12.143
X-65.9 Y8.574 Z-12.145
X-65.875 Y8.526 Z-12.147
X-65.874 Y8.523
X-65.845 Y8.474 Z-12.149
X-65.812 Y8.425 Z-12.151
X-65.775 Y8.376 Z-12.153
X-65.734 Y8.327 Z-12.155
X-65.708 Y8.3 Z-12.157
X-65.68 Y8.274 Z-12.158
X-65.631 Y8.231 Z-12.16
X-65.583 Y8.193 Z-12.162
X-65.559 Y8.177 Z-12.163
X-65.534 Y8.161 Z-12.164
X-65.486 Y8.132 Z-12.166
X-65.485 Y8.131 Z-12.167
X-65.436 Y8.105 Z-12.168
X-65.387 Y8.083 Z-12.17
X-65.338 Y8.064 Z-12.172
X-65.289 Y8.048 Z-12.174
X-65.241 Y8.034 Z-12.176
X-65.192 Y8.024 Z-12.177
X-65.143 Y8.015 Z-12.179
X-65.094 Y8.009 Z-12.181
X-65.045 Y8.006 Z-12.183
X-64.996 Y8.005 Z-12.184
X-64.948 Y8.006 Z-12.186
X-64.899 Y8.01 Z-12.188
X-64.85 Y8.016 Z-12.189
X-64.801 Y8.025 Z-12.191
X-64.752 Y8.036 Z-12.193
X-64.704 Y8.05 Z-12.195
X-64.656 Y8.066 Z-12.196
X-64.609 Y8.085 Z-12.198
X-64.561 Y8.107 Z-12.2
X-64.514 Y8.132 Z-12.202
X-64.508 Y8.135
X-64.484 Y8.149 Z-12.203
X-64.459 Y8.164 Z-12.204
X-64.411 Y8.198 Z-12.206
X-64.362 Y8.237 Z-12.208
X-64.313 Y8.28 Z-12.211
X-64.289 Y8.304 Z-12.212
X-64.266 Y8.327 Z-12.213
X-64.225 Y8.376 Z-12.215
X-64.188 Y8.425 Z-12.217
X-64.155 Y8.474 Z-12.219
X-64.126 Y8.523 Z-12.221
X-64.118 Y8.54 Z-12.222
X-64.096 Y8.585 Z-12.224
X-64.077 Y8.629 Z-12.225
X-64.06 Y8.674 Z-12.227
X-64.045 Y8.719 Z-12.229
X-64.032 Y8.768 Z-12.231
X-64.022 Y8.817 Z-12.232
X-64.014 Y8.866 Z-12.234
X-64.009 Y8.915 Z-12.236
X-64.006 Y8.963 Z-12.237
X-64.005 Y9.012 Z-12.239
X-64.007 Y9.061 Z-12.241
X-64.011 Y9.11 Z-12.243
X-64.018 Y9.159 Z-12.244
X-64.027 Y9.208 Z-12.246
X-64.039 Y9.257 Z-12.248
X-64.053 Y9.306 Z-12.25
X-64.081 Y9.383 Z-12.252
X-64.099 Y9.422 Z-12.254
X-64.118 Y9.46 Z-12.255
X-64.141 Y9.502 Z-12.257
X-64.171 Y9.551 Z-12.259
X-64.206 Y9.6 Z-12.261
X-64.225 Y9.624 Z-12.262
X-64.245 Y9.649 Z-12.263
X-64.29 Y9.697 Z-12.266
X-64.313 Y9.72 Z-12.267
X-64.362 Y9.763 Z-12.269
X-64.411 Y9.802 Z-12.271
X-64.459 Y9.836 Z-12.273
X-64.484 Y9.851 Z-12.274
X-64.508 Y9.865 Z-12.275
X-64.561 Y9.893 Z-12.277
X-64.633 Y9.925 Z-12.28
X-64.668 Y9.938 Z-12.282
X-64.704 Y9.95 Z-12.283
X-64.752 Y9.964 Z-12.285
X-64.801 Y9.975 Z-12.286
X-64.85 Y9.984 Z-12.288
X-64.899 Y9.99 Z-12.29
X-64.948 Y9.994 Z-12.292
X-64.996 Y9.995 Z-12.293
X-65.045 Y9.994 Z-12.295
X-65.094 Y9.991 Z-12.297
X-65.143 Y9.985 Z-12.298
X-65.192 Y9.976 Z-12.3
X-65.241 Y9.966 Z-12.302
X-65.289 Y9.952 Z-12.304
X-65.327 Y9.94 Z-12.305
X-65.364 Y9.926 Z-12.306
X-65.439 Y9.893 Z-12.309
X-65.485 Y9.869 Z-12.311
X-65.533 Y9.84 Z-12.313
X-65.558 Y9.824 Z-12.314
X-65.582 Y9.807 Z-12.315
X-65.631 Y9.769 Z-12.317
X-65.68 Y9.726 Z-12.319
X-65.71 Y9.697 Z-12.321
X-65.755 Y9.649 Z-12.323
X-65.775 Y9.624 Z-12.324
X-65.794 Y9.6 Z-12.325
X-65.829 Y9.551 Z-12.328
X-65.859 Y9.502 Z-12.33
X-65.875 Y9.474 Z-12.331
X-65.916 Y9.39 Z-12.334
X-65.932 Y9.348 Z-12.336
X-65.947 Y9.306 Z-12.337
X-65.961 Y9.257 Z-12.339
X-65.973 Y9.208 Z-12.341
X-65.982 Y9.159 Z-12.342
X-65.989 Y9.11 Z-12.344
X-65.993 Y9.061 Z-12.346
X-65.995 Y9.012 Z-12.347
X-65.994 Y8.963 Z-12.349
X-65.991 Y8.915 Z-12.351
X-65.986 Y8.866 Z-12.353
X-65.978 Y8.817 Z-12.354
X-65.968 Y8.768 Z-12.356
X-65.955 Y8.719 Z-12.358
X-65.939 Y8.671 Z-12.36
X-65.921 Y8.622 Z-12.361
X-65.9 Y8.574 Z-12.363
X-65.875 Y8.526 Z-12.365
X-65.874 Y8.523
X-65.845 Y8.474 Z-12.367
X-65.812 Y8.425 Z-12.369
X-65.775 Y8.376 Z-12.371
X-65.734 Y8.327 Z-12.374
X-65.708 Y8.3 Z-12.375
X-65.68 Y8.274 Z-12.376
X-65.631 Y8.231 Z-12.379
X-65.583 Y8.193 Z-12.381
X-65.559 Y8.177 Z-12.382
X-65.534 Y8.161 Z-12.383
X-65.486 Y8.132 Z-12.385
X-65.485 Y8.131
X-65.436 Y8.105 Z-12.387
X-65.387 Y8.083 Z-12.389
X-65.338 Y8.064 Z-12.39
X-65.289 Y8.048 Z-12.392
X-65.241 Y8.034 Z-12.394
X-65.192 Y8.024 Z-12.396
X-65.143 Y8.015 Z-12.397
X-65.094 Y8.009 Z-12.399
X-65.045 Y8.006 Z-12.401
X-64.996 Y8.005 Z-12.403
X-64.948 Y8.006 Z-12.404
X-64.899 Y8.01 Z-12.406
X-64.85 Y8.016 Z-12.408
X-64.801 Y8.025 Z-12.409
X-64.752 Y8.036 Z-12.411
X-64.704 Y8.05 Z-12.413
X-64.656 Y8.066 Z-12.415
X-64.609 Y8.085 Z-12.417
X-64.561 Y8.107 Z-12.418
X-64.514 Y8.132 Z-12.42
X-64.508 Y8.135
X-64.484 Y8.149 Z-12.421
X-64.459 Y8.164 Z-12.422
X-64.411 Y8.198 Z-12.425
X-64.362 Y8.237 Z-12.427
X-64.313 Y8.28 Z-12.429
X-64.289 Y8.304 Z-12.43
X-64.266 Y8.327 Z-12.431
X-64.225 Y8.376 Z-12.434
X-64.188 Y8.425 Z-12.436
X-64.155 Y8.474 Z-12.438
X-64.126 Y8.523 Z-12.44
X-64.118 Y8.54
X-64.096 Y8.585 Z-12.442
X-64.077 Y8.629 Z-12.444
X-64.06 Y8.674 Z-12.445
X-64.045 Y8.719 Z-12.447
X-64.032 Y8.768 Z-12.449
X-64.022 Y8.817 Z-12.451
X-64.014 Y8.866 Z-12.452
X-64.009 Y8.915 Z-12.454
X-64.006 Y8.963 Z-12.456
X-64.005 Y9.012 Z-12.458
X-64.007 Y9.061 Z-12.459
X-64.011 Y9.11 Z-12.461
X-64.018 Y9.159 Z-12.463
X-64.027 Y9.208 Z-12.464
X-64.039 Y9.257 Z-12.466
X-64.053 Y9.306 Z-12.468
X-64.081 Y9.383 Z-12.471
X-64.099 Y9.422 Z-12.472
X-64.118 Y9.46 Z-12.474
X-64.141 Y9.502 Z-12.475
X-64.171 Y9.551 Z-12.477
X-64.206 Y9.6 Z-12.48
X-64.225 Y9.624 Z-12.481
X-64.245 Y9.649 Z-12.482
X-64.29 Y9.697 Z-12.484
X-64.313 Y9.72 Z-12.485
X-64.362 Y9.763 Z-12.487
X-64.411 Y9.802 Z-12.49
X-64.459 Y9.836 Z-12.492
X-64.484 Y9.851 Z-12.493
X-64.508 Y9.865 Z-12.494
X-64.561 Y9.893 Z-12.496
X-64.633 Y9.925 Z-12.499
X-64.668 Y9.938 Z-12.5
X-64.704 Y9.95 Z-12.501
X-64.752 Y9.964 Z-12.503
X-64.801 Y9.975 Z-12.505
X-64.85 Y9.984 Z-12.506
X-64.899 Y9.99 Z-12.508
X-64.948 Y9.994 Z-12.51
X-64.996 Y9.995 Z-12.512
X-65.045 Y9.994 Z-12.513
X-65.094 Y9.991 Z-12.515
X-65.143 Y9.985 Z-12.517
X-65.192 Y9.976 Z-12.518
X-65.241 Y9.966 Z-12.52
X-65.289 Y9.952 Z-12.522
X-65.327 Y9.94 Z-12.523
X-65.364 Y9.926 Z-12.525
X-65.439 Y9.893 Z-12.528
X-65.485 Y9.869 Z-12.529
X-65.533 Y9.84 Z-12.531
X-65.558 Y9.824 Z-12.532
X-65.582 Y9.807 Z-12.533
X-65.631 Y9.769 Z-12.536
X-65.68 Y9.726 Z-12.538
X-65.71 Y9.697 Z-12.539
X-65.755 Y9.649 Z-12.542
X-65.775 Y9.624 Z-12.543
X-65.794 Y9.6 Z-12.544
X-65.829 Y9.551 Z-12.546
X-65.859 Y9.502 Z-12.548
X-65.875 Y9.474 Z-12.549
X-65.916 Y9.39 Z-12.552
X-65.932 Y9.348 Z-12.554
X-65.947 Y9.306 Z-12.555
X-65.961 Y9.257 Z-12.557
X-65.973 Y9.208 Z-12.559
X-65.982 Y9.159 Z-12.561
X-65.989 Y9.11 Z-12.562
X-65.993 Y9.061 Z-12.564
X-65.995 Y9.012 Z-12.566
X-65.994 Y8.963 Z-12.568
X-65.991 Y8.915 Z-12.569
X-65.986 Y8.866 Z-12.571
X-65.978 Y8.817 Z-12.573
X-65.968 Y8.768 Z-12.574
X-65.955 Y8.719 Z-12.576
X-65.939 Y8.671 Z-12.578
X-65.921 Y8.622 Z-12.58
X-65.9 Y8.574 Z-12.582
X-65.875 Y8.526 Z-12.583
X-65.874 Y8.523 Z-12.584
X-65.845 Y8.474 Z-12.586
X-65.812 Y8.425 Z-12.588
X-65.775 Y8.376 Z-12.59
X-65.734 Y8.327 Z-12.592
X-65.708 Y8.3 Z-12.593
X-65.68 Y8.274 Z-12.595
X-65.631 Y8.231 Z-12.597
X-65.583 Y8.193 Z-12.599
X-65.559 Y8.177 Z-12.6
X-65.534 Y8.161 Z-12.601
X-65.486 Y8.132 Z-12.603
X-65.485 Y8.131
X-65.436 Y8.105 Z-12.605
X-65.387 Y8.083 Z-12.607
X-65.338 Y8.064 Z-12.609
X-65.289 Y8.048 Z-12.611
X-65.241 Y8.034 Z-12.612
X-65.192 Y8.024 Z-12.614
X-65.143 Y8.015 Z-12.616
X-65.094 Y8.009 Z-12.618
X-65.045 Y8.006 Z-12.619
X-64.996 Y8.005 Z-12.621
X-64.948 Y8.006 Z-12.623
X-64.899 Y8.01 Z-12.624
X-64.85 Y8.016 Z-12.626
X-64.801 Y8.025 Z-12.628
X-64.752 Y8.036 Z-12.63
X-64.704 Y8.05 Z-12.631
X-64.656 Y8.066 Z-12.633
X-64.609 Y8.085 Z-12.635
X-64.561 Y8.107 Z-12.637
X-64.514 Y8.132 Z-12.639
X-64.508 Y8.135
X-64.484 Y8.149 Z-12.64
X-64.459 Y8.164 Z-12.641
X-64.411 Y8.198 Z-12.643
X-64.362 Y8.237 Z-12.645
X-64.313 Y8.28 Z-12.647
X-64.289 Y8.304 Z-12.648
X-64.266 Y8.327 Z-12.65
X-64.225 Y8.376 Z-12.652
X-64.188 Y8.425 Z-12.654
X-64.155 Y8.474 Z-12.656
X-64.126 Y8.523 Z-12.658
X-64.118 Y8.54 Z-12.659
X-64.096 Y8.585 Z-12.66
X-64.077 Y8.629 Z-12.662
X-64.06 Y8.674 Z-12.664
X-64.045 Y8.719 Z-12.665
X-64.032 Y8.768 Z-12.667
X-64.022 Y8.817 Z-12.669
X-64.014 Y8.866 Z-12.671
X-64.009 Y8.915 Z-12.672
X-64.006 Y8.963 Z-12.674
X-64.005 Y9.012 Z-12.676
X-64.007 Y9.061 Z-12.678
X-64.011 Y9.11 Z-12.679
X-64.018 Y9.159 Z-12.681
X-64.027 Y9.208 Z-12.683
X-64.039 Y9.257 Z-12.684
X-64.053 Y9.306 Z-12.686
X-64.081 Y9.383 Z-12.689
X-64.099 Y9.422 Z-12.691
X-64.118 Y9.46 Z-12.692
X-64.141 Y9.502 Z-12.694
X-64.171 Y9.551 Z-12.696
X-64.206 Y9.6 Z-12.698
X-64.225 Y9.624 Z-12.699
X-64.245 Y9.649 Z-12.7
X-64.29 Y9.697 Z-12.702
X-64.313 Y9.72 Z-12.703
X-64.362 Y9.763 Z-12.706
X-64.411 Y9.802 Z-12.708
X-64.459 Y9.836 Z-12.71
X-64.484 Y9.851 Z-12.711
X-64.508 Y9.865 Z-12.712
X-64.561 Y9.893 Z-12.714
X-64.633 Y9.925 Z-12.717
X-64.668 Y9.938 Z-12.718
X-64.704 Y9.95 Z-12.719
X-64.752 Y9.964 Z-12.721
X-64.801 Y9.975 Z-12.723
X-64.85 Y9.984 Z-12.725
X-64.899 Y9.99 Z-12.726
X-64.948 Y9.994 Z-12.728
X-64.996 Y9.995 Z-12.73
X-65.045 Y9.994 Z-12.732
X-65.094 Y9.991 Z-12.733
X-65.143 Y9.985 Z-12.735
X-65.192 Y9.976 Z-12.737
X-65.241 Y9.966 Z-12.738
X-65.289 Y9.952 Z-12.74
X-65.327 Y9.94 Z-12.742
X-65.364 Y9.926 Z-12.743
X-65.439 Y9.893 Z-12.746
X-65.485 Y9.869 Z-12.748
X-65.533 Y9.84 Z-12.75
X-65.558 Y9.824 Z-12.751
X-65.582 Y9.807 Z-12.752
X-65.631 Y9.769 Z-12.754
X-65.68 Y9.726 Z-12.756
X-65.71 Y9.697 Z-12.758
X-65.755 Y9.649 Z-12.76
X-65.775 Y9.624 Z-12.761
X-65.794 Y9.6 Z-12.762
X-65.829 Y9.551 Z-12.764
X-65.859 Y9.502 Z-12.766
X-65.875 Y9.474 Z-12.767
X-65.916 Y9.39 Z-12.771
X-65.932 Y9.348 Z-12.772
X-65.947 Y9.306 Z-12.774
X-65.961 Y9.257 Z-12.775
X-65.973 Y9.208 Z-12.777
X-65.982 Y9.159 Z-12.779
X-65.989 Y9.11 Z-12.781
X-65.993 Y9.061 Z-12.782
X-65.995 Y9.012 Z-12.784
X-65.994 Y8.963 Z-12.786
X-65.991 Y8.915 Z-12.788
X-65.986 Y8.866 Z-12.789
X-65.978 Y8.817 Z-12.791
X-65.968 Y8.768 Z-12.793
X-65.955 Y8.719 Z-12.794
X-65.939 Y8.671 Z-12.796
X-65.921 Y8.622 Z-12.798
X-65.9 Y8.574 Z-12.8
X-65.875 Y8.526 Z-12.802
X-65.874 Y8.523
X-65.845 Y8.474 Z-12.804
X-65.812 Y8.425 Z-12.806
X-65.775 Y8.376 Z-12.808
X-65.734 Y8.327 Z-12.81
X-65.708 Y8.3 Z-12.812
X-65.68 Y8.274 Z-12.813
X-65.631 Y8.231 Z-12.815
X-65.583 Y8.193 Z-12.817
X-65.559 Y8.177 Z-12.818
X-65.534 Y8.161 Z-12.819
X-65.486 Y8.132 Z-12.821
X-65.485 Y8.131
X-65.436 Y8.105 Z-12.823
X-65.387 Y8.083 Z-12.825
X-65.338 Y8.064 Z-12.827
X-65.289 Y8.048 Z-12.829
X-65.241 Y8.034 Z-12.831
X-65.192 Y8.024 Z-12.832
X-65.143 Y8.015 Z-12.834
X-65.094 Y8.009 Z-12.836
X-65.045 Y8.006 Z-12.838
X-64.996 Y8.005 Z-12.839
X-64.948 Y8.006 Z-12.841
X-64.899 Y8.01 Z-12.843
X-64.85 Y8.016 Z-12.844
X-64.801 Y8.025 Z-12.846
X-64.752 Y8.036 Z-12.848
X-64.704 Y8.05 Z-12.85
X-64.656 Y8.066 Z-12.851
X-64.609 Y8.085 Z-12.853
X-64.561 Y8.107 Z-12.855
X-64.514 Y8.132 Z-12.857
X-64.508 Y8.135
X-64.484 Y8.149 Z-12.858
X-64.459 Y8.164 Z-12.859
X-64.411 Y8.198 Z-12.861
X-64.362 Y8.237 Z-12.863
X-64.313 Y8.28 Z-12.866
X-64.289 Y8.304 Z-12.867
X-64.266 Y8.327 Z-12.868
X-64.225 Y8.376 Z-12.87
X-64.188 Y8.425 Z-12.872
X-64.155 Y8.474 Z-12.874
X-64.126 Y8.523 Z-12.876
X-64.118 Y8.54 Z-12.877
X-64.096 Y8.585 Z-12.879
X-64.077 Y8.629 Z-12.88
X-64.06 Y8.674 Z-12.882
X-64.045 Y8.719 Z-12.884
X-64.032 Y8.768 Z-12.886
X-64.022 Y8.817 Z-12.887
X-64.014 Y8.866 Z-12.889
X-64.009 Y8.915 Z-12.891
X-64.006 Y8.963 Z-12.892
X-64.005 Y9.012 Z-12.894
X-64.007 Y9.061 Z-12.896
X-64.011 Y9.11 Z-12.898
X-64.018 Y9.159 Z-12.899
X-64.027 Y9.208 Z-12.901
X-64.039 Y9.257 Z-12.903
X-64.053 Y9.306 Z-12.905
X-64.081 Y9.383 Z-12.907
X-64.099 Y9.422 Z-12.909
X-64.118 Y9.46 Z-12.91
X-64.141 Y9.502 Z-12.912
X-64.171 Y9.551 Z-12.914
X-64.206 Y9.6 Z-12.916
X-64.225 Y9.624 Z-12.917
X-64.245 Y9.649 Z-12.918
X-64.29 Y9.697 Z-12.921
X-64.313 Y9.72 Z-12.922
X-64.362 Y9.763 Z-12.924
X-64.411 Y9.802 Z-12.926
X-64.459 Y9.836 Z-12.928
X-64.484 Y9.851 Z-12.929
X-64.508 Y9.865 Z-12.93
X-64.561 Y9.893 Z-12.932
X-64.633 Y9.925 Z-12.935
X-64.668 Y9.938 Z-12.936
X-64.704 Y9.95 Z-12.938
X-64.752 Y9.964 Z-12.94
X-64.801 Y9.975 Z-12.941
X-64.85 Y9.984 Z-12.943
X-64.899 Y9.99 Z-12.945
X-64.948 Y9.994 Z-12.946
X-64.996 Y9.995 Z-12.948
X-65.045 Y9.994 Z-12.95
X-65.094 Y9.991 Z-12.952
X-65.143 Y9.985 Z-12.953
X-65.192 Y9.976 Z-12.955
X-65.241 Y9.966 Z-12.957
X-65.289 Y9.952 Z-12.959
X-65.327 Y9.94 Z-12.96
X-65.364 Y9.926 Z-12.961
X-65.439 Y9.893 Z-12.964
X-65.485 Y9.869 Z-12.966
X-65.533 Y9.84 Z-12.968
X-65.558 Y9.824 Z-12.969
X-65.582 Y9.807 Z-12.97
X-65.631 Y9.769 Z-12.972
X-65.68 Y9.726 Z-12.974
X-65.71 Y9.697 Z-12.976
X-65.755 Y9.649 Z-12.978
X-65.775 Y9.624 Z-12.979
X-65.794 Y9.6 Z-12.98
X-65.829 Y9.551 Z-12.982
X-65.859 Y9.502 Z-12.984
X-65.875 Y9.474 Z-12.986
X-65.916 Y9.39 Z-12.989
X-65.932 Y9.348 Z-12.99
X-65.947 Y9.306 Z-12.992
X-65.961 Y9.257 Z-12.994
X-65.973 Y9.208 Z-12.996
X-65.982 Y9.159 Z-12.997
X-65.989 Y9.11 Z-12.999
X-65.993 Y9.061 Z-13.001
X-65.995 Y9.012 Z-13.002
X-65.994 Y8.963 Z-13.004
X-65.991 Y8.915 Z-13.006
X-65.986 Y8.866 Z-13.008
X-65.978 Y8.817 Z-13.009
X-65.968 Y8.768 Z-13.011
X-65.955 Y8.719 Z-13.013
X-65.939 Y8.671 Z-13.015
X-65.921 Y8.622 Z-13.016
X-65.9 Y8.574 Z-13.018
X-65.875 Y8.526 Z-13.02
X-65.874 Y8.523
X-65.845 Y8.474 Z-13.022
X-65.812 Y8.425 Z-13.024
X-65.775 Y8.376 Z-13.026
X-65.734 Y8.327 Z-13.029
X-65.708 Y8.3 Z-13.03
X-65.68 Y8.274 Z-13.031
X-65.631 Y8.231 Z-13.034
X-65.583 Y8.193 Z-13.036
X-65.559 Y8.177 Z-13.037
X-65.534 Y8.161 Z-13.038
X-65.486 Y8.132 Z-13.04
X-65.485 Y8.131
X-65.436 Y8.105 Z-13.042
X-65.387 Y8.083 Z-13.044
X-65.338 Y8.064 Z-13.045
X-65.289 Y8.048 Z-13.047
X-65.241 Y8.034 Z-13.049
X-65.192 Y8.024 Z-13.051
X-65.143 Y8.015 Z-13.052
X-65.094 Y8.009 Z-13.054
X-65.045 Y8.006 Z-13.056
X-64.996 Y8.005 Z-13.058
X-64.948 Y8.006 Z-13.059
X-64.899 Y8.01 Z-13.061
X-64.85 Y8.016 Z-13.063
X-64.801 Y8.025 Z-13.064
X-64.752 Y8.036 Z-13.066
X-64.704 Y8.05 Z-13.068
X-64.656 Y8.066 Z-13.07
X-64.609 Y8.085 Z-13.071
X-64.561 Y8.107 Z-13.073
X-64.514 Y8.132 Z-13.075
X-64.508 Y8.135
X-64.484 Y8.149 Z-13.076
X-64.459 Y8.164 Z-13.077
X-64.411 Y8.198 Z-13.079
X-64.362 Y8.237 Z-13.082
X-64.313 Y8.28 Z-13.084
X-64.289 Y8.304 Z-13.085
X-64.266 Y8.327 Z-13.086
X-64.225 Y8.376 Z-13.088
X-64.188 Y8.425 Z-13.091
X-64.155 Y8.474 Z-13.093
X-64.126 Y8.523 Z-13.095
X-64.118 Y8.54
X-64.096 Y8.585 Z-13.097
X-64.077 Y8.629 Z-13.099
X-64.06 Y8.674 Z-13.1
X-64.045 Y8.719 Z-13.102
X-64.032 Y8.768 Z-13.104
X-64.022 Y8.817 Z-13.106
X-64.014 Y8.866 Z-13.107
X-64.009 Y8.915 Z-13.109
X-64.006 Y8.963 Z-13.111
X-64.005 Y9.012 Z-13.112
X-64.007 Y9.061 Z-13.114
X-64.011 Y9.11 Z-13.116
X-64.018 Y9.159 Z-13.118
X-64.027 Y9.208 Z-13.119
X-64.039 Y9.257 Z-13.121
X-64.053 Y9.306 Z-13.123
X-64.081 Y9.383 Z-13.126
X-64.099 Y9.422 Z-13.127
X-64.118 Y9.46 Z-13.129
X-64.141 Y9.502 Z-13.13
X-64.171 Y9.551 Z-13.132
X-64.206 Y9.6 Z-13.134
X-64.225 Y9.624 Z-13.136
X-64.245 Y9.649 Z-13.137
X-64.29 Y9.697 Z-13.139
X-64.313 Y9.72 Z-13.14
X-64.362 Y9.763 Z-13.142
X-64.411 Y9.802 Z-13.145
X-64.459 Y9.836 Z-13.147
X-64.484 Y9.851 Z-13.148
X-64.508 Y9.865 Z-13.149
X-64.561 Y9.893 Z-13.151
X-64.633 Y9.925 Z-13.153
X-64.668 Y9.938 Z-13.155
X-64.704 Y9.95 Z-13.156
X-64.752 Y9.964 Z-13.158
X-64.801 Y9.975 Z-13.16
X-64.85 Y9.984 Z-13.161
X-64.899 Y9.99 Z-13.163
X-64.948 Y9.994 Z-13.165
X-64.996 Y9.995 Z-13.166
X-65.045 Y9.994 Z-13.168
X-65.094 Y9.991 Z-13.17
X-65.143 Y9.985 Z-13.172
X-65.192 Y9.976 Z-13.173
X-65.241 Y9.966 Z-13.175
X-65.289 Y9.952 Z-13.177
X-65.327 Y9.94 Z-13.178
X-65.364 Y9.926 Z-13.18
X-65.439 Y9.893 Z-13.182
X-65.485 Y9.869 Z-13.184
X-65.533 Y9.84 Z-13.186
X-65.558 Y9.824 Z-13.187
X-65.582 Y9.807 Z-13.188
X-65.631 Y9.769 Z-13.19
X-65.68 Y9.726 Z-13.193
X-65.71 Y9.697 Z-13.194
X-65.755 Y9.649 Z-13.197
X-65.775 Y9.624 Z-13.198
X-65.794 Y9.6 Z-13.199
X-65.829 Y9.551 Z-13.201
X-65.859 Y9.502 Z-13.203
X-65.875 Y9.474 Z-13.204
X-65.916 Y9.39 Z-13.207
X-65.932 Y9.348 Z-13.209
X-65.947 Y9.306 Z-13.21
X-65.961 Y9.257 Z-13.212
X-65.973 Y9.208 Z-13.214
X-65.982 Y9.159 Z-13.216
X-65.989 Y9.11 Z-13.217
X-65.993 Y9.061 Z-13.219
X-65.995 Y9.012 Z-13.221
X-65.994 Y8.963 Z-13.222
X-65.991 Y8.915 Z-13.224
X-65.986 Y8.866 Z-13.226
X-65.978 Y8.817 Z-13.228
X-65.968 Y8.768 Z-13.229
X-65.955 Y8.719 Z-13.231
X-65.939 Y8.671 Z-13.233
X-65.921 Y8.622 Z-13.235
X-65.9 Y8.574 Z-13.237
X-65.875 Y8.526 Z-13.238
X-65.874 Y8.523 Z-13.239
X-65.845 Y8.474 Z-13.241
X-65.812 Y8.425 Z-13.243
X-65.775 Y8.376 Z-13.245
X-65.734 Y8.327 Z-13.247
X-65.708 Y8.3 Z-13.248
X-65.68 Y8.274 Z-13.25
X-65.631 Y8.231 Z-13.252
X-65.583 Y8.193 Z-13.254
X-65.559 Y8.177 Z-13.255
X-65.534 Y8.161 Z-13.256
X-65.486 Y8.132 Z-13.258
X-65.485 Y8.131
X-65.436 Y8.105 Z-13.26
X-65.387 Y8.083 Z-13.262
X-65.338 Y8.064 Z-13.264
X-65.289 Y8.048 Z-13.265
X-65.241 Y8.034 Z-13.267
X-65.192 Y8.024 Z-13.269
X-65.143 Y8.015 Z-13.271
X-65.094 Y8.009 Z-13.272
X-65.045 Y8.006 Z-13.274
X-64.996 Y8.005 Z-13.276
X-64.948 Y8.006 Z-13.278
X-64.899 Y8.01 Z-13.279
X-64.85 Y8.016 Z-13.281
X-64.801 Y8.025 Z-13.283
X-64.752 Y8.036 Z-13.284
X-64.704 Y8.05 Z-13.286
X-64.656 Y8.066 Z-13.288
X-64.609 Y8.085 Z-13.29
X-64.561 Y8.107 Z-13.292
X-64.514 Y8.132 Z-13.293
X-64.508 Y8.135 Z-13.294
X-64.484 Y8.149 Z-13.295
X-64.459 Y8.164 Z-13.296
X-64.411 Y8.198 Z-13.298
X-64.362 Y8.237 Z-13.3
X-64.313 Y8.28 Z-13.302
X-64.289 Y8.304 Z-13.303
X-64.266 Y8.327 Z-13.305
X-64.225 Y8.376 Z-13.307
X-64.188 Y8.425 Z-13.309
X-64.155 Y8.474 Z-13.311
X-64.126 Y8.523 Z-13.313
X-64.118 Y8.54 Z-13.314
X-64.096 Y8.585 Z-13.315
X-64.077 Y8.629 Z-13.317
X-64.06 Y8.674 Z-13.319
X-64.045 Y8.719 Z-13.32
X-64.032 Y8.768 Z-13.322
X-64.022 Y8.817 Z-13.324
X-64.014 Y8.866 Z-13.326
X-64.009 Y8.915 Z-13.327
X-64.006 Y8.963 Z-13.329
X-64.005 Y9.012 Z-13.331
X-64.007 Y9.061 Z-13.332
X-64.011 Y9.11 Z-13.334
X-64.018 Y9.159 Z-13.336
X-64.027 Y9.208 Z-13.338
X-64.039 Y9.257 Z-13.339
X-64.053 Y9.306 Z-13.341
X-64.081 Y9.383 Z-13.344
X-64.099 Y9.422 Z-13.346
X-64.118 Y9.46 Z-13.347
X-64.141 Y9.502 Z-13.349
X-64.171 Y9.551 Z-13.351
X-64.206 Y9.6 Z-13.353
X-64.225 Y9.624 Z-13.354
X-64.245 Y9.649 Z-13.355
X-64.29 Y9.697 Z-13.357
X-64.313 Y9.72 Z-13.358
X-64.362 Y9.763 Z-13.361
X-64.411 Y9.802 Z-13.363
X-64.459 Y9.836 Z-13.365
X-64.484 Y9.851 Z-13.366
X-64.508 Y9.865 Z-13.367
X-64.561 Y9.893 Z-13.369
X-64.633 Y9.925 Z-13.372
X-64.668 Y9.938 Z-13.373
X-64.704 Y9.95 Z-13.374
X-64.752 Y9.964 Z-13.376
X-64.801 Y9.975 Z-13.378
X-64.85 Y9.984 Z-13.38
X-64.899 Y9.99 Z-13.381
X-64.948 Y9.994 Z-13.383
X-64.996 Y9.995 Z-13.385
X-65.045 Y9.994 Z-13.386
X-65.094 Y9.991 Z-13.388
X-65.143 Y9.985 Z-13.39
X-65.192 Y9.976 Z-13.392
X-65.241 Y9.966 Z-13.393
X-65.289 Y9.952 Z-13.395
X-65.327 Y9.94 Z-13.397
X-65.364 Y9.926 Z-13.398
X-65.439 Y9.893 Z-13.401
X-65.485 Y9.869 Z-13.403
X-65.533 Y9.84 Z-13.405
X-65.558 Y9.824 Z-13.406
X-65.582 Y9.807 Z-13.407
X-65.631 Y9.769 Z-13.409
X-65.68 Y9.726 Z-13.411
X-65.71 Y9.697 Z-13.412
X-65.755 Y9.649 Z-13.415
X-65.775 Y9.624 Z-13.416
X-65.794 Y9.6 Z-13.417
X-65.829 Y9.551 Z-13.419
X-65.859 Y9.502 Z-13.421
X-65.875 Y9.474 Z-13.422
X-65.916 Y9.39 Z-13.425
X-65.932 Y9.348 Z-13.427
X-65.947 Y9.306 Z-13.429
X-65.961 Y9.257 Z-13.43
X-65.973 Y9.208 Z-13.432
X-65.982 Y9.159 Z-13.434
X-65.989 Y9.11 Z-13.436
X-65.993 Y9.061 Z-13.437
X-65.995 Y9.012 Z-13.439
X-65.994 Y8.963 Z-13.441
X-65.991 Y8.915 Z-13.442
X-65.986 Y8.866 Z-13.444
X-65.978 Y8.817 Z-13.446
X-65.968 Y8.768 Z-13.448
X-65.955 Y8.719 Z-13.449
X-65.939 Y8.671 Z-13.451
X-65.921 Y8.622 Z-13.453
X-65.9 Y8.574 Z-13.455
X-65.875 Y8.526 Z-13.457
X-65.874 Y8.523
X-65.845 Y8.474 Z-13.459
X-65.812 Y8.425 Z-13.461
X-65.775 Y8.376 Z-13.463
X-65.734 Y8.327 Z-13.465
X-65.708 Y8.3 Z-13.467
X-65.68 Y8.274 Z-13.468
X-65.631 Y8.231 Z-13.47
X-65.583 Y8.193 Z-13.472
X-65.559 Y8.177 Z-13.473
X-65.534 Y8.161 Z-13.474
X-65.486 Y8.132 Z-13.476
X-65.485 Y8.131
X-65.436 Y8.105 Z-13.478
X-65.387 Y8.083 Z-13.48
X-65.338 Y8.064 Z-13.482
X-65.289 Y8.048 Z-13.484
X-65.241 Y8.034 Z-13.486
X-65.192 Y8.024 Z-13.487
X-65.143 Y8.015 Z-13.489
X-65.094 Y8.009 Z-13.491
X-65.045 Y8.006 Z-13.492
X-64.996 Y8.005 Z-13.494
X-64.948 Y8.006 Z-13.496
X-64.899 Y8.01 Z-13.498
X-64.85 Y8.016 Z-13.499
X-64.801 Y8.025 Z-13.501
X-64.752 Y8.036 Z-13.503
X-64.704 Y8.05 Z-13.505
X-64.656 Y8.066 Z-13.506
X-64.609 Y8.085 Z-13.508
X-64.561 Y8.107 Z-13.51
X-64.514 Y8.132 Z-13.512
X-64.508 Y8.135
X-64.484 Y8.149 Z-13.513
X-64.459 Y8.164 Z-13.514
X-64.411 Y8.198 Z-13.516
X-64.362 Y8.237 Z-13.518
X-64.313 Y8.28 Z-13.521
X-64.289 Y8.304 Z-13.522
X-64.266 Y8.327 Z-13.523
X-64.225 Y8.376 Z-13.525
X-64.188 Y8.425 Z-13.527
X-64.155 Y8.474 Z-13.529
X-64.126 Y8.523 Z-13.531
X-64.118 Y8.54 Z-13.532
X-64.096 Y8.585 Z-13.534
X-64.077 Y8.629 Z-13.535
X-64.06 Y8.674 Z-13.537
X-64.045 Y8.719 Z-13.539
X-64.032 Y8.768 Z-13.54
X-64.022 Y8.817 Z-13.542
X-64.014 Y8.866 Z-13.544
X-64.009 Y8.915 Z-13.546
X-64.006 Y8.963 Z-13.547
X-64.005 Y9.012 Z-13.549
X-64.007 Y9.061 Z-13.551
X-64.011 Y9.11 Z-13.552
X-64.018 Y9.159 Z-13.554
X-64.027 Y9.208 Z-13.556
X-64.039 Y9.257 Z-13.558
X-64.053 Y9.306 Z-13.559
X-64.081 Y9.383 Z-13.562
X-64.099 Y9.422 Z-13.564
X-64.118 Y9.46 Z-13.565
X-64.141 Y9.502 Z-13.567
X-64.171 Y9.551 Z-13.569
X-64.206 Y9.6 Z-13.571
X-64.225 Y9.624 Z-13.572
X-64.245 Y9.649 Z-13.573
X-64.29 Y9.697 Z-13.576
X-64.313 Y9.72 Z-13.577
X-64.362 Y9.763 Z-13.579
X-64.411 Y9.802 Z-13.581
X-64.459 Y9.836 Z-13.583
X-64.484 Y9.851 Z-13.584
X-64.508 Y9.865 Z-13.585
X-64.561 Y9.893 Z-13.587
X-64.633 Y9.925 Z-13.59
X-64.668 Y9.938 Z-13.591
X-64.704 Y9.95 Z-13.593
X-64.752 Y9.964 Z-13.594
X-64.801 Y9.975 Z-13.596
X-64.85 Y9.984 Z-13.598
X-64.899 Y9.99 Z-13.6
X-64.948 Y9.994 Z-13.601
X-64.996 Y9.995 Z-13.603
X-65.045 Y9.994 Z-13.605
X-65.094 Y9.991 Z-13.607
X-65.143 Y9.985 Z-13.608
X-65.192 Y9.976 Z-13.61
X-65.241 Y9.966 Z-13.612
X-65.289 Y9.952 Z-13.613
X-65.327 Y9.94 Z-13.615
X-65.364 Y9.926 Z-13.616
X-65.439 Y9.893 Z-13.619
X-65.485 Y9.869 Z-13.621
X-65.533 Y9.84 Z-13.623
X-65.558 Y9.824 Z-13.624
X-65.582 Y9.807 Z-13.625
X-65.631 Y9.769 Z-13.627
X-65.68 Y9.726 Z-13.629
X-65.71 Y9.697 Z-13.631
X-65.755 Y9.649 Z-13.633
X-65.775 Y9.624 Z-13.634
X-65.794 Y9.6 Z-13.635
X-65.829 Y9.551 Z-13.637
X-65.859 Y9.502 Z-13.639
X-65.875 Y9.474 Z-13.641
X-65.916 Y9.39 Z-13.644
X-65.932 Y9.348 Z-13.645
X-65.947 Y9.306 Z-13.647
X-65.961 Y9.257 Z-13.649
X-65.973 Y9.208 Z-13.65
X-65.982 Y9.159 Z-13.652
X-65.989 Y9.11 Z-13.654
X-65.993 Y9.061 Z-13.656
X-65.995 Y9.012 Z-13.657
X-65.994 Y8.963 Z-13.659
X-65.991 Y8.915 Z-13.661
X-65.986 Y8.866 Z-13.663
X-65.978 Y8.817 Z-13.664
X-65.968 Y8.768 Z-13.666
X-65.955 Y8.719 Z-13.668
X-65.939 Y8.671 Z-13.67
X-65.921 Y8.622 Z-13.671
X-65.9 Y8.574 Z-13.673
X-65.875 Y8.526 Z-13.675
X-65.874 Y8.523
X-65.845 Y8.474 Z-13.677
X-65.812 Y8.425 Z-13.679
X-65.775 Y8.376 Z-13.681
X-65.734 Y8.327 Z-13.684
X-65.708 Y8.3 Z-13.685
X-65.68 Y8.274 Z-13.686
X-65.631 Y8.231 Z-13.688
X-65.583 Y8.193 Z-13.691
X-65.559 Y8.177 Z-13.692
X-65.534 Y8.161 Z-13.693
X-65.486 Y8.132 Z-13.695
X-65.485 Y8.131
X-65.436 Y8.105 Z-13.697
X-65.387 Y8.083 Z-13.698
X-65.338 Y8.064 Z-13.7
X-65.289 Y8.048 Z-13.702
X-65.241 Y8.034 Z-13.704
X-65.192 Y8.024 Z-13.706
X-65.143 Y8.015 Z-13.707
X-65.094 Y8.009 Z-13.709
X-65.045 Y8.006 Z-13.711
X-64.996 Y8.005 Z-13.712
X-64.948 Y8.006 Z-13.714
X-64.899 Y8.01 Z-13.716
X-64.85 Y8.016 Z-13.718
X-64.801 Y8.025 Z-13.719
X-64.752 Y8.036 Z-13.721
X-64.704 Y8.05 Z-13.723
X-64.656 Y8.066 Z-13.725
X-64.609 Y8.085 Z-13.726
X-64.561 Y8.107 Z-13.728
X-64.514 Y8.132 Z-13.73
X-64.508 Y8.135
X-64.484 Y8.149 Z-13.731
X-64.459 Y8.164 Z-13.732
X-64.411 Y8.198 Z-13.734
X-64.362 Y8.237 Z-13.737
X-64.313 Y8.28 Z-13.739
X-64.289 Y8.304 Z-13.74
X-64.266 Y8.327 Z-13.741
X-64.225 Y8.376 Z-13.743
X-64.188 Y8.425 Z-13.746
X-64.155 Y8.474 Z-13.748
X-64.126 Y8.523 Z-13.75
X-64.118 Y8.54
X-64.096 Y8.585 Z-13.752
X-64.077 Y8.629 Z-13.754
X-64.06 Y8.674 Z-13.755
X-64.045 Y8.719 Z-13.757
X-64.032 Y8.768 Z-13.759
X-64.022 Y8.817 Z-13.761
X-64.014 Y8.866 Z-13.762
X-64.009 Y8.915 Z-13.764
X-64.006 Y8.963 Z-13.766
X-64.005 Y9.012 Z-13.767
X-64.007 Y9.061 Z-13.769
X-64.011 Y9.11 Z-13.771
X-64.018 Y9.159 Z-13.773
X-64.027 Y9.208 Z-13.774
X-64.039 Y9.257 Z-13.776
X-64.053 Y9.306 Z-13.778
X-64.081 Y9.383 Z-13.781
X-64.099 Y9.422 Z-13.782
X-64.118 Y9.46 Z-13.784
X-64.141 Y9.502 Z-13.785
X-64.171 Y9.551 Z-13.787
X-64.206 Y9.6 Z-13.789
X-64.225 Y9.624 Z-13.791
X-64.245 Y9.649 Z-13.792
X-64.29 Y9.697 Z-13.794
X-64.313 Y9.72 Z-13.795
X-64.362 Y9.763 Z-13.797
X-64.411 Y9.802 Z-13.8
X-64.459 Y9.836 Z-13.802
X-64.484 Y9.851 Z-13.803
X-64.508 Y9.865 Z-13.804
X-64.561 Y9.893 Z-13.806
X-64.633 Y9.925 Z-13.808
X-64.668 Y9.938 Z-13.81
X-64.704 Y9.95 Z-13.811
X-64.752 Y9.964 Z-13.813
X-64.801 Y9.975 Z-13.815
X-64.85 Y9.984 Z-13.816
X-64.899 Y9.99 Z-13.818
X-64.948 Y9.994 Z-13.82
X-64.996 Y9.995 Z-13.821
X-65.045 Y9.994 Z-13.823
X-65.094 Y9.991 Z-13.825
X-65.143 Y9.985 Z-13.827
X-65.192 Y9.976 Z-13.828
X-65.241 Y9.966 Z-13.83
X-65.289 Y9.952 Z-13.832
X-65.327 Y9.94 Z-13.833
X-65.364 Y9.926 Z-13.835
X-65.439 Y9.893 Z-13.837
X-65.485 Y9.869 Z-13.839
X-65.533 Y9.84 Z-13.841
X-65.558 Y9.824 Z-13.842
X-65.582 Y9.807 Z-13.843
X-65.631 Y9.769 Z-13.845
X-65.68 Y9.726 Z-13.848
X-65.71 Y9.697 Z-13.849
X-65.755 Y9.649 Z-13.851
X-65.775 Y9.624 Z-13.853
X-65.794 Y9.6 Z-13.854
X-65.829 Y9.551 Z-13.856
X-65.859 Y9.502 Z-13.858
X-65.875 Y9.474 Z-13.859
X-65.916 Y9.39 Z-13.862
X-65.932 Y9.348 Z-13.864
X-65.947 Y9.306 Z-13.865
X-65.961 Y9.257 Z-13.867
X-65.973 Y9.208 Z-13.869
X-65.982 Y9.159 Z-13.871
X-65.989 Y9.11 Z-13.872
X-65.993 Y9.061 Z-13.874
X-65.995 Y9.012 Z-13.876
X-65.994 Y8.963 Z-13.877
X-65.991 Y8.915 Z-13.879
X-65.986 Y8.866 Z-13.881
X-65.978 Y8.817 Z-13.883
X-65.968 Y8.768 Z-13.884
X-65.955 Y8.719 Z-13.886
X-65.939 Y8.671 Z-13.888
X-65.921 Y8.622 Z-13.89
X-65.9 Y8.574 Z-13.891
X-65.875 Y8.526 Z-13.893
X-65.874 Y8.523
X-65.845 Y8.474 Z-13.895
X-65.812 Y8.425 Z-13.898
X-65.775 Y8.376 Z-13.9
X-65.734 Y8.327 Z-13.902
X-65.708 Y8.3 Z-13.903
X-65.68 Y8.274 Z-13.905
X-65.631 Y8.231 Z-13.907
X-65.583 Y8.193 Z-13.909
X-65.559 Y8.177 Z-13.91
X-65.534 Y8.161 Z-13.911
X-65.486 Y8.132 Z-13.913
X-65.485 Y8.131
X-65.436 Y8.105 Z-13.915
X-65.387 Y8.083 Z-13.917
X-65.338 Y8.064 Z-13.919
X-65.289 Y8.048 Z-13.92
X-65.241 Y8.034 Z-13.922
X-65.192 Y8.024 Z-13.924
X-65.143 Y8.015 Z-13.926
X-65.094 Y8.009 Z-13.927
X-65.045 Y8.006 Z-13.929
X-64.996 Y8.005 Z-13.931
X-64.948 Y8.006 Z-13.933
X-64.899 Y8.01 Z-13.934
X-64.85 Y8.016 Z-13.936
X-64.801 Y8.025 Z-13.938
X-64.752 Y8.036 Z-13.939
X-64.704 Y8.05 Z-13.941
X-64.656 Y8.066 Z-13.943
X-64.609 Y8.085 Z-13.945
X-64.561 Y8.107 Z-13.947
X-64.514 Y8.132 Z-13.948
X-64.508 Y8.135 Z-13.949
X-64.484 Y8.149 Z-13.95
X-64.459 Y8.164 Z-13.951
X-64.411 Y8.198 Z-13.953
X-64.362 Y8.237 Z-13.955
X-64.313 Y8.28 Z-13.957
X-64.289 Y8.304 Z-13.958
X-64.266 Y8.327 Z-13.959
X-64.225 Y8.376 Z-13.962
X-64.188 Y8.425 Z-13.964
X-64.155 Y8.474 Z-13.966
X-64.126 Y8.523 Z-13.968
X-64.118 Y8.54 Z-13.969
X-64.096 Y8.585 Z-13.97
X-64.077 Y8.629 Z-13.972
X-64.06 Y8.674 Z-13.974
X-64.045 Y8.719 Z-13.975
X-64.032 Y8.768 Z-13.977
X-64.022 Y8.817 Z-13.979
X-64.014 Y8.866 Z-13.981
X-64.009 Y8.915 Z-13.982
X-64.006 Y8.963 Z-13.984
X-64.005 Y9.012 Z-13.986
X-64.007 Y9.061 Z-13.987
X-64.011 Y9.11 Z-13.989
X-64.018 Y9.159 Z-13.991
X-64.027 Y9.208 Z-13.993
X-64.039 Y9.257 Z-13.994
X-64.053 Y9.306 Z-13.996
X-64.081 Y9.383 Z-13.999
X-64.089 Y9.4 Z-14.
X-64.097 Y9.419
X-64.099 Y9.422 F500.
X-64.118 Y9.46
X-64.141 Y9.502
X-64.171 Y9.551
X-64.206 Y9.6
X-64.225 Y9.624
X-64.245 Y9.649
X-64.29 Y9.697
X-64.313 Y9.72
X-64.362 Y9.763
X-64.411 Y9.802
X-64.459 Y9.836
X-64.484 Y9.851
X-64.508 Y9.865
X-64.561 Y9.893
X-64.633 Y9.925
X-64.668 Y9.938
X-64.704 Y9.95
X-64.752 Y9.964
X-64.801 Y9.975
X-64.85 Y9.984
X-64.899 Y9.99
X-64.948 Y9.994
X-64.996 Y9.995
X-65.045 Y9.994
X-65.094 Y9.991
X-65.143 Y9.985
X-65.192 Y9.976
X-65.241 Y9.966
X-65.289 Y9.952
X-65.327 Y9.94
X-65.364 Y9.926
X-65.439 Y9.893
X-65.485 Y9.869
X-65.533 Y9.84
X-65.558 Y9.824
X-65.582 Y9.807
X-65.631 Y9.769
X-65.68 Y9.726
X-65.71 Y9.697
X-65.755 Y9.649
X-65.775 Y9.624
X-65.794 Y9.6
X-65.829 Y9.551
X-65.859 Y9.502
X-65.875 Y9.474
X-65.916 Y9.39
X-65.932 Y9.348
X-65.947 Y9.306
X-65.961 Y9.257
X-65.973 Y9.208
X-65.982 Y9.159
X-65.989 Y9.11
X-65.993 Y9.061
X-65.995 Y9.012
X-65.994 Y8.963
X-65.991 Y8.915
X-65.986 Y8.866
X-65.978 Y8.817
X-65.968 Y8.768
X-65.955 Y8.719
X-65.939 Y8.671
X-65.921 Y8.622
X-65.9 Y8.574
X-65.875 Y8.526
X-65.874 Y8.523
X-65.845 Y8.474
X-65.812 Y8.425
X-65.775 Y8.376
X-65.734 Y8.327
X-65.708 Y8.3
X-65.68 Y8.274
X-65.631 Y8.231
X-65.583 Y8.193
X-65.559 Y8.177
X-65.534 Y8.161
X-65.486 Y8.132
X-65.485 Y8.131
X-65.436 Y8.105
X-65.387 Y8.083
X-65.338 Y8.064
X-65.289 Y8.048
X-65.241 Y8.034
X-65.192 Y8.024
X-65.143 Y8.015
X-65.094 Y8.009
X-65.045 Y8.006
X-64.996 Y8.005
X-64.948 Y8.006
X-64.899 Y8.01
X-64.85 Y8.016
X-64.801 Y8.025
X-64.752 Y8.036
X-64.704 Y8.05
X-64.656 Y8.066
X-64.609 Y8.085
X-64.561 Y8.107
X-64.514 Y8.132
X-64.508 Y8.135
X-64.484 Y8.149
X-64.459 Y8.164
X-64.411 Y8.198
X-64.362 Y8.237
X-64.313 Y8.28
X-64.289 Y8.304
X-64.266 Y8.327
X-64.225 Y8.376
X-64.188 Y8.425
X-64.155 Y8.474
X-64.126 Y8.523
X-64.118 Y8.54
X-64.096 Y8.585
X-64.077 Y8.629
X-64.06 Y8.674
X-64.045 Y8.719
X-64.032 Y8.768
X-64.022 Y8.817
X-64.014 Y8.866
X-64.009 Y8.915
X-64.006 Y8.963
X-64.005 Y9.012
X-64.007 Y9.061
X-64.011 Y9.11
X-64.018 Y9.159
X-64.027 Y9.208
X-64.039 Y9.257
X-64.053 Y9.306
X-64.081 Y9.383
X-64.097 Y9.419
X-64.099 Y9.422 F167.
X-64.107 Y9.438
X-64.118 Y9.46 Z-14.001
X-64.141 Y9.502 Z-14.003
X-64.171 Y9.551 Z-14.005
X-64.206 Y9.6 Z-14.007
X-64.225 Y9.624 Z-14.008
X-64.245 Y9.649 Z-14.009
X-64.29 Y9.697 Z-14.012
X-64.313 Y9.72 Z-14.013
X-64.362 Y9.763 Z-14.015
