(4.HOLES2)
(T2  D=3. CR=0. - ZMIN=-17. - FLAT END MILL)
G0 G90 G94 G17
G21
G53 Z0.

(HOLES2)
M5
M9
T2
(PART OF A 10 PACK CARBIDE)
M3 S18000
G54
M9
G0 X-60.803 Y53.917
Z2.
G1 Z0.294 F250.
X-60.804 Y53.916 Z0.27
X-60.808 Y53.912 Z0.247
X-60.815 Y53.904 Z0.225
G3 X-60.822 Y53.894 Z0.205 I0.112 J-0.09
X-60.831 Y53.88 Z0.188 I0.12 J-0.08
X-60.838 Y53.863 Z0.173 I0.128 J-0.066
X-60.844 Y53.842 Z0.162 I0.136 J-0.048
X-60.846 Y53.82 Z0.154 I0.141 J-0.028
X-60.845 Y53.796 Z0.15 I0.144 J-0.005
G1 X-60.844 Y53.79
G3 X-60.56 Y53.838 Z0.134 I0.142 J0.024
X-60.844 Y53.79 Z0.118 I-0.142 J-0.024
X-60.56 Y53.838 Z0.103 I0.142 J0.024
X-60.844 Y53.79 Z0.087 I-0.142 J-0.024
X-60.56 Y53.838 Z0.071 I0.142 J0.024
X-60.844 Y53.79 Z0.055 I-0.142 J-0.024
X-60.56 Y53.838 Z0.039 I0.142 J0.024
X-60.844 Y53.79 Z0.024 I-0.142 J-0.024
X-60.56 Y53.838 Z0.008 I0.142 J0.024
X-60.844 Y53.79 Z-0.008 I-0.142 J-0.024
X-60.56 Y53.838 Z-0.024 I0.142 J0.024
X-60.844 Y53.79 Z-0.039 I-0.142 J-0.024
X-60.56 Y53.838 Z-0.055 I0.142 J0.024
X-60.844 Y53.79 Z-0.071 I-0.142 J-0.024
X-60.56 Y53.838 Z-0.087 I0.142 J0.024
X-60.844 Y53.79 Z-0.103 I-0.142 J-0.024
X-60.56 Y53.838 Z-0.118 I0.142 J0.024
X-60.844 Y53.79 Z-0.134 I-0.142 J-0.024
X-60.56 Y53.838 Z-0.15 I0.142 J0.024
X-60.844 Y53.79 Z-0.166 I-0.142 J-0.024
X-60.56 Y53.838 Z-0.182 I0.142 J0.024
X-60.844 Y53.79 Z-0.197 I-0.142 J-0.024
X-60.56 Y53.838 Z-0.213 I0.142 J0.024
X-60.844 Y53.79 Z-0.229 I-0.142 J-0.024
X-60.56 Y53.838 Z-0.245 I0.142 J0.024
X-60.844 Y53.79 Z-0.261 I-0.142 J-0.024
X-60.56 Y53.838 Z-0.276 I0.142 J0.024
X-60.844 Y53.79 Z-0.292 I-0.142 J-0.024
X-60.56 Y53.838 Z-0.308 I0.142 J0.024
X-60.844 Y53.79 Z-0.324 I-0.142 J-0.024
X-60.56 Y53.838 Z-0.34 I0.142 J0.024
X-60.844 Y53.79 Z-0.355 I-0.142 J-0.024
X-60.56 Y53.838 Z-0.371 I0.142 J0.024
X-60.844 Y53.79 Z-0.387 I-0.142 J-0.024
X-60.56 Y53.838 Z-0.403 I0.142 J0.024
X-60.844 Y53.79 Z-0.418 I-0.142 J-0.024
X-60.56 Y53.838 Z-0.434 I0.142 J0.024
X-60.844 Y53.79 Z-0.45 I-0.142 J-0.024
X-60.56 Y53.838 Z-0.466 I0.142 J0.024
X-60.844 Y53.79 Z-0.482 I-0.142 J-0.024
X-60.56 Y53.838 Z-0.497 I0.142 J0.024
X-60.844 Y53.79 Z-0.513 I-0.142 J-0.024
X-60.56 Y53.838 Z-0.529 I0.142 J0.024
X-60.844 Y53.79 Z-0.545 I-0.142 J-0.024
X-60.56 Y53.838 Z-0.561 I0.142 J0.024
X-60.844 Y53.79 Z-0.576 I-0.142 J-0.024
X-60.56 Y53.838 Z-0.592 I0.142 J0.024
X-60.844 Y53.79 Z-0.608 I-0.142 J-0.024
X-60.56 Y53.838 Z-0.624 I0.142 J0.024
X-60.844 Y53.79 Z-0.64 I-0.142 J-0.024
X-60.56 Y53.838 Z-0.655 I0.142 J0.024
X-60.844 Y53.79 Z-0.671 I-0.142 J-0.024
X-60.56 Y53.838 Z-0.687 I0.142 J0.024
X-60.844 Y53.79 Z-0.703 I-0.142 J-0.024
X-60.56 Y53.838 Z-0.719 I0.142 J0.024
X-60.844 Y53.79 Z-0.734 I-0.142 J-0.024
X-60.56 Y53.838 Z-0.75 I0.142 J0.024
X-60.844 Y53.79 Z-0.766 I-0.142 J-0.024
X-60.56 Y53.838 Z-0.782 I0.142 J0.024
X-60.844 Y53.79 Z-0.797 I-0.142 J-0.024
X-60.56 Y53.838 Z-0.813 I0.142 J0.024
X-60.844 Y53.79 Z-0.829 I-0.142 J-0.024
X-60.56 Y53.838 Z-0.845 I0.142 J0.024
X-60.844 Y53.79 Z-0.861 I-0.142 J-0.024
X-60.56 Y53.838 Z-0.876 I0.142 J0.024
X-60.844 Y53.79 Z-0.892 I-0.142 J-0.024
X-60.56 Y53.838 Z-0.908 I0.142 J0.024
X-60.844 Y53.79 Z-0.924 I-0.142 J-0.024
X-60.56 Y53.838 Z-0.94 I0.142 J0.024
X-60.844 Y53.79 Z-0.955 I-0.142 J-0.024
X-60.56 Y53.838 Z-0.971 I0.142 J0.024
X-60.844 Y53.79 Z-0.987 I-0.142 J-0.024
X-60.56 Y53.838 Z-1.003 I0.142 J0.024
X-60.844 Y53.79 Z-1.019 I-0.142 J-0.024
X-60.56 Y53.838 Z-1.034 I0.142 J0.024
X-60.844 Y53.79 Z-1.05 I-0.142 J-0.024
X-60.56 Y53.838 Z-1.066 I0.142 J0.024
X-60.844 Y53.79 Z-1.082 I-0.142 J-0.024
X-60.56 Y53.838 Z-1.097 I0.142 J0.024
X-60.844 Y53.79 Z-1.113 I-0.142 J-0.024
X-60.56 Y53.838 Z-1.129 I0.142 J0.024
X-60.844 Y53.79 Z-1.145 I-0.142 J-0.024
X-60.56 Y53.838 Z-1.161 I0.142 J0.024
X-60.844 Y53.79 Z-1.176 I-0.142 J-0.024
X-60.56 Y53.838 Z-1.192 I0.142 J0.024
X-60.844 Y53.79 Z-1.208 I-0.142 J-0.024
X-60.56 Y53.838 Z-1.224 I0.142 J0.024
X-60.844 Y53.79 Z-1.24 I-0.142 J-0.024
X-60.56 Y53.838 Z-1.255 I0.142 J0.024
X-60.844 Y53.79 Z-1.271 I-0.142 J-0.024
X-60.56 Y53.838 Z-1.287 I0.142 J0.024
X-60.844 Y53.79 Z-1.303 I-0.142 J-0.024
X-60.56 Y53.838 Z-1.319 I0.142 J0.024
X-60.844 Y53.79 Z-1.334 I-0.142 J-0.024
X-60.56 Y53.838 Z-1.35 I0.142 J0.024
X-60.844 Y53.79 Z-1.366 I-0.142 J-0.024
X-60.56 Y53.838 Z-1.382 I0.142 J0.024
X-60.844 Y53.79 Z-1.398 I-0.142 J-0.024
X-60.56 Y53.838 Z-1.413 I0.142 J0.024
X-60.844 Y53.79 Z-1.429 I-0.142 J-0.024
X-60.56 Y53.838 Z-1.445 I0.142 J0.024
X-60.844 Y53.79 Z-1.461 I-0.142 J-0.024
X-60.56 Y53.838 Z-1.476 I0.142 J0.024
X-60.844 Y53.79 Z-1.492 I-0.142 J-0.024
X-60.56 Y53.838 Z-1.508 I0.142 J0.024
X-60.844 Y53.79 Z-1.524 I-0.142 J-0.024
X-60.56 Y53.838 Z-1.54 I0.142 J0.024
X-60.844 Y53.79 Z-1.555 I-0.142 J-0.024
X-60.56 Y53.838 Z-1.571 I0.142 J0.024
X-60.844 Y53.79 Z-1.587 I-0.142 J-0.024
X-60.56 Y53.838 Z-1.603 I0.142 J0.024
X-60.844 Y53.79 Z-1.619 I-0.142 J-0.024
X-60.56 Y53.838 Z-1.634 I0.142 J0.024
X-60.844 Y53.79 Z-1.65 I-0.142 J-0.024
X-60.56 Y53.838 Z-1.666 I0.142 J0.024
X-60.844 Y53.79 Z-1.682 I-0.142 J-0.024
X-60.56 Y53.838 Z-1.698 I0.142 J0.024
X-60.844 Y53.79 Z-1.713 I-0.142 J-0.024
X-60.56 Y53.838 Z-1.729 I0.142 J0.024
X-60.844 Y53.79 Z-1.745 I-0.142 J-0.024
X-60.56 Y53.838 Z-1.761 I0.142 J0.024
X-60.844 Y53.79 Z-1.776 I-0.142 J-0.024
X-60.56 Y53.838 Z-1.792 I0.142 J0.024
X-60.844 Y53.79 Z-1.808 I-0.142 J-0.024
X-60.56 Y53.838 Z-1.824 I0.142 J0.024
X-60.844 Y53.79 Z-1.84 I-0.142 J-0.024
X-60.56 Y53.838 Z-1.855 I0.142 J0.024
X-60.844 Y53.79 Z-1.871 I-0.142 J-0.024
X-60.56 Y53.838 Z-1.887 I0.142 J0.024
X-60.844 Y53.79 Z-1.903 I-0.142 J-0.024
X-60.56 Y53.838 Z-1.919 I0.142 J0.024
X-60.844 Y53.79 Z-1.934 I-0.142 J-0.024
X-60.56 Y53.838 Z-1.95 I0.142 J0.024
X-60.844 Y53.79 Z-1.966 I-0.142 J-0.024
X-60.56 Y53.838 Z-1.982 I0.142 J0.024
X-60.844 Y53.79 Z-1.998 I-0.142 J-0.024
X-60.56 Y53.838 Z-2.013 I0.142 J0.024
X-60.844 Y53.79 Z-2.029 I-0.142 J-0.024
X-60.56 Y53.838 Z-2.045 I0.142 J0.024
X-60.844 Y53.79 Z-2.061 I-0.142 J-0.024
X-60.56 Y53.838 Z-2.077 I0.142 J0.024
X-60.844 Y53.79 Z-2.092 I-0.142 J-0.024
X-60.56 Y53.838 Z-2.108 I0.142 J0.024
X-60.844 Y53.79 Z-2.124 I-0.142 J-0.024
X-60.56 Y53.838 Z-2.14 I0.142 J0.024
X-60.844 Y53.79 Z-2.155 I-0.142 J-0.024
X-60.56 Y53.838 Z-2.171 I0.142 J0.024
X-60.844 Y53.79 Z-2.187 I-0.142 J-0.024
X-60.56 Y53.838 Z-2.203 I0.142 J0.024
X-60.844 Y53.79 Z-2.219 I-0.142 J-0.024
X-60.56 Y53.838 Z-2.234 I0.142 J0.024
X-60.844 Y53.79 Z-2.25 I-0.142 J-0.024
X-60.56 Y53.838 Z-2.266 I0.142 J0.024
X-60.844 Y53.79 Z-2.282 I-0.142 J-0.024
X-60.56 Y53.838 Z-2.298 I0.142 J0.024
X-60.844 Y53.79 Z-2.313 I-0.142 J-0.024
X-60.56 Y53.838 Z-2.329 I0.142 J0.024
X-60.844 Y53.79 Z-2.345 I-0.142 J-0.024
X-60.56 Y53.838 Z-2.361 I0.142 J0.024
X-60.844 Y53.79 Z-2.377 I-0.142 J-0.024
X-60.56 Y53.838 Z-2.392 I0.142 J0.024
X-60.844 Y53.79 Z-2.408 I-0.142 J-0.024
X-60.56 Y53.838 Z-2.424 I0.142 J0.024
X-60.844 Y53.79 Z-2.44 I-0.142 J-0.024
X-60.56 Y53.838 Z-2.456 I0.142 J0.024
X-60.844 Y53.79 Z-2.471 I-0.142 J-0.024
X-60.56 Y53.838 Z-2.487 I0.142 J0.024
X-60.844 Y53.79 Z-2.503 I-0.142 J-0.024
X-60.56 Y53.838 Z-2.519 I0.142 J0.024
X-60.844 Y53.79 Z-2.534 I-0.142 J-0.024
X-60.56 Y53.838 Z-2.55 I0.142 J0.024
X-60.844 Y53.79 Z-2.566 I-0.142 J-0.024
X-60.56 Y53.838 Z-2.582 I0.142 J0.024
X-60.844 Y53.79 Z-2.598 I-0.142 J-0.024
X-60.56 Y53.838 Z-2.613 I0.142 J0.024
X-60.844 Y53.79 Z-2.629 I-0.142 J-0.024
X-60.56 Y53.838 Z-2.645 I0.142 J0.024
X-60.844 Y53.79 Z-2.661 I-0.142 J-0.024
X-60.56 Y53.838 Z-2.677 I0.142 J0.024
X-60.844 Y53.79 Z-2.692 I-0.142 J-0.024
X-60.56 Y53.838 Z-2.708 I0.142 J0.024
X-60.844 Y53.79 Z-2.724 I-0.142 J-0.024
X-60.56 Y53.838 Z-2.74 I0.142 J0.024
X-60.844 Y53.79 Z-2.756 I-0.142 J-0.024
X-60.56 Y53.838 Z-2.771 I0.142 J0.024
X-60.844 Y53.79 Z-2.787 I-0.142 J-0.024
X-60.56 Y53.838 Z-2.803 I0.142 J0.024
X-60.844 Y53.79 Z-2.819 I-0.142 J-0.024
X-60.56 Y53.838 Z-2.834 I0.142 J0.024
X-60.844 Y53.79 Z-2.85 I-0.142 J-0.024
X-60.56 Y53.838 Z-2.866 I0.142 J0.024
X-60.844 Y53.79 Z-2.882 I-0.142 J-0.024
X-60.56 Y53.838 Z-2.898 I0.142 J0.024
X-60.844 Y53.79 Z-2.913 I-0.142 J-0.024
X-60.56 Y53.838 Z-2.929 I0.142 J0.024
X-60.844 Y53.79 Z-2.945 I-0.142 J-0.024
X-60.56 Y53.838 Z-2.961 I0.142 J0.024
X-60.844 Y53.79 Z-2.977 I-0.142 J-0.024
X-60.56 Y53.838 Z-2.992 I0.142 J0.024
X-60.715 Y53.958 Z-3. I-0.142 J-0.024
G1 X-60.72 Y53.957
G3 X-60.98 Y53.622 I0.038 J-0.298
G1 Y53.615
X-60.979 Y53.613
X-60.948 Y53.492
X-60.903 Y53.378
X-60.902 Y53.375
X-60.842 Y53.267
X-60.841 Y53.265
X-60.768 Y53.165
X-60.767 Y53.163
X-60.684 Y53.075
X-60.682 Y53.072
X-60.588 Y52.995
X-60.586 Y52.993
X-60.482 Y52.927
X-60.48 Y52.926
X-60.368 Y52.873
X-60.366
X-60.248 Y52.834
X-60.246
X-60.126 Y52.811
X-60.124
X-60.001 Y52.803
X-59.999
X-59.876 Y52.811
X-59.875
X-59.753 Y52.834
X-59.751
X-59.635 Y52.872
X-59.633 Y52.873
X-59.522 Y52.925
X-59.52 Y52.926
X-59.415 Y52.993
X-59.413 Y52.995
X-59.319 Y53.072
X-59.317 Y53.074
X-59.233 Y53.163
X-59.231 Y53.165
X-59.158 Y53.265
X-59.157 Y53.268
X-59.098 Y53.375
X-59.097 Y53.377
X-59.052 Y53.492
X-59.051 Y53.494
X-59.021 Y53.613
X-59.02 Y53.615
X-59.005 Y53.736
Y53.738
Y53.861
Y53.863
X-59.02 Y53.986
X-59.021 Y53.988
X-59.051 Y54.107
X-59.052 Y54.109
X-59.097 Y54.223
X-59.098 Y54.225
X-59.158 Y54.333
X-59.159 Y54.335
X-59.232 Y54.435
X-59.233 Y54.437
X-59.317 Y54.526
X-59.319 Y54.528
X-59.414 Y54.606
X-59.415 Y54.607
X-59.518 Y54.673
X-59.52 Y54.674
X-59.632 Y54.727
X-59.634
X-59.751 Y54.765
X-59.753 Y54.766
X-59.874 Y54.789
X-59.876
X-59.999 Y54.797
X-60.001
X-60.124 Y54.789
X-60.126
X-60.247 Y54.766
X-60.249 Y54.765
X-60.367 Y54.727
X-60.369 Y54.726
X-60.48 Y54.674
X-60.482 Y54.672
X-60.585 Y54.607
X-60.587 Y54.605
X-60.682 Y54.527
X-60.684 Y54.525
X-60.767 Y54.437
X-60.769 Y54.434
X-60.841 Y54.335
X-60.842 Y54.333
X-60.901 Y54.226
X-60.902 Y54.224
X-60.948 Y54.109
X-60.949 Y54.107
X-60.979 Y53.987
Y53.986
X-60.995 Y53.863
Y53.861
Y53.738
Y53.736
X-60.98 Y53.622
Y53.615 F83.
X-60.979 Y53.613
Y53.612
X-60.948 Y53.492 Z-3.004
X-60.903 Y53.378 Z-3.009
X-60.902 Y53.375
X-60.842 Y53.267 Z-3.013
X-60.841 Y53.265
X-60.768 Y53.165 Z-3.018
X-60.767 Y53.163
X-60.684 Y53.075 Z-3.022
X-60.682 Y53.072
X-60.588 Y52.995 Z-3.026
X-60.586 Y52.993
X-60.482 Y52.927 Z-3.031
X-60.48 Y52.926
X-60.368 Y52.873 Z-3.035
X-60.366
X-60.248 Y52.834 Z-3.039
X-60.246 Z-3.04
X-60.126 Y52.811 Z-3.044
X-60.124
X-60.001 Y52.803 Z-3.048
X-59.999
X-59.876 Y52.811 Z-3.053
X-59.875
X-59.753 Y52.834 Z-3.057
X-59.751
X-59.635 Y52.872 Z-3.061
X-59.633 Y52.873
X-59.522 Y52.925 Z-3.066
X-59.52 Y52.926
X-59.415 Y52.993 Z-3.07
X-59.413 Y52.995
X-59.319 Y53.072 Z-3.074
X-59.317 Y53.074
X-59.233 Y53.163 Z-3.079
X-59.231 Y53.165
X-59.158 Y53.265 Z-3.083
X-59.157 Y53.268
X-59.098 Y53.375 Z-3.088
X-59.097 Y53.377
X-59.052 Y53.492 Z-3.092
X-59.051 Y53.494
X-59.021 Y53.613 Z-3.096
X-59.02 Y53.615
X-59.005 Y53.736 Z-3.101
Y53.738
Y53.861 Z-3.105
Y53.863
X-59.02 Y53.986 Z-3.109
X-59.021 Y53.988
X-59.051 Y54.107 Z-3.114
X-59.052 Y54.109
X-59.097 Y54.223 Z-3.118
X-59.098 Y54.225
X-59.158 Y54.333 Z-3.122
X-59.159 Y54.335 Z-3.123
X-59.232 Y54.435 Z-3.127
X-59.233 Y54.437
X-59.317 Y54.526 Z-3.131
X-59.319 Y54.528
X-59.414 Y54.606 Z-3.136
X-59.415 Y54.607
X-59.518 Y54.673 Z-3.14
X-59.52 Y54.674
X-59.632 Y54.727 Z-3.144
X-59.634
X-59.751 Y54.765 Z-3.149
X-59.753 Y54.766
X-59.874 Y54.789 Z-3.153
X-59.876
X-59.999 Y54.797 Z-3.157
X-60.001 Z-3.158
X-60.124 Y54.789 Z-3.162
X-60.126
X-60.247 Y54.766 Z-3.166
X-60.249 Y54.765
X-60.367 Y54.727 Z-3.171
X-60.369 Y54.726
X-60.48 Y54.674 Z-3.175
X-60.482 Y54.672
X-60.585 Y54.607 Z-3.179
X-60.587 Y54.605
X-60.682 Y54.527 Z-3.184
X-60.684 Y54.525
X-60.767 Y54.437 Z-3.188
X-60.769 Y54.434
X-60.841 Y54.335 Z-3.192
X-60.842 Y54.333 Z-3.193
X-60.901 Y54.226 Z-3.197
X-60.902 Y54.224
X-60.948 Y54.109 Z-3.201
X-60.949 Y54.107
X-60.979 Y53.987 Z-3.206
Y53.986
X-60.995 Y53.863 Z-3.21
Y53.861
Y53.738 Z-3.214
Y53.736
X-60.98 Y53.615 Z-3.219
X-60.979 Y53.613
X-60.948 Y53.492 Z-3.223
X-60.903 Y53.378 Z-3.227
X-60.902 Y53.375
X-60.842 Y53.267 Z-3.232
X-60.841 Y53.265
X-60.768 Y53.165 Z-3.236
X-60.767 Y53.163
X-60.684 Y53.075 Z-3.241
X-60.682 Y53.072
X-60.588 Y52.995 Z-3.245
X-60.586 Y52.993
X-60.482 Y52.927 Z-3.249
X-60.48 Y52.926
X-60.368 Y52.873 Z-3.254
X-60.366
X-60.248 Y52.834 Z-3.258
X-60.246
X-60.126 Y52.811 Z-3.262
X-60.124
X-60.001 Y52.803 Z-3.267
X-59.999
X-59.876 Y52.811 Z-3.271
X-59.875
X-59.753 Y52.834 Z-3.276
X-59.751
X-59.635 Y52.872 Z-3.28
X-59.633 Y52.873
X-59.522 Y52.925 Z-3.284
X-59.52 Y52.926
X-59.415 Y52.993 Z-3.289
X-59.413 Y52.995
X-59.319 Y53.072 Z-3.293
X-59.317 Y53.074
X-59.233 Y53.163 Z-3.297
X-59.231 Y53.165
X-59.158 Y53.265 Z-3.302
X-59.157 Y53.268
X-59.098 Y53.375 Z-3.306
X-59.097 Y53.377
X-59.052 Y53.492 Z-3.311
X-59.051 Y53.494
X-59.021 Y53.613 Z-3.315
X-59.02 Y53.615
X-59.005 Y53.736 Z-3.319
Y53.738
Y53.861 Z-3.324
Y53.863
X-59.02 Y53.986 Z-3.328
X-59.021 Y53.988
X-59.051 Y54.107 Z-3.332
X-59.052 Y54.109
X-59.097 Y54.223 Z-3.337
X-59.098 Y54.225
X-59.158 Y54.333 Z-3.341
X-59.159 Y54.335
X-59.232 Y54.435 Z-3.346
X-59.233 Y54.437
X-59.317 Y54.526 Z-3.35
X-59.319 Y54.528
X-59.414 Y54.606 Z-3.354
X-59.415 Y54.607
X-59.518 Y54.673 Z-3.359
X-59.52 Y54.674
X-59.632 Y54.727 Z-3.363
X-59.634
X-59.751 Y54.765 Z-3.367
X-59.753 Y54.766
X-59.874 Y54.789 Z-3.372
X-59.876
X-59.999 Y54.797 Z-3.376
X-60.001
X-60.124 Y54.789 Z-3.38
X-60.126 Z-3.381
X-60.247 Y54.766 Z-3.385
X-60.249 Y54.765
X-60.367 Y54.727 Z-3.389
X-60.369 Y54.726
X-60.48 Y54.674 Z-3.394
X-60.482 Y54.672
X-60.585 Y54.607 Z-3.398
X-60.587 Y54.605
X-60.682 Y54.527 Z-3.402
X-60.684 Y54.525
X-60.767 Y54.437 Z-3.407
X-60.769 Y54.434
X-60.841 Y54.335 Z-3.411
X-60.842 Y54.333
X-60.901 Y54.226 Z-3.415
X-60.902 Y54.224
X-60.948 Y54.109 Z-3.42
X-60.949 Y54.107
X-60.979 Y53.987 Z-3.424
Y53.986
X-60.995 Y53.863 Z-3.429
Y53.861
Y53.738 Z-3.433
Y53.736
X-60.98 Y53.615 Z-3.437
X-60.979 Y53.613
X-60.948 Y53.492 Z-3.442
X-60.903 Y53.378 Z-3.446
X-60.902 Y53.375
X-60.842 Y53.267 Z-3.45
X-60.841 Y53.265 Z-3.451
X-60.768 Y53.165 Z-3.455
X-60.767 Y53.163
X-60.684 Y53.075 Z-3.459
X-60.682 Y53.072
X-60.588 Y52.995 Z-3.464
X-60.586 Y52.993
X-60.482 Y52.927 Z-3.468
X-60.48 Y52.926
X-60.368 Y52.873 Z-3.472
X-60.366
X-60.248 Y52.834 Z-3.477
X-60.246
X-60.126 Y52.811 Z-3.481
X-60.124
X-60.001 Y52.803 Z-3.485
X-59.999
X-59.876 Y52.811 Z-3.49
X-59.875
X-59.753 Y52.834 Z-3.494
X-59.751
X-59.635 Y52.872 Z-3.499
X-59.633 Y52.873
X-59.522 Y52.925 Z-3.503
X-59.52 Y52.926
X-59.415 Y52.993 Z-3.507
X-59.413 Y52.995
X-59.319 Y53.072 Z-3.512
X-59.317 Y53.074
X-59.233 Y53.163 Z-3.516
X-59.231 Y53.165
X-59.158 Y53.265 Z-3.52
X-59.157 Y53.268
X-59.098 Y53.375 Z-3.525
X-59.097 Y53.377
X-59.052 Y53.492 Z-3.529
X-59.051 Y53.494
X-59.021 Y53.613 Z-3.534
X-59.02 Y53.615
X-59.005 Y53.736 Z-3.538
Y53.738
Y53.861 Z-3.542
Y53.863
X-59.02 Y53.986 Z-3.547
X-59.021 Y53.988
X-59.051 Y54.107 Z-3.551
X-59.052 Y54.109
X-59.097 Y54.223 Z-3.555
X-59.098 Y54.225
X-59.158 Y54.333 Z-3.56
X-59.159 Y54.335
X-59.232 Y54.435 Z-3.564
X-59.233 Y54.437
X-59.317 Y54.526 Z-3.568
X-59.319 Y54.528 Z-3.569
X-59.414 Y54.606 Z-3.573
X-59.415 Y54.607
X-59.518 Y54.673 Z-3.577
X-59.52 Y54.674
X-59.632 Y54.727 Z-3.582
X-59.634
X-59.751 Y54.765 Z-3.586
X-59.753 Y54.766
X-59.874 Y54.789 Z-3.59
X-59.876
X-59.999 Y54.797 Z-3.595
X-60.001
X-60.124 Y54.789 Z-3.599
X-60.126
X-60.247 Y54.766 Z-3.603
X-60.249 Y54.765 Z-3.604
X-60.367 Y54.727 Z-3.608
X-60.369 Y54.726
X-60.48 Y54.674 Z-3.612
X-60.482 Y54.672
X-60.585 Y54.607 Z-3.617
X-60.587 Y54.605
X-60.682 Y54.527 Z-3.621
X-60.684 Y54.525
X-60.767 Y54.437 Z-3.625
X-60.769 Y54.434
X-60.841 Y54.335 Z-3.63
X-60.842 Y54.333
X-60.901 Y54.226 Z-3.634
X-60.902 Y54.224
X-60.948 Y54.109 Z-3.638
X-60.949 Y54.107 Z-3.639
X-60.979 Y53.987 Z-3.643
Y53.986
X-60.995 Y53.863 Z-3.647
Y53.861
Y53.738 Z-3.652
Y53.736
X-60.98 Y53.615 Z-3.656
X-60.979 Y53.613
X-60.948 Y53.492 Z-3.66
X-60.903 Y53.378 Z-3.665
X-60.902 Y53.375
X-60.842 Y53.267 Z-3.669
X-60.841 Y53.265
X-60.768 Y53.165 Z-3.673
X-60.767 Y53.163 Z-3.674
X-60.684 Y53.075 Z-3.678
X-60.682 Y53.072
X-60.588 Y52.995 Z-3.682
X-60.586 Y52.993
X-60.482 Y52.927 Z-3.687
X-60.48 Y52.926
X-60.368 Y52.873 Z-3.691
X-60.366
X-60.248 Y52.834 Z-3.695
X-60.246
X-60.126 Y52.811 Z-3.7
X-60.124
X-60.001 Y52.803 Z-3.704
X-59.999
X-59.876 Y52.811 Z-3.708
X-59.875
X-59.753 Y52.834 Z-3.713
X-59.751
X-59.635 Y52.872 Z-3.717
X-59.633 Y52.873
X-59.522 Y52.925 Z-3.721
X-59.52 Y52.926 Z-3.722
X-59.415 Y52.993 Z-3.726
X-59.413 Y52.995
X-59.319 Y53.072 Z-3.73
X-59.317 Y53.074
X-59.233 Y53.163 Z-3.735
X-59.231 Y53.165
X-59.158 Y53.265 Z-3.739
X-59.157 Y53.268
X-59.098 Y53.375 Z-3.743
X-59.097 Y53.377
X-59.052 Y53.492 Z-3.748
X-59.051 Y53.494
X-59.021 Y53.613 Z-3.752
X-59.02 Y53.615
X-59.005 Y53.736 Z-3.756
Y53.738 Z-3.757
Y53.861 Z-3.761
Y53.863
X-59.02 Y53.986 Z-3.765
X-59.021 Y53.988
X-59.051 Y54.107 Z-3.77
X-59.052 Y54.109
X-59.097 Y54.223 Z-3.774
X-59.098 Y54.225
X-59.158 Y54.333 Z-3.778
X-59.159 Y54.335
X-59.232 Y54.435 Z-3.783
X-59.233 Y54.437
X-59.317 Y54.526 Z-3.787
X-59.319 Y54.528
X-59.414 Y54.606 Z-3.791
X-59.415 Y54.607 Z-3.792
X-59.518 Y54.673 Z-3.796
X-59.52 Y54.674
X-59.632 Y54.727 Z-3.8
X-59.634
X-59.751 Y54.765 Z-3.805
X-59.753 Y54.766
X-59.874 Y54.789 Z-3.809
X-59.876
X-59.999 Y54.797 Z-3.813
X-60.001
X-60.124 Y54.789 Z-3.818
X-60.126
X-60.247 Y54.766 Z-3.822
X-60.249 Y54.765
X-60.367 Y54.727 Z-3.826
X-60.369 Y54.726 Z-3.827
X-60.48 Y54.674 Z-3.831
X-60.482 Y54.672
X-60.585 Y54.607 Z-3.835
X-60.587 Y54.605
X-60.682 Y54.527 Z-3.84
X-60.684 Y54.525
X-60.767 Y54.437 Z-3.844
X-60.769 Y54.434
X-60.841 Y54.335 Z-3.848
X-60.842 Y54.333
X-60.901 Y54.226 Z-3.853
X-60.902 Y54.224
X-60.948 Y54.109 Z-3.857
X-60.949 Y54.107
X-60.979 Y53.987 Z-3.861
Y53.986
X-60.995 Y53.863 Z-3.866
Y53.861
Y53.738 Z-3.87
Y53.736
X-60.98 Y53.615 Z-3.875
X-60.979 Y53.613
X-60.948 Y53.492 Z-3.879
X-60.903 Y53.378 Z-3.883
X-60.902 Y53.375
X-60.842 Y53.267 Z-3.888
X-60.841 Y53.265
X-60.768 Y53.165 Z-3.892
X-60.767 Y53.163
X-60.684 Y53.075 Z-3.896
X-60.682 Y53.072
X-60.588 Y52.995 Z-3.901
X-60.586 Y52.993
X-60.482 Y52.927 Z-3.905
X-60.48 Y52.926
X-60.368 Y52.873 Z-3.91
X-60.366
X-60.248 Y52.834 Z-3.914
X-60.246
X-60.126 Y52.811 Z-3.918
X-60.124
X-60.001 Y52.803 Z-3.923
X-59.999
X-59.876 Y52.811 Z-3.927
X-59.875
X-59.753 Y52.834 Z-3.931
X-59.751
X-59.635 Y52.872 Z-3.936
X-59.633 Y52.873
X-59.522 Y52.925 Z-3.94
X-59.52 Y52.926
X-59.415 Y52.993 Z-3.945
X-59.413 Y52.995
X-59.319 Y53.072 Z-3.949
X-59.317 Y53.074
X-59.233 Y53.163 Z-3.953
X-59.231 Y53.165
X-59.158 Y53.265 Z-3.958
X-59.157 Y53.268
X-59.098 Y53.375 Z-3.962
X-59.097 Y53.377
X-59.052 Y53.492 Z-3.966
X-59.051 Y53.494
X-59.021 Y53.613 Z-3.971
X-59.02 Y53.615
X-59.005 Y53.736 Z-3.975
Y53.738
Y53.861 Z-3.979
Y53.863 Z-3.98
X-59.02 Y53.986 Z-3.984
X-59.021 Y53.988
X-59.051 Y54.107 Z-3.988
X-59.052 Y54.109
X-59.097 Y54.223 Z-3.993
X-59.098 Y54.225
X-59.158 Y54.333 Z-3.997
X-59.159 Y54.335
X-59.232 Y54.435 Z-4.001
X-59.233 Y54.437
X-59.317 Y54.526 Z-4.006
X-59.319 Y54.528
X-59.414 Y54.606 Z-4.01
X-59.415 Y54.607
X-59.518 Y54.673 Z-4.014
X-59.52 Y54.674 Z-4.015
X-59.632 Y54.727 Z-4.019
X-59.634
X-59.751 Y54.765 Z-4.023
X-59.753 Y54.766
X-59.874 Y54.789 Z-4.028
X-59.876
X-59.999 Y54.797 Z-4.032
X-60.001
X-60.124 Y54.789 Z-4.036
X-60.126
X-60.247 Y54.766 Z-4.041
X-60.249 Y54.765
X-60.367 Y54.727 Z-4.045
X-60.369 Y54.726
X-60.48 Y54.674 Z-4.049
X-60.482 Y54.672 Z-4.05
X-60.585 Y54.607 Z-4.054
X-60.587 Y54.605
X-60.682 Y54.527 Z-4.058
X-60.684 Y54.525
X-60.767 Y54.437 Z-4.063
X-60.769 Y54.434
X-60.841 Y54.335 Z-4.067
X-60.842 Y54.333
X-60.901 Y54.226 Z-4.071
X-60.902 Y54.224
X-60.948 Y54.109 Z-4.076
X-60.949 Y54.107
X-60.979 Y53.987 Z-4.08
Y53.986
X-60.995 Y53.863 Z-4.084
Y53.861 Z-4.085
Y53.738 Z-4.089
Y53.736
X-60.98 Y53.615 Z-4.093
X-60.979 Y53.613
X-60.948 Y53.492 Z-4.098
X-60.903 Y53.378 Z-4.102
X-60.902 Y53.375
X-60.842 Y53.267 Z-4.106
X-60.841 Y53.265
X-60.768 Y53.165 Z-4.111
X-60.767 Y53.163
X-60.684 Y53.075 Z-4.115
X-60.682 Y53.072
X-60.588 Y52.995 Z-4.119
X-60.586 Y52.993
X-60.482 Y52.927 Z-4.124
X-60.48 Y52.926
X-60.368 Y52.873 Z-4.128
X-60.366
X-60.248 Y52.834 Z-4.133
X-60.246
X-60.126 Y52.811 Z-4.137
X-60.124
X-60.001 Y52.803 Z-4.141
X-59.999
X-59.876 Y52.811 Z-4.146
X-59.875
X-59.753 Y52.834 Z-4.15
X-59.751
X-59.635 Y52.872 Z-4.154
X-59.633 Y52.873
X-59.522 Y52.925 Z-4.159
X-59.52 Y52.926
X-59.415 Y52.993 Z-4.163
X-59.413 Y52.995
X-59.319 Y53.072 Z-4.167
X-59.317 Y53.074 Z-4.168
X-59.233 Y53.163 Z-4.172
X-59.231 Y53.165
X-59.158 Y53.265 Z-4.176
X-59.157 Y53.268
X-59.098 Y53.375 Z-4.181
X-59.097 Y53.377
X-59.052 Y53.492 Z-4.185
X-59.051 Y53.494
X-59.021 Y53.613 Z-4.189
X-59.02 Y53.615
X-59.005 Y53.736 Z-4.194
Y53.738
Y53.861 Z-4.198
Y53.863
X-59.02 Y53.986 Z-4.202
X-59.021 Y53.988 Z-4.203
X-59.051 Y54.107 Z-4.207
X-59.052 Y54.109
X-59.097 Y54.223 Z-4.211
X-59.098 Y54.225
X-59.158 Y54.333 Z-4.216
X-59.159 Y54.335
X-59.232 Y54.435 Z-4.22
X-59.233 Y54.437
X-59.317 Y54.526 Z-4.224
X-59.319 Y54.528
X-59.414 Y54.606 Z-4.229
X-59.415 Y54.607
X-59.518 Y54.673 Z-4.233
X-59.52 Y54.674
X-59.632 Y54.727 Z-4.237
X-59.634 Z-4.238
X-59.751 Y54.765 Z-4.242
X-59.753 Y54.766
X-59.874 Y54.789 Z-4.246
X-59.876
X-59.999 Y54.797 Z-4.251
X-60.001
X-60.124 Y54.789 Z-4.255
X-60.126
X-60.247 Y54.766 Z-4.259
X-60.249 Y54.765
X-60.367 Y54.727 Z-4.264
X-60.369 Y54.726
X-60.48 Y54.674 Z-4.268
X-60.482 Y54.672
X-60.585 Y54.607 Z-4.272
X-60.587 Y54.605 Z-4.273
X-60.682 Y54.527 Z-4.277
X-60.684 Y54.525
X-60.767 Y54.437 Z-4.281
X-60.769 Y54.434
X-60.841 Y54.335 Z-4.286
X-60.842 Y54.333
X-60.901 Y54.226 Z-4.29
X-60.902 Y54.224
X-60.948 Y54.109 Z-4.294
X-60.949 Y54.107
X-60.979 Y53.987 Z-4.299
Y53.986
X-60.995 Y53.863 Z-4.303
Y53.861
Y53.738 Z-4.307
Y53.736
X-60.98 Y53.615 Z-4.312
X-60.979 Y53.613
X-60.948 Y53.492 Z-4.316
X-60.903 Y53.378 Z-4.32
X-60.902 Y53.375 Z-4.321
X-60.842 Y53.267 Z-4.325
X-60.841 Y53.265
X-60.768 Y53.165 Z-4.329
X-60.767 Y53.163
X-60.684 Y53.075 Z-4.334
X-60.682 Y53.072
X-60.588 Y52.995 Z-4.338
X-60.586 Y52.993
X-60.482 Y52.927 Z-4.342
X-60.48 Y52.926
X-60.368 Y52.873 Z-4.347
X-60.366
X-60.248 Y52.834 Z-4.351
X-60.246
X-60.126 Y52.811 Z-4.355
X-60.124 Z-4.356
X-60.001 Y52.803 Z-4.36
X-59.999
X-59.876 Y52.811 Z-4.364
X-59.875
X-59.753 Y52.834 Z-4.369
X-59.751
X-59.635 Y52.872 Z-4.373
X-59.633 Y52.873
X-59.522 Y52.925 Z-4.377
X-59.52 Y52.926
X-59.415 Y52.993 Z-4.382
X-59.413 Y52.995
X-59.319 Y53.072 Z-4.386
X-59.317 Y53.074
X-59.233 Y53.163 Z-4.39
X-59.231 Y53.165 Z-4.391
X-59.158 Y53.265 Z-4.395
X-59.157 Y53.268
X-59.098 Y53.375 Z-4.399
X-59.097 Y53.377
X-59.052 Y53.492 Z-4.404
X-59.051 Y53.494
X-59.021 Y53.613 Z-4.408
X-59.02 Y53.615
X-59.005 Y53.736 Z-4.412
Y53.738
Y53.861 Z-4.417
Y53.863
X-59.02 Y53.986 Z-4.421
X-59.021 Y53.988
X-59.051 Y54.107 Z-4.425
X-59.052 Y54.109 Z-4.426
X-59.097 Y54.223 Z-4.43
X-59.098 Y54.225
X-59.158 Y54.333 Z-4.434
X-59.159 Y54.335
X-59.232 Y54.435 Z-4.439
X-59.233 Y54.437
X-59.317 Y54.526 Z-4.443
X-59.319 Y54.528
X-59.414 Y54.606 Z-4.447
X-59.415 Y54.607
X-59.518 Y54.673 Z-4.452
X-59.52 Y54.674
X-59.632 Y54.727 Z-4.456
X-59.634
X-59.751 Y54.765 Z-4.46
X-59.753 Y54.766 Z-4.461
X-59.874 Y54.789 Z-4.465
X-59.876
X-59.999 Y54.797 Z-4.469
X-60.001
X-60.124 Y54.789 Z-4.474
X-60.126
X-60.247 Y54.766 Z-4.478
X-60.249 Y54.765
X-60.367 Y54.727 Z-4.482
X-60.369 Y54.726
X-60.48 Y54.674 Z-4.487
X-60.482 Y54.672
X-60.585 Y54.607 Z-4.491
X-60.587 Y54.605
X-60.682 Y54.527 Z-4.495
X-60.684 Y54.525 Z-4.496
X-60.767 Y54.437 Z-4.5
X-60.769 Y54.434
X-60.841 Y54.335 Z-4.504
X-60.842 Y54.333
X-60.901 Y54.226 Z-4.508
X-60.902 Y54.224 Z-4.509
X-60.948 Y54.109 Z-4.513
X-60.949 Y54.107
X-60.979 Y53.987 Z-4.517
Y53.986
X-60.995 Y53.863 Z-4.522
Y53.861
Y53.738 Z-4.526
Y53.736
X-60.98 Y53.615 Z-4.53
X-60.979 Y53.613
X-60.948 Y53.492 Z-4.535
X-60.903 Y53.378 Z-4.539
X-60.902 Y53.375
X-60.842 Y53.267 Z-4.543
X-60.841 Y53.265 Z-4.544
X-60.768 Y53.165 Z-4.548
X-60.767 Y53.163
X-60.684 Y53.075 Z-4.552
X-60.682 Y53.072
X-60.588 Y52.995 Z-4.557
X-60.586 Y52.993
X-60.482 Y52.927 Z-4.561
X-60.48 Y52.926
X-60.368 Y52.873 Z-4.565
X-60.366
X-60.248 Y52.834 Z-4.57
X-60.246
X-60.126 Y52.811 Z-4.574
X-60.124
X-60.001 Y52.803 Z-4.578
X-59.999 Z-4.579
X-59.876 Y52.811 Z-4.583
X-59.875
X-59.753 Y52.834 Z-4.587
X-59.751
X-59.635 Y52.872 Z-4.592
X-59.633 Y52.873
X-59.522 Y52.925 Z-4.596
X-59.52 Y52.926
X-59.415 Y52.993 Z-4.6
X-59.413 Y52.995
X-59.319 Y53.072 Z-4.605
X-59.317 Y53.074
X-59.233 Y53.163 Z-4.609
X-59.231 Y53.165
X-59.158 Y53.265 Z-4.613
X-59.157 Y53.268 Z-4.614
X-59.098 Y53.375 Z-4.618
X-59.097 Y53.377
X-59.052 Y53.492 Z-4.622
X-59.051 Y53.494
X-59.021 Y53.613 Z-4.627
X-59.02 Y53.615
X-59.005 Y53.736 Z-4.631
Y53.738
Y53.861 Z-4.635
Y53.863
X-59.02 Y53.986 Z-4.64
X-59.021 Y53.988
X-59.051 Y54.107 Z-4.644
X-59.052 Y54.109
X-59.097 Y54.223 Z-4.648
X-59.098 Y54.225
X-59.158 Y54.333 Z-4.653
X-59.159 Y54.335
X-59.232 Y54.435 Z-4.657
X-59.233 Y54.437
X-59.317 Y54.526 Z-4.662
X-59.319 Y54.528
X-59.414 Y54.606 Z-4.666
X-59.415 Y54.607
X-59.518 Y54.673 Z-4.67
X-59.52 Y54.674
X-59.632 Y54.727 Z-4.675
X-59.634
X-59.751 Y54.765 Z-4.679
X-59.753 Y54.766
X-59.874 Y54.789 Z-4.683
X-59.876
X-59.999 Y54.797 Z-4.688
X-60.001
X-60.124 Y54.789 Z-4.692
X-60.126
X-60.247 Y54.766 Z-4.697
X-60.249 Y54.765
X-60.367 Y54.727 Z-4.701
X-60.369 Y54.726
X-60.48 Y54.674 Z-4.705
X-60.482 Y54.672
X-60.585 Y54.607 Z-4.71
X-60.587 Y54.605
X-60.682 Y54.527 Z-4.714
X-60.684 Y54.525
X-60.767 Y54.437 Z-4.718
X-60.769 Y54.434
X-60.841 Y54.335 Z-4.723
X-60.842 Y54.333
X-60.901 Y54.226 Z-4.727
X-60.902 Y54.224
X-60.948 Y54.109 Z-4.732
X-60.949 Y54.107
X-60.979 Y53.987 Z-4.736
Y53.986
X-60.995 Y53.863 Z-4.74
Y53.861
Y53.738 Z-4.745
Y53.736
X-60.98 Y53.615 Z-4.749
X-60.979 Y53.613
X-60.948 Y53.492 Z-4.753
X-60.903 Y53.378 Z-4.758
X-60.902 Y53.375
X-60.842 Y53.267 Z-4.762
X-60.841 Y53.265
X-60.768 Y53.165 Z-4.767
X-60.767 Y53.163
X-60.684 Y53.075 Z-4.771
X-60.682 Y53.072
X-60.588 Y52.995 Z-4.775
X-60.586 Y52.993
X-60.482 Y52.927 Z-4.78
X-60.48 Y52.926
X-60.368 Y52.873 Z-4.784
X-60.366
X-60.248 Y52.834 Z-4.788
X-60.246
X-60.126 Y52.811 Z-4.793
X-60.124
X-60.001 Y52.803 Z-4.797
X-59.999
X-59.876 Y52.811 Z-4.801
X-59.875 Z-4.802
X-59.753 Y52.834 Z-4.806
X-59.751
X-59.635 Y52.872 Z-4.81
X-59.633 Y52.873
X-59.522 Y52.925 Z-4.815
X-59.52 Y52.926
X-59.415 Y52.993 Z-4.819
X-59.413 Y52.995
X-59.319 Y53.072 Z-4.823
X-59.317 Y53.074
X-59.233 Y53.163 Z-4.828
X-59.231 Y53.165
X-59.158 Y53.265 Z-4.832
X-59.157 Y53.268
X-59.098 Y53.375 Z-4.836
X-59.097 Y53.377 Z-4.837
X-59.052 Y53.492 Z-4.841
X-59.051 Y53.494
X-59.021 Y53.613 Z-4.845
X-59.02 Y53.615
X-59.005 Y53.736 Z-4.85
Y53.738
Y53.861 Z-4.854
Y53.863
X-59.02 Y53.986 Z-4.858
X-59.021 Y53.988
X-59.051 Y54.107 Z-4.863
X-59.052 Y54.109
X-59.097 Y54.223 Z-4.867
X-59.098 Y54.225
X-59.158 Y54.333 Z-4.871
X-59.159 Y54.335
X-59.232 Y54.435 Z-4.876
X-59.233 Y54.437
X-59.317 Y54.526 Z-4.88
X-59.319 Y54.528
X-59.414 Y54.606 Z-4.885
X-59.415 Y54.607
X-59.518 Y54.673 Z-4.889
X-59.52 Y54.674
X-59.632 Y54.727 Z-4.893
X-59.634
X-59.751 Y54.765 Z-4.898
X-59.753 Y54.766
X-59.874 Y54.789 Z-4.902
X-59.876
X-59.999 Y54.797 Z-4.906
X-60.001
X-60.124 Y54.789 Z-4.911
X-60.126
X-60.247 Y54.766 Z-4.915
X-60.249 Y54.765
X-60.367 Y54.727 Z-4.92
X-60.369 Y54.726
X-60.48 Y54.674 Z-4.924
X-60.482 Y54.672
X-60.585 Y54.607 Z-4.928
X-60.587 Y54.605
X-60.682 Y54.527 Z-4.933
X-60.684 Y54.525
X-60.767 Y54.437 Z-4.937
X-60.769 Y54.434
X-60.841 Y54.335 Z-4.941
X-60.842 Y54.333
X-60.901 Y54.226 Z-4.946
X-60.902 Y54.224
X-60.948 Y54.109 Z-4.95
X-60.949 Y54.107
X-60.979 Y53.987 Z-4.955
Y53.986
X-60.995 Y53.863 Z-4.959
Y53.861
Y53.738 Z-4.963
Y53.736
X-60.98 Y53.615 Z-4.968
X-60.979 Y53.613
X-60.948 Y53.492 Z-4.972
X-60.903 Y53.378 Z-4.976
X-60.902 Y53.375
X-60.842 Y53.267 Z-4.981
X-60.841 Y53.265
X-60.768 Y53.165 Z-4.985
X-60.767 Y53.163
X-60.684 Y53.075 Z-4.989
X-60.682 Y53.072 Z-4.99
X-60.588 Y52.995 Z-4.994
X-60.586 Y52.993
X-60.482 Y52.927 Z-4.998
X-60.48 Y52.926
X-60.44 Y52.907 Z-5.
X-60.43 Y52.903
X-60.368 Y52.873 F250.
X-60.366
X-60.248 Y52.834
X-60.246
X-60.126 Y52.811
X-60.124
X-60.001 Y52.803
X-59.999
X-59.876 Y52.811
X-59.875
X-59.753 Y52.834
X-59.751
X-59.635 Y52.872
X-59.633 Y52.873
X-59.522 Y52.925
X-59.52 Y52.926
X-59.415 Y52.993
X-59.413 Y52.995
X-59.319 Y53.072
X-59.317 Y53.074
X-59.233 Y53.163
X-59.231 Y53.165
X-59.158 Y53.265
X-59.157 Y53.268
X-59.098 Y53.375
X-59.097 Y53.377
X-59.052 Y53.492
X-59.051 Y53.494
X-59.021 Y53.613
X-59.02 Y53.615
X-59.005 Y53.736
Y53.738
Y53.861
Y53.863
X-59.02 Y53.986
X-59.021 Y53.988
X-59.051 Y54.107
X-59.052 Y54.109
X-59.097 Y54.223
X-59.098 Y54.225
X-59.158 Y54.333
X-59.159 Y54.335
X-59.232 Y54.435
X-59.233 Y54.437
X-59.317 Y54.526
X-59.319 Y54.528
X-59.414 Y54.606
X-59.415 Y54.607
X-59.518 Y54.673
X-59.52 Y54.674
X-59.632 Y54.727
X-59.634
X-59.751 Y54.765
X-59.753 Y54.766
X-59.874 Y54.789
X-59.876
X-59.999 Y54.797
X-60.001
X-60.124 Y54.789
X-60.126
X-60.247 Y54.766
X-60.249 Y54.765
X-60.367 Y54.727
X-60.369 Y54.726
X-60.48 Y54.674
X-60.482 Y54.672
X-60.585 Y54.607
X-60.587 Y54.605
X-60.682 Y54.527
X-60.684 Y54.525
X-60.767 Y54.437
X-60.769 Y54.434
X-60.841 Y54.335
X-60.842 Y54.333
X-60.901 Y54.226
X-60.902 Y54.224
X-60.948 Y54.109
X-60.949 Y54.107
X-60.979 Y53.987
Y53.986
X-60.995 Y53.863
Y53.861
Y53.738
Y53.736
X-60.98 Y53.622
Y53.615
X-60.979 Y53.613
X-60.948 Y53.492
X-60.903 Y53.378
X-60.902 Y53.375
X-60.842 Y53.267
X-60.841 Y53.265
X-60.768 Y53.165
X-60.767 Y53.163
X-60.684 Y53.075
X-60.682 Y53.072
X-60.588 Y52.995
X-60.586 Y52.993
X-60.482 Y52.927
X-60.48 Y52.926
X-60.43 Y52.903
X-60.421 Y52.898 F83.
X-60.368 Y52.873 Z-5.002
X-60.366
X-60.248 Y52.834 Z-5.007
X-60.246
X-60.126 Y52.811 Z-5.011
X-60.124
X-60.001 Y52.803 Z-5.015
X-59.999
X-59.876 Y52.811 Z-5.02
X-59.875
X-59.753 Y52.834 Z-5.024
X-59.751
X-59.635 Y52.872 Z-5.028
X-59.633 Y52.873 Z-5.029
X-59.522 Y52.925 Z-5.033
X-59.52 Y52.926
X-59.415 Y52.993 Z-5.037
X-59.413 Y52.995
X-59.319 Y53.072 Z-5.042
X-59.317 Y53.074
X-59.233 Y53.163 Z-5.046
X-59.231 Y53.165
X-59.158 Y53.265 Z-5.05
X-59.157 Y53.268
X-59.098 Y53.375 Z-5.055
X-59.097 Y53.377
X-59.052 Y53.492 Z-5.059
X-59.051 Y53.494
X-59.021 Y53.613 Z-5.063
X-59.02 Y53.615 Z-5.064
X-59.005 Y53.736 Z-5.068
Y53.738
Y53.861 Z-5.072
Y53.863
X-59.02 Y53.986 Z-5.077
X-59.021 Y53.988
X-59.051 Y54.107 Z-5.081
X-59.052 Y54.109
X-59.097 Y54.223 Z-5.085
X-59.098 Y54.225
X-59.158 Y54.333 Z-5.09
X-59.159 Y54.335
X-59.232 Y54.435 Z-5.094
X-59.233 Y54.437
X-59.317 Y54.526 Z-5.098
X-59.319 Y54.528
X-59.414 Y54.606 Z-5.103
X-59.415 Y54.607
X-59.518 Y54.673 Z-5.107
X-59.52 Y54.674
X-59.632 Y54.727 Z-5.112
X-59.634
X-59.751 Y54.765 Z-5.116
X-59.753 Y54.766
X-59.874 Y54.789 Z-5.12
X-59.876
X-59.999 Y54.797 Z-5.125
X-60.001
X-60.124 Y54.789 Z-5.129
X-60.126
X-60.247 Y54.766 Z-5.133
X-60.249 Y54.765
X-60.367 Y54.727 Z-5.138
X-60.369 Y54.726
X-60.48 Y54.674 Z-5.142
X-60.482 Y54.672
X-60.585 Y54.607 Z-5.147
X-60.587 Y54.605
X-60.682 Y54.527 Z-5.151
X-60.684 Y54.525
X-60.767 Y54.437 Z-5.155
X-60.769 Y54.434
X-60.841 Y54.335 Z-5.16
X-60.842 Y54.333
X-60.901 Y54.226 Z-5.164
X-60.902 Y54.224
X-60.948 Y54.109 Z-5.168
X-60.949 Y54.107
X-60.979 Y53.987 Z-5.173
Y53.986
X-60.995 Y53.863 Z-5.177
Y53.861
Y53.738 Z-5.182
Y53.736
X-60.98 Y53.615 Z-5.186
X-60.979 Y53.613
X-60.948 Y53.492 Z-5.19
X-60.903 Y53.378 Z-5.195
X-60.902 Y53.375
X-60.842 Y53.267 Z-5.199
X-60.841 Y53.265
X-60.768 Y53.165 Z-5.203
X-60.767 Y53.163
X-60.684 Y53.075 Z-5.208
X-60.682 Y53.072
X-60.588 Y52.995 Z-5.212
X-60.586 Y52.993
X-60.482 Y52.927 Z-5.216
X-60.48 Y52.926 Z-5.217
X-60.368 Y52.873 Z-5.221
X-60.366
X-60.248 Y52.834 Z-5.225
X-60.246
X-60.126 Y52.811 Z-5.23
X-60.124
X-60.001 Y52.803 Z-5.234
X-59.999
X-59.876 Y52.811 Z-5.238
X-59.875
X-59.753 Y52.834 Z-5.243
X-59.751
X-59.635 Y52.872 Z-5.247
X-59.633 Y52.873
X-59.522 Y52.925 Z-5.251
X-59.52 Y52.926
X-59.415 Y52.993 Z-5.256
X-59.413 Y52.995
X-59.319 Y53.072 Z-5.26
X-59.317 Y53.074
X-59.233 Y53.163 Z-5.265
X-59.231 Y53.165
X-59.158 Y53.265 Z-5.269
X-59.157 Y53.268
X-59.098 Y53.375 Z-5.273
X-59.097 Y53.377
X-59.052 Y53.492 Z-5.278
X-59.051 Y53.494
X-59.021 Y53.613 Z-5.282
X-59.02 Y53.615
X-59.005 Y53.736 Z-5.286
Y53.738
Y53.861 Z-5.291
Y53.863
X-59.02 Y53.986 Z-5.295
X-59.021 Y53.988
X-59.051 Y54.107 Z-5.3
X-59.052 Y54.109
X-59.097 Y54.223 Z-5.304
X-59.098 Y54.225
X-59.158 Y54.333 Z-5.308
X-59.159 Y54.335
X-59.232 Y54.435 Z-5.313
X-59.233 Y54.437
X-59.317 Y54.526 Z-5.317
X-59.319 Y54.528
X-59.414 Y54.606 Z-5.321
X-59.415 Y54.607
X-59.518 Y54.673 Z-5.326
X-59.52 Y54.674
X-59.632 Y54.727 Z-5.33
X-59.634
X-59.751 Y54.765 Z-5.335
X-59.753 Y54.766
X-59.874 Y54.789 Z-5.339
X-59.876
X-59.999 Y54.797 Z-5.343
X-60.001
X-60.124 Y54.789 Z-5.348
X-60.126
X-60.247 Y54.766 Z-5.352
X-60.249 Y54.765
X-60.367 Y54.727 Z-5.356
X-60.369 Y54.726
X-60.48 Y54.674 Z-5.361
X-60.482 Y54.672
X-60.585 Y54.607 Z-5.365
X-60.587 Y54.605
X-60.682 Y54.527 Z-5.37
X-60.684 Y54.525
X-60.767 Y54.437 Z-5.374
X-60.769 Y54.434
X-60.841 Y54.335 Z-5.378
X-60.842 Y54.333
X-60.901 Y54.226 Z-5.383
X-60.902 Y54.224
X-60.948 Y54.109 Z-5.387
X-60.949 Y54.107
X-60.979 Y53.987 Z-5.391
Y53.986
X-60.995 Y53.863 Z-5.396
Y53.861
Y53.738 Z-5.4
Y53.736
X-60.98 Y53.615 Z-5.404
X-60.979 Y53.613 Z-5.405
X-60.948 Y53.492 Z-5.409
X-60.903 Y53.378 Z-5.413
X-60.902 Y53.375
X-60.842 Y53.267 Z-5.418
X-60.841 Y53.265
X-60.768 Y53.165 Z-5.422
X-60.767 Y53.163
X-60.684 Y53.075 Z-5.426
X-60.682 Y53.072
X-60.588 Y52.995 Z-5.431
X-60.586 Y52.993
X-60.482 Y52.927 Z-5.435
X-60.48 Y52.926
X-60.368 Y52.873 Z-5.439
X-60.366 Z-5.44
X-60.248 Y52.834 Z-5.444
X-60.246
X-60.126 Y52.811 Z-5.448
X-60.124
X-60.001 Y52.803 Z-5.453
X-59.999
X-59.876 Y52.811 Z-5.457
X-59.875
X-59.753 Y52.834 Z-5.461
X-59.751
X-59.635 Y52.872 Z-5.466
X-59.633 Y52.873
X-59.522 Y52.925 Z-5.47
X-59.52 Y52.926
X-59.415 Y52.993 Z-5.474
X-59.413 Y52.995 Z-5.475
X-59.319 Y53.072 Z-5.479
X-59.317 Y53.074
X-59.233 Y53.163 Z-5.483
X-59.231 Y53.165
X-59.158 Y53.265 Z-5.488
X-59.157 Y53.268
X-59.098 Y53.375 Z-5.492
X-59.097 Y53.377
X-59.052 Y53.492 Z-5.496
X-59.051 Y53.494
X-59.021 Y53.613 Z-5.501
X-59.02 Y53.615
X-59.005 Y53.736 Z-5.505
Y53.738
Y53.861 Z-5.509
Y53.863
X-59.02 Y53.986 Z-5.514
X-59.021 Y53.988
X-59.051 Y54.107 Z-5.518
X-59.052 Y54.109
X-59.097 Y54.223 Z-5.523
X-59.098 Y54.225
X-59.158 Y54.333 Z-5.527
X-59.159 Y54.335
X-59.232 Y54.435 Z-5.531
X-59.233 Y54.437
X-59.317 Y54.526 Z-5.536
X-59.319 Y54.528
X-59.414 Y54.606 Z-5.54
X-59.415 Y54.607
X-59.518 Y54.673 Z-5.544
X-59.52 Y54.674
X-59.632 Y54.727 Z-5.549
X-59.634
X-59.751 Y54.765 Z-5.553
X-59.753 Y54.766
X-59.874 Y54.789 Z-5.558
X-59.876
X-59.999 Y54.797 Z-5.562
X-60.001
X-60.124 Y54.789 Z-5.566
X-60.126
X-60.247 Y54.766 Z-5.571
X-60.249 Y54.765
X-60.367 Y54.727 Z-5.575
X-60.369 Y54.726
X-60.48 Y54.674 Z-5.579
X-60.482 Y54.672
X-60.585 Y54.607 Z-5.584
X-60.587 Y54.605
X-60.682 Y54.527 Z-5.588
X-60.684 Y54.525
X-60.767 Y54.437 Z-5.592
X-60.769 Y54.434 Z-5.593
X-60.841 Y54.335 Z-5.597
X-60.842 Y54.333
X-60.901 Y54.226 Z-5.601
X-60.902 Y54.224
X-60.948 Y54.109 Z-5.606
X-60.949 Y54.107
X-60.979 Y53.987 Z-5.61
Y53.986
X-60.995 Y53.863 Z-5.614
Y53.861
Y53.738 Z-5.619
Y53.736
X-60.98 Y53.615 Z-5.623
X-60.979 Y53.613
X-60.948 Y53.492 Z-5.627
X-60.903 Y53.378 Z-5.632
X-60.902 Y53.375
X-60.842 Y53.267 Z-5.636
X-60.841 Y53.265
X-60.768 Y53.165 Z-5.641
X-60.767 Y53.163
X-60.684 Y53.075 Z-5.645
X-60.682 Y53.072
X-60.588 Y52.995 Z-5.649
X-60.586 Y52.993
X-60.482 Y52.927 Z-5.654
X-60.48 Y52.926
X-60.368 Y52.873 Z-5.658
X-60.366
X-60.248 Y52.834 Z-5.662
X-60.246 Z-5.663
X-60.126 Y52.811 Z-5.667
X-60.124
X-60.001 Y52.803 Z-5.671
X-59.999
X-59.876 Y52.811 Z-5.676
X-59.875
X-59.753 Y52.834 Z-5.68
X-59.751
X-59.635 Y52.872 Z-5.684
X-59.633 Y52.873
X-59.522 Y52.925 Z-5.689
X-59.52 Y52.926
X-59.415 Y52.993 Z-5.693
X-59.413 Y52.995
X-59.319 Y53.072 Z-5.697
X-59.317 Y53.074
X-59.233 Y53.163 Z-5.702
X-59.231 Y53.165
X-59.158 Y53.265 Z-5.706
X-59.157 Y53.268
X-59.098 Y53.375 Z-5.711
X-59.097 Y53.377
X-59.052 Y53.492 Z-5.715
X-59.051 Y53.494
X-59.021 Y53.613 Z-5.719
X-59.02 Y53.615
X-59.005 Y53.736 Z-5.724
Y53.738
Y53.861 Z-5.728
Y53.863
X-59.02 Y53.986 Z-5.732
X-59.021 Y53.988
X-59.051 Y54.107 Z-5.737
X-59.052 Y54.109
X-59.097 Y54.223 Z-5.741
X-59.098 Y54.225
X-59.158 Y54.333 Z-5.745
X-59.159 Y54.335 Z-5.746
X-59.232 Y54.435 Z-5.75
X-59.233 Y54.437
X-59.317 Y54.526 Z-5.754
X-59.319 Y54.528
X-59.414 Y54.606 Z-5.759
X-59.415 Y54.607
X-59.518 Y54.673 Z-5.763
X-59.52 Y54.674
X-59.632 Y54.727 Z-5.767
X-59.634
X-59.751 Y54.765 Z-5.772
X-59.753 Y54.766
X-59.874 Y54.789 Z-5.776
X-59.876
X-59.999 Y54.797 Z-5.78
X-60.001 Z-5.781
X-60.124 Y54.789 Z-5.785
X-60.126
X-60.247 Y54.766 Z-5.789
X-60.249 Y54.765
X-60.367 Y54.727 Z-5.794
X-60.369 Y54.726
X-60.48 Y54.674 Z-5.798
X-60.482 Y54.672
X-60.585 Y54.607 Z-5.802
X-60.587 Y54.605
X-60.682 Y54.527 Z-5.807
X-60.684 Y54.525
X-60.767 Y54.437 Z-5.811
X-60.769 Y54.434
X-60.841 Y54.335 Z-5.815
X-60.842 Y54.333 Z-5.816
X-60.901 Y54.226 Z-5.82
X-60.902 Y54.224
X-60.948 Y54.109 Z-5.824
X-60.949 Y54.107
X-60.979 Y53.987 Z-5.829
Y53.986
X-60.995 Y53.863 Z-5.833
Y53.861
Y53.738 Z-5.837
Y53.736
X-60.98 Y53.615 Z-5.842
X-60.979 Y53.613
X-60.948 Y53.492 Z-5.846
X-60.903 Y53.378 Z-5.85
X-60.902 Y53.375
X-60.842 Y53.267 Z-5.855
X-60.841 Y53.265
X-60.768 Y53.165 Z-5.859
X-60.767 Y53.163
X-60.684 Y53.075 Z-5.864
X-60.682 Y53.072
X-60.588 Y52.995 Z-5.868
X-60.586 Y52.993
X-60.482 Y52.927 Z-5.872
X-60.48 Y52.926
X-60.368 Y52.873 Z-5.877
X-60.366
X-60.248 Y52.834 Z-5.881
X-60.246
X-60.126 Y52.811 Z-5.885
X-60.124
X-60.001 Y52.803 Z-5.89
X-59.999
X-59.876 Y52.811 Z-5.894
X-59.875
X-59.753 Y52.834 Z-5.899
X-59.751
X-59.635 Y52.872 Z-5.903
X-59.633 Y52.873
X-59.522 Y52.925 Z-5.907
X-59.52 Y52.926
X-59.415 Y52.993 Z-5.912
X-59.413 Y52.995
X-59.319 Y53.072 Z-5.916
X-59.317 Y53.074
X-59.233 Y53.163 Z-5.92
X-59.231 Y53.165
X-59.158 Y53.265 Z-5.925
X-59.157 Y53.268
X-59.098 Y53.375 Z-5.929
X-59.097 Y53.377
X-59.052 Y53.492 Z-5.934
X-59.051 Y53.494
X-59.021 Y53.613 Z-5.938
X-59.02 Y53.615
X-59.005 Y53.736 Z-5.942
Y53.738
Y53.861 Z-5.947
Y53.863
X-59.02 Y53.986 Z-5.951
X-59.021 Y53.988
X-59.051 Y54.107 Z-5.955
X-59.052 Y54.109
X-59.097 Y54.223 Z-5.96
X-59.098 Y54.225
X-59.158 Y54.333 Z-5.964
X-59.159 Y54.335
X-59.232 Y54.435 Z-5.969
X-59.233 Y54.437
X-59.317 Y54.526 Z-5.973
X-59.319 Y54.528
X-59.414 Y54.606 Z-5.977
X-59.415 Y54.607
X-59.518 Y54.673 Z-5.982
X-59.52 Y54.674
X-59.632 Y54.727 Z-5.986
X-59.634
X-59.751 Y54.765 Z-5.99
X-59.753 Y54.766
X-59.874 Y54.789 Z-5.995
X-59.876
X-59.999 Y54.797 Z-5.999
X-60.001
X-60.124 Y54.789 Z-6.003
X-60.126 Z-6.004
X-60.247 Y54.766 Z-6.008
X-60.249 Y54.765
X-60.367 Y54.727 Z-6.012
X-60.369 Y54.726
X-60.48 Y54.674 Z-6.017
X-60.482 Y54.672
X-60.585 Y54.607 Z-6.021
X-60.587 Y54.605
X-60.682 Y54.527 Z-6.025
X-60.684 Y54.525
X-60.767 Y54.437 Z-6.03
X-60.769 Y54.434
X-60.841 Y54.335 Z-6.034
X-60.842 Y54.333
X-60.901 Y54.226 Z-6.038
X-60.902 Y54.224
X-60.948 Y54.109 Z-6.043
X-60.949 Y54.107
X-60.979 Y53.987 Z-6.047
Y53.986
X-60.995 Y53.863 Z-6.052
Y53.861
Y53.738 Z-6.056
Y53.736
X-60.98 Y53.615 Z-6.06
X-60.979 Y53.613
X-60.948 Y53.492 Z-6.065
X-60.903 Y53.378 Z-6.069
X-60.902 Y53.375
X-60.842 Y53.267 Z-6.073
X-60.841 Y53.265 Z-6.074
X-60.768 Y53.165 Z-6.078
X-60.767 Y53.163
X-60.684 Y53.075 Z-6.082
X-60.682 Y53.072
X-60.588 Y52.995 Z-6.087
X-60.586 Y52.993
X-60.482 Y52.927 Z-6.091
X-60.48 Y52.926
X-60.368 Y52.873 Z-6.095
X-60.366
X-60.248 Y52.834 Z-6.1
X-60.246
X-60.126 Y52.811 Z-6.104
X-60.124
X-60.001 Y52.803 Z-6.108
X-59.999
X-59.876 Y52.811 Z-6.113
X-59.875
X-59.753 Y52.834 Z-6.117
X-59.751
X-59.635 Y52.872 Z-6.121
X-59.633 Y52.873 Z-6.122
X-59.522 Y52.925 Z-6.126
X-59.52 Y52.926
X-59.415 Y52.993 Z-6.13
X-59.413 Y52.995
X-59.319 Y53.072 Z-6.135
X-59.317 Y53.074
X-59.233 Y53.163 Z-6.139
X-59.231 Y53.165
X-59.158 Y53.265 Z-6.143
X-59.157 Y53.268
X-59.098 Y53.375 Z-6.148
X-59.097 Y53.377
X-59.052 Y53.492 Z-6.152
X-59.051 Y53.494
X-59.021 Y53.613 Z-6.157
X-59.02 Y53.615
X-59.005 Y53.736 Z-6.161
Y53.738
Y53.861 Z-6.165
Y53.863
X-59.02 Y53.986 Z-6.17
X-59.021 Y53.988
X-59.051 Y54.107 Z-6.174
X-59.052 Y54.109
X-59.097 Y54.223 Z-6.178
X-59.098 Y54.225
X-59.158 Y54.333 Z-6.183
X-59.159 Y54.335
X-59.232 Y54.435 Z-6.187
X-59.233 Y54.437
X-59.317 Y54.526 Z-6.191
X-59.319 Y54.528 Z-6.192
X-59.414 Y54.606 Z-6.196
X-59.415 Y54.607
X-59.518 Y54.673 Z-6.2
X-59.52 Y54.674
X-59.632 Y54.727 Z-6.205
X-59.634
X-59.751 Y54.765 Z-6.209
X-59.753 Y54.766
X-59.874 Y54.789 Z-6.213
X-59.876
X-59.999 Y54.797 Z-6.218
X-60.001
X-60.124 Y54.789 Z-6.222
X-60.126
X-60.247 Y54.766 Z-6.226
X-60.249 Y54.765 Z-6.227
X-60.367 Y54.727 Z-6.231
X-60.369 Y54.726
X-60.48 Y54.674 Z-6.235
X-60.482 Y54.672
X-60.585 Y54.607 Z-6.24
X-60.587 Y54.605
X-60.682 Y54.527 Z-6.244
X-60.684 Y54.525
X-60.767 Y54.437 Z-6.248
X-60.769 Y54.434
X-60.841 Y54.335 Z-6.253
X-60.842 Y54.333
X-60.901 Y54.226 Z-6.257
X-60.902 Y54.224
X-60.948 Y54.109 Z-6.261
X-60.949 Y54.107 Z-6.262
X-60.979 Y53.987 Z-6.266
Y53.986
X-60.995 Y53.863 Z-6.27
Y53.861
Y53.738 Z-6.275
Y53.736
X-60.98 Y53.615 Z-6.279
X-60.979 Y53.613
X-60.948 Y53.492 Z-6.283
X-60.903 Y53.378 Z-6.288
X-60.902 Y53.375
X-60.842 Y53.267 Z-6.292
X-60.841 Y53.265
X-60.768 Y53.165 Z-6.296
X-60.767 Y53.163 Z-6.297
X-60.684 Y53.075 Z-6.301
X-60.682 Y53.072
X-60.588 Y52.995 Z-6.305
X-60.586 Y52.993
X-60.482 Y52.927 Z-6.31
X-60.48 Y52.926
X-60.368 Y52.873 Z-6.314
X-60.366
X-60.248 Y52.834 Z-6.318
X-60.246
X-60.126 Y52.811 Z-6.323
X-60.124
X-60.001 Y52.803 Z-6.327
X-59.999
X-59.876 Y52.811 Z-6.331
X-59.875
X-59.753 Y52.834 Z-6.336
X-59.751
X-59.635 Y52.872 Z-6.34
X-59.633 Y52.873
X-59.522 Y52.925 Z-6.344
X-59.52 Y52.926 Z-6.345
X-59.415 Y52.993 Z-6.349
X-59.413 Y52.995
X-59.319 Y53.072 Z-6.353
X-59.317 Y53.074
X-59.233 Y53.163 Z-6.358
X-59.231 Y53.165
X-59.158 Y53.265 Z-6.362
X-59.157 Y53.268
X-59.098 Y53.375 Z-6.366
X-59.097 Y53.377
X-59.052 Y53.492 Z-6.371
X-59.051 Y53.494
X-59.021 Y53.613 Z-6.375
X-59.02 Y53.615
X-59.005 Y53.736 Z-6.379
Y53.738 Z-6.38
Y53.861 Z-6.384
Y53.863
X-59.02 Y53.986 Z-6.388
X-59.021 Y53.988
X-59.051 Y54.107 Z-6.393
X-59.052 Y54.109
X-59.097 Y54.223 Z-6.397
X-59.098 Y54.225
X-59.158 Y54.333 Z-6.401
X-59.159 Y54.335
X-59.232 Y54.435 Z-6.406
X-59.233 Y54.437
X-59.317 Y54.526 Z-6.41
X-59.319 Y54.528
X-59.414 Y54.606 Z-6.414
X-59.415 Y54.607 Z-6.415
X-59.518 Y54.673 Z-6.419
X-59.52 Y54.674
X-59.632 Y54.727 Z-6.423
X-59.634
X-59.751 Y54.765 Z-6.428
X-59.753 Y54.766
X-59.874 Y54.789 Z-6.432
X-59.876
X-59.999 Y54.797 Z-6.436
X-60.001
X-60.124 Y54.789 Z-6.441
X-60.126
X-60.247 Y54.766 Z-6.445
X-60.249 Y54.765
X-60.367 Y54.727 Z-6.449
X-60.369 Y54.726 Z-6.45
X-60.48 Y54.674 Z-6.454
X-60.482 Y54.672
X-60.585 Y54.607 Z-6.458
X-60.587 Y54.605
X-60.682 Y54.527 Z-6.463
X-60.684 Y54.525
X-60.767 Y54.437 Z-6.467
X-60.769 Y54.434
X-60.841 Y54.335 Z-6.471
X-60.842 Y54.333
X-60.901 Y54.226 Z-6.476
X-60.902 Y54.224
X-60.948 Y54.109 Z-6.48
X-60.949 Y54.107
X-60.979 Y53.987 Z-6.484
Y53.986
X-60.995 Y53.863 Z-6.489
Y53.861
Y53.738 Z-6.493
Y53.736
X-60.98 Y53.615 Z-6.498
X-60.979 Y53.613
X-60.948 Y53.492 Z-6.502
X-60.903 Y53.378 Z-6.506
X-60.902 Y53.375
X-60.842 Y53.267 Z-6.511
X-60.841 Y53.265
X-60.768 Y53.165 Z-6.515
X-60.767 Y53.163
X-60.684 Y53.075 Z-6.519
X-60.682 Y53.072
X-60.588 Y52.995 Z-6.524
X-60.586 Y52.993
X-60.482 Y52.927 Z-6.528
X-60.48 Y52.926
X-60.368 Y52.873 Z-6.533
X-60.366
X-60.248 Y52.834 Z-6.537
X-60.246
X-60.126 Y52.811 Z-6.541
X-60.124
X-60.001 Y52.803 Z-6.546
X-59.999
X-59.876 Y52.811 Z-6.55
X-59.875
X-59.753 Y52.834 Z-6.554
X-59.751
X-59.635 Y52.872 Z-6.559
X-59.633 Y52.873
X-59.522 Y52.925 Z-6.563
X-59.52 Y52.926
X-59.415 Y52.993 Z-6.568
X-59.413 Y52.995
X-59.319 Y53.072 Z-6.572
X-59.317 Y53.074
X-59.233 Y53.163 Z-6.576
X-59.231 Y53.165
X-59.158 Y53.265 Z-6.581
X-59.157 Y53.268
X-59.098 Y53.375 Z-6.585
X-59.097 Y53.377
X-59.052 Y53.492 Z-6.589
X-59.051 Y53.494
X-59.021 Y53.613 Z-6.594
X-59.02 Y53.615
X-59.005 Y53.736 Z-6.598
Y53.738
Y53.861 Z-6.602
Y53.863 Z-6.603
X-59.02 Y53.986 Z-6.607
X-59.021 Y53.988
X-59.051 Y54.107 Z-6.611
X-59.052 Y54.109
X-59.097 Y54.223 Z-6.616
X-59.098 Y54.225
X-59.158 Y54.333 Z-6.62
X-59.159 Y54.335
X-59.232 Y54.435 Z-6.624
X-59.233 Y54.437
X-59.317 Y54.526 Z-6.629
X-59.319 Y54.528
X-59.414 Y54.606 Z-6.633
X-59.415 Y54.607
X-59.518 Y54.673 Z-6.637
X-59.52 Y54.674 Z-6.638
X-59.632 Y54.727 Z-6.642
X-59.634
X-59.751 Y54.765 Z-6.646
X-59.753 Y54.766
X-59.874 Y54.789 Z-6.651
X-59.876
X-59.999 Y54.797 Z-6.655
X-60.001
X-60.124 Y54.789 Z-6.659
X-60.126
X-60.247 Y54.766 Z-6.664
X-60.249 Y54.765
X-60.367 Y54.727 Z-6.668
X-60.369 Y54.726
X-60.48 Y54.674 Z-6.672
X-60.482 Y54.672 Z-6.673
X-60.585 Y54.607 Z-6.677
X-60.587 Y54.605
X-60.682 Y54.527 Z-6.681
X-60.684 Y54.525
X-60.767 Y54.437 Z-6.686
X-60.769 Y54.434
X-60.841 Y54.335 Z-6.69
X-60.842 Y54.333
X-60.901 Y54.226 Z-6.694
X-60.902 Y54.224
X-60.948 Y54.109 Z-6.699
X-60.949 Y54.107
X-60.979 Y53.987 Z-6.703
Y53.986
X-60.995 Y53.863 Z-6.707
Y53.861 Z-6.708
Y53.738 Z-6.712
Y53.736
X-60.98 Y53.615 Z-6.716
X-60.979 Y53.613
X-60.948 Y53.492 Z-6.721
X-60.903 Y53.378 Z-6.725
X-60.902 Y53.375
X-60.842 Y53.267 Z-6.729
X-60.841 Y53.265
X-60.768 Y53.165 Z-6.734
X-60.767 Y53.163
X-60.684 Y53.075 Z-6.738
X-60.682 Y53.072
X-60.588 Y52.995 Z-6.742
X-60.586 Y52.993
X-60.482 Y52.927 Z-6.747
X-60.48 Y52.926
X-60.368 Y52.873 Z-6.751
X-60.366
X-60.248 Y52.834 Z-6.756
X-60.246
X-60.126 Y52.811 Z-6.76
X-60.124
X-60.001 Y52.803 Z-6.764
X-59.999
X-59.876 Y52.811 Z-6.769
X-59.875
X-59.753 Y52.834 Z-6.773
X-59.751
X-59.635 Y52.872 Z-6.777
X-59.633 Y52.873
X-59.522 Y52.925 Z-6.782
X-59.52 Y52.926
X-59.415 Y52.993 Z-6.786
X-59.413 Y52.995
X-59.319 Y53.072 Z-6.79
X-59.317 Y53.074 Z-6.791
X-59.233 Y53.163 Z-6.795
X-59.231 Y53.165
X-59.158 Y53.265 Z-6.799
X-59.157 Y53.268
X-59.098 Y53.375 Z-6.804
X-59.097 Y53.377
X-59.052 Y53.492 Z-6.808
X-59.051 Y53.494
X-59.021 Y53.613 Z-6.812
X-59.02 Y53.615
X-59.005 Y53.736 Z-6.817
Y53.738
Y53.861 Z-6.821
Y53.863
X-59.02 Y53.986 Z-6.825
X-59.021 Y53.988 Z-6.826
X-59.051 Y54.107 Z-6.83
X-59.052 Y54.109
X-59.097 Y54.223 Z-6.834
X-59.098 Y54.225
X-59.158 Y54.333 Z-6.839
X-59.159 Y54.335
X-59.232 Y54.435 Z-6.843
X-59.233 Y54.437
X-59.317 Y54.526 Z-6.847
X-59.319 Y54.528
X-59.414 Y54.606 Z-6.852
X-59.415 Y54.607
X-59.518 Y54.673 Z-6.856
X-59.52 Y54.674
X-59.632 Y54.727 Z-6.86
X-59.634 Z-6.861
X-59.751 Y54.765 Z-6.865
X-59.753 Y54.766
X-59.874 Y54.789 Z-6.869
X-59.876
X-59.999 Y54.797 Z-6.874
X-60.001
X-60.124 Y54.789 Z-6.878
X-60.126
X-60.247 Y54.766 Z-6.882
X-60.249 Y54.765
X-60.367 Y54.727 Z-6.887
X-60.369 Y54.726
X-60.48 Y54.674 Z-6.891
X-60.482 Y54.672
X-60.585 Y54.607 Z-6.895
X-60.587 Y54.605 Z-6.896
X-60.682 Y54.527 Z-6.9
X-60.684 Y54.525
X-60.767 Y54.437 Z-6.904
X-60.769 Y54.434
X-60.841 Y54.335 Z-6.909
X-60.842 Y54.333
X-60.901 Y54.226 Z-6.913
X-60.902 Y54.224
X-60.948 Y54.109 Z-6.917
X-60.949 Y54.107
X-60.979 Y53.987 Z-6.922
Y53.986
X-60.995 Y53.863 Z-6.926
Y53.861
Y53.738 Z-6.93
Y53.736
X-60.98 Y53.615 Z-6.935
X-60.979 Y53.613
X-60.948 Y53.492 Z-6.939
X-60.903 Y53.378 Z-6.943
X-60.902 Y53.375 Z-6.944
X-60.842 Y53.267 Z-6.948
X-60.841 Y53.265
X-60.768 Y53.165 Z-6.952
X-60.767 Y53.163
X-60.684 Y53.075 Z-6.957
X-60.682 Y53.072
X-60.588 Y52.995 Z-6.961
X-60.586 Y52.993
X-60.482 Y52.927 Z-6.965
X-60.48 Y52.926
X-60.368 Y52.873 Z-6.97
X-60.366
X-60.248 Y52.834 Z-6.974
X-60.246
X-60.126 Y52.811 Z-6.978
X-60.124 Z-6.979
X-60.001 Y52.803 Z-6.983
X-59.999
X-59.876 Y52.811 Z-6.987
X-59.875
X-59.753 Y52.834 Z-6.992
X-59.751
X-59.635 Y52.872 Z-6.996
X-59.633 Y52.873
X-59.522 Y52.925 Z-7.
X-59.52 Y52.926
X-59.415 Y52.993 Z-7.005
X-59.413 Y52.995
X-59.319 Y53.072 Z-7.009
X-59.317 Y53.074
X-59.233 Y53.163 Z-7.013
X-59.231 Y53.165 Z-7.014
X-59.158 Y53.265 Z-7.018
X-59.157 Y53.268
X-59.098 Y53.375 Z-7.022
X-59.097 Y53.377
X-59.052 Y53.492 Z-7.027
X-59.051 Y53.494
X-59.021 Y53.613 Z-7.031
X-59.02 Y53.615
X-59.005 Y53.736 Z-7.035
Y53.738
Y53.861 Z-7.04
Y53.863
X-59.02 Y53.986 Z-7.044
X-59.021 Y53.988
X-59.051 Y54.107 Z-7.048
X-59.052 Y54.109
X-59.097 Y54.223 Z-7.053
X-59.098 Y54.225
X-59.158 Y54.333 Z-7.057
X-59.159 Y54.335
X-59.232 Y54.435 Z-7.062
X-59.233 Y54.437
X-59.317 Y54.526 Z-7.066
X-59.319 Y54.528
X-59.414 Y54.606 Z-7.07
X-59.415 Y54.607
X-59.518 Y54.673 Z-7.075
X-59.52 Y54.674
X-59.632 Y54.727 Z-7.079
X-59.634
X-59.751 Y54.765 Z-7.083
X-59.753 Y54.766 Z-7.084
X-59.874 Y54.789 Z-7.088
X-59.876
X-59.999 Y54.797 Z-7.092
X-60.001
X-60.124 Y54.789 Z-7.097
X-60.126
X-60.247 Y54.766 Z-7.101
X-60.249 Y54.765
X-60.367 Y54.727 Z-7.105
X-60.369 Y54.726
X-60.48 Y54.674 Z-7.11
X-60.482 Y54.672
X-60.585 Y54.607 Z-7.114
X-60.587 Y54.605
X-60.682 Y54.527 Z-7.118
X-60.684 Y54.525 Z-7.119
X-60.767 Y54.437 Z-7.123
X-60.769 Y54.434
X-60.841 Y54.335 Z-7.127
X-60.842 Y54.333
X-60.901 Y54.226 Z-7.131
X-60.902 Y54.224 Z-7.132
X-60.948 Y54.109 Z-7.136
X-60.949 Y54.107
X-60.979 Y53.987 Z-7.14
Y53.986
X-60.995 Y53.863 Z-7.145
Y53.861
Y53.738 Z-7.149
Y53.736
X-60.98 Y53.615 Z-7.153
X-60.979 Y53.613
X-60.948 Y53.492 Z-7.158
X-60.903 Y53.378 Z-7.162
X-60.902 Y53.375
X-60.842 Y53.267 Z-7.166
X-60.841 Y53.265 Z-7.167
X-60.768 Y53.165 Z-7.171
X-60.767 Y53.163
X-60.684 Y53.075 Z-7.175
X-60.682 Y53.072
X-60.588 Y52.995 Z-7.18
X-60.586 Y52.993
X-60.482 Y52.927 Z-7.184
X-60.48 Y52.926
X-60.368 Y52.873 Z-7.188
X-60.366
X-60.248 Y52.834 Z-7.193
X-60.246
X-60.126 Y52.811 Z-7.197
X-60.124
X-60.001 Y52.803 Z-7.201
X-59.999 Z-7.202
X-59.876 Y52.811 Z-7.206
X-59.875
X-59.753 Y52.834 Z-7.21
X-59.751
X-59.635 Y52.872 Z-7.215
X-59.633 Y52.873
X-59.522 Y52.925 Z-7.219
X-59.52 Y52.926
X-59.415 Y52.993 Z-7.223
X-59.413 Y52.995
X-59.319 Y53.072 Z-7.228
X-59.317 Y53.074
X-59.233 Y53.163 Z-7.232
X-59.231 Y53.165
X-59.158 Y53.265 Z-7.236
X-59.157 Y53.268 Z-7.237
X-59.098 Y53.375 Z-7.241
X-59.097 Y53.377
X-59.052 Y53.492 Z-7.245
X-59.051 Y53.494
X-59.021 Y53.613 Z-7.25
X-59.02 Y53.615
X-59.005 Y53.736 Z-7.254
Y53.738
Y53.861 Z-7.258
Y53.863
X-59.02 Y53.986 Z-7.263
X-59.021 Y53.988
X-59.051 Y54.107 Z-7.267
X-59.052 Y54.109
X-59.097 Y54.223 Z-7.271
X-59.098 Y54.225
X-59.158 Y54.333 Z-7.276
X-59.159 Y54.335
X-59.232 Y54.435 Z-7.28
X-59.233 Y54.437
X-59.317 Y54.526 Z-7.285
X-59.319 Y54.528
X-59.414 Y54.606 Z-7.289
X-59.415 Y54.607
X-59.518 Y54.673 Z-7.293
X-59.52 Y54.674
X-59.632 Y54.727 Z-7.298
X-59.634
X-59.751 Y54.765 Z-7.302
X-59.753 Y54.766
X-59.874 Y54.789 Z-7.306
X-59.876
X-59.999 Y54.797 Z-7.311
X-60.001
X-60.124 Y54.789 Z-7.315
X-60.126
X-60.247 Y54.766 Z-7.32
X-60.249 Y54.765
X-60.367 Y54.727 Z-7.324
X-60.369 Y54.726
X-60.48 Y54.674 Z-7.328
X-60.482 Y54.672
X-60.585 Y54.607 Z-7.333
X-60.587 Y54.605
X-60.682 Y54.527 Z-7.337
X-60.684 Y54.525
X-60.767 Y54.437 Z-7.341
X-60.769 Y54.434
X-60.841 Y54.335 Z-7.346
X-60.842 Y54.333
X-60.901 Y54.226 Z-7.35
X-60.902 Y54.224
X-60.948 Y54.109 Z-7.355
X-60.949 Y54.107
X-60.979 Y53.987 Z-7.359
Y53.986
X-60.995 Y53.863 Z-7.363
Y53.861
Y53.738 Z-7.368
Y53.736
X-60.98 Y53.615 Z-7.372
X-60.979 Y53.613
X-60.948 Y53.492 Z-7.376
X-60.903 Y53.378 Z-7.381
X-60.902 Y53.375
X-60.842 Y53.267 Z-7.385
X-60.841 Y53.265
X-60.768 Y53.165 Z-7.39
X-60.767 Y53.163
X-60.684 Y53.075 Z-7.394
X-60.682 Y53.072
X-60.588 Y52.995 Z-7.398
X-60.586 Y52.993
X-60.482 Y52.927 Z-7.403
X-60.48 Y52.926
X-60.368 Y52.873 Z-7.407
X-60.366
X-60.248 Y52.834 Z-7.411
X-60.246
X-60.126 Y52.811 Z-7.416
X-60.124
X-60.001 Y52.803 Z-7.42
X-59.999
X-59.876 Y52.811 Z-7.424
X-59.875 Z-7.425
X-59.753 Y52.834 Z-7.429
X-59.751
X-59.635 Y52.872 Z-7.433
X-59.633 Y52.873
X-59.522 Y52.925 Z-7.438
X-59.52 Y52.926
X-59.415 Y52.993 Z-7.442
X-59.413 Y52.995
X-59.319 Y53.072 Z-7.446
X-59.317 Y53.074
X-59.233 Y53.163 Z-7.451
X-59.231 Y53.165
X-59.158 Y53.265 Z-7.455
X-59.157 Y53.268
X-59.098 Y53.375 Z-7.459
X-59.097 Y53.377 Z-7.46
X-59.052 Y53.492 Z-7.464
X-59.051 Y53.494
X-59.021 Y53.613 Z-7.468
X-59.02 Y53.615
X-59.005 Y53.736 Z-7.473
Y53.738
Y53.861 Z-7.477
Y53.863
X-59.02 Y53.986 Z-7.481
X-59.021 Y53.988
X-59.051 Y54.107 Z-7.486
X-59.052 Y54.109
X-59.097 Y54.223 Z-7.49
X-59.098 Y54.225
X-59.158 Y54.333 Z-7.494
X-59.159 Y54.335
X-59.232 Y54.435 Z-7.499
X-59.233 Y54.437
X-59.317 Y54.526 Z-7.503
X-59.319 Y54.528
X-59.414 Y54.606 Z-7.508
X-59.415 Y54.607
X-59.518 Y54.673 Z-7.512
X-59.52 Y54.674
X-59.632 Y54.727 Z-7.516
X-59.634
X-59.751 Y54.765 Z-7.521
X-59.753 Y54.766
X-59.874 Y54.789 Z-7.525
X-59.876
X-59.999 Y54.797 Z-7.529
X-60.001
X-60.124 Y54.789 Z-7.534
X-60.126
X-60.247 Y54.766 Z-7.538
X-60.249 Y54.765
X-60.367 Y54.727 Z-7.543
X-60.369 Y54.726
X-60.48 Y54.674 Z-7.547
X-60.482 Y54.672
X-60.585 Y54.607 Z-7.551
X-60.587 Y54.605
X-60.682 Y54.527 Z-7.556
X-60.684 Y54.525
X-60.767 Y54.437 Z-7.56
X-60.769 Y54.434
X-60.841 Y54.335 Z-7.564
X-60.842 Y54.333
X-60.901 Y54.226 Z-7.569
X-60.902 Y54.224
X-60.948 Y54.109 Z-7.573
X-60.949 Y54.107
X-60.979 Y53.987 Z-7.578
Y53.986
X-60.995 Y53.863 Z-7.582
Y53.861
Y53.738 Z-7.586
Y53.736
X-60.98 Y53.615 Z-7.591
X-60.979 Y53.613
X-60.948 Y53.492 Z-7.595
X-60.903 Y53.378 Z-7.599
X-60.902 Y53.375
X-60.842 Y53.267 Z-7.604
X-60.841 Y53.265
X-60.768 Y53.165 Z-7.608
X-60.767 Y53.163
X-60.684 Y53.075 Z-7.612
X-60.682 Y53.072 Z-7.613
X-60.588 Y52.995 Z-7.617
X-60.586 Y52.993
X-60.482 Y52.927 Z-7.621
X-60.48 Y52.926
X-60.368 Y52.873 Z-7.626
X-60.366
X-60.248 Y52.834 Z-7.63
X-60.246
X-60.126 Y52.811 Z-7.634
X-60.124
X-60.001 Y52.803 Z-7.639
X-59.999
X-59.876 Y52.811 Z-7.643
X-59.875
X-59.753 Y52.834 Z-7.647
X-59.751 Z-7.648
X-59.635 Y52.872 Z-7.652
X-59.633 Y52.873
X-59.522 Y52.925 Z-7.656
X-59.52 Y52.926
X-59.415 Y52.993 Z-7.661
X-59.413 Y52.995
X-59.319 Y53.072 Z-7.665
X-59.317 Y53.074
X-59.233 Y53.163 Z-7.669
X-59.231 Y53.165
X-59.158 Y53.265 Z-7.674
X-59.157 Y53.268
X-59.098 Y53.375 Z-7.678
X-59.097 Y53.377
X-59.052 Y53.492 Z-7.682
X-59.051 Y53.494 Z-7.683
X-59.021 Y53.613 Z-7.687
X-59.02 Y53.615
X-59.005 Y53.736 Z-7.691
Y53.738
Y53.861 Z-7.696
Y53.863
X-59.02 Y53.986 Z-7.7
X-59.021 Y53.988
X-59.051 Y54.107 Z-7.704
X-59.052 Y54.109
X-59.097 Y54.223 Z-7.709
X-59.098 Y54.225
X-59.158 Y54.333 Z-7.713
X-59.159 Y54.335
X-59.232 Y54.435 Z-7.717
X-59.233 Y54.437 Z-7.718
X-59.317 Y54.526 Z-7.722
X-59.319 Y54.528
X-59.414 Y54.606 Z-7.726
X-59.415 Y54.607
X-59.518 Y54.673 Z-7.73
X-59.52 Y54.674 Z-7.731
X-59.632 Y54.727 Z-7.735
X-59.634
X-59.751 Y54.765 Z-7.739
X-59.753 Y54.766
X-59.874 Y54.789 Z-7.744
X-59.876
X-59.999 Y54.797 Z-7.748
X-60.001
X-60.124 Y54.789 Z-7.752
X-60.126
X-60.247 Y54.766 Z-7.757
X-60.249 Y54.765
X-60.367 Y54.727 Z-7.761
X-60.369 Y54.726
X-60.48 Y54.674 Z-7.766
X-60.482 Y54.672
X-60.585 Y54.607 Z-7.77
X-60.587 Y54.605
X-60.682 Y54.527 Z-7.774
X-60.684 Y54.525
X-60.767 Y54.437 Z-7.779
X-60.769 Y54.434
X-60.841 Y54.335 Z-7.783
X-60.842 Y54.333
X-60.901 Y54.226 Z-7.787
X-60.902 Y54.224
X-60.948 Y54.109 Z-7.792
X-60.949 Y54.107
X-60.979 Y53.987 Z-7.796
Y53.986
X-60.995 Y53.863 Z-7.801
Y53.861
Y53.738 Z-7.805
Y53.736
X-60.98 Y53.615 Z-7.809
X-60.979 Y53.613
X-60.948 Y53.492 Z-7.814
X-60.903 Y53.378 Z-7.818
X-60.902 Y53.375
X-60.842 Y53.267 Z-7.822
X-60.841 Y53.265
X-60.768 Y53.165 Z-7.827
X-60.767 Y53.163
X-60.684 Y53.075 Z-7.831
X-60.682 Y53.072
X-60.588 Y52.995 Z-7.835
X-60.586 Y52.993 Z-7.836
X-60.482 Y52.927 Z-7.84
X-60.48 Y52.926
X-60.368 Y52.873 Z-7.844
X-60.366
X-60.248 Y52.834 Z-7.849
X-60.246
X-60.126 Y52.811 Z-7.853
X-60.124
X-60.001 Y52.803 Z-7.857
X-59.999
X-59.876 Y52.811 Z-7.862
X-59.875
X-59.753 Y52.834 Z-7.866
X-59.751
X-59.635 Y52.872 Z-7.87
X-59.633 Y52.873
X-59.522 Y52.925 Z-7.875
X-59.52 Y52.926
X-59.415 Y52.993 Z-7.879
X-59.413 Y52.995
X-59.319 Y53.072 Z-7.884
X-59.317 Y53.074
X-59.233 Y53.163 Z-7.888
X-59.231 Y53.165
X-59.158 Y53.265 Z-7.892
X-59.157 Y53.268
X-59.098 Y53.375 Z-7.897
X-59.097 Y53.377
X-59.052 Y53.492 Z-7.901
X-59.051 Y53.494
X-59.021 Y53.613 Z-7.905
X-59.02 Y53.615 Z-7.906
X-59.005 Y53.736 Z-7.91
Y53.738
Y53.861 Z-7.914
Y53.863
X-59.02 Y53.986 Z-7.919
X-59.021 Y53.988
X-59.051 Y54.107 Z-7.923
X-59.052 Y54.109
X-59.097 Y54.223 Z-7.927
X-59.098 Y54.225
X-59.158 Y54.333 Z-7.932
X-59.159 Y54.335
X-59.232 Y54.435 Z-7.936
X-59.233 Y54.437
X-59.317 Y54.526 Z-7.94
X-59.319 Y54.528
X-59.414 Y54.606 Z-7.945
X-59.415 Y54.607
X-59.518 Y54.673 Z-7.949
X-59.52 Y54.674
X-59.632 Y54.727 Z-7.954
X-59.634
X-59.751 Y54.765 Z-7.958
X-59.753 Y54.766
X-59.874 Y54.789 Z-7.962
X-59.876
X-59.999 Y54.797 Z-7.967
X-60.001
X-60.124 Y54.789 Z-7.971
X-60.126
X-60.247 Y54.766 Z-7.975
X-60.249 Y54.765
X-60.367 Y54.727 Z-7.98
X-60.369 Y54.726
X-60.48 Y54.674 Z-7.984
X-60.482 Y54.672
X-60.585 Y54.607 Z-7.988
X-60.587 Y54.605 Z-7.989
X-60.682 Y54.527 Z-7.993
X-60.684 Y54.525
X-60.767 Y54.437 Z-7.997
X-60.769 Y54.434
X-60.811 Y54.376 Z-8.
X-60.817 Y54.368
X-60.841 Y54.335 F250.
X-60.842 Y54.333
X-60.901 Y54.226
X-60.902 Y54.224
X-60.948 Y54.109
X-60.949 Y54.107
X-60.979 Y53.987
Y53.986
X-60.995 Y53.863
Y53.861
Y53.738
Y53.736
X-60.98 Y53.622
Y53.615
X-60.979 Y53.613
X-60.948 Y53.492
X-60.903 Y53.378
X-60.902 Y53.375
X-60.842 Y53.267
X-60.841 Y53.265
X-60.768 Y53.165
X-60.767 Y53.163
X-60.684 Y53.075
X-60.682 Y53.072
X-60.588 Y52.995
X-60.586 Y52.993
X-60.482 Y52.927
X-60.48 Y52.926
X-60.368 Y52.873
X-60.366
X-60.248 Y52.834
X-60.246
X-60.126 Y52.811
X-60.124
X-60.001 Y52.803
X-59.999
X-59.876 Y52.811
X-59.875
X-59.753 Y52.834
X-59.751
X-59.635 Y52.872
X-59.633 Y52.873
X-59.522 Y52.925
X-59.52 Y52.926
X-59.415 Y52.993
X-59.413 Y52.995
X-59.319 Y53.072
X-59.317 Y53.074
X-59.233 Y53.163
X-59.231 Y53.165
X-59.158 Y53.265
X-59.157 Y53.268
X-59.098 Y53.375
X-59.097 Y53.377
X-59.052 Y53.492
X-59.051 Y53.494
X-59.021 Y53.613
X-59.02 Y53.615
X-59.005 Y53.736
Y53.738
Y53.861
Y53.863
X-59.02 Y53.986
X-59.021 Y53.988
X-59.051 Y54.107
X-59.052 Y54.109
X-59.097 Y54.223
X-59.098 Y54.225
X-59.158 Y54.333
X-59.159 Y54.335
X-59.232 Y54.435
X-59.233 Y54.437
X-59.317 Y54.526
X-59.319 Y54.528
X-59.414 Y54.606
X-59.415 Y54.607
X-59.518 Y54.673
X-59.52 Y54.674
X-59.632 Y54.727
X-59.634
X-59.751 Y54.765
X-59.753 Y54.766
X-59.874 Y54.789
X-59.876
X-59.999 Y54.797
X-60.001
X-60.124 Y54.789
X-60.126
X-60.247 Y54.766
X-60.249 Y54.765
X-60.367 Y54.727
X-60.369 Y54.726
X-60.48 Y54.674
X-60.482 Y54.672
X-60.585 Y54.607
X-60.587 Y54.605
X-60.682 Y54.527
X-60.684 Y54.525
X-60.767 Y54.437
X-60.769 Y54.434
X-60.817 Y54.368
X-60.823 Y54.359 F83.
X-60.841 Y54.335 Z-8.001
X-60.842 Y54.333
X-60.901 Y54.226 Z-8.006
X-60.902 Y54.224
X-60.948 Y54.109 Z-8.01
X-60.949 Y54.107
X-60.979 Y53.987 Z-8.014
Y53.986
X-60.995 Y53.863 Z-8.019
Y53.861
Y53.738 Z-8.023
Y53.736
X-60.98 Y53.615 Z-8.027
X-60.979 Y53.613 Z-8.028
X-60.948 Y53.492 Z-8.032
X-60.903 Y53.378 Z-8.036
X-60.902 Y53.375
X-60.842 Y53.267 Z-8.041
X-60.841 Y53.265
X-60.768 Y53.165 Z-8.045
X-60.767 Y53.163
X-60.684 Y53.075 Z-8.049
X-60.682 Y53.072
X-60.588 Y52.995 Z-8.054
X-60.586 Y52.993
X-60.482 Y52.927 Z-8.058
X-60.48 Y52.926
X-60.368 Y52.873 Z-8.062
X-60.366 Z-8.063
X-60.248 Y52.834 Z-8.067
X-60.246
X-60.126 Y52.811 Z-8.071
X-60.124
X-60.001 Y52.803 Z-8.076
X-59.999
X-59.876 Y52.811 Z-8.08
X-59.875
X-59.753 Y52.834 Z-8.084
X-59.751
X-59.635 Y52.872 Z-8.089
X-59.633 Y52.873
X-59.522 Y52.925 Z-8.093
X-59.52 Y52.926
X-59.415 Y52.993 Z-8.097
X-59.413 Y52.995 Z-8.098
X-59.319 Y53.072 Z-8.102
X-59.317 Y53.074
X-59.233 Y53.163 Z-8.106
X-59.231 Y53.165
X-59.158 Y53.265 Z-8.111
X-59.157 Y53.268
X-59.098 Y53.375 Z-8.115
X-59.097 Y53.377
X-59.052 Y53.492 Z-8.119
X-59.051 Y53.494
X-59.021 Y53.613 Z-8.124
X-59.02 Y53.615
X-59.005 Y53.736 Z-8.128
Y53.738
Y53.861 Z-8.132
Y53.863
X-59.02 Y53.986 Z-8.137
X-59.021 Y53.988
X-59.051 Y54.107 Z-8.141
X-59.052 Y54.109
X-59.097 Y54.223 Z-8.146
X-59.098 Y54.225
X-59.158 Y54.333 Z-8.15
X-59.159 Y54.335
X-59.232 Y54.435 Z-8.154
X-59.233 Y54.437
X-59.317 Y54.526 Z-8.159
X-59.319 Y54.528
X-59.414 Y54.606 Z-8.163
X-59.415 Y54.607
X-59.518 Y54.673 Z-8.167
X-59.52 Y54.674
X-59.632 Y54.727 Z-8.172
X-59.634
X-59.751 Y54.765 Z-8.176
X-59.753 Y54.766
X-59.874 Y54.789 Z-8.181
X-59.876
X-59.999 Y54.797 Z-8.185
X-60.001
X-60.124 Y54.789 Z-8.189
X-60.126
X-60.247 Y54.766 Z-8.194
X-60.249 Y54.765
X-60.367 Y54.727 Z-8.198
X-60.369 Y54.726
X-60.48 Y54.674 Z-8.202
X-60.482 Y54.672
X-60.585 Y54.607 Z-8.207
X-60.587 Y54.605
X-60.682 Y54.527 Z-8.211
X-60.684 Y54.525
X-60.767 Y54.437 Z-8.215
X-60.769 Y54.434 Z-8.216
X-60.841 Y54.335 Z-8.22
X-60.842 Y54.333
X-60.901 Y54.226 Z-8.224
X-60.902 Y54.224
X-60.948 Y54.109 Z-8.229
X-60.949 Y54.107
X-60.979 Y53.987 Z-8.233
Y53.986
X-60.995 Y53.863 Z-8.237
Y53.861
Y53.738 Z-8.242
Y53.736
X-60.98 Y53.615 Z-8.246
X-60.979 Y53.613
X-60.948 Y53.492 Z-8.25
X-60.903 Y53.378 Z-8.255
X-60.902 Y53.375
X-60.842 Y53.267 Z-8.259
X-60.841 Y53.265
X-60.768 Y53.165 Z-8.264
X-60.767 Y53.163
X-60.684 Y53.075 Z-8.268
X-60.682 Y53.072
X-60.588 Y52.995 Z-8.272
X-60.586 Y52.993
X-60.482 Y52.927 Z-8.277
X-60.48 Y52.926
X-60.368 Y52.873 Z-8.281
X-60.366
X-60.248 Y52.834 Z-8.285
X-60.246 Z-8.286
X-60.126 Y52.811 Z-8.29
X-60.124
X-60.001 Y52.803 Z-8.294
X-59.999
X-59.876 Y52.811 Z-8.299
X-59.875
X-59.753 Y52.834 Z-8.303
X-59.751
X-59.635 Y52.872 Z-8.307
X-59.633 Y52.873
X-59.522 Y52.925 Z-8.312
X-59.52 Y52.926
X-59.415 Y52.993 Z-8.316
X-59.413 Y52.995
X-59.319 Y53.072 Z-8.32
X-59.317 Y53.074
X-59.233 Y53.163 Z-8.325
X-59.231 Y53.165
X-59.158 Y53.265 Z-8.329
X-59.157 Y53.268
X-59.098 Y53.375 Z-8.334
X-59.097 Y53.377
X-59.052 Y53.492 Z-8.338
X-59.051 Y53.494
X-59.021 Y53.613 Z-8.342
X-59.02 Y53.615
X-59.005 Y53.736 Z-8.347
Y53.738
Y53.861 Z-8.351
Y53.863
X-59.02 Y53.986 Z-8.355
X-59.021 Y53.988
X-59.051 Y54.107 Z-8.36
X-59.052 Y54.109
X-59.097 Y54.223 Z-8.364
X-59.098 Y54.225
X-59.158 Y54.333 Z-8.368
X-59.159 Y54.335 Z-8.369
X-59.232 Y54.435 Z-8.373
X-59.233 Y54.437
X-59.317 Y54.526 Z-8.377
X-59.319 Y54.528
X-59.414 Y54.606 Z-8.382
X-59.415 Y54.607
X-59.518 Y54.673 Z-8.386
X-59.52 Y54.674
X-59.632 Y54.727 Z-8.39
X-59.634
X-59.751 Y54.765 Z-8.395
X-59.753 Y54.766
X-59.874 Y54.789 Z-8.399
X-59.876
X-59.999 Y54.797 Z-8.403
X-60.001 Z-8.404
X-60.124 Y54.789 Z-8.408
X-60.126
X-60.247 Y54.766 Z-8.412
X-60.249 Y54.765
X-60.367 Y54.727 Z-8.417
X-60.369 Y54.726
X-60.48 Y54.674 Z-8.421
X-60.482 Y54.672
X-60.585 Y54.607 Z-8.425
X-60.587 Y54.605
X-60.682 Y54.527 Z-8.43
X-60.684 Y54.525
X-60.767 Y54.437 Z-8.434
X-60.769 Y54.434
X-60.841 Y54.335 Z-8.438
X-60.842 Y54.333 Z-8.439
X-60.901 Y54.226 Z-8.443
X-60.902 Y54.224
X-60.948 Y54.109 Z-8.447
X-60.949 Y54.107
X-60.979 Y53.987 Z-8.452
Y53.986
X-60.995 Y53.863 Z-8.456
Y53.861
Y53.738 Z-8.46
Y53.736
X-60.98 Y53.615 Z-8.465
X-60.979 Y53.613
X-60.948 Y53.492 Z-8.469
X-60.903 Y53.378 Z-8.473
X-60.902 Y53.375
X-60.842 Y53.267 Z-8.478
X-60.841 Y53.265
X-60.768 Y53.165 Z-8.482
X-60.767 Y53.163
X-60.684 Y53.075 Z-8.487
X-60.682 Y53.072
X-60.588 Y52.995 Z-8.491
X-60.586 Y52.993
X-60.482 Y52.927 Z-8.495
X-60.48 Y52.926
X-60.368 Y52.873 Z-8.5
X-60.366
X-60.248 Y52.834 Z-8.504
X-60.246
X-60.126 Y52.811 Z-8.508
X-60.124
X-60.001 Y52.803 Z-8.513
X-59.999
X-59.876 Y52.811 Z-8.517
X-59.875
X-59.753 Y52.834 Z-8.522
X-59.751
X-59.635 Y52.872 Z-8.526
X-59.633 Y52.873
X-59.522 Y52.925 Z-8.53
X-59.52 Y52.926
X-59.415 Y52.993 Z-8.535
X-59.413 Y52.995
X-59.319 Y53.072 Z-8.539
X-59.317 Y53.074
X-59.233 Y53.163 Z-8.543
X-59.231 Y53.165
X-59.158 Y53.265 Z-8.548
X-59.157 Y53.268
X-59.098 Y53.375 Z-8.552
X-59.097 Y53.377
X-59.052 Y53.492 Z-8.557
X-59.051 Y53.494
X-59.021 Y53.613 Z-8.561
X-59.02 Y53.615
X-59.005 Y53.736 Z-8.565
Y53.738
Y53.861 Z-8.57
Y53.863
X-59.02 Y53.986 Z-8.574
X-59.021 Y53.988
X-59.051 Y54.107 Z-8.578
X-59.052 Y54.109
X-59.097 Y54.223 Z-8.583
X-59.098 Y54.225
X-59.158 Y54.333 Z-8.587
X-59.159 Y54.335
X-59.232 Y54.435 Z-8.592
X-59.233 Y54.437
X-59.317 Y54.526 Z-8.596
X-59.319 Y54.528
X-59.414 Y54.606 Z-8.6
X-59.415 Y54.607
X-59.518 Y54.673 Z-8.605
X-59.52 Y54.674
X-59.632 Y54.727 Z-8.609
X-59.634
X-59.751 Y54.765 Z-8.613
X-59.753 Y54.766
X-59.874 Y54.789 Z-8.618
X-59.876
X-59.999 Y54.797 Z-8.622
X-60.001
X-60.124 Y54.789 Z-8.626
X-60.126 Z-8.627
X-60.247 Y54.766 Z-8.631
X-60.249 Y54.765
X-60.367 Y54.727 Z-8.635
X-60.369 Y54.726
X-60.48 Y54.674 Z-8.64
X-60.482 Y54.672
X-60.585 Y54.607 Z-8.644
X-60.587 Y54.605
X-60.682 Y54.527 Z-8.648
X-60.684 Y54.525
X-60.767 Y54.437 Z-8.653
X-60.769 Y54.434
X-60.841 Y54.335 Z-8.657
X-60.842 Y54.333
X-60.901 Y54.226 Z-8.661
X-60.902 Y54.224
X-60.948 Y54.109 Z-8.666
X-60.949 Y54.107
X-60.979 Y53.987 Z-8.67
Y53.986
X-60.995 Y53.863 Z-8.675
Y53.861
Y53.738 Z-8.679
Y53.736
X-60.98 Y53.615 Z-8.683
X-60.979 Y53.613
X-60.948 Y53.492 Z-8.688
X-60.903 Y53.378 Z-8.692
X-60.902 Y53.375
X-60.842 Y53.267 Z-8.696
X-60.841 Y53.265 Z-8.697
X-60.768 Y53.165 Z-8.701
X-60.767 Y53.163
X-60.684 Y53.075 Z-8.705
X-60.682 Y53.072
X-60.588 Y52.995 Z-8.71
X-60.586 Y52.993
X-60.482 Y52.927 Z-8.714
X-60.48 Y52.926
X-60.368 Y52.873 Z-8.718
X-60.366
X-60.248 Y52.834 Z-8.723
X-60.246
X-60.126 Y52.811 Z-8.727
X-60.124
X-60.001 Y52.803 Z-8.731
X-59.999
X-59.876 Y52.811 Z-8.736
X-59.875
X-59.753 Y52.834 Z-8.74
X-59.751
X-59.635 Y52.872 Z-8.744
X-59.633 Y52.873 Z-8.745
X-59.522 Y52.925 Z-8.749
X-59.52 Y52.926
X-59.415 Y52.993 Z-8.753
X-59.413 Y52.995
X-59.319 Y53.072 Z-8.758
X-59.317 Y53.074
X-59.233 Y53.163 Z-8.762
X-59.231 Y53.165
X-59.158 Y53.265 Z-8.766
X-59.157 Y53.268
X-59.098 Y53.375 Z-8.771
X-59.097 Y53.377
X-59.052 Y53.492 Z-8.775
X-59.051 Y53.494
X-59.021 Y53.613 Z-8.78
X-59.02 Y53.615
X-59.005 Y53.736 Z-8.784
Y53.738
Y53.861 Z-8.788
Y53.863
X-59.02 Y53.986 Z-8.793
X-59.021 Y53.988
X-59.051 Y54.107 Z-8.797
X-59.052 Y54.109
X-59.097 Y54.223 Z-8.801
X-59.098 Y54.225
X-59.158 Y54.333 Z-8.806
X-59.159 Y54.335
X-59.232 Y54.435 Z-8.81
X-59.233 Y54.437
X-59.317 Y54.526 Z-8.814
X-59.319 Y54.528 Z-8.815
X-59.414 Y54.606 Z-8.819
X-59.415 Y54.607
X-59.518 Y54.673 Z-8.823
X-59.52 Y54.674
X-59.632 Y54.727 Z-8.828
X-59.634
X-59.751 Y54.765 Z-8.832
X-59.753 Y54.766
X-59.874 Y54.789 Z-8.836
X-59.876
X-59.999 Y54.797 Z-8.841
X-60.001
X-60.124 Y54.789 Z-8.845
X-60.126
X-60.247 Y54.766 Z-8.849
X-60.249 Y54.765 Z-8.85
X-60.367 Y54.727 Z-8.854
X-60.369 Y54.726
X-60.48 Y54.674 Z-8.858
X-60.482 Y54.672
X-60.585 Y54.607 Z-8.863
X-60.587 Y54.605
X-60.682 Y54.527 Z-8.867
X-60.684 Y54.525
X-60.767 Y54.437 Z-8.871
X-60.769 Y54.434
X-60.841 Y54.335 Z-8.876
X-60.842 Y54.333
X-60.901 Y54.226 Z-8.88
X-60.902 Y54.224
X-60.948 Y54.109 Z-8.884
X-60.949 Y54.107 Z-8.885
X-60.979 Y53.987 Z-8.889
Y53.986
X-60.995 Y53.863 Z-8.893
Y53.861
Y53.738 Z-8.898
Y53.736
X-60.98 Y53.615 Z-8.902
X-60.979 Y53.613
X-60.948 Y53.492 Z-8.906
X-60.903 Y53.378 Z-8.911
X-60.902 Y53.375
X-60.842 Y53.267 Z-8.915
X-60.841 Y53.265
X-60.768 Y53.165 Z-8.919
X-60.767 Y53.163 Z-8.92
X-60.684 Y53.075 Z-8.924
X-60.682 Y53.072
X-60.588 Y52.995 Z-8.928
X-60.586 Y52.993
X-60.482 Y52.927 Z-8.933
X-60.48 Y52.926
X-60.368 Y52.873 Z-8.937
X-60.366
X-60.248 Y52.834 Z-8.941
X-60.246
X-60.126 Y52.811 Z-8.946
X-60.124
X-60.001 Y52.803 Z-8.95
X-59.999
X-59.876 Y52.811 Z-8.954
X-59.875
X-59.753 Y52.834 Z-8.959
X-59.751
X-59.635 Y52.872 Z-8.963
X-59.633 Y52.873
X-59.522 Y52.925 Z-8.967
X-59.52 Y52.926 Z-8.968
X-59.415 Y52.993 Z-8.972
X-59.413 Y52.995
X-59.319 Y53.072 Z-8.976
X-59.317 Y53.074
X-59.233 Y53.163 Z-8.981
X-59.231 Y53.165
X-59.158 Y53.265 Z-8.985
X-59.157 Y53.268
X-59.098 Y53.375 Z-8.989
X-59.097 Y53.377
X-59.052 Y53.492 Z-8.994
X-59.051 Y53.494
X-59.021 Y53.613 Z-8.998
X-59.02 Y53.615
X-59.005 Y53.736 Z-9.002
Y53.738 Z-9.003
Y53.861 Z-9.007
Y53.863
X-59.02 Y53.986 Z-9.011
X-59.021 Y53.988
X-59.051 Y54.107 Z-9.016
X-59.052 Y54.109
X-59.097 Y54.223 Z-9.02
X-59.098 Y54.225
X-59.158 Y54.333 Z-9.024
X-59.159 Y54.335
X-59.232 Y54.435 Z-9.029
X-59.233 Y54.437
X-59.317 Y54.526 Z-9.033
X-59.319 Y54.528
X-59.414 Y54.606 Z-9.037
X-59.415 Y54.607 Z-9.038
X-59.518 Y54.673 Z-9.042
X-59.52 Y54.674
X-59.632 Y54.727 Z-9.046
X-59.634
X-59.751 Y54.765 Z-9.051
X-59.753 Y54.766
X-59.874 Y54.789 Z-9.055
X-59.876
X-59.999 Y54.797 Z-9.059
X-60.001
X-60.124 Y54.789 Z-9.064
X-60.126
X-60.247 Y54.766 Z-9.068
X-60.249 Y54.765
X-60.367 Y54.727 Z-9.072
X-60.369 Y54.726 Z-9.073
X-60.48 Y54.674 Z-9.077
X-60.482 Y54.672
X-60.585 Y54.607 Z-9.081
X-60.587 Y54.605
X-60.682 Y54.527 Z-9.086
X-60.684 Y54.525
X-60.767 Y54.437 Z-9.09
X-60.769 Y54.434
X-60.841 Y54.335 Z-9.094
X-60.842 Y54.333
X-60.901 Y54.226 Z-9.099
X-60.902 Y54.224
X-60.948 Y54.109 Z-9.103
X-60.949 Y54.107
X-60.979 Y53.987 Z-9.107
Y53.986
X-60.995 Y53.863 Z-9.112
Y53.861
Y53.738 Z-9.116
Y53.736
X-60.98 Y53.615 Z-9.121
X-60.979 Y53.613
X-60.948 Y53.492 Z-9.125
X-60.903 Y53.378 Z-9.129
X-60.902 Y53.375
X-60.842 Y53.267 Z-9.134
X-60.841 Y53.265
X-60.768 Y53.165 Z-9.138
X-60.767 Y53.163
X-60.684 Y53.075 Z-9.142
X-60.682 Y53.072
X-60.588 Y52.995 Z-9.147
X-60.586 Y52.993
X-60.482 Y52.927 Z-9.151
X-60.48 Y52.926
X-60.368 Y52.873 Z-9.156
X-60.366
X-60.248 Y52.834 Z-9.16
X-60.246
X-60.126 Y52.811 Z-9.164
X-60.124
X-60.001 Y52.803 Z-9.169
X-59.999
X-59.876 Y52.811 Z-9.173
X-59.875
X-59.753 Y52.834 Z-9.177
X-59.751
X-59.635 Y52.872 Z-9.182
X-59.633 Y52.873
X-59.522 Y52.925 Z-9.186
X-59.52 Y52.926
X-59.415 Y52.993 Z-9.19
X-59.413 Y52.995 Z-9.191
X-59.319 Y53.072 Z-9.195
X-59.317 Y53.074
X-59.233 Y53.163 Z-9.199
X-59.231 Y53.165
X-59.158 Y53.265 Z-9.204
X-59.157 Y53.268
X-59.098 Y53.375 Z-9.208
X-59.097 Y53.377
X-59.052 Y53.492 Z-9.212
X-59.051 Y53.494
X-59.021 Y53.613 Z-9.217
X-59.02 Y53.615
X-59.005 Y53.736 Z-9.221
Y53.738
Y53.861 Z-9.225
Y53.863 Z-9.226
X-59.02 Y53.986 Z-9.23
X-59.021 Y53.988
X-59.051 Y54.107 Z-9.234
X-59.052 Y54.109
X-59.097 Y54.223 Z-9.239
X-59.098 Y54.225
X-59.158 Y54.333 Z-9.243
X-59.159 Y54.335
X-59.232 Y54.435 Z-9.247
X-59.233 Y54.437
X-59.317 Y54.526 Z-9.252
X-59.319 Y54.528
X-59.414 Y54.606 Z-9.256
X-59.415 Y54.607
X-59.518 Y54.673 Z-9.26
X-59.52 Y54.674 Z-9.261
X-59.632 Y54.727 Z-9.265
X-59.634
X-59.751 Y54.765 Z-9.269
X-59.753 Y54.766
X-59.874 Y54.789 Z-9.274
X-59.876
X-59.999 Y54.797 Z-9.278
X-60.001
X-60.124 Y54.789 Z-9.282
X-60.126
X-60.247 Y54.766 Z-9.287
X-60.249 Y54.765
X-60.367 Y54.727 Z-9.291
X-60.369 Y54.726
X-60.48 Y54.674 Z-9.295
X-60.482 Y54.672 Z-9.296
X-60.585 Y54.607 Z-9.3
X-60.587 Y54.605
X-60.682 Y54.527 Z-9.304
X-60.684 Y54.525
X-60.767 Y54.437 Z-9.309
X-60.769 Y54.434
X-60.841 Y54.335 Z-9.313
X-60.842 Y54.333
X-60.901 Y54.226 Z-9.317
X-60.902 Y54.224
X-60.948 Y54.109 Z-9.322
X-60.949 Y54.107
X-60.979 Y53.987 Z-9.326
Y53.986
X-60.995 Y53.863 Z-9.33
Y53.861 Z-9.331
Y53.738 Z-9.335
Y53.736
X-60.98 Y53.615 Z-9.339
X-60.979 Y53.613
X-60.948 Y53.492 Z-9.344
X-60.903 Y53.378 Z-9.348
X-60.902 Y53.375
X-60.842 Y53.267 Z-9.352
X-60.841 Y53.265
X-60.768 Y53.165 Z-9.357
X-60.767 Y53.163
X-60.684 Y53.075 Z-9.361
X-60.682 Y53.072
X-60.588 Y52.995 Z-9.365
X-60.586 Y52.993
X-60.482 Y52.927 Z-9.37
X-60.48 Y52.926
X-60.368 Y52.873 Z-9.374
X-60.366
X-60.248 Y52.834 Z-9.379
X-60.246
X-60.126 Y52.811 Z-9.383
X-60.124
X-60.001 Y52.803 Z-9.387
X-59.999
X-59.876 Y52.811 Z-9.392
X-59.875
X-59.753 Y52.834 Z-9.396
X-59.751
X-59.635 Y52.872 Z-9.4
X-59.633 Y52.873
X-59.522 Y52.925 Z-9.405
X-59.52 Y52.926
X-59.415 Y52.993 Z-9.409
X-59.413 Y52.995
X-59.319 Y53.072 Z-9.413
X-59.317 Y53.074 Z-9.414
X-59.233 Y53.163 Z-9.418
X-59.231 Y53.165
X-59.158 Y53.265 Z-9.422
X-59.157 Y53.268
X-59.098 Y53.375 Z-9.427
X-59.097 Y53.377
X-59.052 Y53.492 Z-9.431
X-59.051 Y53.494
X-59.021 Y53.613 Z-9.435
X-59.02 Y53.615
X-59.005 Y53.736 Z-9.44
Y53.738
Y53.861 Z-9.444
Y53.863
X-59.02 Y53.986 Z-9.448
X-59.021 Y53.988 Z-9.449
X-59.051 Y54.107 Z-9.453
X-59.052 Y54.109
X-59.097 Y54.223 Z-9.457
X-59.098 Y54.225
X-59.158 Y54.333 Z-9.462
X-59.159 Y54.335
X-59.232 Y54.435 Z-9.466
X-59.233 Y54.437
X-59.317 Y54.526 Z-9.47
X-59.319 Y54.528
X-59.414 Y54.606 Z-9.475
X-59.415 Y54.607
X-59.518 Y54.673 Z-9.479
X-59.52 Y54.674
X-59.632 Y54.727 Z-9.483
X-59.634 Z-9.484
X-59.751 Y54.765 Z-9.488
X-59.753 Y54.766
X-59.874 Y54.789 Z-9.492
X-59.876
X-59.999 Y54.797 Z-9.497
X-60.001
X-60.124 Y54.789 Z-9.501
X-60.126
X-60.247 Y54.766 Z-9.505
X-60.249 Y54.765
X-60.367 Y54.727 Z-9.51
X-60.369 Y54.726
X-60.48 Y54.674 Z-9.514
X-60.482 Y54.672
X-60.585 Y54.607 Z-9.518
X-60.587 Y54.605 Z-9.519
X-60.682 Y54.527 Z-9.523
X-60.684 Y54.525
X-60.767 Y54.437 Z-9.527
X-60.769 Y54.434
X-60.841 Y54.335 Z-9.532
X-60.842 Y54.333
X-60.901 Y54.226 Z-9.536
X-60.902 Y54.224
X-60.948 Y54.109 Z-9.54
X-60.949 Y54.107
X-60.979 Y53.987 Z-9.545
Y53.986
X-60.995 Y53.863 Z-9.549
Y53.861
Y53.738 Z-9.553
Y53.736
X-60.98 Y53.615 Z-9.558
X-60.979 Y53.613
X-60.948 Y53.492 Z-9.562
X-60.903 Y53.378 Z-9.566
X-60.902 Y53.375 Z-9.567
X-60.842 Y53.267 Z-9.571
X-60.841 Y53.265
X-60.768 Y53.165 Z-9.575
X-60.767 Y53.163
X-60.684 Y53.075 Z-9.58
X-60.682 Y53.072
X-60.588 Y52.995 Z-9.584
X-60.586 Y52.993
X-60.482 Y52.927 Z-9.588
X-60.48 Y52.926
X-60.368 Y52.873 Z-9.593
X-60.366
X-60.248 Y52.834 Z-9.597
X-60.246
X-60.126 Y52.811 Z-9.601
X-60.124 Z-9.602
X-60.001 Y52.803 Z-9.606
X-59.999
X-59.876 Y52.811 Z-9.61
X-59.875
X-59.753 Y52.834 Z-9.615
X-59.751
X-59.635 Y52.872 Z-9.619
X-59.633 Y52.873
X-59.522 Y52.925 Z-9.623
X-59.52 Y52.926
X-59.415 Y52.993 Z-9.628
X-59.413 Y52.995
X-59.319 Y53.072 Z-9.632
X-59.317 Y53.074
X-59.233 Y53.163 Z-9.636
X-59.231 Y53.165 Z-9.637
X-59.158 Y53.265 Z-9.641
X-59.157 Y53.268
X-59.098 Y53.375 Z-9.645
X-59.097 Y53.377
X-59.052 Y53.492 Z-9.65
X-59.051 Y53.494
X-59.021 Y53.613 Z-9.654
X-59.02 Y53.615
X-59.005 Y53.736 Z-9.658
Y53.738
Y53.861 Z-9.663
Y53.863
X-59.02 Y53.986 Z-9.667
X-59.021 Y53.988
X-59.051 Y54.107 Z-9.671
X-59.052 Y54.109
X-59.097 Y54.223 Z-9.676
X-59.098 Y54.225
X-59.158 Y54.333 Z-9.68
X-59.159 Y54.335
X-59.232 Y54.435 Z-9.685
X-59.233 Y54.437
X-59.317 Y54.526 Z-9.689
X-59.319 Y54.528
X-59.414 Y54.606 Z-9.693
X-59.415 Y54.607
X-59.518 Y54.673 Z-9.698
X-59.52 Y54.674
X-59.632 Y54.727 Z-9.702
X-59.634
X-59.751 Y54.765 Z-9.706
X-59.753 Y54.766 Z-9.707
X-59.874 Y54.789 Z-9.711
X-59.876
X-59.999 Y54.797 Z-9.715
X-60.001
X-60.124 Y54.789 Z-9.72
X-60.126
X-60.247 Y54.766 Z-9.724
X-60.249 Y54.765
X-60.367 Y54.727 Z-9.728
X-60.369 Y54.726
X-60.48 Y54.674 Z-9.733
X-60.482 Y54.672
X-60.585 Y54.607 Z-9.737
X-60.587 Y54.605
X-60.682 Y54.527 Z-9.741
X-60.684 Y54.525 Z-9.742
X-60.767 Y54.437 Z-9.746
X-60.769 Y54.434
X-60.841 Y54.335 Z-9.75
X-60.842 Y54.333
X-60.901 Y54.226 Z-9.754
X-60.902 Y54.224 Z-9.755
X-60.948 Y54.109 Z-9.759
X-60.949 Y54.107
X-60.979 Y53.987 Z-9.763
Y53.986
X-60.995 Y53.863 Z-9.768
Y53.861
Y53.738 Z-9.772
Y53.736
X-60.98 Y53.615 Z-9.776
X-60.979 Y53.613
X-60.948 Y53.492 Z-9.781
X-60.903 Y53.378 Z-9.785
X-60.902 Y53.375
X-60.842 Y53.267 Z-9.789
X-60.841 Y53.265 Z-9.79
X-60.768 Y53.165 Z-9.794
X-60.767 Y53.163
X-60.684 Y53.075 Z-9.798
X-60.682 Y53.072
X-60.588 Y52.995 Z-9.803
X-60.586 Y52.993
X-60.482 Y52.927 Z-9.807
X-60.48 Y52.926
X-60.368 Y52.873 Z-9.811
X-60.366
X-60.248 Y52.834 Z-9.816
X-60.246
X-60.126 Y52.811 Z-9.82
X-60.124
X-60.001 Y52.803 Z-9.824
X-59.999 Z-9.825
X-59.876 Y52.811 Z-9.829
X-59.875
X-59.753 Y52.834 Z-9.833
X-59.751
X-59.635 Y52.872 Z-9.838
X-59.633 Y52.873
X-59.522 Y52.925 Z-9.842
X-59.52 Y52.926
X-59.415 Y52.993 Z-9.846
X-59.413 Y52.995
X-59.319 Y53.072 Z-9.851
X-59.317 Y53.074
X-59.233 Y53.163 Z-9.855
X-59.231 Y53.165
X-59.158 Y53.265 Z-9.859
X-59.157 Y53.268 Z-9.86
X-59.098 Y53.375 Z-9.864
X-59.097 Y53.377
X-59.052 Y53.492 Z-9.868
X-59.051 Y53.494
X-59.021 Y53.613 Z-9.873
X-59.02 Y53.615
X-59.005 Y53.736 Z-9.877
Y53.738
Y53.861 Z-9.881
Y53.863
X-59.02 Y53.986 Z-9.886
X-59.021 Y53.988
X-59.051 Y54.107 Z-9.89
X-59.052 Y54.109
X-59.097 Y54.223 Z-9.894
X-59.098 Y54.225
X-59.158 Y54.333 Z-9.899
X-59.159 Y54.335
X-59.232 Y54.435 Z-9.903
X-59.233 Y54.437
X-59.317 Y54.526 Z-9.908
X-59.319 Y54.528
X-59.414 Y54.606 Z-9.912
X-59.415 Y54.607
X-59.518 Y54.673 Z-9.916
X-59.52 Y54.674
X-59.632 Y54.727 Z-9.921
X-59.634
X-59.751 Y54.765 Z-9.925
X-59.753 Y54.766
X-59.874 Y54.789 Z-9.929
X-59.876
X-59.999 Y54.797 Z-9.934
X-60.001
X-60.124 Y54.789 Z-9.938
X-60.126
X-60.247 Y54.766 Z-9.943
X-60.249 Y54.765
X-60.367 Y54.727 Z-9.947
X-60.369 Y54.726
X-60.48 Y54.674 Z-9.951
X-60.482 Y54.672
X-60.585 Y54.607 Z-9.956
X-60.587 Y54.605
X-60.682 Y54.527 Z-9.96
X-60.684 Y54.525
X-60.767 Y54.437 Z-9.964
X-60.769 Y54.434
X-60.841 Y54.335 Z-9.969
X-60.842 Y54.333
X-60.901 Y54.226 Z-9.973
X-60.902 Y54.224
X-60.948 Y54.109 Z-9.978
X-60.949 Y54.107
X-60.979 Y53.987 Z-9.982
Y53.986
X-60.995 Y53.863 Z-9.986
Y53.861
Y53.738 Z-9.991
Y53.736
X-60.98 Y53.615 Z-9.995
X-60.979 Y53.613
X-60.948 Y53.492 Z-9.999
X-60.903 Y53.378 Z-10.004
X-60.902 Y53.375
X-60.842 Y53.267 Z-10.008
X-60.841 Y53.265
X-60.768 Y53.165 Z-10.013
X-60.767 Y53.163
X-60.684 Y53.075 Z-10.017
X-60.682 Y53.072
X-60.588 Y52.995 Z-10.021
X-60.586 Y52.993
X-60.482 Y52.927 Z-10.026
X-60.48 Y52.926
X-60.368 Y52.873 Z-10.03
X-60.366
X-60.248 Y52.834 Z-10.034
X-60.246
X-60.126 Y52.811 Z-10.039
X-60.124
X-60.001 Y52.803 Z-10.043
X-59.999
X-59.876 Y52.811 Z-10.047
X-59.875 Z-10.048
X-59.753 Y52.834 Z-10.052
X-59.751
X-59.635 Y52.872 Z-10.056
X-59.633 Y52.873
X-59.522 Y52.925 Z-10.061
X-59.52 Y52.926
X-59.415 Y52.993 Z-10.065
X-59.413 Y52.995
X-59.319 Y53.072 Z-10.069
X-59.317 Y53.074
X-59.233 Y53.163 Z-10.074
X-59.231 Y53.165
X-59.158 Y53.265 Z-10.078
X-59.157 Y53.268
X-59.098 Y53.375 Z-10.082
X-59.097 Y53.377 Z-10.083
X-59.052 Y53.492 Z-10.087
X-59.051 Y53.494
X-59.021 Y53.613 Z-10.091
X-59.02 Y53.615
X-59.005 Y53.736 Z-10.096
Y53.738
Y53.861 Z-10.1
Y53.863
X-59.02 Y53.986 Z-10.104
X-59.021 Y53.988
X-59.051 Y54.107 Z-10.109
X-59.052 Y54.109
X-59.097 Y54.223 Z-10.113
X-59.098 Y54.225
X-59.158 Y54.333 Z-10.117
X-59.159 Y54.335
X-59.232 Y54.435 Z-10.122
X-59.233 Y54.437
X-59.317 Y54.526 Z-10.126
X-59.319 Y54.528
X-59.414 Y54.606 Z-10.131
X-59.415 Y54.607
X-59.518 Y54.673 Z-10.135
X-59.52 Y54.674
X-59.632 Y54.727 Z-10.139
X-59.634
X-59.751 Y54.765 Z-10.144
X-59.753 Y54.766
X-59.874 Y54.789 Z-10.148
X-59.876
X-59.999 Y54.797 Z-10.152
X-60.001
X-60.124 Y54.789 Z-10.157
X-60.126
X-60.247 Y54.766 Z-10.161
X-60.249 Y54.765
X-60.367 Y54.727 Z-10.166
X-60.369 Y54.726
X-60.48 Y54.674 Z-10.17
X-60.482 Y54.672
X-60.585 Y54.607 Z-10.174
X-60.587 Y54.605
X-60.682 Y54.527 Z-10.179
X-60.684 Y54.525
X-60.767 Y54.437 Z-10.183
X-60.769 Y54.434
X-60.841 Y54.335 Z-10.187
X-60.842 Y54.333
X-60.901 Y54.226 Z-10.192
X-60.902 Y54.224
X-60.948 Y54.109 Z-10.196
X-60.949 Y54.107
X-60.979 Y53.987 Z-10.201
Y53.986
X-60.995 Y53.863 Z-10.205
Y53.861
Y53.738 Z-10.209
Y53.736
X-60.98 Y53.615 Z-10.214
X-60.979 Y53.613
X-60.948 Y53.492 Z-10.218
X-60.903 Y53.378 Z-10.222
X-60.902 Y53.375
X-60.842 Y53.267 Z-10.227
X-60.841 Y53.265
X-60.768 Y53.165 Z-10.231
X-60.767 Y53.163
X-60.684 Y53.075 Z-10.235
X-60.682 Y53.072 Z-10.236
X-60.588 Y52.995 Z-10.24
X-60.586 Y52.993
X-60.482 Y52.927 Z-10.244
X-60.48 Y52.926
X-60.368 Y52.873 Z-10.249
X-60.366
X-60.248 Y52.834 Z-10.253
X-60.246
X-60.126 Y52.811 Z-10.257
X-60.124
X-60.001 Y52.803 Z-10.262
X-59.999
X-59.876 Y52.811 Z-10.266
X-59.875
X-59.753 Y52.834 Z-10.27
X-59.751 Z-10.271
X-59.635 Y52.872 Z-10.275
X-59.633 Y52.873
X-59.522 Y52.925 Z-10.279
X-59.52 Y52.926
X-59.415 Y52.993 Z-10.284
X-59.413 Y52.995
X-59.319 Y53.072 Z-10.288
X-59.317 Y53.074
X-59.233 Y53.163 Z-10.292
X-59.231 Y53.165
X-59.158 Y53.265 Z-10.297
X-59.157 Y53.268
X-59.098 Y53.375 Z-10.301
X-59.097 Y53.377
X-59.052 Y53.492 Z-10.305
X-59.051 Y53.494 Z-10.306
X-59.021 Y53.613 Z-10.31
X-59.02 Y53.615
X-59.005 Y53.736 Z-10.314
Y53.738
Y53.861 Z-10.319
Y53.863
X-59.02 Y53.986 Z-10.323
X-59.021 Y53.988
X-59.051 Y54.107 Z-10.327
X-59.052 Y54.109
X-59.097 Y54.223 Z-10.332
X-59.098 Y54.225
X-59.158 Y54.333 Z-10.336
X-59.159 Y54.335
X-59.232 Y54.435 Z-10.34
X-59.233 Y54.437 Z-10.341
X-59.317 Y54.526 Z-10.345
X-59.319 Y54.528
X-59.414 Y54.606 Z-10.349
X-59.415 Y54.607
X-59.518 Y54.673 Z-10.353
X-59.52 Y54.674 Z-10.354
X-59.632 Y54.727 Z-10.358
X-59.634
X-59.751 Y54.765 Z-10.362
X-59.753 Y54.766
X-59.874 Y54.789 Z-10.367
X-59.876
X-59.999 Y54.797 Z-10.371
X-60.001
X-60.124 Y54.789 Z-10.375
X-60.126
X-60.247 Y54.766 Z-10.38
X-60.249 Y54.765
X-60.367 Y54.727 Z-10.384
X-60.369 Y54.726
X-60.48 Y54.674 Z-10.389
X-60.482 Y54.672
X-60.585 Y54.607 Z-10.393
X-60.587 Y54.605
X-60.682 Y54.527 Z-10.397
X-60.684 Y54.525
X-60.767 Y54.437 Z-10.402
X-60.769 Y54.434
X-60.841 Y54.335 Z-10.406
X-60.842 Y54.333
X-60.901 Y54.226 Z-10.41
X-60.902 Y54.224
X-60.948 Y54.109 Z-10.415
X-60.949 Y54.107
X-60.979 Y53.987 Z-10.419
Y53.986
X-60.995 Y53.863 Z-10.424
Y53.861
Y53.738 Z-10.428
Y53.736
X-60.98 Y53.615 Z-10.432
X-60.979 Y53.613
X-60.948 Y53.492 Z-10.437
X-60.903 Y53.378 Z-10.441
X-60.902 Y53.375
X-60.842 Y53.267 Z-10.445
X-60.841 Y53.265
X-60.768 Y53.165 Z-10.45
X-60.767 Y53.163
X-60.684 Y53.075 Z-10.454
X-60.682 Y53.072
X-60.588 Y52.995 Z-10.458
X-60.586 Y52.993 Z-10.459
X-60.482 Y52.927 Z-10.463
X-60.48 Y52.926
X-60.368 Y52.873 Z-10.467
X-60.366
X-60.248 Y52.834 Z-10.472
X-60.246
X-60.126 Y52.811 Z-10.476
X-60.124
X-60.001 Y52.803 Z-10.48
X-59.999
X-59.876 Y52.811 Z-10.485
X-59.875
X-59.753 Y52.834 Z-10.489
X-59.751
X-59.635 Y52.872 Z-10.493
X-59.633 Y52.873
X-59.522 Y52.925 Z-10.498
X-59.52 Y52.926
X-59.415 Y52.993 Z-10.502
X-59.413 Y52.995
X-59.319 Y53.072 Z-10.507
X-59.317 Y53.074
X-59.233 Y53.163 Z-10.511
X-59.231 Y53.165
X-59.158 Y53.265 Z-10.515
X-59.157 Y53.268
X-59.098 Y53.375 Z-10.52
X-59.097 Y53.377
X-59.052 Y53.492 Z-10.524
X-59.051 Y53.494
X-59.021 Y53.613 Z-10.528
X-59.02 Y53.615 Z-10.529
X-59.005 Y53.736 Z-10.533
Y53.738
Y53.861 Z-10.537
Y53.863
X-59.02 Y53.986 Z-10.542
X-59.021 Y53.988
X-59.051 Y54.107 Z-10.546
X-59.052 Y54.109
X-59.097 Y54.223 Z-10.55
X-59.098 Y54.225
X-59.158 Y54.333 Z-10.555
X-59.159 Y54.335
X-59.232 Y54.435 Z-10.559
X-59.233 Y54.437
X-59.317 Y54.526 Z-10.563
X-59.319 Y54.528
X-59.414 Y54.606 Z-10.568
X-59.415 Y54.607
X-59.518 Y54.673 Z-10.572
X-59.52 Y54.674
X-59.632 Y54.727 Z-10.577
X-59.634
X-59.751 Y54.765 Z-10.581
X-59.753 Y54.766
X-59.874 Y54.789 Z-10.585
X-59.876
X-59.999 Y54.797 Z-10.59
X-60.001
X-60.124 Y54.789 Z-10.594
X-60.126
X-60.247 Y54.766 Z-10.598
X-60.249 Y54.765
X-60.367 Y54.727 Z-10.603
X-60.369 Y54.726
X-60.48 Y54.674 Z-10.607
X-60.482 Y54.672
X-60.585 Y54.607 Z-10.611
X-60.587 Y54.605 Z-10.612
X-60.682 Y54.527 Z-10.616
X-60.684 Y54.525
X-60.767 Y54.437 Z-10.62
X-60.769 Y54.434
X-60.841 Y54.335 Z-10.625
X-60.842 Y54.333
X-60.901 Y54.226 Z-10.629
X-60.902 Y54.224
X-60.948 Y54.109 Z-10.633
X-60.949 Y54.107
X-60.979 Y53.987 Z-10.638
Y53.986
X-60.995 Y53.863 Z-10.642
Y53.861
Y53.738 Z-10.646
Y53.736 Z-10.647
X-60.98 Y53.615 Z-10.651
X-60.979 Y53.613
X-60.948 Y53.492 Z-10.655
X-60.903 Y53.378 Z-10.66
X-60.902 Y53.375
X-60.842 Y53.267 Z-10.664
X-60.841 Y53.265
X-60.768 Y53.165 Z-10.668
X-60.767 Y53.163
X-60.684 Y53.075 Z-10.673
X-60.682 Y53.072
X-60.588 Y52.995 Z-10.677
X-60.586 Y52.993
X-60.482 Y52.927 Z-10.681
X-60.48 Y52.926
X-60.368 Y52.873 Z-10.686
X-60.366
X-60.248 Y52.834 Z-10.69
X-60.246
X-60.126 Y52.811 Z-10.695
X-60.124
X-60.001 Y52.803 Z-10.699
X-59.999
X-59.876 Y52.811 Z-10.703
X-59.875
X-59.753 Y52.834 Z-10.708
X-59.751
X-59.635 Y52.872 Z-10.712
X-59.633 Y52.873
X-59.522 Y52.925 Z-10.716
X-59.52 Y52.926
X-59.415 Y52.993 Z-10.721
X-59.413 Y52.995
X-59.319 Y53.072 Z-10.725
X-59.317 Y53.074
X-59.233 Y53.163 Z-10.73
X-59.231 Y53.165
X-59.158 Y53.265 Z-10.734
X-59.157 Y53.268
X-59.098 Y53.375 Z-10.738
X-59.097 Y53.377
X-59.052 Y53.492 Z-10.743
X-59.051 Y53.494
X-59.021 Y53.613 Z-10.747
X-59.02 Y53.615
X-59.005 Y53.736 Z-10.751
Y53.738
Y53.861 Z-10.756
Y53.863
X-59.02 Y53.986 Z-10.76
X-59.021 Y53.988
X-59.051 Y54.107 Z-10.765
X-59.052 Y54.109
X-59.097 Y54.223 Z-10.769
X-59.098 Y54.225
X-59.158 Y54.333 Z-10.773
X-59.159 Y54.335
X-59.232 Y54.435 Z-10.778
X-59.233 Y54.437
X-59.317 Y54.526 Z-10.782
X-59.319 Y54.528
X-59.414 Y54.606 Z-10.786
X-59.415 Y54.607
X-59.518 Y54.673 Z-10.791
X-59.52 Y54.674
X-59.632 Y54.727 Z-10.795
X-59.634
X-59.751 Y54.765 Z-10.799
X-59.753 Y54.766 Z-10.8
X-59.874 Y54.789 Z-10.804
X-59.876
X-59.999 Y54.797 Z-10.808
X-60.001
X-60.124 Y54.789 Z-10.813
X-60.126
X-60.247 Y54.766 Z-10.817
X-60.249 Y54.765
X-60.367 Y54.727 Z-10.821
X-60.369 Y54.726
X-60.48 Y54.674 Z-10.826
X-60.482 Y54.672
X-60.585 Y54.607 Z-10.83
X-60.587 Y54.605
X-60.682 Y54.527 Z-10.834
X-60.684 Y54.525 Z-10.835
X-60.767 Y54.437 Z-10.839
X-60.769 Y54.434
X-60.841 Y54.335 Z-10.843
X-60.842 Y54.333
X-60.901 Y54.226 Z-10.848
X-60.902 Y54.224
X-60.948 Y54.109 Z-10.852
X-60.949 Y54.107
X-60.979 Y53.987 Z-10.856
Y53.986
X-60.995 Y53.863 Z-10.861
Y53.861
Y53.738 Z-10.865
Y53.736
X-60.98 Y53.615 Z-10.869
X-60.979 Y53.613
X-60.948 Y53.492 Z-10.874
X-60.903 Y53.378 Z-10.878
X-60.902 Y53.375
X-60.842 Y53.267 Z-10.883
X-60.841 Y53.265
X-60.768 Y53.165 Z-10.887
X-60.767 Y53.163
X-60.684 Y53.075 Z-10.891
X-60.682 Y53.072
X-60.588 Y52.995 Z-10.896
X-60.586 Y52.993
X-60.482 Y52.927 Z-10.9
X-60.48 Y52.926
X-60.368 Y52.873 Z-10.904
X-60.366 Z-10.905
X-60.248 Y52.834 Z-10.909
X-60.246
X-60.126 Y52.811 Z-10.913
X-60.124
X-60.001 Y52.803 Z-10.918
X-59.999
X-59.876 Y52.811 Z-10.922
X-59.875
X-59.753 Y52.834 Z-10.926
X-59.751
X-59.635 Y52.872 Z-10.931
X-59.633 Y52.873
X-59.522 Y52.925 Z-10.935
X-59.52 Y52.926
X-59.415 Y52.993 Z-10.939
X-59.413 Y52.995 Z-10.94
X-59.319 Y53.072 Z-10.944
X-59.317 Y53.074
X-59.233 Y53.163 Z-10.948
X-59.231 Y53.165
X-59.158 Y53.265 Z-10.953
X-59.157 Y53.268
X-59.098 Y53.375 Z-10.957
X-59.097 Y53.377
X-59.052 Y53.492 Z-10.961
X-59.051 Y53.494
X-59.021 Y53.613 Z-10.966
X-59.02 Y53.615
X-59.005 Y53.736 Z-10.97
Y53.738
Y53.861 Z-10.974
Y53.863
X-59.02 Y53.986 Z-10.979
X-59.021 Y53.988
X-59.051 Y54.107 Z-10.983
X-59.052 Y54.109
X-59.097 Y54.223 Z-10.987
X-59.098 Y54.225 Z-10.988
X-59.158 Y54.333 Z-10.992
X-59.159 Y54.335
X-59.232 Y54.435 Z-10.996
X-59.233 Y54.437
X-59.301 Y54.509 Z-11.
X-59.308 Y54.517
X-59.317 Y54.526 F250.
X-59.319 Y54.528
X-59.414 Y54.606
X-59.415 Y54.607
X-59.518 Y54.673
X-59.52 Y54.674
X-59.632 Y54.727
X-59.634
X-59.751 Y54.765
X-59.753 Y54.766
X-59.874 Y54.789
X-59.876
X-59.999 Y54.797
X-60.001
X-60.124 Y54.789
X-60.126
X-60.247 Y54.766
X-60.249 Y54.765
X-60.367 Y54.727
X-60.369 Y54.726
X-60.48 Y54.674
X-60.482 Y54.672
X-60.585 Y54.607
X-60.587 Y54.605
X-60.682 Y54.527
X-60.684 Y54.525
X-60.767 Y54.437
X-60.769 Y54.434
X-60.817 Y54.368
X-60.841 Y54.335
X-60.842 Y54.333
X-60.901 Y54.226
X-60.902 Y54.224
X-60.948 Y54.109
X-60.949 Y54.107
X-60.979 Y53.987
Y53.986
X-60.995 Y53.863
Y53.861
Y53.738
Y53.736
X-60.98 Y53.622
Y53.615
X-60.979 Y53.613
X-60.948 Y53.492
X-60.903 Y53.378
X-60.902 Y53.375
X-60.842 Y53.267
X-60.841 Y53.265
X-60.768 Y53.165
X-60.767 Y53.163
X-60.684 Y53.075
X-60.682 Y53.072
X-60.588 Y52.995
X-60.586 Y52.993
X-60.482 Y52.927
X-60.48 Y52.926
X-60.368 Y52.873
X-60.366
X-60.248 Y52.834
X-60.246
X-60.126 Y52.811
X-60.124
X-60.001 Y52.803
X-59.999
X-59.876 Y52.811
X-59.875
X-59.753 Y52.834
X-59.751
X-59.635 Y52.872
X-59.633 Y52.873
X-59.522 Y52.925
X-59.52 Y52.926
X-59.415 Y52.993
X-59.413 Y52.995
X-59.319 Y53.072
X-59.317 Y53.074
X-59.233 Y53.163
X-59.231 Y53.165
X-59.158 Y53.265
X-59.157 Y53.268
X-59.098 Y53.375
X-59.097 Y53.377
X-59.052 Y53.492
X-59.051 Y53.494
X-59.021 Y53.613
X-59.02 Y53.615
X-59.005 Y53.736
Y53.738
Y53.861
Y53.863
X-59.02 Y53.986
X-59.021 Y53.988
X-59.051 Y54.107
X-59.052 Y54.109
X-59.097 Y54.223
X-59.098 Y54.225
X-59.158 Y54.333
X-59.159 Y54.335
X-59.232 Y54.435
X-59.233 Y54.437
X-59.308 Y54.517
X-59.315 Y54.525 F83.
X-59.317 Y54.526
X-59.319 Y54.528
X-59.414 Y54.606 Z-11.005
X-59.415 Y54.607
X-59.518 Y54.673 Z-11.009
X-59.52 Y54.674
X-59.632 Y54.727 Z-11.013
X-59.634
X-59.751 Y54.765 Z-11.018
X-59.753 Y54.766
X-59.874 Y54.789 Z-11.022
X-59.876
X-59.999 Y54.797 Z-11.026
X-60.001 Z-11.027
X-60.124 Y54.789 Z-11.031
X-60.126
X-60.247 Y54.766 Z-11.035
X-60.249 Y54.765
X-60.367 Y54.727 Z-11.04
X-60.369 Y54.726
X-60.48 Y54.674 Z-11.044
X-60.482 Y54.672
X-60.585 Y54.607 Z-11.048
X-60.587 Y54.605
X-60.682 Y54.527 Z-11.053
X-60.684 Y54.525
X-60.767 Y54.437 Z-11.057
X-60.769 Y54.434
X-60.841 Y54.335 Z-11.061
X-60.842 Y54.333 Z-11.062
X-60.901 Y54.226 Z-11.066
X-60.902 Y54.224
X-60.948 Y54.109 Z-11.07
X-60.949 Y54.107
X-60.979 Y53.987 Z-11.075
Y53.986
X-60.995 Y53.863 Z-11.079
Y53.861
Y53.738 Z-11.083
Y53.736
X-60.98 Y53.615 Z-11.088
X-60.979 Y53.613
X-60.948 Y53.492 Z-11.092
X-60.903 Y53.378 Z-11.096
X-60.902 Y53.375
X-60.842 Y53.267 Z-11.101
X-60.841 Y53.265
X-60.768 Y53.165 Z-11.105
X-60.767 Y53.163
X-60.684 Y53.075 Z-11.11
X-60.682 Y53.072
X-60.588 Y52.995 Z-11.114
X-60.586 Y52.993
X-60.482 Y52.927 Z-11.118
X-60.48 Y52.926
X-60.368 Y52.873 Z-11.123
X-60.366
X-60.248 Y52.834 Z-11.127
X-60.246
X-60.126 Y52.811 Z-11.131
X-60.124
X-60.001 Y52.803 Z-11.136
X-59.999
X-59.876 Y52.811 Z-11.14
X-59.875
X-59.753 Y52.834 Z-11.145
X-59.751
X-59.635 Y52.872 Z-11.149
X-59.633 Y52.873
X-59.522 Y52.925 Z-11.153
X-59.52 Y52.926
X-59.415 Y52.993 Z-11.158
X-59.413 Y52.995
X-59.319 Y53.072 Z-11.162
X-59.317 Y53.074
X-59.233 Y53.163 Z-11.166
X-59.231 Y53.165
X-59.158 Y53.265 Z-11.171
X-59.157 Y53.268
X-59.098 Y53.375 Z-11.175
X-59.097 Y53.377
X-59.052 Y53.492 Z-11.18
X-59.051 Y53.494
X-59.021 Y53.613 Z-11.184
X-59.02 Y53.615
X-59.005 Y53.736 Z-11.188
Y53.738
Y53.861 Z-11.193
Y53.863
X-59.02 Y53.986 Z-11.197
X-59.021 Y53.988
X-59.051 Y54.107 Z-11.201
X-59.052 Y54.109
X-59.097 Y54.223 Z-11.206
X-59.098 Y54.225
X-59.158 Y54.333 Z-11.21
X-59.159 Y54.335
X-59.232 Y54.435 Z-11.215
X-59.233 Y54.437
X-59.317 Y54.526 Z-11.219
X-59.319 Y54.528
X-59.414 Y54.606 Z-11.223
X-59.415 Y54.607
X-59.518 Y54.673 Z-11.228
X-59.52 Y54.674
X-59.632 Y54.727 Z-11.232
X-59.634
X-59.751 Y54.765 Z-11.236
X-59.753 Y54.766
X-59.874 Y54.789 Z-11.241
X-59.876
X-59.999 Y54.797 Z-11.245
X-60.001
X-60.124 Y54.789 Z-11.249
X-60.126 Z-11.25
X-60.247 Y54.766 Z-11.254
X-60.249 Y54.765
X-60.367 Y54.727 Z-11.258
X-60.369 Y54.726
X-60.48 Y54.674 Z-11.263
X-60.482 Y54.672
X-60.585 Y54.607 Z-11.267
X-60.587 Y54.605
X-60.682 Y54.527 Z-11.271
X-60.684 Y54.525
X-60.767 Y54.437 Z-11.276
X-60.769 Y54.434
X-60.841 Y54.335 Z-11.28
X-60.842 Y54.333
X-60.901 Y54.226 Z-11.284
X-60.902 Y54.224
X-60.948 Y54.109 Z-11.289
X-60.949 Y54.107
X-60.979 Y53.987 Z-11.293
Y53.986
X-60.995 Y53.863 Z-11.298
Y53.861
Y53.738 Z-11.302
Y53.736
X-60.98 Y53.615 Z-11.306
X-60.979 Y53.613
X-60.948 Y53.492 Z-11.311
X-60.903 Y53.378 Z-11.315
X-60.902 Y53.375
X-60.842 Y53.267 Z-11.319
X-60.841 Y53.265 Z-11.32
X-60.768 Y53.165 Z-11.324
X-60.767 Y53.163
X-60.684 Y53.075 Z-11.328
X-60.682 Y53.072
X-60.588 Y52.995 Z-11.333
X-60.586 Y52.993
X-60.482 Y52.927 Z-11.337
X-60.48 Y52.926
X-60.368 Y52.873 Z-11.341
X-60.366
X-60.248 Y52.834 Z-11.346
X-60.246
X-60.126 Y52.811 Z-11.35
X-60.124
X-60.001 Y52.803 Z-11.354
X-59.999
X-59.876 Y52.811 Z-11.359
X-59.875
X-59.753 Y52.834 Z-11.363
X-59.751
X-59.635 Y52.872 Z-11.367
X-59.633 Y52.873 Z-11.368
X-59.522 Y52.925 Z-11.372
X-59.52 Y52.926
X-59.415 Y52.993 Z-11.376
X-59.413 Y52.995
X-59.319 Y53.072 Z-11.381
X-59.317 Y53.074
X-59.233 Y53.163 Z-11.385
X-59.231 Y53.165
X-59.158 Y53.265 Z-11.389
X-59.157 Y53.268
X-59.098 Y53.375 Z-11.394
X-59.097 Y53.377
X-59.052 Y53.492 Z-11.398
X-59.051 Y53.494
X-59.021 Y53.613 Z-11.403
X-59.02 Y53.615
X-59.005 Y53.736 Z-11.407
Y53.738
Y53.861 Z-11.411
Y53.863
X-59.02 Y53.986 Z-11.416
X-59.021 Y53.988
X-59.051 Y54.107 Z-11.42
X-59.052 Y54.109
X-59.097 Y54.223 Z-11.424
X-59.098 Y54.225
X-59.158 Y54.333 Z-11.429
X-59.159 Y54.335
X-59.232 Y54.435 Z-11.433
X-59.233 Y54.437
X-59.317 Y54.526 Z-11.437
X-59.319 Y54.528 Z-11.438
X-59.414 Y54.606 Z-11.442
X-59.415 Y54.607
X-59.518 Y54.673 Z-11.446
X-59.52 Y54.674
X-59.632 Y54.727 Z-11.451
X-59.634
X-59.751 Y54.765 Z-11.455
X-59.753 Y54.766
X-59.874 Y54.789 Z-11.459
X-59.876
X-59.999 Y54.797 Z-11.464
X-60.001
X-60.124 Y54.789 Z-11.468
X-60.126
X-60.247 Y54.766 Z-11.472
X-60.249 Y54.765 Z-11.473
X-60.367 Y54.727 Z-11.477
X-60.369 Y54.726
X-60.48 Y54.674 Z-11.481
X-60.482 Y54.672
X-60.585 Y54.607 Z-11.486
X-60.587 Y54.605
X-60.682 Y54.527 Z-11.49
X-60.684 Y54.525
X-60.767 Y54.437 Z-11.494
X-60.769 Y54.434
X-60.841 Y54.335 Z-11.499
X-60.842 Y54.333
X-60.901 Y54.226 Z-11.503
X-60.902 Y54.224
X-60.948 Y54.109 Z-11.507
X-60.949 Y54.107 Z-11.508
X-60.979 Y53.987 Z-11.512
Y53.986
X-60.995 Y53.863 Z-11.516
Y53.861
Y53.738 Z-11.521
Y53.736
X-60.98 Y53.615 Z-11.525
X-60.979 Y53.613
X-60.948 Y53.492 Z-11.529
X-60.903 Y53.378 Z-11.534
X-60.902 Y53.375
X-60.842 Y53.267 Z-11.538
X-60.841 Y53.265
X-60.768 Y53.165 Z-11.542
X-60.767 Y53.163 Z-11.543
X-60.684 Y53.075 Z-11.547
X-60.682 Y53.072
X-60.588 Y52.995 Z-11.551
X-60.586 Y52.993
X-60.482 Y52.927 Z-11.556
X-60.48 Y52.926
X-60.368 Y52.873 Z-11.56
X-60.366
X-60.248 Y52.834 Z-11.564
X-60.246
X-60.126 Y52.811 Z-11.569
X-60.124
X-60.001 Y52.803 Z-11.573
X-59.999
X-59.876 Y52.811 Z-11.577
X-59.875
X-59.753 Y52.834 Z-11.582
X-59.751
X-59.635 Y52.872 Z-11.586
X-59.633 Y52.873
X-59.522 Y52.925 Z-11.59
X-59.52 Y52.926 Z-11.591
X-59.415 Y52.993 Z-11.595
X-59.413 Y52.995
X-59.319 Y53.072 Z-11.599
X-59.317 Y53.074
X-59.233 Y53.163 Z-11.604
X-59.231 Y53.165
X-59.158 Y53.265 Z-11.608
X-59.157 Y53.268
X-59.098 Y53.375 Z-11.612
X-59.097 Y53.377
X-59.052 Y53.492 Z-11.617
X-59.051 Y53.494
X-59.021 Y53.613 Z-11.621
X-59.02 Y53.615
X-59.005 Y53.736 Z-11.625
Y53.738 Z-11.626
Y53.861 Z-11.63
Y53.863
X-59.02 Y53.986 Z-11.634
X-59.021 Y53.988
X-59.051 Y54.107 Z-11.639
X-59.052 Y54.109
X-59.097 Y54.223 Z-11.643
X-59.098 Y54.225
X-59.158 Y54.333 Z-11.647
X-59.159 Y54.335
X-59.232 Y54.435 Z-11.652
X-59.233 Y54.437
X-59.317 Y54.526 Z-11.656
X-59.319 Y54.528
X-59.414 Y54.606 Z-11.66
X-59.415 Y54.607 Z-11.661
X-59.518 Y54.673 Z-11.665
X-59.52 Y54.674
X-59.632 Y54.727 Z-11.669
X-59.634
X-59.751 Y54.765 Z-11.674
X-59.753 Y54.766
X-59.874 Y54.789 Z-11.678
X-59.876
X-59.999 Y54.797 Z-11.682
X-60.001
X-60.124 Y54.789 Z-11.687
X-60.126
X-60.247 Y54.766 Z-11.691
X-60.249 Y54.765
X-60.367 Y54.727 Z-11.695
X-60.369 Y54.726 Z-11.696
X-60.48 Y54.674 Z-11.7
X-60.482 Y54.672
X-60.585 Y54.607 Z-11.704
X-60.587 Y54.605
X-60.682 Y54.527 Z-11.709
X-60.684 Y54.525
X-60.767 Y54.437 Z-11.713
X-60.769 Y54.434
X-60.841 Y54.335 Z-11.717
X-60.842 Y54.333
X-60.901 Y54.226 Z-11.722
X-60.902 Y54.224
X-60.948 Y54.109 Z-11.726
X-60.949 Y54.107
X-60.979 Y53.987 Z-11.73
Y53.986
X-60.995 Y53.863 Z-11.735
Y53.861
Y53.738 Z-11.739
Y53.736
X-60.98 Y53.615 Z-11.744
X-60.979 Y53.613
X-60.948 Y53.492 Z-11.748
X-60.903 Y53.378 Z-11.752
X-60.902 Y53.375
X-60.842 Y53.267 Z-11.757
X-60.841 Y53.265
X-60.768 Y53.165 Z-11.761
X-60.767 Y53.163
X-60.684 Y53.075 Z-11.765
X-60.682 Y53.072
X-60.588 Y52.995 Z-11.77
X-60.586 Y52.993
X-60.482 Y52.927 Z-11.774
X-60.48 Y52.926
X-60.368 Y52.873 Z-11.779
X-60.366
X-60.248 Y52.834 Z-11.783
X-60.246
X-60.126 Y52.811 Z-11.787
X-60.124
X-60.001 Y52.803 Z-11.792
X-59.999
X-59.876 Y52.811 Z-11.796
X-59.875
X-59.753 Y52.834 Z-11.8
X-59.751
X-59.635 Y52.872 Z-11.805
X-59.633 Y52.873
X-59.522 Y52.925 Z-11.809
X-59.52 Y52.926
X-59.415 Y52.993 Z-11.813
X-59.413 Y52.995 Z-11.814
X-59.319 Y53.072 Z-11.818
X-59.317 Y53.074
X-59.233 Y53.163 Z-11.822
X-59.231 Y53.165
X-59.158 Y53.265 Z-11.827
X-59.157 Y53.268
X-59.098 Y53.375 Z-11.831
X-59.097 Y53.377
X-59.052 Y53.492 Z-11.835
X-59.051 Y53.494
X-59.021 Y53.613 Z-11.84
X-59.02 Y53.615
X-59.005 Y53.736 Z-11.844
Y53.738
Y53.861 Z-11.848
Y53.863 Z-11.849
X-59.02 Y53.986 Z-11.853
X-59.021 Y53.988
X-59.051 Y54.107 Z-11.857
X-59.052 Y54.109
X-59.097 Y54.223 Z-11.862
X-59.098 Y54.225
X-59.158 Y54.333 Z-11.866
X-59.159 Y54.335
X-59.232 Y54.435 Z-11.87
X-59.233 Y54.437
X-59.317 Y54.526 Z-11.875
X-59.319 Y54.528
X-59.414 Y54.606 Z-11.879
X-59.415 Y54.607
X-59.518 Y54.673 Z-11.883
X-59.52 Y54.674 Z-11.884
X-59.632 Y54.727 Z-11.888
X-59.634
X-59.751 Y54.765 Z-11.892
X-59.753 Y54.766
X-59.874 Y54.789 Z-11.897
X-59.876
X-59.999 Y54.797 Z-11.901
X-60.001
X-60.124 Y54.789 Z-11.905
X-60.126
X-60.247 Y54.766 Z-11.91
X-60.249 Y54.765
X-60.367 Y54.727 Z-11.914
X-60.369 Y54.726
X-60.48 Y54.674 Z-11.918
X-60.482 Y54.672 Z-11.919
X-60.585 Y54.607 Z-11.923
X-60.587 Y54.605
X-60.682 Y54.527 Z-11.927
X-60.684 Y54.525
X-60.767 Y54.437 Z-11.932
X-60.769 Y54.434
X-60.841 Y54.335 Z-11.936
X-60.842 Y54.333
