(5.EDGE1)
(T2  D=3. CR=0. - ZMIN=-17. - FLAT END MILL)
G0 G90 G94 G17
G21
G53 Z0.

(OUTEREDGE1)
M5
M9
T2
(PART OF A 10 PACK CARBIDE)
M3 S18000
G54
M9
G0 X-80.706 Y42.272
Z2.
Z1.298
G1 Z-0.7 F250.
X-80.7 Y42.276 Z-0.767
X-80.68 Y42.285 Z-0.83
X-80.647 Y42.3 Z-0.887
X-80.604 Y42.321 Z-0.935
X-80.553 Y42.345 Z-0.97
X-80.496 Y42.372 Z-0.992
X-80.435 Y42.401 Z-1.
X-79.613 Y42.79
G3 X-79.47 Y43.189 I-0.128 J0.271
G1 X-79.477 Y43.206
X-79.505 Y43.275
X-79.529 Y43.344
X-79.549 Y43.414
X-79.566 Y43.483
X-79.579 Y43.552
X-79.589 Y43.621
X-79.596 Y43.691
X-79.599 Y43.76
X-79.6 Y43.898
Y103.702
X-79.599 Y103.84
X-79.596 Y103.909
X-79.589 Y103.979
X-79.579 Y104.048
X-79.566 Y104.117
X-79.549 Y104.186
X-79.529 Y104.256
X-79.505 Y104.325
X-79.477 Y104.394
X-79.47 Y104.411
X-79.441 Y104.472
X-79.409 Y104.532
X-79.372 Y104.594
X-79.332 Y104.656
X-79.321 Y104.671
X-79.269 Y104.74
X-79.21 Y104.809
X-79.193 Y104.827
X-79.129 Y104.891
X-79.066 Y104.948
X-79.055 Y104.957
X-78.985 Y105.011
X-78.916 Y105.058
X-78.872 Y105.086
X-78.778 Y105.138
X-78.709 Y105.171
X-78.639 Y105.2
X-78.57 Y105.225
X-78.501 Y105.245
X-78.432 Y105.263
X-78.363 Y105.277
X-78.293 Y105.287
X-78.224 Y105.295
X-78.086 Y105.3
X-0.014
X0.124 Y105.295
X0.193 Y105.287
X0.263 Y105.277
X0.332 Y105.263
X0.401 Y105.245
X0.47 Y105.225
X0.539 Y105.2
X0.609 Y105.171
X0.678 Y105.138
X0.772 Y105.086
X0.816 Y105.058
X0.885 Y105.011
X0.955 Y104.957
X0.966 Y104.948
X1.029 Y104.891
X1.093 Y104.827
X1.11 Y104.809
X1.169 Y104.74
X1.221 Y104.671
X1.232 Y104.656
X1.272 Y104.594
X1.309 Y104.532
X1.341 Y104.472
X1.37 Y104.411
X1.377 Y104.394
X1.405 Y104.325
X1.429 Y104.256
X1.449 Y104.186
X1.466 Y104.117
X1.479 Y104.048
X1.489 Y103.979
X1.496 Y103.909
X1.499 Y103.84
X1.5 Y103.702
Y43.898
X1.499 Y43.76
X1.496 Y43.691
X1.489 Y43.621
X1.479 Y43.552
X1.466 Y43.483
X1.449 Y43.414
X1.429 Y43.344
X1.405 Y43.275
X1.377 Y43.206
X1.37 Y43.189
X1.341 Y43.128
X1.309 Y43.068
X1.272 Y43.006
X1.232 Y42.944
X1.221 Y42.929
X1.169 Y42.86
X1.11 Y42.791
X1.093 Y42.773
X1.029 Y42.709
X0.966 Y42.652
X0.955 Y42.643
X0.885 Y42.589
X0.816 Y42.542
X0.772 Y42.514
X0.678 Y42.462
X0.609 Y42.429
X0.539 Y42.4
X0.47 Y42.375
X0.401 Y42.355
X0.332 Y42.337
X0.263 Y42.323
X0.193 Y42.313
X0.124 Y42.305
X-0.014 Y42.3
X-78.086
X-78.224 Y42.305
X-78.293 Y42.313
X-78.363 Y42.323
X-78.432 Y42.337
X-78.501 Y42.355
X-78.57 Y42.375
X-78.639 Y42.4
X-78.709 Y42.429
X-78.778 Y42.462
X-78.872 Y42.514
X-78.916 Y42.542
X-78.985 Y42.589
X-79.055 Y42.643
X-79.066 Y42.652
X-79.129 Y42.709
X-79.193 Y42.773
X-79.21 Y42.791
X-79.269 Y42.86
X-79.321 Y42.929
X-79.332 Y42.944
X-79.372 Y43.006
X-79.409 Y43.068
X-79.441 Y43.128
X-79.47 Y43.189
X-79.473 Y43.196
X-79.476 Y43.203
X-79.482 Y43.217
X-79.494 Y43.245
X-79.515 Y43.302
X-79.551 Y43.419
X-79.577 Y43.538
X-79.593 Y43.659 Z-1.001
X-79.6 Y43.781
Y43.903
Y44.147 Z-1.002
Y44.391 Z-1.004
Y44.635 Z-1.005
Y44.879 Z-1.007
Y45.123 Z-1.009
Y45.367 Z-1.012
Y45.611 Z-1.014
Y45.855 Z-1.017
Y46.099 Z-1.02
Y46.343 Z-1.024
Y46.587 Z-1.027
Y46.831 Z-1.031
Y47.075 Z-1.035
Y47.319 Z-1.04
Y47.563 Z-1.044
Y47.807 Z-1.049
Y47.929 Z-1.051
Y48.051 Z-1.054
Y48.173 Z-1.057
Y48.295 Z-1.059
Y48.417 Z-1.062
Y48.539 Z-1.065
Y48.661 Z-1.067
Y48.783 Z-1.07
Y48.905 Z-1.073
Y49.027 Z-1.076
Y49.149 Z-1.079
Y49.271 Z-1.082
Y49.393 Z-1.085
Y49.515 Z-1.088
Y49.637 Z-1.091
Y49.759 Z-1.095
Y49.881 Z-1.098
Y50.003 Z-1.101
Y50.125 Z-1.105
Y50.247 Z-1.108
Y50.369 Z-1.112
Y50.491 Z-1.115
Y50.613 Z-1.119
Y50.735 Z-1.122
Y50.857 Z-1.126
Y50.979 Z-1.129
Y51.101 Z-1.133
Y51.223 Z-1.137
Y51.345 Z-1.141
Y51.467 Z-1.145
Y51.589 Z-1.148
Y51.711 Z-1.152
Y51.833 Z-1.156
Y51.955 Z-1.16
Y52.077 Z-1.164
Y52.199 Z-1.168
Y52.321 Z-1.172
Y52.443 Z-1.177
Y52.565 Z-1.181
Y52.687 Z-1.185
Y52.809 Z-1.189
Y54.029 Z-1.232
Y54.151 Z-1.236
Y54.273 Z-1.24
Y54.395 Z-1.244
Y54.517 Z-1.249
Y54.639 Z-1.253
Y54.761 Z-1.257
Y54.883 Z-1.262
Y55.005 Z-1.266
Y55.127 Z-1.27
Y55.25 Z-1.274
Y55.372 Z-1.279
Y55.494 Z-1.283
Y55.616 Z-1.287
Y55.738 Z-1.291
Y55.86 Z-1.296
Y55.982 Z-1.3
Y56.104 Z-1.304
Y56.348 Z-1.313
Y56.714 Z-1.325
Y57.08 Z-1.338
Y57.446 Z-1.351
Y57.812 Z-1.364
Y58.178 Z-1.377
Y58.544 Z-1.389
Y59.154 Z-1.411
Y59.764 Z-1.432
Y60.618 Z-1.462
Y62.082 Z-1.513
Y67.328 Z-1.696
Y67.45 Z-1.7
Y67.572 Z-1.705
Y67.694 Z-1.709
Y67.816 Z-1.713
Y67.938 Z-1.717
Y68.06 Z-1.722
Y68.182 Z-1.726
Y68.304 Z-1.73
Y68.426 Z-1.734
Y68.548 Z-1.739
Y68.67 Z-1.743
Y68.792 Z-1.747
Y68.914 Z-1.751
Y69.036 Z-1.756
Y69.158 Z-1.76
Y69.28 Z-1.764
Y69.402 Z-1.768
Y69.524 Z-1.773
Y69.646 Z-1.777
Y69.768 Z-1.781
Y69.89 Z-1.786
Y70.012 Z-1.79
Y70.134 Z-1.794
Y70.256 Z-1.798
Y70.378 Z-1.803
Y70.744 Z-1.815
Y70.866 Z-1.819
Y70.988 Z-1.824
Y71.11 Z-1.828
Y71.232 Z-1.832
Y71.354 Z-1.836
Y71.476 Z-1.84
Y71.598 Z-1.844
Y71.72 Z-1.848
Y71.842 Z-1.852
Y71.964 Z-1.856
Y72.086 Z-1.859
Y72.208 Z-1.863
Y72.33 Z-1.867
Y72.452 Z-1.871
Y72.574 Z-1.874
Y72.696 Z-1.878
Y72.818 Z-1.882
Y72.94 Z-1.885
Y73.062 Z-1.889
Y73.184 Z-1.892
Y73.306 Z-1.895
Y73.428 Z-1.899
Y73.55 Z-1.902
Y73.673 Z-1.905
Y73.795 Z-1.909
Y73.917 Z-1.912
Y74.039 Z-1.915
Y74.161 Z-1.918
Y74.283 Z-1.921
Y74.405 Z-1.924
Y74.527 Z-1.927
Y74.649 Z-1.93
Y74.771 Z-1.933
Y74.893 Z-1.936
Y75.015 Z-1.938
Y75.137 Z-1.941
Y75.259 Z-1.944
Y75.381 Z-1.946
Y75.503 Z-1.949
Y75.625 Z-1.951
Y75.869 Z-1.956
Y76.113 Z-1.961
Y76.357 Z-1.965
Y76.601 Z-1.969
Y76.845 Z-1.973
Y77.089 Z-1.976
Y77.333 Z-1.98
Y77.577 Z-1.983
Y77.821 Z-1.986
Y78.065 Z-1.988
Y78.309 Z-1.991
Y78.553 Z-1.993
Y78.797 Z-1.995
Y79.041 Z-1.996
Y79.285 Z-1.998
Y79.529 Z-1.999
Y79.773
Y80.017 Z-2.
Y80.137
Y80.249
Y80.257
Y103.702
X-79.599 Y103.84
X-79.596 Y103.909
X-79.589 Y103.979
X-79.579 Y104.048
X-79.566 Y104.117
X-79.549 Y104.186
X-79.529 Y104.256
X-79.505 Y104.325
X-79.477 Y104.394
X-79.47 Y104.411
X-79.441 Y104.472
X-79.409 Y104.532
X-79.372 Y104.594
X-79.332 Y104.656
X-79.321 Y104.671
X-79.269 Y104.74
X-79.21 Y104.809
X-79.193 Y104.827
X-79.129 Y104.891
X-79.066 Y104.948
X-79.055 Y104.957
X-78.985 Y105.011
X-78.916 Y105.058
X-78.872 Y105.086
X-78.778 Y105.138
X-78.709 Y105.171
X-78.639 Y105.2
X-78.57 Y105.225
X-78.501 Y105.245
X-78.432 Y105.263
X-78.363 Y105.277
X-78.293 Y105.287
X-78.224 Y105.295
X-78.086 Y105.3
X-0.014
X0.124 Y105.295
X0.193 Y105.287
X0.263 Y105.277
X0.332 Y105.263
X0.401 Y105.245
X0.47 Y105.225
X0.539 Y105.2
X0.609 Y105.171
X0.678 Y105.138
X0.772 Y105.086
X0.816 Y105.058
X0.885 Y105.011
X0.955 Y104.957
X0.966 Y104.948
X1.029 Y104.891
X1.093 Y104.827
X1.11 Y104.809
X1.169 Y104.74
X1.221 Y104.671
X1.232 Y104.656
X1.272 Y104.594
X1.309 Y104.532
X1.341 Y104.472
X1.37 Y104.411
X1.377 Y104.394
X1.405 Y104.325
X1.429 Y104.256
X1.449 Y104.186
X1.466 Y104.117
X1.479 Y104.048
X1.489 Y103.979
X1.496 Y103.909
X1.499 Y103.84
X1.5 Y103.702
Y43.898
X1.499 Y43.76
X1.496 Y43.691
X1.489 Y43.621
X1.479 Y43.552
X1.466 Y43.483
X1.449 Y43.414
X1.429 Y43.344
X1.405 Y43.275
X1.377 Y43.206
X1.37 Y43.189
X1.341 Y43.128
X1.309 Y43.068
X1.272 Y43.006
X1.232 Y42.944
X1.221 Y42.929
X1.169 Y42.86
X1.11 Y42.791
X1.093 Y42.773
X1.029 Y42.709
X0.966 Y42.652
X0.955 Y42.643
X0.885 Y42.589
X0.816 Y42.542
X0.772 Y42.514
X0.678 Y42.462
X0.609 Y42.429
X0.539 Y42.4
X0.47 Y42.375
X0.401 Y42.355
X0.332 Y42.337
X0.263 Y42.323
X0.193 Y42.313
X0.124 Y42.305
X-0.014 Y42.3
X-78.086
X-78.224 Y42.305
X-78.293 Y42.313
X-78.363 Y42.323
X-78.432 Y42.337
X-78.501 Y42.355
X-78.57 Y42.375
X-78.639 Y42.4
X-78.709 Y42.429
X-78.778 Y42.462
X-78.872 Y42.514
X-78.916 Y42.542
X-78.985 Y42.589
X-79.055 Y42.643
X-79.066 Y42.652
X-79.129 Y42.709
X-79.193 Y42.773
X-79.21 Y42.791
X-79.269 Y42.86
X-79.321 Y42.929
X-79.332 Y42.944
X-79.372 Y43.006
X-79.409 Y43.068
X-79.441 Y43.128
X-79.47 Y43.189
X-79.477 Y43.206
X-79.505 Y43.275
X-79.529 Y43.344
X-79.549 Y43.414
X-79.566 Y43.483
X-79.579 Y43.552
X-79.589 Y43.621
X-79.596 Y43.691
X-79.599 Y43.76
X-79.6 Y43.898
Y80.257
Y80.318
Y80.379
Y80.501
Y80.745 Z-2.001
Y80.989
Y81.233 Z-2.002
Y81.477 Z-2.004
Y81.721 Z-2.005
Y81.965 Z-2.007
Y82.209 Z-2.009
Y82.453 Z-2.012
Y82.697 Z-2.014
Y82.941 Z-2.017
Y83.185 Z-2.02
Y83.429 Z-2.024
Y83.673 Z-2.027
Y83.917 Z-2.031
Y84.161 Z-2.035
Y84.405 Z-2.04
Y84.649 Z-2.044
Y84.893 Z-2.049
Y85.015 Z-2.051
Y85.137 Z-2.054
Y85.259 Z-2.057
Y85.381 Z-2.059
Y85.503 Z-2.062
Y85.625 Z-2.065
Y85.747 Z-2.067
Y85.869 Z-2.07
Y85.991 Z-2.073
Y86.113 Z-2.076
Y86.235 Z-2.079
Y86.357 Z-2.082
Y86.479 Z-2.085
Y86.601 Z-2.088
Y86.723 Z-2.091
Y86.845 Z-2.095
Y86.967 Z-2.098
Y87.089 Z-2.101
Y87.211 Z-2.105
Y87.333 Z-2.108
Y87.455 Z-2.112
Y87.577 Z-2.115
Y87.699 Z-2.119
Y87.821 Z-2.122
Y87.943 Z-2.126
Y88.065 Z-2.129
Y88.187 Z-2.133
Y88.309 Z-2.137
Y88.431 Z-2.141
Y88.553 Z-2.145
Y88.675 Z-2.148
Y88.797 Z-2.152
Y88.919 Z-2.156
Y89.041 Z-2.16
Y89.163 Z-2.164
Y89.285 Z-2.168
Y89.407 Z-2.172
Y89.529 Z-2.177
Y89.651 Z-2.181
Y89.773 Z-2.185
Y89.896 Z-2.189
Y91.116 Z-2.232
Y91.238 Z-2.236
Y91.36 Z-2.24
Y91.482 Z-2.244
Y91.604 Z-2.249
Y91.726 Z-2.253
Y91.848 Z-2.257
Y91.97 Z-2.262
Y92.092 Z-2.266
Y92.214 Z-2.27
Y92.336 Z-2.274
Y92.458 Z-2.279
Y92.58 Z-2.283
Y92.702 Z-2.287
Y92.824 Z-2.291
Y92.946 Z-2.296
Y93.068 Z-2.3
Y93.19 Z-2.304
Y93.434 Z-2.313
Y93.8 Z-2.325
Y94.166 Z-2.338
Y94.532 Z-2.351
Y94.898 Z-2.364
Y95.264 Z-2.377
Y95.63 Z-2.389
Y96.24 Z-2.411
Y96.85 Z-2.432
Y97.704 Z-2.462
Y99.168 Z-2.513
Y103.804 Z-2.675
X-79.595 Y103.926 Z-2.679
X-79.579 Y104.047 Z-2.683
X-79.555 Y104.167 Z-2.688
X-79.52 Y104.284 Z-2.692
X-79.476 Y104.397 Z-2.696
X-79.423 Y104.507 Z-2.7
X-79.361 Y104.612 Z-2.705
X-79.291 Y104.712 Z-2.709
X-79.213 Y104.806 Z-2.713
X-79.127 Y104.893 Z-2.717
X-79.035 Y104.973 Z-2.722
X-78.937 Y105.045 Z-2.726
X-78.833 Y105.109 Z-2.73
X-78.724 Y105.164 Z-2.734
X-78.611 Y105.21 Z-2.739
X-78.495 Y105.247 Z-2.743
X-78.376 Y105.274 Z-2.747
X-78.255 Y105.292 Z-2.751
X-78.134 Y105.3 Z-2.756
X-78.012 Z-2.76
X-77.89 Z-2.764
X-77.768 Z-2.768
X-77.646 Z-2.773
X-77.523 Z-2.777
X-77.401 Z-2.781
X-77.279 Z-2.785
X-77.157 Z-2.79
X-77.035 Z-2.794
X-76.913 Z-2.798
X-76.791 Z-2.802
X-76.425 Z-2.815
X-76.303 Z-2.819
X-76.181 Z-2.824
X-76.059 Z-2.828
X-75.937 Z-2.832
X-75.815 Z-2.836
X-75.693 Z-2.84
X-75.571 Z-2.844
X-75.449 Z-2.848
X-75.327 Z-2.852
X-75.205 Z-2.856
X-75.083 Z-2.859
X-74.961 Z-2.863
X-74.839 Z-2.867
X-74.717 Z-2.871
X-74.595 Z-2.874
X-74.473 Z-2.878
X-74.351 Z-2.881
X-74.229 Z-2.885
X-74.107 Z-2.889
X-73.985 Z-2.892
X-73.863 Z-2.895
X-73.741 Z-2.899
X-73.619 Z-2.902
X-73.497 Z-2.905
X-73.375 Z-2.909
X-73.253 Z-2.912
X-73.131 Z-2.915
X-73.009 Z-2.918
X-72.887 Z-2.921
X-72.765 Z-2.924
X-72.643 Z-2.927
X-72.521 Z-2.93
X-72.399 Z-2.933
X-72.277 Z-2.935
X-72.155 Z-2.938
X-72.033 Z-2.941
X-71.911 Z-2.944
X-71.789 Z-2.946
X-71.667 Z-2.949
X-71.545 Z-2.951
X-71.301 Z-2.956
X-71.057 Z-2.96
X-70.813 Z-2.965
X-70.569 Z-2.969
X-70.325 Z-2.973
X-70.081 Z-2.976
X-69.837 Z-2.98
X-69.593 Z-2.983
X-69.349 Z-2.986
X-69.105 Z-2.988
X-68.861 Z-2.991
X-68.617 Z-2.993
X-68.373 Z-2.995
X-68.129 Z-2.996
X-67.885 Z-2.998
X-67.641 Z-2.999
X-67.397
X-67.153 Z-3.
X-67.032
X-66.926
X-66.911
X-0.014
X0.124 Y105.295
X0.193 Y105.287
X0.263 Y105.277
X0.332 Y105.263
X0.401 Y105.245
X0.47 Y105.225
X0.539 Y105.2
X0.609 Y105.171
X0.678 Y105.138
X0.772 Y105.086
X0.816 Y105.058
X0.885 Y105.011
X0.955 Y104.957
X0.966 Y104.948
X1.029 Y104.891
X1.093 Y104.827
X1.11 Y104.809
X1.169 Y104.74
X1.221 Y104.671
X1.232 Y104.656
X1.272 Y104.594
X1.309 Y104.532
X1.341 Y104.472
X1.37 Y104.411
X1.377 Y104.394
X1.405 Y104.325
X1.429 Y104.256
X1.449 Y104.186
X1.466 Y104.117
X1.479 Y104.048
X1.489 Y103.979
X1.496 Y103.909
X1.499 Y103.84
X1.5 Y103.702
Y43.898
X1.499 Y43.76
X1.496 Y43.691
X1.489 Y43.621
X1.479 Y43.552
X1.466 Y43.483
X1.449 Y43.414
X1.429 Y43.344
X1.405 Y43.275
X1.377 Y43.206
X1.37 Y43.189
X1.341 Y43.128
X1.309 Y43.068
X1.272 Y43.006
X1.232 Y42.944
X1.221 Y42.929
X1.169 Y42.86
X1.11 Y42.791
X1.093 Y42.773
X1.029 Y42.709
X0.966 Y42.652
X0.955 Y42.643
X0.885 Y42.589
X0.816 Y42.542
X0.772 Y42.514
X0.678 Y42.462
X0.609 Y42.429
X0.539 Y42.4
X0.47 Y42.375
X0.401 Y42.355
X0.332 Y42.337
X0.263 Y42.323
X0.193 Y42.313
X0.124 Y42.305
X-0.014 Y42.3
X-78.086
X-78.224 Y42.305
X-78.293 Y42.313
X-78.363 Y42.323
X-78.432 Y42.337
X-78.501 Y42.355
X-78.57 Y42.375
X-78.639 Y42.4
X-78.709 Y42.429
X-78.778 Y42.462
X-78.872 Y42.514
X-78.916 Y42.542
X-78.985 Y42.589
X-79.055 Y42.643
X-79.066 Y42.652
X-79.129 Y42.709
X-79.193 Y42.773
X-79.21 Y42.791
X-79.269 Y42.86
X-79.321 Y42.929
X-79.332 Y42.944
X-79.372 Y43.006
X-79.409 Y43.068
X-79.441 Y43.128
X-79.47 Y43.189
X-79.477 Y43.206
X-79.505 Y43.275
X-79.529 Y43.344
X-79.549 Y43.414
X-79.566 Y43.483
X-79.579 Y43.552
X-79.589 Y43.621
X-79.596 Y43.691
X-79.599 Y43.76
X-79.6 Y43.898
Y80.257
Y103.702
X-79.599 Y103.84
X-79.596 Y103.909
X-79.589 Y103.979
X-79.579 Y104.048
X-79.566 Y104.117
X-79.549 Y104.186
X-79.529 Y104.256
X-79.505 Y104.325
X-79.477 Y104.394
X-79.47 Y104.411
X-79.441 Y104.472
X-79.409 Y104.532
X-79.372 Y104.594
X-79.332 Y104.656
X-79.321 Y104.671
X-79.269 Y104.74
X-79.21 Y104.809
X-79.193 Y104.827
X-79.129 Y104.891
X-79.066 Y104.948
X-79.055 Y104.957
X-78.985 Y105.011
X-78.916 Y105.058
X-78.872 Y105.086
X-78.778 Y105.138
X-78.709 Y105.171
X-78.639 Y105.2
X-78.57 Y105.225
X-78.501 Y105.245
X-78.432 Y105.263
X-78.363 Y105.277
X-78.293 Y105.287
X-78.224 Y105.295
X-78.086 Y105.3
X-66.911
X-66.85
X-66.789
X-66.667
X-66.423 Z-3.001
X-66.179
X-65.935 Z-3.002
X-65.691 Z-3.004
X-65.446 Z-3.005
X-65.202 Z-3.007
X-64.958 Z-3.009
X-64.714 Z-3.012
X-64.47 Z-3.014
X-64.226 Z-3.017
X-63.982 Z-3.02
X-63.738 Z-3.024
X-63.494 Z-3.027
X-63.25 Z-3.031
X-63.006 Z-3.035
X-62.762 Z-3.04
X-62.518 Z-3.044
X-62.274 Z-3.049
X-62.152 Z-3.051
X-62.03 Z-3.054
X-61.908 Z-3.057
X-61.786 Z-3.059
X-61.664 Z-3.062
X-61.542 Z-3.065
X-61.42 Z-3.067
X-61.298 Z-3.07
X-61.176 Z-3.073
X-61.054 Z-3.076
X-60.932 Z-3.079
X-60.81 Z-3.082
X-60.688 Z-3.085
X-60.566 Z-3.088
X-60.444 Z-3.091
X-60.322 Z-3.095
X-60.2 Z-3.098
X-60.078 Z-3.101
X-59.956 Z-3.105
X-59.834 Z-3.108
X-59.712 Z-3.112
X-59.59 Z-3.115
X-59.468 Z-3.119
X-59.346 Z-3.122
X-59.224 Z-3.126
X-59.102 Z-3.129
X-58.98 Z-3.133
X-58.858 Z-3.137
X-58.736 Z-3.141
X-58.614 Z-3.145
X-58.492 Z-3.148
X-58.37 Z-3.152
X-58.248 Z-3.156
X-58.126 Z-3.16
X-58.004 Z-3.164
X-57.882 Z-3.168
X-57.76 Z-3.172
X-57.638 Z-3.177
X-57.516 Z-3.181
X-57.394 Z-3.185
X-57.272 Z-3.189
X-56.052 Z-3.232
X-55.93 Z-3.236
X-55.808 Z-3.24
X-55.686 Z-3.244
X-55.564 Z-3.249
X-55.442 Z-3.253
X-55.32 Z-3.257
X-55.198 Z-3.262
X-55.076 Z-3.266
X-54.954 Z-3.27
X-54.832 Z-3.274
X-54.71 Z-3.279
X-54.588 Z-3.283
X-54.466 Z-3.287
X-54.344 Z-3.291
X-54.222 Z-3.296
X-54.1 Z-3.3
X-53.978 Z-3.304
X-53.734 Z-3.313
X-53.368 Z-3.325
X-53.002 Z-3.338
X-52.636 Z-3.351
X-52.27 Z-3.364
X-51.904 Z-3.377
X-51.538 Z-3.389
X-50.928 Z-3.411
X-50.318 Z-3.432
X-49.464 Z-3.462
X-48. Z-3.513
X-42.753 Z-3.696
X-42.631 Z-3.7
X-42.509 Z-3.705
X-42.387 Z-3.709
X-42.265 Z-3.713
X-42.143 Z-3.717
X-42.021 Z-3.722
X-41.899 Z-3.726
X-41.777 Z-3.73
X-41.655 Z-3.734
X-41.533 Z-3.739
X-41.411 Z-3.743
X-41.289 Z-3.747
X-41.167 Z-3.751
X-41.045 Z-3.756
X-40.923 Z-3.76
X-40.801 Z-3.764
X-40.679 Z-3.768
X-40.557 Z-3.773
X-40.435 Z-3.777
X-40.313 Z-3.781
X-40.191 Z-3.786
X-40.069 Z-3.79
X-39.947 Z-3.794
X-39.825 Z-3.798
X-39.703 Z-3.803
X-39.337 Z-3.815
X-39.215 Z-3.819
X-39.093 Z-3.824
X-38.971 Z-3.828
X-38.849 Z-3.832
X-38.727 Z-3.836
X-38.605 Z-3.84
X-38.483 Z-3.844
X-38.361 Z-3.848
X-38.239 Z-3.852
X-38.117 Z-3.856
X-37.995 Z-3.859
X-37.873 Z-3.863
X-37.751 Z-3.867
X-37.629 Z-3.871
X-37.507 Z-3.874
X-37.385 Z-3.878
X-37.263 Z-3.882
X-37.141 Z-3.885
X-37.019 Z-3.889
X-36.897 Z-3.892
X-36.775 Z-3.895
X-36.653 Z-3.899
X-36.531 Z-3.902
X-36.409 Z-3.905
X-36.287 Z-3.909
X-36.165 Z-3.912
X-36.043 Z-3.915
X-35.921 Z-3.918
X-35.799 Z-3.921
X-35.677 Z-3.924
X-35.555 Z-3.927
X-35.433 Z-3.93
X-35.311 Z-3.933
X-35.189 Z-3.936
X-35.067 Z-3.938
X-34.945 Z-3.941
X-34.823 Z-3.944
X-34.701 Z-3.946
X-34.579 Z-3.949
X-34.457 Z-3.951
X-34.213 Z-3.956
X-33.969 Z-3.961
X-33.725 Z-3.965
X-33.481 Z-3.969
X-33.237 Z-3.973
X-32.993 Z-3.976
X-32.749 Z-3.98
X-32.505 Z-3.983
X-32.261 Z-3.986
X-32.017 Z-3.988
X-31.773 Z-3.991
X-31.529 Z-3.993
X-31.285 Z-3.995
X-31.041 Z-3.996
X-30.797 Z-3.998
X-30.553 Z-3.999
X-30.309
X-30.065 Z-4.
X-29.945
X-29.832
X-29.824
X-0.014
X0.124 Y105.295
X0.193 Y105.287
X0.263 Y105.277
X0.332 Y105.263
X0.401 Y105.245
X0.47 Y105.225
X0.539 Y105.2
X0.609 Y105.171
X0.678 Y105.138
X0.772 Y105.086
X0.816 Y105.058
X0.885 Y105.011
X0.955 Y104.957
X0.966 Y104.948
X1.029 Y104.891
X1.093 Y104.827
X1.11 Y104.809
X1.169 Y104.74
X1.221 Y104.671
X1.232 Y104.656
X1.272 Y104.594
X1.309 Y104.532
X1.341 Y104.472
X1.37 Y104.411
X1.377 Y104.394
X1.405 Y104.325
X1.429 Y104.256
X1.449 Y104.186
X1.466 Y104.117
X1.479 Y104.048
X1.489 Y103.979
X1.496 Y103.909
X1.499 Y103.84
X1.5 Y103.702
Y43.898
X1.499 Y43.76
X1.496 Y43.691
X1.489 Y43.621
X1.479 Y43.552
X1.466 Y43.483
X1.449 Y43.414
X1.429 Y43.344
X1.405 Y43.275
X1.377 Y43.206
X1.37 Y43.189
X1.341 Y43.128
X1.309 Y43.068
X1.272 Y43.006
X1.232 Y42.944
X1.221 Y42.929
X1.169 Y42.86
X1.11 Y42.791
X1.093 Y42.773
X1.029 Y42.709
X0.966 Y42.652
X0.955 Y42.643
X0.885 Y42.589
X0.816 Y42.542
X0.772 Y42.514
X0.678 Y42.462
X0.609 Y42.429
X0.539 Y42.4
X0.47 Y42.375
X0.401 Y42.355
X0.332 Y42.337
X0.263 Y42.323
X0.193 Y42.313
X0.124 Y42.305
X-0.014 Y42.3
X-78.086
X-78.224 Y42.305
X-78.293 Y42.313
X-78.363 Y42.323
X-78.432 Y42.337
X-78.501 Y42.355
X-78.57 Y42.375
X-78.639 Y42.4
X-78.709 Y42.429
X-78.778 Y42.462
X-78.872 Y42.514
X-78.916 Y42.542
X-78.985 Y42.589
X-79.055 Y42.643
X-79.066 Y42.652
X-79.129 Y42.709
X-79.193 Y42.773
X-79.21 Y42.791
X-79.269 Y42.86
X-79.321 Y42.929
X-79.332 Y42.944
X-79.372 Y43.006
X-79.409 Y43.068
X-79.441 Y43.128
X-79.47 Y43.189
X-79.477 Y43.206
X-79.505 Y43.275
X-79.529 Y43.344
X-79.549 Y43.414
X-79.566 Y43.483
X-79.579 Y43.552
X-79.589 Y43.621
X-79.596 Y43.691
X-79.599 Y43.76
X-79.6 Y43.898
Y103.702
X-79.599 Y103.84
X-79.596 Y103.909
X-79.589 Y103.979
X-79.579 Y104.048
X-79.566 Y104.117
X-79.549 Y104.186
X-79.529 Y104.256
X-79.505 Y104.325
X-79.477 Y104.394
X-79.47 Y104.411
X-79.441 Y104.472
X-79.409 Y104.532
X-79.372 Y104.594
X-79.332 Y104.656
X-79.321 Y104.671
X-79.269 Y104.74
X-79.21 Y104.809
X-79.193 Y104.827
X-79.129 Y104.891
X-79.066 Y104.948
X-79.055 Y104.957
X-78.985 Y105.011
X-78.916 Y105.058
X-78.872 Y105.086
X-78.778 Y105.138
X-78.709 Y105.171
X-78.639 Y105.2
X-78.57 Y105.225
X-78.501 Y105.245
X-78.432 Y105.263
X-78.363 Y105.277
X-78.293 Y105.287
X-78.224 Y105.295
X-78.086 Y105.3
X-29.824
X-29.763
X-29.702
X-29.58
X-29.336 Z-4.001
X-29.092
X-28.848 Z-4.002
X-28.604 Z-4.004
X-28.36 Z-4.005
X-28.116 Z-4.007
X-27.872 Z-4.009
X-27.628 Z-4.012
X-27.384 Z-4.014
X-27.14 Z-4.017
X-26.896 Z-4.02
X-26.652 Z-4.024
X-26.408 Z-4.027
X-26.164 Z-4.031
X-25.92 Z-4.035
X-25.676 Z-4.04
X-25.432 Z-4.044
X-25.188 Z-4.049
X-25.066 Z-4.051
X-24.944 Z-4.054
X-24.822 Z-4.057
X-24.7 Z-4.059
X-24.578 Z-4.062
X-24.456 Z-4.065
X-24.334 Z-4.067
X-24.212 Z-4.07
X-24.09 Z-4.073
X-23.968 Z-4.076
X-23.846 Z-4.079
X-23.724 Z-4.082
X-23.602 Z-4.085
X-23.48 Z-4.088
X-23.358 Z-4.091
X-23.236 Z-4.095
X-23.114 Z-4.098
X-22.992 Z-4.101
X-22.87 Z-4.105
X-22.748 Z-4.108
X-22.626 Z-4.112
X-22.504 Z-4.115
X-22.382 Z-4.119
X-22.26 Z-4.122
X-22.138 Z-4.126
X-22.016 Z-4.129
X-21.894 Z-4.133
X-21.772 Z-4.137
X-21.65 Z-4.141
X-21.528 Z-4.145
X-21.406 Z-4.148
X-21.284 Z-4.152
X-21.162 Z-4.156
X-21.04 Z-4.16
X-20.918 Z-4.164
X-20.796 Z-4.168
X-20.674 Z-4.172
X-20.552 Z-4.177
X-20.43 Z-4.181
X-20.308 Z-4.185
X-20.186 Z-4.189
X-18.966 Z-4.232
X-18.844 Z-4.236
X-18.722 Z-4.24
X-18.6 Z-4.244
X-18.478 Z-4.249
X-18.356 Z-4.253
X-18.234 Z-4.257
X-18.112 Z-4.262
X-17.99 Z-4.266
X-17.868 Z-4.27
X-17.746 Z-4.274
X-17.624 Z-4.279
X-17.502 Z-4.283
X-17.38 Z-4.287
X-17.258 Z-4.291
X-17.136 Z-4.296
X-17.014 Z-4.3
X-16.892 Z-4.304
X-16.648 Z-4.313
X-16.282 Z-4.325
X-15.916 Z-4.338
X-15.55 Z-4.351
X-15.184 Z-4.364
X-14.818 Z-4.377
X-14.452 Z-4.389
X-13.842 Z-4.411
X-13.232 Z-4.432
X-12.378 Z-4.462
X-10.913 Z-4.513
X-5.667 Z-4.696
X-5.545 Z-4.7
X-5.423 Z-4.705
X-5.301 Z-4.709
X-5.179 Z-4.713
X-5.057 Z-4.717
X-4.935 Z-4.722
X-4.813 Z-4.726
X-4.691 Z-4.73
X-4.569 Z-4.734
X-4.447 Z-4.739
X-4.325 Z-4.743
X-4.203 Z-4.747
X-4.081 Z-4.751
X-3.959 Z-4.756
X-3.837 Z-4.76
X-3.715 Z-4.764
X-3.593 Z-4.768
X-3.471 Z-4.773
X-3.349 Z-4.777
X-3.227 Z-4.781
X-3.105 Z-4.786
X-2.983 Z-4.79
X-2.861 Z-4.794
X-2.739 Z-4.798
X-2.617 Z-4.803
X-2.251 Z-4.815
X-2.129 Z-4.819
X-2.007 Z-4.824
X-1.885 Z-4.828
X-1.763 Z-4.832
X-1.641 Z-4.836
X-1.519 Z-4.84
X-1.397 Z-4.844
X-1.275 Z-4.848
X-1.153 Z-4.852
X-1.031 Z-4.856
X-0.909 Z-4.859
X-0.787 Z-4.863
X-0.665 Z-4.867
X-0.543 Z-4.871
X-0.421 Z-4.874
X-0.299 Z-4.878
X-0.177 Z-4.882
X-0.055 Z-4.885
X0.067 Y105.298 Z-4.889
X0.189 Y105.288 Z-4.892
X0.309 Y105.268 Z-4.895
X0.427 Y105.238 Z-4.899
X0.543 Y105.198 Z-4.902
X0.655 Y105.15 Z-4.905
X0.762 Y105.092 Z-4.909
X0.864 Y105.026 Z-4.912
X0.961 Y104.952 Z-4.915
X1.052 Y104.87 Z-4.918
X1.135 Y104.781 Z-4.921
X1.211 Y104.685 Z-4.924
X1.279 Y104.584 Z-4.927
X1.338 Y104.477 Z-4.93
X1.389 Y104.366 Z-4.933
X1.43 Y104.252 Z-4.936
X1.462 Y104.134 Z-4.938
X1.485 Y104.014 Z-4.941
X1.497 Y103.893 Z-4.944
X1.5 Y103.771 Z-4.946
Y103.649 Z-4.949
Y103.527 Z-4.951
Y103.283 Z-4.956
Y103.039 Z-4.961
Y102.795 Z-4.965
Y102.551 Z-4.969
Y102.307 Z-4.973
Y102.063 Z-4.976
Y101.819 Z-4.98
Y101.575 Z-4.983
Y101.33 Z-4.986
Y101.086 Z-4.988
Y100.842 Z-4.991
Y100.598 Z-4.993
Y100.354 Z-4.995
Y100.11 Z-4.996
Y99.866 Z-4.998
Y99.622 Z-4.999
Y99.378
Y99.134 Z-5.
Y99.014
Y98.902
Y98.894
Y43.898
X1.499 Y43.76
X1.496 Y43.691
X1.489 Y43.621
X1.479 Y43.552
X1.466 Y43.483
X1.449 Y43.414
X1.429 Y43.344
X1.405 Y43.275
X1.377 Y43.206
X1.37 Y43.189
X1.341 Y43.128
X1.309 Y43.068
X1.272 Y43.006
X1.232 Y42.944
X1.221 Y42.929
X1.169 Y42.86
X1.11 Y42.791
X1.093 Y42.773
X1.029 Y42.709
X0.966 Y42.652
X0.955 Y42.643
X0.885 Y42.589
X0.816 Y42.542
X0.772 Y42.514
X0.678 Y42.462
X0.609 Y42.429
X0.539 Y42.4
X0.47 Y42.375
X0.401 Y42.355
X0.332 Y42.337
X0.263 Y42.323
X0.193 Y42.313
X0.124 Y42.305
X-0.014 Y42.3
X-78.086
X-78.224 Y42.305
X-78.293 Y42.313
X-78.363 Y42.323
X-78.432 Y42.337
X-78.501 Y42.355
X-78.57 Y42.375
X-78.639 Y42.4
X-78.709 Y42.429
X-78.778 Y42.462
X-78.872 Y42.514
X-78.916 Y42.542
X-78.985 Y42.589
X-79.055 Y42.643
X-79.066 Y42.652
X-79.129 Y42.709
X-79.193 Y42.773
X-79.21 Y42.791
X-79.269 Y42.86
X-79.321 Y42.929
X-79.332 Y42.944
X-79.372 Y43.006
X-79.409 Y43.068
X-79.441 Y43.128
X-79.47 Y43.189
X-79.477 Y43.206
X-79.505 Y43.275
X-79.529 Y43.344
X-79.549 Y43.414
X-79.566 Y43.483
X-79.579 Y43.552
X-79.589 Y43.621
X-79.596 Y43.691
X-79.599 Y43.76
X-79.6 Y43.898
Y103.702
X-79.599 Y103.84
X-79.596 Y103.909
X-79.589 Y103.979
X-79.579 Y104.048
X-79.566 Y104.117
X-79.549 Y104.186
X-79.529 Y104.256
X-79.505 Y104.325
X-79.477 Y104.394
X-79.47 Y104.411
X-79.441 Y104.472
X-79.409 Y104.532
X-79.372 Y104.594
X-79.332 Y104.656
X-79.321 Y104.671
X-79.269 Y104.74
X-79.21 Y104.809
X-79.193 Y104.827
X-79.129 Y104.891
X-79.066 Y104.948
X-79.055 Y104.957
X-78.985 Y105.011
X-78.916 Y105.058
X-78.872 Y105.086
X-78.778 Y105.138
X-78.709 Y105.171
X-78.639 Y105.2
X-78.57 Y105.225
X-78.501 Y105.245
X-78.432 Y105.263
X-78.363 Y105.277
X-78.293 Y105.287
X-78.224 Y105.295
X-78.086 Y105.3
X-29.824
X-0.014
X0.124 Y105.295
X0.193 Y105.287
X0.263 Y105.277
X0.332 Y105.263
X0.401 Y105.245
X0.47 Y105.225
X0.539 Y105.2
X0.609 Y105.171
X0.678 Y105.138
X0.772 Y105.086
X0.816 Y105.058
X0.885 Y105.011
X0.955 Y104.957
X0.966 Y104.948
X1.029 Y104.891
X1.093 Y104.827
X1.11 Y104.809
X1.169 Y104.74
X1.221 Y104.671
X1.232 Y104.656
X1.272 Y104.594
X1.309 Y104.532
X1.341 Y104.472
X1.37 Y104.411
X1.377 Y104.394
X1.405 Y104.325
X1.429 Y104.256
X1.449 Y104.186
X1.466 Y104.117
X1.479 Y104.048
X1.489 Y103.979
X1.496 Y103.909
X1.499 Y103.84
X1.5 Y103.702
Y98.894
Y98.833
Y98.772
Y98.65
Y98.406 Z-5.001
Y98.162
Y97.918 Z-5.002
Y97.674 Z-5.004
Y97.43 Z-5.005
Y97.186 Z-5.007
Y96.942 Z-5.009
Y96.698 Z-5.012
Y96.454 Z-5.014
Y96.21 Z-5.017
Y95.966 Z-5.02
Y95.722 Z-5.024
Y95.478 Z-5.027
Y95.234 Z-5.031
Y94.99 Z-5.035
Y94.746 Z-5.04
Y94.502 Z-5.044
Y94.258 Z-5.049
Y94.136 Z-5.051
Y94.014 Z-5.054
Y93.892 Z-5.057
Y93.77 Z-5.059
Y93.648 Z-5.062
Y93.526 Z-5.065
Y93.404 Z-5.067
Y93.282 Z-5.07
Y93.16 Z-5.073
Y93.038 Z-5.076
Y92.916 Z-5.079
Y92.794 Z-5.082
Y92.672 Z-5.085
Y92.55 Z-5.088
Y92.428 Z-5.091
Y92.306 Z-5.095
Y92.184 Z-5.098
Y92.062 Z-5.101
Y91.94 Z-5.105
Y91.818 Z-5.108
Y91.696 Z-5.112
Y91.574 Z-5.115
Y91.452 Z-5.119
Y91.33 Z-5.122
Y91.208 Z-5.126
Y91.086 Z-5.129
Y90.964 Z-5.133
Y90.842 Z-5.137
Y90.72 Z-5.141
Y90.598 Z-5.145
Y90.476 Z-5.148
Y90.354 Z-5.152
Y90.232 Z-5.156
Y90.11 Z-5.16
Y89.988 Z-5.164
Y89.866 Z-5.168
Y89.744 Z-5.172
Y89.622 Z-5.177
Y89.5 Z-5.181
Y89.378 Z-5.185
Y89.256 Z-5.189
Y88.036 Z-5.232
Y87.914 Z-5.236
Y87.792 Z-5.24
Y87.67 Z-5.244
Y87.548 Z-5.249
Y87.426 Z-5.253
Y87.304 Z-5.257
Y87.182 Z-5.262
Y87.06 Z-5.266
Y86.938 Z-5.27
Y86.816 Z-5.274
Y86.694 Z-5.279
Y86.572 Z-5.283
Y86.45 Z-5.287
Y86.328 Z-5.291
Y86.206 Z-5.296
Y86.084 Z-5.3
Y85.962 Z-5.304
Y85.718 Z-5.313
Y85.351 Z-5.325
Y84.985 Z-5.338
Y84.619 Z-5.351
Y84.253 Z-5.364
Y83.887 Z-5.377
Y83.521 Z-5.389
Y82.911 Z-5.411
Y82.301 Z-5.432
Y81.447 Z-5.462
Y79.983 Z-5.513
Y74.737 Z-5.696
Y74.615 Z-5.7
Y74.493 Z-5.705
Y74.371 Z-5.709
Y74.249 Z-5.713
Y74.127 Z-5.717
Y74.005 Z-5.722
Y73.883 Z-5.726
Y73.761 Z-5.73
Y73.639 Z-5.734
Y73.517 Z-5.739
Y73.395 Z-5.743
Y73.273 Z-5.747
Y73.151 Z-5.751
Y73.029 Z-5.756
Y72.907 Z-5.76
Y72.785 Z-5.764
Y72.663 Z-5.768
Y72.541 Z-5.773
Y72.419 Z-5.777
Y72.297 Z-5.781
Y72.175 Z-5.786
Y72.053 Z-5.79
Y71.931 Z-5.794
Y71.809 Z-5.798
Y71.687 Z-5.803
Y71.321 Z-5.815
Y71.199 Z-5.819
Y71.077 Z-5.824
Y70.955 Z-5.828
Y70.833 Z-5.832
Y70.711 Z-5.836
Y70.589 Z-5.84
Y70.467 Z-5.844
Y70.345 Z-5.848
Y70.223 Z-5.852
Y70.101 Z-5.856
Y69.979 Z-5.859
Y69.857 Z-5.863
Y69.735 Z-5.867
Y69.613 Z-5.871
Y69.491 Z-5.874
Y69.369 Z-5.878
Y69.247 Z-5.882
Y69.125 Z-5.885
Y69.003 Z-5.889
Y68.881 Z-5.892
Y68.759 Z-5.895
Y68.637 Z-5.899
Y68.515 Z-5.902
Y68.393 Z-5.905
Y68.271 Z-5.909
Y68.149 Z-5.912
Y68.027 Z-5.915
Y67.905 Z-5.918
Y67.783 Z-5.921
Y67.661 Z-5.924
Y67.539 Z-5.927
Y67.417 Z-5.93
Y67.295 Z-5.933
Y67.173 Z-5.936
Y67.051 Z-5.938
Y66.929 Z-5.941
Y66.806 Z-5.944
Y66.684 Z-5.946
Y66.562 Z-5.949
Y66.44 Z-5.951
Y66.196 Z-5.956
Y65.952 Z-5.961
Y65.708 Z-5.965
Y65.464 Z-5.969
Y65.22 Z-5.973
Y64.976 Z-5.976
Y64.732 Z-5.98
Y64.488 Z-5.983
Y64.244 Z-5.986
Y64. Z-5.988
Y63.756 Z-5.991
Y63.512 Z-5.993
Y63.268 Z-5.995
Y63.024 Z-5.996
Y62.78 Z-5.998
Y62.536 Z-5.999
Y62.292
Y62.048 Z-6.
Y61.928
Y61.816
Y61.808
Y0.015
X1.495 Y-0.124
X1.488 Y-0.193
X1.477 Y-0.262
X1.463 Y-0.332
X1.445 Y-0.401
X1.424 Y-0.47
X1.4 Y-0.539
X1.37 Y-0.611
X1.338 Y-0.678
X1.301 Y-0.747
X1.259 Y-0.816
X1.232 Y-0.856
X1.157 Y-0.954
X1.093 Y-1.027
X1.027 Y-1.093
X0.955 Y-1.157
X0.857 Y-1.231
X0.816 Y-1.258
X0.747 Y-1.301
X0.678 Y-1.338
X0.611 Y-1.37
X0.539 Y-1.4
X0.47 Y-1.424
X0.401 Y-1.445
X0.332 Y-1.463
X0.263 Y-1.477
X0.193 Y-1.487
X0.124 Y-1.495
X-0.014 Y-1.5
X-78.086
X-78.224 Y-1.495
X-78.293 Y-1.487
X-78.363 Y-1.477
X-78.432 Y-1.463
X-78.501 Y-1.445
X-78.57 Y-1.424
X-78.639 Y-1.4
X-78.711 Y-1.37
X-78.778 Y-1.338
X-78.847 Y-1.301
X-78.916 Y-1.258
X-78.957 Y-1.231
X-79.055 Y-1.157
X-79.127 Y-1.093
X-79.193 Y-1.027
X-79.257 Y-0.954
X-79.332 Y-0.856
X-79.359 Y-0.816
X-79.401 Y-0.747
X-79.438 Y-0.678
X-79.47 Y-0.611
X-79.5 Y-0.539
X-79.524 Y-0.47
X-79.545 Y-0.401
X-79.563 Y-0.332
X-79.577 Y-0.262
X-79.588 Y-0.193
X-79.595 Y-0.124
X-79.6 Y0.015
Y147.585
X-79.595 Y147.724
X-79.588 Y147.793
X-79.577 Y147.862
X-79.563 Y147.932
X-79.545 Y148.001
X-79.524 Y148.07
X-79.5 Y148.139
X-79.47 Y148.211
X-79.438 Y148.278
X-79.401 Y148.347
X-79.359 Y148.416
X-79.332 Y148.456
X-79.257 Y148.554
X-79.193 Y148.627
X-79.127 Y148.693
X-79.055 Y148.757
X-78.957 Y148.831
X-78.916 Y148.858
X-78.847 Y148.901
X-78.778 Y148.938
X-78.711 Y148.97
X-78.639 Y149.
X-78.57 Y149.024
X-78.501 Y149.045
X-78.432 Y149.063
X-78.363 Y149.077
X-78.293 Y149.087
X-78.224 Y149.095
X-78.086 Y149.1
X-0.014
X0.124 Y149.095
X0.193 Y149.087
X0.263 Y149.077
X0.332 Y149.063
X0.401 Y149.045
X0.47 Y149.024
X0.539 Y149.
X0.611 Y148.97
X0.678 Y148.938
X0.747 Y148.901
X0.816 Y148.858
X0.857 Y148.831
X0.955 Y148.757
X1.027 Y148.693
X1.093 Y148.627
X1.157 Y148.554
X1.232 Y148.456
X1.259 Y148.416
X1.301 Y148.347
X1.338 Y148.278
X1.37 Y148.211
X1.4 Y148.139
X1.424 Y148.07
X1.445 Y148.001
X1.463 Y147.932
X1.477 Y147.862
X1.488 Y147.793
X1.495 Y147.724
X1.5 Y147.585
Y98.894
Y61.808
Y61.747
Y61.686
Y61.564
Y61.32 Z-6.001
Y61.076
Y60.832 Z-6.002
Y60.588 Z-6.004
Y60.344 Z-6.005
Y60.1 Z-6.007
Y59.856 Z-6.009
Y59.612 Z-6.012
Y59.368 Z-6.014
Y59.124 Z-6.017
Y58.88 Z-6.02
Y58.636 Z-6.024
Y58.392 Z-6.027
Y58.148 Z-6.031
Y57.904 Z-6.035
Y57.66 Z-6.04
Y57.416 Z-6.044
Y57.172 Z-6.049
Y57.05 Z-6.051
Y56.928 Z-6.054
Y56.806 Z-6.057
Y56.684 Z-6.059
Y56.562 Z-6.062
Y56.44 Z-6.065
Y56.318 Z-6.067
Y56.196 Z-6.07
Y56.074 Z-6.073
Y55.952 Z-6.076
Y55.83 Z-6.079
Y55.708 Z-6.082
Y55.586 Z-6.085
Y55.464 Z-6.088
Y55.342 Z-6.091
Y55.22 Z-6.095
Y55.098 Z-6.098
Y54.976 Z-6.101
Y54.854 Z-6.105
Y54.732 Z-6.108
Y54.61 Z-6.112
Y54.488 Z-6.115
Y54.366 Z-6.119
Y54.244 Z-6.122
Y54.122 Z-6.126
Y54. Z-6.129
Y53.878 Z-6.133
Y53.756 Z-6.137
Y53.634 Z-6.141
Y53.512 Z-6.145
Y53.39 Z-6.148
Y53.268 Z-6.152
Y53.146 Z-6.156
Y53.024 Z-6.16
Y52.902 Z-6.164
Y52.78 Z-6.168
Y52.658 Z-6.172
Y52.536 Z-6.177
Y52.414 Z-6.181
Y52.292 Z-6.185
Y52.17 Z-6.189
Y50.95 Z-6.232
Y50.828 Z-6.236
Y50.706 Z-6.24
Y50.583 Z-6.244
Y50.461 Z-6.249
Y50.339 Z-6.253
Y50.217 Z-6.257
Y50.095 Z-6.262
Y49.973 Z-6.266
Y49.851 Z-6.27
Y49.729 Z-6.274
Y49.607 Z-6.279
Y49.485 Z-6.283
Y49.363 Z-6.287
Y49.241 Z-6.291
Y49.119 Z-6.296
Y48.997 Z-6.3
Y48.875 Z-6.304
Y48.631 Z-6.313
Y48.265 Z-6.325
Y47.899 Z-6.338
Y47.533 Z-6.351
Y47.167 Z-6.364
Y46.801 Z-6.377
Y46.435 Z-6.389
Y45.825 Z-6.411
Y45.215 Z-6.432
Y44.361 Z-6.462
Y42.897 Z-6.513
Y37.651 Z-6.696
Y37.529 Z-6.7
Y37.407 Z-6.705
Y37.285 Z-6.709
Y37.163 Z-6.713
Y37.041 Z-6.717
Y36.919 Z-6.722
Y36.797 Z-6.726
Y36.675 Z-6.73
Y36.553 Z-6.734
Y36.431 Z-6.739
Y36.309 Z-6.743
Y36.187 Z-6.747
Y36.065 Z-6.751
Y35.943 Z-6.756
Y35.821 Z-6.76
Y35.699 Z-6.764
Y35.577 Z-6.768
Y35.455 Z-6.773
Y35.333 Z-6.777
Y35.211 Z-6.781
Y35.089 Z-6.786
Y34.967 Z-6.79
Y34.845 Z-6.794
Y34.723 Z-6.798
Y34.601 Z-6.803
Y34.235 Z-6.815
Y34.113 Z-6.819
Y33.991 Z-6.824
Y33.869 Z-6.828
Y33.747 Z-6.832
Y33.625 Z-6.836
Y33.503 Z-6.84
Y33.381 Z-6.844
Y33.259 Z-6.848
Y33.137 Z-6.852
Y33.015 Z-6.856
Y32.893 Z-6.859
Y32.771 Z-6.863
Y32.649 Z-6.867
Y32.527 Z-6.871
Y32.405 Z-6.874
Y32.283 Z-6.878
Y32.16 Z-6.882
Y32.038 Z-6.885
Y31.916 Z-6.889
Y31.794 Z-6.892
Y31.672 Z-6.895
Y31.55 Z-6.899
Y31.428 Z-6.902
Y31.306 Z-6.905
Y31.184 Z-6.909
Y31.062 Z-6.912
Y30.94 Z-6.915
Y30.818 Z-6.918
Y30.696 Z-6.921
Y30.574 Z-6.924
Y30.452 Z-6.927
Y30.33 Z-6.93
Y30.208 Z-6.933
Y30.086 Z-6.936
Y29.964 Z-6.938
Y29.842 Z-6.941
Y29.72 Z-6.944
Y29.598 Z-6.946
Y29.476 Z-6.949
Y29.354 Z-6.951
Y29.11 Z-6.956
Y28.866 Z-6.961
Y28.622 Z-6.965
Y28.378 Z-6.969
Y28.134 Z-6.973
Y27.89 Z-6.976
Y27.646 Z-6.98
Y27.402 Z-6.983
Y27.158 Z-6.986
Y26.914 Z-6.988
Y26.67 Z-6.991
Y26.426 Z-6.993
Y26.182 Z-6.995
Y25.938 Z-6.996
Y25.694 Z-6.998
Y25.45 Z-6.999
Y25.206
Y24.962 Z-7.
Y24.842
Y24.729
Y24.722
Y0.015
X1.495 Y-0.124
X1.488 Y-0.193
X1.477 Y-0.262
X1.463 Y-0.332
X1.445 Y-0.401
X1.424 Y-0.47
X1.4 Y-0.539
X1.37 Y-0.611
X1.338 Y-0.678
X1.301 Y-0.747
X1.259 Y-0.816
X1.232 Y-0.856
X1.157 Y-0.954
X1.093 Y-1.027
X1.027 Y-1.093
X0.955 Y-1.157
X0.857 Y-1.231
X0.816 Y-1.258
X0.747 Y-1.301
X0.678 Y-1.338
X0.611 Y-1.37
X0.539 Y-1.4
X0.47 Y-1.424
X0.401 Y-1.445
X0.332 Y-1.463
X0.263 Y-1.477
X0.193 Y-1.487
X0.124 Y-1.495
X-0.014 Y-1.5
X-78.086
X-78.224 Y-1.495
X-78.293 Y-1.487
X-78.363 Y-1.477
X-78.432 Y-1.463
X-78.501 Y-1.445
X-78.57 Y-1.424
X-78.639 Y-1.4
X-78.711 Y-1.37
X-78.778 Y-1.338
X-78.847 Y-1.301
X-78.916 Y-1.258
X-78.957 Y-1.231
X-79.055 Y-1.157
X-79.127 Y-1.093
X-79.193 Y-1.027
X-79.257 Y-0.954
X-79.332 Y-0.856
X-79.359 Y-0.816
X-79.401 Y-0.747
X-79.438 Y-0.678
X-79.47 Y-0.611
X-79.5 Y-0.539
X-79.524 Y-0.47
X-79.545 Y-0.401
X-79.563 Y-0.332
X-79.577 Y-0.262
X-79.588 Y-0.193
X-79.595 Y-0.124
X-79.6 Y0.015
Y147.585
X-79.595 Y147.724
X-79.588 Y147.793
X-79.577 Y147.862
X-79.563 Y147.932
X-79.545 Y148.001
X-79.524 Y148.07
X-79.5 Y148.139
X-79.47 Y148.211
X-79.438 Y148.278
X-79.401 Y148.347
X-79.359 Y148.416
X-79.332 Y148.456
X-79.257 Y148.554
X-79.193 Y148.627
X-79.127 Y148.693
X-79.055 Y148.757
X-78.957 Y148.831
X-78.916 Y148.858
X-78.847 Y148.901
X-78.778 Y148.938
X-78.711 Y148.97
X-78.639 Y149.
X-78.57 Y149.024
X-78.501 Y149.045
X-78.432 Y149.063
X-78.363 Y149.077
X-78.293 Y149.087
X-78.224 Y149.095
X-78.086 Y149.1
X-0.014
X0.124 Y149.095
X0.193 Y149.087
X0.263 Y149.077
X0.332 Y149.063
X0.401 Y149.045
X0.47 Y149.024
X0.539 Y149.
X0.611 Y148.97
X0.678 Y148.938
X0.747 Y148.901
X0.816 Y148.858
X0.857 Y148.831
X0.955 Y148.757
X1.027 Y148.693
X1.093 Y148.627
X1.157 Y148.554
X1.232 Y148.456
X1.259 Y148.416
X1.301 Y148.347
X1.338 Y148.278
X1.37 Y148.211
X1.4 Y148.139
X1.424 Y148.07
X1.445 Y148.001
X1.463 Y147.932
X1.477 Y147.862
X1.488 Y147.793
X1.495 Y147.724
X1.5 Y147.585
Y61.808
Y24.722
Y24.661
Y24.6
Y24.478
Y24.234 Z-7.001
Y23.99
Y23.746 Z-7.002
Y23.502 Z-7.004
Y23.258 Z-7.005
Y23.014 Z-7.007
Y22.77 Z-7.009
Y22.526 Z-7.012
Y22.282 Z-7.014
Y22.038 Z-7.017
Y21.794 Z-7.02
Y21.55 Z-7.024
Y21.306 Z-7.027
Y21.062 Z-7.031
Y20.818 Z-7.035
Y20.574 Z-7.04
Y20.33 Z-7.044
Y20.086 Z-7.049
Y19.964 Z-7.051
Y19.842 Z-7.054
Y19.72 Z-7.057
Y19.598 Z-7.059
Y19.476 Z-7.062
Y19.354 Z-7.065
Y19.232 Z-7.067
Y19.11 Z-7.07
Y18.988 Z-7.073
Y18.866 Z-7.076
Y18.744 Z-7.079
Y18.622 Z-7.082
Y18.5 Z-7.085
Y18.378 Z-7.088
Y18.256 Z-7.091
Y18.134 Z-7.095
Y18.012 Z-7.098
Y17.89 Z-7.101
Y17.768 Z-7.105
Y17.646 Z-7.108
Y17.524 Z-7.112
Y17.402 Z-7.115
Y17.28 Z-7.119
Y17.158 Z-7.122
Y17.036 Z-7.126
Y16.914 Z-7.129
Y16.792 Z-7.133
Y16.67 Z-7.137
Y16.548 Z-7.141
Y16.426 Z-7.145
Y16.304 Z-7.148
Y16.182 Z-7.152
Y16.06 Z-7.156
Y15.937 Z-7.16
Y15.815 Z-7.164
Y15.693 Z-7.168
Y15.571 Z-7.172
Y15.449 Z-7.177
Y15.327 Z-7.181
Y15.205 Z-7.185
Y15.083 Z-7.189
Y13.863 Z-7.232
Y13.741 Z-7.236
Y13.619 Z-7.24
Y13.497 Z-7.244
Y13.375 Z-7.249
Y13.253 Z-7.253
Y13.131 Z-7.257
Y13.009 Z-7.262
Y12.887 Z-7.266
Y12.765 Z-7.27
Y12.643 Z-7.274
Y12.521 Z-7.279
Y12.399 Z-7.283
Y12.277 Z-7.287
Y12.155 Z-7.291
Y12.033 Z-7.296
Y11.911 Z-7.3
Y11.789 Z-7.304
Y11.545 Z-7.313
Y11.179 Z-7.325
Y10.813 Z-7.338
Y10.447 Z-7.351
Y10.081 Z-7.364
Y9.715 Z-7.377
Y9.349 Z-7.389
Y8.739 Z-7.411
Y8.129 Z-7.432
Y7.275 Z-7.462
Y5.811 Z-7.513
Y0.565 Z-7.696
Y0.443 Z-7.7
Y0.321 Z-7.705
Y0.199 Z-7.709
Y0.077 Z-7.713
X1.499 Y-0.045 Z-7.717
X1.491 Y-0.167 Z-7.722
X1.472 Y-0.288 Z-7.726
X1.444 Y-0.406 Z-7.73
X1.406 Y-0.522 Z-7.734
X1.359 Y-0.635 Z-7.739
X1.303 Y-0.743 Z-7.743
X1.238 Y-0.847 Z-7.747
X1.165 Y-0.944 Z-7.751
X1.085 Y-1.036 Z-7.756
X0.997 Y-1.121 Z-7.76
X0.903 Y-1.198 Z-7.764
X0.802 Y-1.267 Z-7.768
X0.697 Y-1.328 Z-7.773
X0.586 Y-1.381 Z-7.777
X0.472 Y-1.424 Z-7.781
X0.355 Y-1.457 Z-7.785
X0.235 Y-1.481 Z-7.79
X0.114 Y-1.496 Z-7.794
X-0.008 Y-1.5 Z-7.798
X-0.13 Z-7.802
X-0.496 Z-7.815
X-0.618 Z-7.819
X-0.74 Z-7.824
X-0.862 Z-7.828
X-0.984 Z-7.832
X-1.106 Z-7.836
X-1.228 Z-7.84
X-1.35 Z-7.844
X-1.472 Z-7.848
X-1.594 Z-7.852
X-1.716 Z-7.856
X-1.838 Z-7.859
X-1.96 Z-7.863
X-2.082 Z-7.867
X-2.204 Z-7.871
X-2.326 Z-7.874
X-2.448 Z-7.878
X-2.57 Z-7.881
X-2.692 Z-7.885
X-2.814 Z-7.889
X-2.936 Z-7.892
X-3.058 Z-7.895
X-3.18 Z-7.899
X-3.302 Z-7.902
X-3.424 Z-7.905
X-3.546 Z-7.909
X-3.668 Z-7.912
X-3.79 Z-7.915
X-3.912 Z-7.918
X-4.034 Z-7.921
X-4.156 Z-7.924
X-4.278 Z-7.927
X-4.4 Z-7.93
X-4.522 Z-7.933
X-4.644 Z-7.935
X-4.766 Z-7.938
X-4.888 Z-7.941
X-5.01 Z-7.944
X-5.132 Z-7.946
X-5.254 Z-7.949
X-5.376 Z-7.951
X-5.62 Z-7.956
X-5.864 Z-7.96
X-6.108 Z-7.965
X-6.352 Z-7.969
X-6.596 Z-7.973
X-6.84 Z-7.976
X-7.084 Z-7.98
X-7.328 Z-7.983
X-7.572 Z-7.986
X-7.816 Z-7.988
X-8.06 Z-7.991
X-8.304 Z-7.993
X-8.548 Z-7.995
X-8.792 Z-7.996
X-9.036 Z-7.998
X-9.28 Z-7.999
X-9.524
X-9.768 Z-8.
X-9.889
X-9.995
X-10.011
X-78.086
X-78.224 Y-1.495
X-78.293 Y-1.487
X-78.363 Y-1.477
X-78.432 Y-1.463
X-78.501 Y-1.445
X-78.57 Y-1.424
X-78.639 Y-1.4
X-78.711 Y-1.37
X-78.778 Y-1.338
X-78.847 Y-1.301
X-78.916 Y-1.258
X-78.957 Y-1.231
X-79.055 Y-1.157
X-79.127 Y-1.093
X-79.193 Y-1.027
X-79.257 Y-0.954
X-79.332 Y-0.856
X-79.359 Y-0.816
X-79.401 Y-0.747
X-79.438 Y-0.678
X-79.47 Y-0.611
X-79.5 Y-0.539
X-79.524 Y-0.47
X-79.545 Y-0.401
X-79.563 Y-0.332
X-79.577 Y-0.262
X-79.588 Y-0.193
X-79.595 Y-0.124
X-79.6 Y0.015
Y147.585
X-79.595 Y147.724
X-79.588 Y147.793
X-79.577 Y147.862
X-79.563 Y147.932
X-79.545 Y148.001
X-79.524 Y148.07
X-79.5 Y148.139
X-79.47 Y148.211
X-79.438 Y148.278
X-79.401 Y148.347
X-79.359 Y148.416
X-79.332 Y148.456
X-79.257 Y148.554
X-79.193 Y148.627
X-79.127 Y148.693
X-79.055 Y148.757
X-78.957 Y148.831
X-78.916 Y148.858
X-78.847 Y148.901
X-78.778 Y148.938
X-78.711 Y148.97
X-78.639 Y149.
X-78.57 Y149.024
X-78.501 Y149.045
X-78.432 Y149.063
X-78.363 Y149.077
X-78.293 Y149.087
X-78.224 Y149.095
X-78.086 Y149.1
X-0.014
X0.124 Y149.095
X0.193 Y149.087
X0.263 Y149.077
X0.332 Y149.063
X0.401 Y149.045
X0.47 Y149.024
X0.539 Y149.
X0.611 Y148.97
X0.678 Y148.938
X0.747 Y148.901
X0.816 Y148.858
X0.857 Y148.831
X0.955 Y148.757
X1.027 Y148.693
X1.093 Y148.627
X1.157 Y148.554
X1.232 Y148.456
X1.259 Y148.416
X1.301 Y148.347
X1.338 Y148.278
X1.37 Y148.211
X1.4 Y148.139
X1.424 Y148.07
X1.445 Y148.001
X1.463 Y147.932
X1.477 Y147.862
X1.488 Y147.793
X1.495 Y147.724
X1.5 Y147.585
Y24.722
Y0.015
X1.495 Y-0.124
X1.488 Y-0.193
X1.477 Y-0.262
X1.463 Y-0.332
X1.445 Y-0.401
X1.424 Y-0.47
X1.4 Y-0.539
X1.37 Y-0.611
X1.338 Y-0.678
X1.301 Y-0.747
X1.259 Y-0.816
X1.232 Y-0.856
X1.157 Y-0.954
X1.093 Y-1.027
X1.027 Y-1.093
X0.955 Y-1.157
X0.857 Y-1.231
X0.816 Y-1.258
X0.747 Y-1.301
X0.678 Y-1.338
X0.611 Y-1.37
X0.539 Y-1.4
X0.47 Y-1.424
X0.401 Y-1.445
X0.332 Y-1.463
X0.263 Y-1.477
X0.193 Y-1.487
X0.124 Y-1.495
X-0.014 Y-1.5
X-10.011
X-10.072
X-10.133
X-10.255
X-10.499 Z-8.001
X-10.743
X-10.987 Z-8.002
X-11.231 Z-8.004
X-11.475 Z-8.005
X-11.719 Z-8.007
X-11.963 Z-8.009
X-12.207 Z-8.012
X-12.451 Z-8.014
X-12.695 Z-8.017
X-12.939 Z-8.02
X-13.183 Z-8.024
X-13.427 Z-8.027
X-13.671 Z-8.031
X-13.915 Z-8.035
X-14.159 Z-8.04
X-14.403 Z-8.044
X-14.647 Z-8.049
X-14.769 Z-8.051
X-14.891 Z-8.054
X-15.013 Z-8.057
X-15.135 Z-8.059
X-15.257 Z-8.062
X-15.379 Z-8.065
X-15.501 Z-8.067
X-15.623 Z-8.07
X-15.745 Z-8.073
X-15.867 Z-8.076
X-15.989 Z-8.079
X-16.111 Z-8.082
X-16.233 Z-8.085
X-16.355 Z-8.088
X-16.477 Z-8.091
X-16.599 Z-8.095
X-16.721 Z-8.098
X-16.843 Z-8.101
X-16.965 Z-8.105
X-17.087 Z-8.108
X-17.209 Z-8.112
X-17.331 Z-8.115
X-17.453 Z-8.119
X-17.575 Z-8.122
X-17.697 Z-8.126
X-17.819 Z-8.129
X-17.941 Z-8.133
X-18.063 Z-8.137
X-18.185 Z-8.141
X-18.307 Z-8.145
X-18.429 Z-8.148
X-18.551 Z-8.152
X-18.673 Z-8.156
X-18.795 Z-8.16
X-18.917 Z-8.164
X-19.039 Z-8.168
X-19.161 Z-8.172
X-19.283 Z-8.177
X-19.405 Z-8.181
X-19.527 Z-8.185
X-19.649 Z-8.189
X-20.869 Z-8.232
X-20.991 Z-8.236
X-21.113 Z-8.24
X-21.235 Z-8.244
X-21.357 Z-8.249
X-21.479 Z-8.253
X-21.601 Z-8.257
X-21.723 Z-8.262
X-21.845 Z-8.266
X-21.967 Z-8.27
X-22.089 Z-8.274
X-22.211 Z-8.279
X-22.333 Z-8.283
X-22.455 Z-8.287
X-22.577 Z-8.291
X-22.699 Z-8.296
X-22.821 Z-8.3
X-22.943 Z-8.304
X-23.187 Z-8.313
X-23.553 Z-8.325
X-23.919 Z-8.338
X-24.285 Z-8.351
X-24.651 Z-8.364
X-25.017 Z-8.377
X-25.383 Z-8.389
X-25.993 Z-8.411
X-26.603 Z-8.432
X-27.457 Z-8.462
X-28.922 Z-8.513
X-34.168 Z-8.696
X-34.29 Z-8.7
X-34.412 Z-8.705
X-34.534 Z-8.709
X-34.656 Z-8.713
X-34.778 Z-8.717
X-34.9 Z-8.722
X-35.022 Z-8.726
X-35.144 Z-8.73
X-35.266 Z-8.734
X-35.388 Z-8.739
X-35.51 Z-8.743
X-35.632 Z-8.747
X-35.754 Z-8.751
X-35.876 Z-8.756
X-35.998 Z-8.76
X-36.12 Z-8.764
X-36.242 Z-8.768
X-36.364 Z-8.773
X-36.486 Z-8.777
X-36.608 Z-8.781
X-36.73 Z-8.786
X-36.852 Z-8.79
X-36.974 Z-8.794
X-37.096 Z-8.798
X-37.218 Z-8.803
X-37.584 Z-8.815
X-37.706 Z-8.819
X-37.828 Z-8.824
X-37.95 Z-8.828
X-38.072 Z-8.832
X-38.194 Z-8.836
X-38.316 Z-8.84
X-38.438 Z-8.844
X-38.56 Z-8.848
X-38.682 Z-8.852
X-38.804 Z-8.856
X-38.926 Z-8.859
X-39.048 Z-8.863
X-39.17 Z-8.867
X-39.292 Z-8.871
X-39.414 Z-8.874
X-39.536 Z-8.878
X-39.658 Z-8.882
X-39.78 Z-8.885
X-39.902 Z-8.889
X-40.024 Z-8.892
X-40.146 Z-8.895
X-40.268 Z-8.899
X-40.39 Z-8.902
X-40.512 Z-8.905
X-40.634 Z-8.909
X-40.756 Z-8.912
X-40.878 Z-8.915
X-41. Z-8.918
X-41.122 Z-8.921
X-41.244 Z-8.924
X-41.366 Z-8.927
X-41.488 Z-8.93
X-41.61 Z-8.933
X-41.732 Z-8.936
X-41.854 Z-8.938
X-41.976 Z-8.941
X-42.098 Z-8.944
X-42.22 Z-8.946
X-42.342 Z-8.949
X-42.464 Z-8.951
X-42.708 Z-8.956
X-42.952 Z-8.961
X-43.196 Z-8.965
X-43.44 Z-8.969
X-43.684 Z-8.973
X-43.928 Z-8.976
X-44.172 Z-8.98
X-44.416 Z-8.983
X-44.66 Z-8.986
X-44.904 Z-8.988
X-45.148 Z-8.991
X-45.392 Z-8.993
X-45.636 Z-8.995
X-45.88 Z-8.996
X-46.124 Z-8.998
X-46.369 Z-8.999
X-46.613
X-46.857 Z-9.
X-46.977
X-47.089
X-47.097
X-78.086
X-78.224 Y-1.495
X-78.293 Y-1.487
X-78.363 Y-1.477
X-78.432 Y-1.463
X-78.501 Y-1.445
X-78.57 Y-1.424
X-78.639 Y-1.4
X-78.711 Y-1.37
X-78.778 Y-1.338
X-78.847 Y-1.301
X-78.916 Y-1.258
X-78.957 Y-1.231
X-79.055 Y-1.157
X-79.127 Y-1.093
X-79.193 Y-1.027
X-79.257 Y-0.954
X-79.332 Y-0.856
X-79.359 Y-0.816
X-79.401 Y-0.747
X-79.438 Y-0.678
X-79.47 Y-0.611
X-79.5 Y-0.539
X-79.524 Y-0.47
X-79.545 Y-0.401
X-79.563 Y-0.332
X-79.577 Y-0.262
X-79.588 Y-0.193
X-79.595 Y-0.124
X-79.6 Y0.015
Y147.585
X-79.595 Y147.724
X-79.588 Y147.793
X-79.577 Y147.862
X-79.563 Y147.932
X-79.545 Y148.001
X-79.524 Y148.07
X-79.5 Y148.139
X-79.47 Y148.211
X-79.438 Y148.278
X-79.401 Y148.347
X-79.359 Y148.416
X-79.332 Y148.456
X-79.257 Y148.554
X-79.193 Y148.627
X-79.127 Y148.693
X-79.055 Y148.757
X-78.957 Y148.831
X-78.916 Y148.858
X-78.847 Y148.901
X-78.778 Y148.938
X-78.711 Y148.97
X-78.639 Y149.
X-78.57 Y149.024
X-78.501 Y149.045
X-78.432 Y149.063
X-78.363 Y149.077
X-78.293 Y149.087
X-78.224 Y149.095
X-78.086 Y149.1
X-0.014
X0.124 Y149.095
X0.193 Y149.087
X0.263 Y149.077
X0.332 Y149.063
X0.401 Y149.045
X0.47 Y149.024
X0.539 Y149.
X0.611 Y148.97
X0.678 Y148.938
X0.747 Y148.901
X0.816 Y148.858
X0.857 Y148.831
X0.955 Y148.757
X1.027 Y148.693
X1.093 Y148.627
X1.157 Y148.554
X1.232 Y148.456
X1.259 Y148.416
X1.301 Y148.347
X1.338 Y148.278
X1.37 Y148.211
X1.4 Y148.139
X1.424 Y148.07
X1.445 Y148.001
X1.463 Y147.932
X1.477 Y147.862
X1.488 Y147.793
X1.495 Y147.724
X1.5 Y147.585
Y0.015
X1.495 Y-0.124
X1.488 Y-0.193
X1.477 Y-0.262
X1.463 Y-0.332
X1.445 Y-0.401
X1.424 Y-0.47
X1.4 Y-0.539
X1.37 Y-0.611
X1.338 Y-0.678
X1.301 Y-0.747
X1.259 Y-0.816
X1.232 Y-0.856
X1.157 Y-0.954
X1.093 Y-1.027
X1.027 Y-1.093
X0.955 Y-1.157
X0.857 Y-1.231
X0.816 Y-1.258
X0.747 Y-1.301
X0.678 Y-1.338
X0.611 Y-1.37
X0.539 Y-1.4
X0.47 Y-1.424
X0.401 Y-1.445
X0.332 Y-1.463
X0.263 Y-1.477
X0.193 Y-1.487
X0.124 Y-1.495
X-0.014 Y-1.5
X-47.097
X-47.158
X-47.219
X-47.341
X-47.585 Z-9.001
X-47.829
X-48.073 Z-9.002
X-48.317 Z-9.004
X-48.561 Z-9.005
X-48.805 Z-9.007
X-49.049 Z-9.009
X-49.293 Z-9.012
X-49.537 Z-9.014
X-49.781 Z-9.017
X-50.025 Z-9.02
X-50.269 Z-9.024
X-50.513 Z-9.027
X-50.757 Z-9.031
X-51.001 Z-9.035
X-51.245 Z-9.04
X-51.489 Z-9.044
X-51.733 Z-9.049
X-51.855 Z-9.051
X-51.977 Z-9.054
X-52.099 Z-9.057
X-52.221 Z-9.059
X-52.343 Z-9.062
X-52.465 Z-9.065
X-52.587 Z-9.067
X-52.709 Z-9.07
X-52.831 Z-9.073
X-52.953 Z-9.076
X-53.075 Z-9.079
X-53.197 Z-9.082
X-53.319 Z-9.085
X-53.441 Z-9.088
X-53.563 Z-9.091
X-53.685 Z-9.095
X-53.807 Z-9.098
X-53.929 Z-9.101
X-54.051 Z-9.105
X-54.173 Z-9.108
X-54.295 Z-9.112
X-54.417 Z-9.115
X-54.539 Z-9.119
X-54.661 Z-9.122
X-54.783 Z-9.126
X-54.905 Z-9.129
X-55.027 Z-9.133
X-55.149 Z-9.137
X-55.271 Z-9.141
X-55.393 Z-9.145
X-55.515 Z-9.148
X-55.637 Z-9.152
X-55.759 Z-9.156
X-55.881 Z-9.16
X-56.003 Z-9.164
X-56.125 Z-9.168
X-56.247 Z-9.172
X-56.369 Z-9.177
X-56.491 Z-9.181
X-56.613 Z-9.185
X-56.735 Z-9.189
X-57.955 Z-9.232
X-58.077 Z-9.236
X-58.199 Z-9.24
X-58.321 Z-9.244
X-58.443 Z-9.249
X-58.565 Z-9.253
X-58.687 Z-9.257
X-58.809 Z-9.262
X-58.931 Z-9.266
X-59.053 Z-9.27
X-59.175 Z-9.274
X-59.297 Z-9.279
X-59.419 Z-9.283
X-59.541 Z-9.287
X-59.663 Z-9.291
X-59.785 Z-9.296
X-59.907 Z-9.3
X-60.029 Z-9.304
X-60.273 Z-9.313
X-60.639 Z-9.325
X-61.005 Z-9.338
X-61.371 Z-9.351
X-61.737 Z-9.364
X-62.103 Z-9.377
X-62.469 Z-9.389
X-63.08 Z-9.411
X-63.69 Z-9.432
X-64.544 Z-9.462
X-66.008 Z-9.513
X-71.254 Z-9.696
X-71.376 Z-9.7
X-71.498 Z-9.705
X-71.62 Z-9.709
X-71.742 Z-9.713
X-71.864 Z-9.717
X-71.986 Z-9.722
X-72.108 Z-9.726
X-72.23 Z-9.73
X-72.352 Z-9.734
X-72.474 Z-9.739
X-72.596 Z-9.743
X-72.718 Z-9.747
X-72.84 Z-9.751
X-72.962 Z-9.756
X-73.084 Z-9.76
X-73.206 Z-9.764
X-73.328 Z-9.768
X-73.45 Z-9.773
X-73.572 Z-9.777
X-73.694 Z-9.781
X-73.816 Z-9.786
X-73.938 Z-9.79
X-74.06 Z-9.794
X-74.182 Z-9.798
X-74.304 Z-9.803
X-74.67 Z-9.815
X-74.792 Z-9.819
X-74.914 Z-9.824
X-75.036 Z-9.828
X-75.158 Z-9.832
X-75.28 Z-9.836
X-75.402 Z-9.84
X-75.524 Z-9.844
X-75.646 Z-9.848
X-75.768 Z-9.852
X-75.89 Z-9.856
X-76.012 Z-9.859
X-76.134 Z-9.863
X-76.256 Z-9.867
X-76.378 Z-9.871
X-76.5 Z-9.874
X-76.622 Z-9.878
X-76.744 Z-9.882
X-76.866 Z-9.885
X-76.988 Z-9.889
X-77.11 Z-9.892
X-77.232 Z-9.895
X-77.354 Z-9.899
X-77.476 Z-9.902
X-77.598 Z-9.905
X-77.72 Z-9.909
X-77.842 Z-9.912
X-77.964 Z-9.915
X-78.086 Z-9.918
X-78.208 Y-1.496 Z-9.921
X-78.33 Y-1.482 Z-9.924
X-78.449 Y-1.459 Z-9.927
X-78.567 Y-1.426 Z-9.93
X-78.681 Y-1.383 Z-9.933
X-78.791 Y-1.331 Z-9.936
X-78.897 Y-1.271 Z-9.938
X-78.998 Y-1.202 Z-9.941
X-79.092 Y-1.125 Z-9.944
X-79.181 Y-1.04 Z-9.946
X-79.262 Y-0.949 Z-9.949
X-79.335 Y-0.852 Z-9.951
X-79.4 Y-0.748 Z-9.954
X-79.456 Y-0.64 Z-9.956
X-79.504 Y-0.528 Z-9.958
X-79.542 Y-0.412 Z-9.961
X-79.571 Y-0.294 Z-9.963
X-79.59 Y-0.173 Z-9.965
X-79.599 Y-0.051 Z-9.967
X-79.6 Y0.071 Z-9.969
Y0.315 Z-9.973
Y0.559 Z-9.976
Y0.803 Z-9.98
Y1.047 Z-9.983
Y1.291 Z-9.986
Y1.535 Z-9.988
Y1.779 Z-9.991
Y2.023 Z-9.993
Y2.267 Z-9.995
Y2.511 Z-9.996
Y2.755 Z-9.998
Y2.999 Z-9.999
Y3.243
Y3.487 Z-10.
Y3.607
Y3.719
Y3.727
Y147.585
X-79.595 Y147.724
X-79.588 Y147.793
X-79.577 Y147.862
X-79.563 Y147.932
X-79.545 Y148.001
X-79.524 Y148.07
X-79.5 Y148.139
X-79.47 Y148.211
X-79.438 Y148.278
X-79.401 Y148.347
X-79.359 Y148.416
X-79.332 Y148.456
X-79.257 Y148.554
X-79.193 Y148.627
X-79.127 Y148.693
X-79.055 Y148.757
X-78.957 Y148.831
X-78.916 Y148.858
X-78.847 Y148.901
X-78.778 Y148.938
X-78.711 Y148.97
X-78.639 Y149.
X-78.57 Y149.024
X-78.501 Y149.045
X-78.432 Y149.063
X-78.363 Y149.077
X-78.293 Y149.087
X-78.224 Y149.095
X-78.086 Y149.1
X-0.014
X0.124 Y149.095
X0.193 Y149.087
X0.263 Y149.077
X0.332 Y149.063
X0.401 Y149.045
X0.47 Y149.024
X0.539 Y149.
X0.611 Y148.97
X0.678 Y148.938
X0.747 Y148.901
X0.816 Y148.858
X0.857 Y148.831
X0.955 Y148.757
X1.027 Y148.693
X1.093 Y148.627
X1.157 Y148.554
X1.232 Y148.456
X1.259 Y148.416
X1.301 Y148.347
X1.338 Y148.278
X1.37 Y148.211
X1.4 Y148.139
X1.424 Y148.07
X1.445 Y148.001
X1.463 Y147.932
X1.477 Y147.862
X1.488 Y147.793
X1.495 Y147.724
X1.5 Y147.585
Y0.015
X1.495 Y-0.124
X1.488 Y-0.193
X1.477 Y-0.262
X1.463 Y-0.332
X1.445 Y-0.401
X1.424 Y-0.47
X1.4 Y-0.539
X1.37 Y-0.611
X1.338 Y-0.678
X1.301 Y-0.747
X1.259 Y-0.816
X1.232 Y-0.856
X1.157 Y-0.954
X1.093 Y-1.027
X1.027 Y-1.093
X0.955 Y-1.157
X0.857 Y-1.231
X0.816 Y-1.258
X0.747 Y-1.301
X0.678 Y-1.338
X0.611 Y-1.37
X0.539 Y-1.4
X0.47 Y-1.424
X0.401 Y-1.445
X0.332 Y-1.463
X0.263 Y-1.477
X0.193 Y-1.487
X0.124 Y-1.495
X-0.014 Y-1.5
X-47.097
X-78.086
X-78.224 Y-1.495
X-78.293 Y-1.487
X-78.363 Y-1.477
X-78.432 Y-1.463
X-78.501 Y-1.445
X-78.57 Y-1.424
X-78.639 Y-1.4
X-78.711 Y-1.37
X-78.778 Y-1.338
X-78.847 Y-1.301
X-78.916 Y-1.258
X-78.957 Y-1.231
X-79.055 Y-1.157
X-79.127 Y-1.093
X-79.193 Y-1.027
X-79.257 Y-0.954
X-79.332 Y-0.856
X-79.359 Y-0.816
X-79.401 Y-0.747
X-79.438 Y-0.678
X-79.47 Y-0.611
X-79.5 Y-0.539
X-79.524 Y-0.47
X-79.545 Y-0.401
X-79.563 Y-0.332
X-79.577 Y-0.262
X-79.588 Y-0.193
X-79.595 Y-0.124
X-79.6 Y0.015
Y3.727
Y3.788
Y3.849
Y3.971
Y4.215 Z-10.001
Y4.459
Y4.703 Z-10.002
Y4.947 Z-10.004
Y5.191 Z-10.005
Y5.435 Z-10.007
Y5.679 Z-10.009
Y5.923 Z-10.012
Y6.167 Z-10.014
Y6.411 Z-10.017
Y6.655 Z-10.02
Y6.899 Z-10.024
Y7.143 Z-10.027
Y7.387 Z-10.031
Y7.631 Z-10.035
Y7.875 Z-10.04
Y8.119 Z-10.044
Y8.363 Z-10.049
Y8.485 Z-10.051
Y8.607 Z-10.054
Y8.729 Z-10.057
Y8.851 Z-10.059
Y8.973 Z-10.062
Y9.095 Z-10.065
Y9.217 Z-10.067
Y9.339 Z-10.07
Y9.461 Z-10.073
Y9.583 Z-10.076
Y9.705 Z-10.079
Y9.827 Z-10.082
Y9.949 Z-10.085
Y10.071 Z-10.088
Y10.193 Z-10.091
Y10.315 Z-10.095
Y10.437 Z-10.098
Y10.559 Z-10.101
Y10.681 Z-10.105
Y10.803 Z-10.108
Y10.925 Z-10.112
Y11.047 Z-10.115
Y11.169 Z-10.119
Y11.291 Z-10.122
Y11.413 Z-10.126
Y11.535 Z-10.129
Y11.657 Z-10.133
Y11.779 Z-10.137
Y11.901 Z-10.141
Y12.023 Z-10.145
Y12.145 Z-10.148
Y12.267 Z-10.152
Y12.389 Z-10.156
Y12.511 Z-10.16
Y12.633 Z-10.164
Y12.755 Z-10.168
Y12.877 Z-10.172
Y12.999 Z-10.177
Y13.121 Z-10.181
Y13.243 Z-10.185
Y13.365 Z-10.189
Y14.586 Z-10.232
Y14.708 Z-10.236
Y14.83 Z-10.24
Y14.952 Z-10.244
Y15.074 Z-10.249
Y15.196 Z-10.253
Y15.318 Z-10.257
Y15.44 Z-10.262
Y15.562 Z-10.266
Y15.684 Z-10.27
Y15.806 Z-10.274
Y15.928 Z-10.279
Y16.05 Z-10.283
Y16.172 Z-10.287
Y16.294 Z-10.291
Y16.416 Z-10.296
Y16.538 Z-10.3
Y16.66 Z-10.304
Y16.904 Z-10.313
Y17.27 Z-10.325
Y17.636 Z-10.338
Y18.002 Z-10.351
Y18.368 Z-10.364
Y18.734 Z-10.377
Y19.1 Z-10.389
Y19.71 Z-10.411
Y20.32 Z-10.432
Y21.174 Z-10.462
Y22.638 Z-10.513
Y27.884 Z-10.696
Y28.006 Z-10.7
Y28.128 Z-10.705
Y28.25 Z-10.709
Y28.372 Z-10.713
Y28.494 Z-10.717
Y28.616 Z-10.722
Y28.738 Z-10.726
Y28.86 Z-10.73
Y28.982 Z-10.734
Y29.104 Z-10.739
Y29.226 Z-10.743
Y29.348 Z-10.747
Y29.47 Z-10.751
Y29.592 Z-10.756
Y29.714 Z-10.76
Y29.836 Z-10.764
Y29.958 Z-10.768
Y30.08 Z-10.773
Y30.202 Z-10.777
Y30.324 Z-10.781
Y30.446 Z-10.786
Y30.568 Z-10.79
Y30.69 Z-10.794
Y30.812 Z-10.798
Y30.934 Z-10.803
Y31.3 Z-10.815
Y31.422 Z-10.819
Y31.544 Z-10.824
Y31.666 Z-10.828
Y31.788 Z-10.832
Y31.91 Z-10.836
Y32.032 Z-10.84
Y32.154 Z-10.844
Y32.277 Z-10.848
Y32.399 Z-10.852
Y32.521 Z-10.856
Y32.643 Z-10.859
Y32.765 Z-10.863
Y32.887 Z-10.867
Y33.009 Z-10.871
Y33.131 Z-10.874
Y33.253 Z-10.878
Y33.375 Z-10.882
Y33.497 Z-10.885
Y33.619 Z-10.889
Y33.741 Z-10.892
Y33.863 Z-10.895
Y33.985 Z-10.899
Y34.107 Z-10.902
Y34.229 Z-10.905
Y34.351 Z-10.909
Y34.473 Z-10.912
Y34.595 Z-10.915
Y34.717 Z-10.918
Y34.839 Z-10.921
Y34.961 Z-10.924
Y35.083 Z-10.927
Y35.205 Z-10.93
Y35.327 Z-10.933
Y35.449 Z-10.936
Y35.571 Z-10.938
Y35.693 Z-10.941
Y35.815 Z-10.944
Y35.937 Z-10.946
Y36.059 Z-10.949
Y36.181 Z-10.951
Y36.425 Z-10.956
Y36.669 Z-10.961
Y36.913 Z-10.965
Y37.157 Z-10.969
Y37.401 Z-10.973
Y37.645 Z-10.976
Y37.889 Z-10.98
Y38.133 Z-10.983
Y38.377 Z-10.986
Y38.621 Z-10.988
Y38.865 Z-10.991
Y39.109 Z-10.993
Y39.353 Z-10.995
Y39.597 Z-10.996
Y39.841 Z-10.998
Y40.085 Z-10.999
Y40.329
Y40.573 Z-11.
Y40.693
Y40.806
Y40.813
Y147.585
X-79.595 Y147.724
X-79.588 Y147.793
X-79.577 Y147.862
X-79.563 Y147.932
X-79.545 Y148.001
X-79.524 Y148.07
X-79.5 Y148.139
X-79.47 Y148.211
X-79.438 Y148.278
X-79.401 Y148.347
X-79.359 Y148.416
X-79.332 Y148.456
X-79.257 Y148.554
X-79.193 Y148.627
X-79.127 Y148.693
X-79.055 Y148.757
X-78.957 Y148.831
X-78.916 Y148.858
X-78.847 Y148.901
X-78.778 Y148.938
X-78.711 Y148.97
X-78.639 Y149.
X-78.57 Y149.024
X-78.501 Y149.045
X-78.432 Y149.063
X-78.363 Y149.077
X-78.293 Y149.087
X-78.224 Y149.095
X-78.086 Y149.1
X-0.014
X0.124 Y149.095
X0.193 Y149.087
X0.263 Y149.077
X0.332 Y149.063
X0.401 Y149.045
X0.47 Y149.024
X0.539 Y149.
X0.611 Y148.97
X0.678 Y148.938
X0.747 Y148.901
X0.816 Y148.858
X0.857 Y148.831
X0.955 Y148.757
X1.027 Y148.693
X1.093 Y148.627
X1.157 Y148.554
X1.232 Y148.456
X1.259 Y148.416
X1.301 Y148.347
X1.338 Y148.278
X1.37 Y148.211
X1.4 Y148.139
X1.424 Y148.07
X1.445 Y148.001
X1.463 Y147.932
X1.477 Y147.862
X1.488 Y147.793
X1.495 Y147.724
X1.5 Y147.585
Y0.015
X1.495 Y-0.124
X1.488 Y-0.193
X1.477 Y-0.262
X1.463 Y-0.332
X1.445 Y-0.401
X1.424 Y-0.47
X1.4 Y-0.539
X1.37 Y-0.611
X1.338 Y-0.678
X1.301 Y-0.747
X1.259 Y-0.816
X1.232 Y-0.856
X1.157 Y-0.954
X1.093 Y-1.027
X1.027 Y-1.093
X0.955 Y-1.157
X0.857 Y-1.231
X0.816 Y-1.258
X0.747 Y-1.301
X0.678 Y-1.338
X0.611 Y-1.37
X0.539 Y-1.4
X0.47 Y-1.424
X0.401 Y-1.445
X0.332 Y-1.463
X0.263 Y-1.477
X0.193 Y-1.487
X0.124 Y-1.495
X-0.014 Y-1.5
X-78.086
X-78.224 Y-1.495
X-78.293 Y-1.487
X-78.363 Y-1.477
X-78.432 Y-1.463
X-78.501 Y-1.445
X-78.57 Y-1.424
X-78.639 Y-1.4
X-78.711 Y-1.37
X-78.778 Y-1.338
X-78.847 Y-1.301
X-78.916 Y-1.258
X-78.957 Y-1.231
X-79.055 Y-1.157
X-79.127 Y-1.093
X-79.193 Y-1.027
X-79.257 Y-0.954
X-79.332 Y-0.856
X-79.359 Y-0.816
X-79.401 Y-0.747
X-79.438 Y-0.678
X-79.47 Y-0.611
X-79.5 Y-0.539
X-79.524 Y-0.47
X-79.545 Y-0.401
X-79.563 Y-0.332
X-79.577 Y-0.262
X-79.588 Y-0.193
X-79.595 Y-0.124
X-79.6 Y0.015
Y40.813
Y40.874
Y40.935
Y41.057
Y41.301 Z-11.001
Y41.545
Y41.789 Z-11.002
Y42.033 Z-11.004
Y42.277 Z-11.005
Y42.521 Z-11.007
Y42.765 Z-11.009
Y43.009 Z-11.012
Y43.253 Z-11.014
Y43.497 Z-11.017
Y43.741 Z-11.02
Y43.985 Z-11.024
Y44.229 Z-11.027
Y44.473 Z-11.031
Y44.717 Z-11.035
Y44.961 Z-11.04
Y45.205 Z-11.044
Y45.449 Z-11.049
Y45.571 Z-11.051
Y45.693 Z-11.054
Y45.815 Z-11.057
Y45.937 Z-11.059
Y46.059 Z-11.062
Y46.181 Z-11.065
Y46.303 Z-11.067
Y46.425 Z-11.07
Y46.547 Z-11.073
Y46.669 Z-11.076
Y46.791 Z-11.079
Y46.913 Z-11.082
Y47.035 Z-11.085
Y47.157 Z-11.088
Y47.279 Z-11.091
Y47.401 Z-11.095
Y47.523 Z-11.098
Y47.645 Z-11.101
Y47.767 Z-11.105
Y47.889 Z-11.108
Y48.011 Z-11.112
Y48.133 Z-11.115
Y48.255 Z-11.119
Y48.378 Z-11.122
Y48.5 Z-11.126
Y48.622 Z-11.129
Y48.744 Z-11.133
Y48.866 Z-11.137
Y48.988 Z-11.141
Y49.11 Z-11.145
Y49.232 Z-11.148
Y49.354 Z-11.152
Y49.476 Z-11.156
Y49.598 Z-11.16
Y49.72 Z-11.164
Y49.842 Z-11.168
Y49.964 Z-11.172
Y50.086 Z-11.177
Y50.208 Z-11.181
Y50.33 Z-11.185
Y50.452 Z-11.189
Y51.672 Z-11.232
Y51.794 Z-11.236
Y51.916 Z-11.24
Y52.038 Z-11.244
Y52.16 Z-11.249
Y52.282 Z-11.253
Y52.404 Z-11.257
Y52.526 Z-11.262
Y52.648 Z-11.266
Y52.77 Z-11.27
Y52.892 Z-11.274
Y53.014 Z-11.279
Y53.136 Z-11.283
Y53.258 Z-11.287
Y53.38 Z-11.291
Y53.502 Z-11.296
Y53.624 Z-11.3
Y53.746 Z-11.304
Y53.99 Z-11.313
Y54.356 Z-11.325
Y54.722 Z-11.338
Y55.088 Z-11.351
Y55.454 Z-11.364
Y55.82 Z-11.377
Y56.186 Z-11.389
Y56.796 Z-11.411
Y57.406 Z-11.432
Y58.26 Z-11.462
Y59.724 Z-11.513
Y64.97 Z-11.696
Y65.092 Z-11.7
Y65.214 Z-11.705
Y65.336 Z-11.709
Y65.458 Z-11.713
Y65.58 Z-11.717
Y65.702 Z-11.722
Y65.824 Z-11.726
Y65.946 Z-11.73
Y66.068 Z-11.734
Y66.19 Z-11.739
Y66.312 Z-11.743
Y66.434 Z-11.747
Y66.556 Z-11.751
Y66.678 Z-11.756
Y66.8 Z-11.76
Y66.923 Z-11.764
Y67.045 Z-11.768
Y67.167 Z-11.773
Y67.289 Z-11.777
Y67.411 Z-11.781
Y67.533 Z-11.786
Y67.655 Z-11.79
Y67.777 Z-11.794
Y67.899 Z-11.798
Y68.021 Z-11.803
Y68.387 Z-11.815
Y68.509 Z-11.819
Y68.631 Z-11.824
Y68.753 Z-11.828
Y68.875 Z-11.832
Y68.997 Z-11.836
Y69.119 Z-11.84
Y69.241 Z-11.844
Y69.363 Z-11.848
Y69.485 Z-11.852
Y69.607 Z-11.856
Y69.729 Z-11.859
Y69.851 Z-11.863
Y69.973 Z-11.867
Y70.095 Z-11.871
Y70.217 Z-11.874
Y70.339 Z-11.878
Y70.461 Z-11.882
Y70.583 Z-11.885
Y70.705 Z-11.889
Y70.827 Z-11.892
Y70.949 Z-11.895
Y71.071 Z-11.899
Y71.193 Z-11.902
Y71.315 Z-11.905
Y71.437 Z-11.909
Y71.559 Z-11.912
Y71.681 Z-11.915
Y71.803 Z-11.918
Y71.925 Z-11.921
Y72.047 Z-11.924
Y72.169 Z-11.927
Y72.291 Z-11.93
Y72.413 Z-11.933
Y72.535 Z-11.936
Y72.657 Z-11.938
Y72.779 Z-11.941
Y72.901 Z-11.944
Y73.023 Z-11.946
Y73.145 Z-11.949
Y73.267 Z-11.951
Y73.511 Z-11.956
Y73.755 Z-11.961
Y73.999 Z-11.965
Y74.243 Z-11.969
Y74.487 Z-11.973
Y74.731 Z-11.976
Y74.975 Z-11.98
Y75.219 Z-11.983
Y75.463 Z-11.986
Y75.707 Z-11.988
Y75.951 Z-11.991
Y76.195 Z-11.993
Y76.439 Z-11.995
Y76.683 Z-11.996
Y76.927 Z-11.998
Y77.171 Z-11.999
Y77.415
Y77.659 Z-12.
Y77.779
Y77.892
Y77.899
Y147.585
X-79.595 Y147.724
X-79.588 Y147.793
X-79.577 Y147.862
X-79.563 Y147.932
X-79.545 Y148.001
X-79.524 Y148.07
X-79.5 Y148.139
X-79.47 Y148.211
X-79.438 Y148.278
X-79.401 Y148.347
X-79.359 Y148.416
X-79.332 Y148.456
X-79.257 Y148.554
X-79.193 Y148.627
X-79.127 Y148.693
X-79.055 Y148.757
X-78.957 Y148.831
X-78.916 Y148.858
X-78.847 Y148.901
X-78.778 Y148.938
X-78.711 Y148.97
X-78.639 Y149.
X-78.57 Y149.024
X-78.501 Y149.045
X-78.432 Y149.063
X-78.363 Y149.077
X-78.293 Y149.087
X-78.224 Y149.095
X-78.086 Y149.1
X-0.014
X0.124 Y149.095
X0.193 Y149.087
X0.263 Y149.077
X0.332 Y149.063
X0.401 Y149.045
X0.47 Y149.024
X0.539 Y149.
X0.611 Y148.97
X0.678 Y148.938
X0.747 Y148.901
X0.816 Y148.858
X0.857 Y148.831
X0.955 Y148.757
X1.027 Y148.693
X1.093 Y148.627
X1.157 Y148.554
X1.232 Y148.456
X1.259 Y148.416
X1.301 Y148.347
X1.338 Y148.278
X1.37 Y148.211
X1.4 Y148.139
X1.424 Y148.07
X1.445 Y148.001
X1.463 Y147.932
X1.477 Y147.862
X1.488 Y147.793
X1.495 Y147.724
X1.5 Y147.585
Y0.015
X1.495 Y-0.124
X1.488 Y-0.193
X1.477 Y-0.262
X1.463 Y-0.332
X1.445 Y-0.401
X1.424 Y-0.47
X1.4 Y-0.539
X1.37 Y-0.611
X1.338 Y-0.678
X1.301 Y-0.747
X1.259 Y-0.816
X1.232 Y-0.856
X1.157 Y-0.954
X1.093 Y-1.027
X1.027 Y-1.093
X0.955 Y-1.157
X0.857 Y-1.231
X0.816 Y-1.258
X0.747 Y-1.301
X0.678 Y-1.338
X0.611 Y-1.37
X0.539 Y-1.4
X0.47 Y-1.424
X0.401 Y-1.445
X0.332 Y-1.463
X0.263 Y-1.477
X0.193 Y-1.487
X0.124 Y-1.495
X-0.014 Y-1.5
X-78.086
X-78.224 Y-1.495
X-78.293 Y-1.487
X-78.363 Y-1.477
X-78.432 Y-1.463
X-78.501 Y-1.445
X-78.57 Y-1.424
X-78.639 Y-1.4
X-78.711 Y-1.37
X-78.778 Y-1.338
X-78.847 Y-1.301
X-78.916 Y-1.258
X-78.957 Y-1.231
X-79.055 Y-1.157
X-79.127 Y-1.093
X-79.193 Y-1.027
X-79.257 Y-0.954
X-79.332 Y-0.856
X-79.359 Y-0.816
X-79.401 Y-0.747
X-79.438 Y-0.678
X-79.47 Y-0.611
X-79.5 Y-0.539
X-79.524 Y-0.47
X-79.545 Y-0.401
X-79.563 Y-0.332
X-79.577 Y-0.262
X-79.588 Y-0.193
X-79.595 Y-0.124
X-79.6 Y0.015
Y40.813
Y77.899
Y77.96
Y78.021
Y78.143
Y78.387 Z-12.001
Y78.631
Y78.875 Z-12.002
Y79.119 Z-12.004
Y79.363 Z-12.005
Y79.607 Z-12.007
Y79.851 Z-12.009
Y80.095 Z-12.012
Y80.339 Z-12.014
Y80.583 Z-12.017
Y80.827 Z-12.02
Y81.071 Z-12.024
Y81.315 Z-12.027
Y81.559 Z-12.031
Y81.803 Z-12.035
Y82.047 Z-12.04
Y82.291 Z-12.044
Y82.535 Z-12.049
Y82.657 Z-12.051
Y82.779 Z-12.054
Y82.901 Z-12.057
Y83.023 Z-12.059
Y83.146 Z-12.062
Y83.268 Z-12.065
Y83.39 Z-12.067
Y83.512 Z-12.07
Y83.634 Z-12.073
Y83.756 Z-12.076
Y83.878 Z-12.079
Y84. Z-12.082
Y84.122 Z-12.085
Y84.244 Z-12.088
Y84.366 Z-12.091
Y84.488 Z-12.095
Y84.61 Z-12.098
Y84.732 Z-12.101
Y84.854 Z-12.105
Y84.976 Z-12.108
Y85.098 Z-12.112
Y85.22 Z-12.115
Y85.342 Z-12.119
Y85.464 Z-12.122
Y85.586 Z-12.126
Y85.708 Z-12.129
Y85.83 Z-12.133
Y85.952 Z-12.137
Y86.074 Z-12.141
Y86.196 Z-12.145
Y86.318 Z-12.148
Y86.44 Z-12.152
Y86.562 Z-12.156
Y86.684 Z-12.16
Y86.806 Z-12.164
Y86.928 Z-12.168
Y87.05 Z-12.172
Y87.172 Z-12.177
Y87.294 Z-12.181
Y87.416 Z-12.185
Y87.538 Z-12.189
Y88.758 Z-12.232
Y88.88 Z-12.236
Y89.002 Z-12.24
Y89.124 Z-12.244
Y89.246 Z-12.249
Y89.368 Z-12.253
Y89.49 Z-12.257
Y89.612 Z-12.262
Y89.734 Z-12.266
Y89.856 Z-12.27
Y89.978 Z-12.274
Y90.1 Z-12.279
Y90.222 Z-12.283
Y90.344 Z-12.287
Y90.466 Z-12.291
Y90.588 Z-12.296
Y90.71 Z-12.3
Y90.832 Z-12.304
Y91.076 Z-12.313
Y91.442 Z-12.325
Y91.808 Z-12.338
Y92.174 Z-12.351
Y92.54 Z-12.364
Y92.906 Z-12.377
Y93.272 Z-12.389
Y93.882 Z-12.411
Y94.492 Z-12.432
Y95.346 Z-12.462
Y96.81 Z-12.513
Y102.057 Z-12.696
Y102.179 Z-12.7
Y102.301 Z-12.705
Y102.423 Z-12.709
Y102.545 Z-12.713
Y102.667 Z-12.717
Y102.789 Z-12.722
Y102.911 Z-12.726
Y103.033 Z-12.73
Y103.155 Z-12.734
Y103.277 Z-12.739
Y103.399 Z-12.743
Y103.521 Z-12.747
Y103.643 Z-12.751
Y103.765 Z-12.756
Y103.887 Z-12.76
Y104.009 Z-12.764
Y104.131 Z-12.768
Y104.253 Z-12.773
Y104.375 Z-12.777
Y104.497 Z-12.781
Y104.619 Z-12.786
Y104.741 Z-12.79
Y104.863 Z-12.794
Y104.985 Z-12.798
Y105.107 Z-12.803
Y105.473 Z-12.815
Y105.595 Z-12.819
Y105.717 Z-12.824
Y105.839 Z-12.828
Y105.961 Z-12.832
Y106.083 Z-12.836
Y106.205 Z-12.84
Y106.327 Z-12.844
Y106.449 Z-12.848
Y106.571 Z-12.852
Y106.693 Z-12.856
Y106.815 Z-12.859
Y106.937 Z-12.863
Y107.059 Z-12.867
Y107.181 Z-12.871
Y107.303 Z-12.874
Y107.425 Z-12.878
Y107.547 Z-12.882
Y107.669 Z-12.885
Y107.791 Z-12.889
Y107.913 Z-12.892
Y108.035 Z-12.895
Y108.157 Z-12.899
Y108.279 Z-12.902
Y108.401 Z-12.905
Y108.523 Z-12.909
Y108.645 Z-12.912
Y108.767 Z-12.915
Y108.889 Z-12.918
Y109.011 Z-12.921
Y109.133 Z-12.924
Y109.255 Z-12.927
Y109.377 Z-12.93
Y109.499 Z-12.933
Y109.621 Z-12.936
Y109.743 Z-12.938
Y109.865 Z-12.941
Y109.987 Z-12.944
Y110.109 Z-12.946
Y110.231 Z-12.949
Y110.353 Z-12.951
Y110.597 Z-12.956
Y110.841 Z-12.961
Y111.085 Z-12.965
Y111.329 Z-12.969
Y111.573 Z-12.973
Y111.817 Z-12.976
Y112.061 Z-12.98
Y112.305 Z-12.983
Y112.549 Z-12.986
Y112.793 Z-12.988
Y113.037 Z-12.991
Y113.281 Z-12.993
Y113.525 Z-12.995
Y113.769 Z-12.996
Y114.013 Z-12.998
Y114.257 Z-12.999
Y114.501
Y114.745 Z-13.
Y114.865
Y114.978
Y114.985
Y147.585
X-79.595 Y147.724
X-79.588 Y147.793
X-79.577 Y147.862
X-79.563 Y147.932
X-79.545 Y148.001
X-79.524 Y148.07
X-79.5 Y148.139
X-79.47 Y148.211
X-79.438 Y148.278
X-79.401 Y148.347
X-79.359 Y148.416
X-79.332 Y148.456
X-79.257 Y148.554
X-79.193 Y148.627
X-79.127 Y148.693
X-79.055 Y148.757
X-78.957 Y148.831
X-78.916 Y148.858
X-78.847 Y148.901
X-78.778 Y148.938
X-78.711 Y148.97
X-78.639 Y149.
X-78.57 Y149.024
X-78.501 Y149.045
X-78.432 Y149.063
X-78.363 Y149.077
X-78.293 Y149.087
X-78.224 Y149.095
X-78.086 Y149.1
X-0.014
X0.124 Y149.095
X0.193 Y149.087
X0.263 Y149.077
X0.332 Y149.063
X0.401 Y149.045
X0.47 Y149.024
X0.539 Y149.
X0.611 Y148.97
X0.678 Y148.938
X0.747 Y148.901
X0.816 Y148.858
X0.857 Y148.831
X0.955 Y148.757
X1.027 Y148.693
X1.093 Y148.627
X1.157 Y148.554
X1.232 Y148.456
X1.259 Y148.416
X1.301 Y148.347
X1.338 Y148.278
X1.37 Y148.211
X1.4 Y148.139
X1.424 Y148.07
X1.445 Y148.001
X1.463 Y147.932
X1.477 Y147.862
X1.488 Y147.793
X1.495 Y147.724
X1.5 Y147.585
Y0.015
X1.495 Y-0.124
X1.488 Y-0.193
X1.477 Y-0.262
X1.463 Y-0.332
X1.445 Y-0.401
X1.424 Y-0.47
X1.4 Y-0.539
X1.37 Y-0.611
X1.338 Y-0.678
X1.301 Y-0.747
X1.259 Y-0.816
X1.232 Y-0.856
X1.157 Y-0.954
X1.093 Y-1.027
X1.027 Y-1.093
X0.955 Y-1.157
X0.857 Y-1.231
X0.816 Y-1.258
X0.747 Y-1.301
X0.678 Y-1.338
X0.611 Y-1.37
X0.539 Y-1.4
X0.47 Y-1.424
X0.401 Y-1.445
X0.332 Y-1.463
X0.263 Y-1.477
X0.193 Y-1.487
X0.124 Y-1.495
X-0.014 Y-1.5
X-78.086
X-78.224 Y-1.495
X-78.293 Y-1.487
X-78.363 Y-1.477
X-78.432 Y-1.463
X-78.501 Y-1.445
X-78.57 Y-1.424
X-78.639 Y-1.4
X-78.711 Y-1.37
X-78.778 Y-1.338
X-78.847 Y-1.301
X-78.916 Y-1.258
X-78.957 Y-1.231
X-79.055 Y-1.157
X-79.127 Y-1.093
X-79.193 Y-1.027
X-79.257 Y-0.954
X-79.332 Y-0.856
X-79.359 Y-0.816
X-79.401 Y-0.747
X-79.438 Y-0.678
X-79.47 Y-0.611
X-79.5 Y-0.539
X-79.524 Y-0.47
X-79.545 Y-0.401
X-79.563 Y-0.332
X-79.577 Y-0.262
X-79.588 Y-0.193
X-79.595 Y-0.124
X-79.6 Y0.015
Y43.189
Y114.985
Y115.046
Y115.107
Y115.229
Y115.473 Z-13.001
Y115.717
Y115.961 Z-13.002
Y116.205 Z-13.004
Y116.449 Z-13.005
Y116.693 Z-13.007
Y116.937 Z-13.009
Y117.181 Z-13.012
Y117.425 Z-13.014
Y117.669 Z-13.017
Y117.914 Z-13.02
Y118.158 Z-13.024
Y118.402 Z-13.027
Y118.646 Z-13.031
Y118.89 Z-13.035
Y119.134 Z-13.04
Y119.378 Z-13.044
Y119.622 Z-13.049
Y119.744 Z-13.051
Y119.866 Z-13.054
Y119.988 Z-13.057
Y120.11 Z-13.059
Y120.232 Z-13.062
Y120.354 Z-13.065
Y120.476 Z-13.067
Y120.598 Z-13.07
Y120.72 Z-13.073
Y120.842 Z-13.076
Y120.964 Z-13.079
Y121.086 Z-13.082
Y121.208 Z-13.085
Y121.33 Z-13.088
Y121.452 Z-13.091
Y121.574 Z-13.095
Y121.696 Z-13.098
Y121.818 Z-13.101
Y121.94 Z-13.105
Y122.062 Z-13.108
Y122.184 Z-13.112
Y122.306 Z-13.115
Y122.428 Z-13.119
Y122.55 Z-13.122
Y122.672 Z-13.126
Y122.794 Z-13.129
Y122.916 Z-13.133
Y123.038 Z-13.137
Y123.16 Z-13.141
Y123.282 Z-13.145
Y123.404 Z-13.148
Y123.526 Z-13.152
Y123.648 Z-13.156
Y123.77 Z-13.16
Y123.892 Z-13.164
Y124.014 Z-13.168
Y124.136 Z-13.172
Y124.258 Z-13.177
Y124.38 Z-13.181
Y124.502 Z-13.185
Y124.624 Z-13.189
Y125.844 Z-13.232
Y125.966 Z-13.236
Y126.088 Z-13.24
Y126.21 Z-13.244
Y126.332 Z-13.249
Y126.454 Z-13.253
Y126.576 Z-13.257
Y126.698 Z-13.262
Y126.82 Z-13.266
Y126.942 Z-13.27
Y127.064 Z-13.274
Y127.186 Z-13.279
Y127.308 Z-13.283
Y127.43 Z-13.287
Y127.552 Z-13.291
Y127.674 Z-13.296
Y127.796 Z-13.3
Y127.918 Z-13.304
Y128.162 Z-13.313
Y128.528 Z-13.325
Y128.894 Z-13.338
Y129.26 Z-13.351
Y129.626 Z-13.364
Y129.992 Z-13.377
Y130.358 Z-13.389
Y130.968 Z-13.411
Y131.578 Z-13.432
Y132.432 Z-13.462
Y133.896 Z-13.513
Y139.143 Z-13.696
Y139.265 Z-13.7
Y139.387 Z-13.705
Y139.509 Z-13.709
Y139.631 Z-13.713
Y139.753 Z-13.717
Y139.875 Z-13.722
Y139.997 Z-13.726
Y140.119 Z-13.73
Y140.241 Z-13.734
Y140.363 Z-13.739
Y140.485 Z-13.743
Y140.607 Z-13.747
Y140.729 Z-13.751
Y140.851 Z-13.756
Y140.973 Z-13.76
Y141.095 Z-13.764
Y141.217 Z-13.768
Y141.339 Z-13.773
Y141.461 Z-13.777
Y141.583 Z-13.781
Y141.705 Z-13.786
Y141.827 Z-13.79
Y141.949 Z-13.794
Y142.071 Z-13.798
Y142.193 Z-13.803
Y142.559 Z-13.815
Y142.681 Z-13.819
Y142.803 Z-13.824
Y142.925 Z-13.828
Y143.047 Z-13.832
Y143.169 Z-13.836
Y143.291 Z-13.84
Y143.413 Z-13.844
Y143.535 Z-13.848
Y143.657 Z-13.852
Y143.779 Z-13.856
Y143.901 Z-13.859
Y144.023 Z-13.863
Y144.145 Z-13.867
Y144.267 Z-13.871
Y144.389 Z-13.874
Y144.511 Z-13.878
Y144.633 Z-13.882
Y144.755 Z-13.885
Y144.877 Z-13.889
Y144.999 Z-13.892
Y145.121 Z-13.895
Y145.243 Z-13.899
Y145.365 Z-13.902
Y145.487 Z-13.905
Y145.609 Z-13.909
Y145.731 Z-13.912
Y145.853 Z-13.915
Y145.975 Z-13.918
Y146.097 Z-13.921
Y146.219 Z-13.924
Y146.341 Z-13.927
Y146.463 Z-13.93
Y146.585 Z-13.933
Y146.707 Z-13.936
Y146.829 Z-13.938
Y146.951 Z-13.941
Y147.073 Z-13.944
Y147.195 Z-13.946
Y147.317 Z-13.949
Y147.439 Z-13.951
X-79.598 Y147.683 Z-13.956
X-79.586 Y147.805 Z-13.958
X-79.564 Y147.925 Z-13.961
X-79.533 Y148.043 Z-13.963
X-79.493 Y148.158 Z-13.965
X-79.443 Y148.269 Z-13.967
X-79.384 Y148.376 Z-13.969
X-79.317 Y148.477 Z-13.971
X-79.241 Y148.573 Z-13.973
X-79.158 Y148.663 Z-13.975
X-79.068 Y148.745 Z-13.976
X-78.972 Y148.82 Z-13.978
X-78.87 Y148.887 Z-13.98
X-78.763 Y148.946 Z-13.981
X-78.651 Y148.995 Z-13.983
X-78.536 Y149.035 Z-13.984
X-78.418 Y149.066 Z-13.986
X-78.298 Y149.087 Z-13.987
X-78.177 Y149.098 Z-13.988
X-77.933 Y149.1 Z-13.991
X-77.689 Z-13.993
X-77.445 Z-13.995
X-77.201 Z-13.996
X-76.957 Z-13.998
X-76.713 Z-13.999
X-76.469
X-76.224 Z-14.
X-76.104
X-75.992
X-75.984
X-0.014
X0.124 Y149.095
X0.193 Y149.087
X0.263 Y149.077
X0.332 Y149.063
X0.401 Y149.045
X0.47 Y149.024
X0.539 Y149.
X0.611 Y148.97
X0.678 Y148.938
X0.747 Y148.901
X0.816 Y148.858
X0.857 Y148.831
X0.955 Y148.757
X1.027 Y148.693
X1.093 Y148.627
X1.157 Y148.554
X1.232 Y148.456
X1.259 Y148.416
X1.301 Y148.347
X1.338 Y148.278
X1.37 Y148.211
X1.4 Y148.139
X1.424 Y148.07
X1.445 Y148.001
X1.463 Y147.932
X1.477 Y147.862
X1.488 Y147.793
X1.495 Y147.724
X1.5 Y147.585
Y0.015
X1.495 Y-0.124
X1.488 Y-0.193
X1.477 Y-0.262
X1.463 Y-0.332
X1.445 Y-0.401
X1.424 Y-0.47
X1.4 Y-0.539
X1.37 Y-0.611
X1.338 Y-0.678
X1.301 Y-0.747
X1.259 Y-0.816
X1.232 Y-0.856
X1.157 Y-0.954
X1.093 Y-1.027
X1.027 Y-1.093
X0.955 Y-1.157
X0.857 Y-1.231
X0.816 Y-1.258
X0.747 Y-1.301
X0.678 Y-1.338
X0.611 Y-1.37
X0.539 Y-1.4
X0.47 Y-1.424
X0.401 Y-1.445
X0.332 Y-1.463
X0.263 Y-1.477
X0.193 Y-1.487
X0.124 Y-1.495
X-0.014 Y-1.5
X-78.086
X-78.224 Y-1.495
X-78.293 Y-1.487
X-78.363 Y-1.477
X-78.432 Y-1.463
X-78.501 Y-1.445
X-78.57 Y-1.424
X-78.639 Y-1.4
X-78.711 Y-1.37
X-78.778 Y-1.338
X-78.847 Y-1.301
X-78.916 Y-1.258
X-78.957 Y-1.231
X-79.055 Y-1.157
X-79.127 Y-1.093
X-79.193 Y-1.027
X-79.257 Y-0.954
X-79.332 Y-0.856
X-79.359 Y-0.816
X-79.401 Y-0.747
X-79.438 Y-0.678
X-79.47 Y-0.611
X-79.5 Y-0.539
X-79.524 Y-0.47
X-79.545 Y-0.401
X-79.563 Y-0.332
X-79.577 Y-0.262
X-79.588 Y-0.193
X-79.595 Y-0.124
X-79.6 Y0.015
Y114.985
Y147.585
X-79.595 Y147.724
X-79.588 Y147.793
X-79.577 Y147.862
X-79.563 Y147.932
X-79.545 Y148.001
X-79.524 Y148.07
X-79.5 Y148.139
X-79.47 Y148.211
X-79.438 Y148.278
X-79.401 Y148.347
X-79.359 Y148.416
X-79.332 Y148.456
X-79.257 Y148.554
X-79.193 Y148.627
X-79.127 Y148.693
X-79.055 Y148.757
X-78.957 Y148.831
X-78.916 Y148.858
X-78.847 Y148.901
X-78.778 Y148.938
X-78.711 Y148.97
X-78.639 Y149.
X-78.57 Y149.024
X-78.501 Y149.045
X-78.432 Y149.063
X-78.363 Y149.077
X-78.293 Y149.087
X-78.224 Y149.095
X-78.086 Y149.1
X-75.984
X-75.923
X-75.862
X-75.74
X-75.496 Z-14.001
X-75.252
X-75.008 Z-14.002
X-74.764 Z-14.004
X-74.52 Z-14.005
X-74.276 Z-14.007
X-74.032 Z-14.009
X-73.788 Z-14.012
X-73.544 Z-14.014
X-73.3 Z-14.017
X-73.056 Z-14.02
X-72.812 Z-14.024
X-72.568 Z-14.027
X-72.324 Z-14.031
X-72.08 Z-14.035
X-71.836 Z-14.04
X-71.592 Z-14.044
X-71.348 Z-14.049
X-71.226 Z-14.051
X-71.104 Z-14.054
X-70.982 Z-14.057
X-70.86 Z-14.059
X-70.738 Z-14.062
X-70.616 Z-14.065
X-70.494 Z-14.067
X-70.372 Z-14.07
X-70.25 Z-14.073
X-70.128 Z-14.076
X-70.006 Z-14.079
X-69.884 Z-14.082
X-69.762 Z-14.085
X-69.64 Z-14.088
X-69.518 Z-14.091
X-69.396 Z-14.095
X-69.274 Z-14.098
X-69.152 Z-14.101
X-69.03 Z-14.105
X-68.908 Z-14.108
X-68.786 Z-14.112
X-68.664 Z-14.115
X-68.542 Z-14.119
X-68.42 Z-14.122
X-68.298 Z-14.126
X-68.176 Z-14.129
X-68.054 Z-14.133
X-67.932 Z-14.137
X-67.81 Z-14.141
X-67.688 Z-14.145
X-67.566 Z-14.148
X-67.444 Z-14.152
X-67.322 Z-14.156
X-67.2 Z-14.16
X-67.078 Z-14.164
X-66.956 Z-14.168
X-66.834 Z-14.172
X-66.712 Z-14.177
X-66.59 Z-14.181
X-66.468 Z-14.185
X-66.346 Z-14.189
X-65.126 Z-14.232
X-65.004 Z-14.236
X-64.882 Z-14.24
X-64.76 Z-14.244
X-64.638 Z-14.249
X-64.516 Z-14.253
X-64.394 Z-14.257
X-64.272 Z-14.262
X-64.15 Z-14.266
X-64.028 Z-14.27
X-63.906 Z-14.274
X-63.784 Z-14.279
X-63.662 Z-14.283
X-63.54 Z-14.287
X-63.418 Z-14.291
X-63.296 Z-14.296
X-63.174 Z-14.3
X-63.052 Z-14.304
X-62.808 Z-14.313
X-62.442 Z-14.325
X-62.076 Z-14.338
X-61.71 Z-14.351
X-61.344 Z-14.364
X-60.978 Z-14.377
X-60.612 Z-14.389
X-60.001 Z-14.411
X-59.391 Z-14.432
X-58.537 Z-14.462
X-57.073 Z-14.513
X-51.827 Z-14.696
X-51.705 Z-14.7
X-51.583 Z-14.705
X-51.461 Z-14.709
X-51.339 Z-14.713
X-51.217 Z-14.717
X-51.095 Z-14.722
X-50.973 Z-14.726
X-50.851 Z-14.73
X-50.729 Z-14.734
X-50.607 Z-14.739
X-50.485 Z-14.743
X-50.363 Z-14.747
X-50.241 Z-14.751
X-50.119 Z-14.756
X-49.997 Z-14.76
X-49.875 Z-14.764
X-49.753 Z-14.768
X-49.631 Z-14.773
X-49.509 Z-14.777
X-49.387 Z-14.781
X-49.265 Z-14.786
X-49.143 Z-14.79
X-49.021 Z-14.794
X-48.899 Z-14.798
X-48.777 Z-14.803
X-48.411 Z-14.815
X-48.289 Z-14.819
X-48.167 Z-14.824
X-48.045 Z-14.828
X-47.923 Z-14.832
X-47.801 Z-14.836
X-47.679 Z-14.84
X-47.557 Z-14.844
X-47.435 Z-14.848
X-47.313 Z-14.852
X-47.191 Z-14.856
X-47.069 Z-14.859
X-46.947 Z-14.863
X-46.825 Z-14.867
X-46.703 Z-14.871
X-46.581 Z-14.874
X-46.459 Z-14.878
X-46.337 Z-14.882
X-46.215 Z-14.885
X-46.093 Z-14.889
X-45.971 Z-14.892
X-45.849 Z-14.895
X-45.727 Z-14.899
X-45.605 Z-14.902
X-45.483 Z-14.905
X-45.361 Z-14.909
X-45.239 Z-14.912
X-45.117 Z-14.915
X-44.995 Z-14.918
X-44.873 Z-14.921
X-44.751 Z-14.924
X-44.629 Z-14.927
X-44.507 Z-14.93
X-44.385 Z-14.933
X-44.263 Z-14.936
X-44.141 Z-14.938
X-44.019 Z-14.941
X-43.897 Z-14.944
X-43.775 Z-14.946
X-43.653 Z-14.949
X-43.531 Z-14.951
X-43.287 Z-14.956
X-43.043 Z-14.961
X-42.799 Z-14.965
X-42.555 Z-14.969
X-42.311 Z-14.973
X-42.067 Z-14.976
X-41.823 Z-14.98
X-41.579 Z-14.983
X-41.334 Z-14.986
X-41.09 Z-14.988
X-40.846 Z-14.991
X-40.602 Z-14.993
X-40.358 Z-14.995
X-40.114 Z-14.996
X-39.87 Z-14.998
X-39.626 Z-14.999
X-39.382
X-39.138 Z-15.
X-39.018
X-38.906
X-38.898
X-0.014
X0.124 Y149.095
X0.193 Y149.087
X0.263 Y149.077
X0.332 Y149.063
X0.401 Y149.045
X0.47 Y149.024
X0.539 Y149.
X0.611 Y148.97
X0.678 Y148.938
X0.747 Y148.901
X0.816 Y148.858
X0.857 Y148.831
X0.955 Y148.757
X1.027 Y148.693
X1.093 Y148.627
X1.157 Y148.554
X1.232 Y148.456
X1.259 Y148.416
X1.301 Y148.347
X1.338 Y148.278
X1.37 Y148.211
X1.4 Y148.139
X1.424 Y148.07
X1.445 Y148.001
X1.463 Y147.932
X1.477 Y147.862
X1.488 Y147.793
X1.495 Y147.724
X1.5 Y147.585
Y0.015
X1.495 Y-0.124
X1.488 Y-0.193
X1.477 Y-0.262
X1.463 Y-0.332
X1.445 Y-0.401
X1.424 Y-0.47
X1.4 Y-0.539
X1.37 Y-0.611
X1.338 Y-0.678
X1.301 Y-0.747
X1.259 Y-0.816
X1.232 Y-0.856
X1.157 Y-0.954
X1.093 Y-1.027
X1.027 Y-1.093
X0.955 Y-1.157
X0.857 Y-1.231
X0.816 Y-1.258
X0.747 Y-1.301
X0.678 Y-1.338
X0.611 Y-1.37
X0.539 Y-1.4
X0.47 Y-1.424
X0.401 Y-1.445
X0.332 Y-1.463
X0.263 Y-1.477
X0.193 Y-1.487
X0.124 Y-1.495
X-0.014 Y-1.5
X-78.086
X-78.224 Y-1.495
X-78.293 Y-1.487
X-78.363 Y-1.477
X-78.432 Y-1.463
X-78.501 Y-1.445
X-78.57 Y-1.424
X-78.639 Y-1.4
X-78.711 Y-1.37
X-78.778 Y-1.338
X-78.847 Y-1.301
X-78.916 Y-1.258
X-78.957 Y-1.231
X-79.055 Y-1.157
X-79.127 Y-1.093
X-79.193 Y-1.027
X-79.257 Y-0.954
X-79.332 Y-0.856
X-79.359 Y-0.816
X-79.401 Y-0.747
X-79.438 Y-0.678
X-79.47 Y-0.611
X-79.5 Y-0.539
X-79.524 Y-0.47
X-79.545 Y-0.401
X-79.563 Y-0.332
X-79.577 Y-0.262
X-79.588 Y-0.193
X-79.595 Y-0.124
X-79.6 Y0.015
Y147.585
X-79.595 Y147.724
X-79.588 Y147.793
X-79.577 Y147.862
X-79.563 Y147.932
X-79.545 Y148.001
X-79.524 Y148.07
X-79.5 Y148.139
X-79.47 Y148.211
X-79.438 Y148.278
X-79.401 Y148.347
X-79.359 Y148.416
X-79.332 Y148.456
X-79.257 Y148.554
X-79.193 Y148.627
X-79.127 Y148.693
X-79.055 Y148.757
X-78.957 Y148.831
X-78.916 Y148.858
X-78.847 Y148.901
X-78.778 Y148.938
X-78.711 Y148.97
X-78.639 Y149.
X-78.57 Y149.024
X-78.501 Y149.045
X-78.432 Y149.063
X-78.363 Y149.077
X-78.293 Y149.087
X-78.224 Y149.095
X-78.086 Y149.1
X-38.898
X-38.837
X-38.776
X-38.654
X-38.41 Z-15.001
X-38.166
X-37.922 Z-15.002
X-37.678 Z-15.004
X-37.434 Z-15.005
X-37.19 Z-15.007
X-36.946 Z-15.009
X-36.702 Z-15.012
X-36.458 Z-15.014
X-36.214 Z-15.017
X-35.97 Z-15.02
X-35.726 Z-15.024
X-35.482 Z-15.027
X-35.238 Z-15.031
X-34.994 Z-15.035
X-34.75 Z-15.04
X-34.506 Z-15.044
X-34.262 Z-15.049
X-34.14 Z-15.051
X-34.018 Z-15.054
X-33.896 Z-15.057
X-33.774 Z-15.059
X-33.652 Z-15.062
X-33.53 Z-15.065
X-33.408 Z-15.067
X-33.286 Z-15.07
X-33.164 Z-15.073
X-33.042 Z-15.076
X-32.92 Z-15.079
X-32.798 Z-15.082
X-32.676 Z-15.085
X-32.554 Z-15.088
X-32.432 Z-15.091
X-32.31 Z-15.095
X-32.188 Z-15.098
X-32.066 Z-15.101
X-31.944 Z-15.105
X-31.822 Z-15.108
X-31.7 Z-15.112
X-31.578 Z-15.115
X-31.456 Z-15.119
X-31.334 Z-15.122
X-31.212 Z-15.126
X-31.09 Z-15.129
X-30.968 Z-15.133
X-30.846 Z-15.137
X-30.724 Z-15.141
X-30.602 Z-15.145
X-30.48 Z-15.148
X-30.358 Z-15.152
X-30.236 Z-15.156
X-30.114 Z-15.16
X-29.992 Z-15.164
X-29.87 Z-15.168
X-29.748 Z-15.172
X-29.626 Z-15.177
X-29.504 Z-15.181
X-29.382 Z-15.185
X-29.26 Z-15.189
X-28.04 Z-15.232
X-27.918 Z-15.236
X-27.796 Z-15.24
X-27.674 Z-15.244
X-27.552 Z-15.249
X-27.43 Z-15.253
X-27.308 Z-15.257
X-27.186 Z-15.262
X-27.064 Z-15.266
X-26.942 Z-15.27
X-26.82 Z-15.274
X-26.698 Z-15.279
X-26.576 Z-15.283
X-26.454 Z-15.287
X-26.332 Z-15.291
X-26.21 Z-15.296
X-26.088 Z-15.3
X-25.966 Z-15.304
X-25.722 Z-15.313
X-25.355 Z-15.325
X-24.989 Z-15.338
X-24.623 Z-15.351
X-24.257 Z-15.364
X-23.891 Z-15.377
X-23.525 Z-15.389
X-22.915 Z-15.411
X-22.305 Z-15.432
X-21.451 Z-15.462
X-19.987 Z-15.513
X-14.741 Z-15.696
X-14.619 Z-15.7
X-14.497 Z-15.705
X-14.375 Z-15.709
X-14.253 Z-15.713
X-14.131 Z-15.717
X-14.009 Z-15.722
X-13.887 Z-15.726
X-13.765 Z-15.73
X-13.643 Z-15.734
X-13.521 Z-15.739
X-13.399 Z-15.743
X-13.277 Z-15.747
X-13.155 Z-15.751
X-13.033 Z-15.756
X-12.911 Z-15.76
X-12.789 Z-15.764
X-12.667 Z-15.768
X-12.545 Z-15.773
X-12.423 Z-15.777
X-12.301 Z-15.781
X-12.179 Z-15.786
X-12.057 Z-15.79
X-11.935 Z-15.794
X-11.813 Z-15.798
X-11.691 Z-15.803
X-11.325 Z-15.815
X-11.203 Z-15.819
X-11.081 Z-15.824
X-10.959 Z-15.828
X-10.837 Z-15.832
X-10.715 Z-15.836
X-10.593 Z-15.84
X-10.471 Z-15.844
X-10.349 Z-15.848
X-10.227 Z-15.852
X-10.105 Z-15.856
X-9.983 Z-15.859
X-9.861 Z-15.863
X-9.739 Z-15.867
X-9.617 Z-15.871
X-9.495 Z-15.874
X-9.373 Z-15.878
X-9.251 Z-15.882
X-9.129 Z-15.885
X-9.007 Z-15.889
X-8.885 Z-15.892
X-8.763 Z-15.895
X-8.641 Z-15.899
X-8.519 Z-15.902
X-8.397 Z-15.905
X-8.275 Z-15.909
X-8.153 Z-15.912
X-8.031 Z-15.915
X-7.909 Z-15.918
X-7.787 Z-15.921
X-7.665 Z-15.924
X-7.543 Z-15.927
X-7.421 Z-15.93
X-7.299 Z-15.933
X-7.177 Z-15.936
X-7.055 Z-15.938
X-6.933 Z-15.941
X-6.811 Z-15.944
X-6.688 Z-15.946
X-6.566 Z-15.949
X-6.444 Z-15.951
X-6.2 Z-15.956
X-5.956 Z-15.961
X-5.712 Z-15.965
X-5.468 Z-15.969
X-5.224 Z-15.973
X-4.98 Z-15.976
X-4.736 Z-15.98
X-4.492 Z-15.983
X-4.248 Z-15.986
X-4.004 Z-15.988
X-3.76 Z-15.991
X-3.516 Z-15.993
X-3.272 Z-15.995
X-3.028 Z-15.996
X-2.784 Z-15.998
X-2.54 Z-15.999
X-2.296
X-2.052 Z-16.
X-1.932
X-1.82
X-1.812
X-0.014
X0.124 Y149.095
X0.193 Y149.087
X0.263 Y149.077
X0.332 Y149.063
X0.401 Y149.045
X0.47 Y149.024
X0.539 Y149.
X0.611 Y148.97
X0.678 Y148.938
X0.747 Y148.901
X0.816 Y148.858
X0.857 Y148.831
X0.955 Y148.757
X1.027 Y148.693
X1.093 Y148.627
X1.157 Y148.554
X1.232 Y148.456
X1.259 Y148.416
X1.301 Y148.347
X1.338 Y148.278
X1.37 Y148.211
X1.4 Y148.139
X1.424 Y148.07
X1.445 Y148.001
X1.463 Y147.932
X1.477 Y147.862
X1.488 Y147.793
X1.495 Y147.724
X1.5 Y147.585
Y0.015
X1.495 Y-0.124
X1.488 Y-0.193
X1.477 Y-0.262
X1.463 Y-0.332
X1.445 Y-0.401
X1.424 Y-0.47
X1.4 Y-0.539
X1.37 Y-0.611
X1.338 Y-0.678
X1.301 Y-0.747
X1.259 Y-0.816
X1.232 Y-0.856
X1.157 Y-0.954
X1.093 Y-1.027
X1.027 Y-1.093
X0.955 Y-1.157
X0.857 Y-1.231
X0.816 Y-1.258
X0.747 Y-1.301
X0.678 Y-1.338
X0.611 Y-1.37
X0.539 Y-1.4
X0.47 Y-1.424
X0.401 Y-1.445
X0.332 Y-1.463
X0.263 Y-1.477
X0.193 Y-1.487
X0.124 Y-1.495
X-0.014 Y-1.5
X-78.086
X-78.224 Y-1.495
X-78.293 Y-1.487
X-78.363 Y-1.477
X-78.432 Y-1.463
X-78.501 Y-1.445
X-78.57 Y-1.424
X-78.639 Y-1.4
X-78.711 Y-1.37
X-78.778 Y-1.338
X-78.847 Y-1.301
X-78.916 Y-1.258
X-78.957 Y-1.231
X-79.055 Y-1.157
X-79.127 Y-1.093
X-79.193 Y-1.027
X-79.257 Y-0.954
X-79.332 Y-0.856
X-79.359 Y-0.816
X-79.401 Y-0.747
X-79.438 Y-0.678
X-79.47 Y-0.611
X-79.5 Y-0.539
X-79.524 Y-0.47
X-79.545 Y-0.401
X-79.563 Y-0.332
X-79.577 Y-0.262
X-79.588 Y-0.193
X-79.595 Y-0.124
X-79.6 Y0.015
Y147.585
X-79.595 Y147.724
X-79.588 Y147.793
X-79.577 Y147.862
X-79.563 Y147.932
X-79.545 Y148.001
X-79.524 Y148.07
X-79.5 Y148.139
X-79.47 Y148.211
X-79.438 Y148.278
X-79.401 Y148.347
X-79.359 Y148.416
X-79.332 Y148.456
X-79.257 Y148.554
X-79.193 Y148.627
X-79.127 Y148.693
X-79.055 Y148.757
X-78.957 Y148.831
X-78.916 Y148.858
X-78.847 Y148.901
X-78.778 Y148.938
X-78.711 Y148.97
X-78.639 Y149.
X-78.57 Y149.024
X-78.501 Y149.045
X-78.432 Y149.063
X-78.363 Y149.077
X-78.293 Y149.087
X-78.224 Y149.095
X-78.086 Y149.1
X-38.898
X-1.812
X-1.751
X-1.69
X-1.568
X-1.324 Z-16.001
X-1.08
X-0.836 Z-16.002
X-0.592 Z-16.004
X-0.348 Z-16.005
X-0.104 Z-16.007
X0.018 Z-16.008
X0.14 Y149.093 Z-16.009
X0.261 Y149.077 Z-16.01
X0.38 Y149.051 Z-16.012
X0.497 Y149.015 Z-16.013
X0.61 Y148.97 Z-16.014
X0.719 Y148.916 Z-16.016
X0.824 Y148.854 Z-16.017
X0.923 Y148.782 Z-16.019
X1.016 Y148.703 Z-16.02
X1.102 Y148.617 Z-16.022
X1.181 Y148.524 Z-16.024
X1.253 Y148.425 Z-16.025
X1.315 Y148.321 Z-16.027
X1.37 Y148.211 Z-16.029
X1.415 Y148.098 Z-16.031
X1.451 Y147.982 Z-16.033
X1.477 Y147.862 Z-16.035
X1.493 Y147.742 Z-16.037
X1.5 Y147.62 Z-16.04
Y147.376 Z-16.044
Y147.132 Z-16.049
Y147.01 Z-16.051
Y146.888 Z-16.054
Y146.766 Z-16.057
Y146.644 Z-16.059
Y146.522 Z-16.062
Y146.4 Z-16.065
Y146.278 Z-16.067
Y146.156 Z-16.07
Y146.034 Z-16.073
Y145.912 Z-16.076
Y145.79 Z-16.079
Y145.668 Z-16.082
Y145.546 Z-16.085
Y145.424 Z-16.088
Y145.302 Z-16.091
Y145.18 Z-16.095
Y145.058 Z-16.098
Y144.936 Z-16.101
Y144.814 Z-16.105
Y144.692 Z-16.108
Y144.57 Z-16.112
Y144.448 Z-16.115
Y144.326 Z-16.119
Y144.204 Z-16.122
Y144.082 Z-16.126
Y143.96 Z-16.129
Y143.838 Z-16.133
Y143.715 Z-16.137
Y143.593 Z-16.141
Y143.471 Z-16.145
Y143.349 Z-16.148
Y143.227 Z-16.152
Y143.105 Z-16.156
Y142.983 Z-16.16
Y142.861 Z-16.164
Y142.739 Z-16.168
Y142.617 Z-16.172
Y142.495 Z-16.177
Y142.373 Z-16.181
Y142.251 Z-16.185
Y142.129 Z-16.189
Y140.909 Z-16.232
Y140.787 Z-16.236
Y140.665 Z-16.24
Y140.543 Z-16.244
Y140.421 Z-16.249
Y140.299 Z-16.253
Y140.177 Z-16.257
Y140.055 Z-16.262
Y139.933 Z-16.266
Y139.811 Z-16.27
Y139.689 Z-16.274
Y139.567 Z-16.279
Y139.445 Z-16.283
Y139.323 Z-16.287
Y139.201 Z-16.291
Y139.079 Z-16.296
Y138.957 Z-16.3
Y138.835 Z-16.304
Y138.591 Z-16.313
Y138.225 Z-16.325
Y137.859 Z-16.338
Y137.493 Z-16.351
Y137.127 Z-16.364
Y136.761 Z-16.377
Y136.395 Z-16.389
Y135.785 Z-16.411
Y135.175 Z-16.432
Y134.321 Z-16.462
Y132.857 Z-16.513
Y127.611 Z-16.696
Y127.489 Z-16.7
Y127.367 Z-16.705
Y127.245 Z-16.709
Y127.123 Z-16.713
Y127.001 Z-16.717
Y126.879 Z-16.722
Y126.757 Z-16.726
Y126.635 Z-16.73
Y126.513 Z-16.734
Y126.391 Z-16.739
Y126.269 Z-16.743
Y126.147 Z-16.747
Y126.025 Z-16.751
Y125.903 Z-16.756
Y125.781 Z-16.76
Y125.659 Z-16.764
Y125.537 Z-16.768
Y125.415 Z-16.773
Y125.293 Z-16.777
Y125.171 Z-16.781
Y125.048 Z-16.786
Y124.926 Z-16.79
Y124.804 Z-16.794
Y124.682 Z-16.798
Y124.56 Z-16.803
Y124.194 Z-16.815
Y124.072 Z-16.819
Y123.95 Z-16.824
Y123.828 Z-16.828
Y123.706 Z-16.832
Y123.584 Z-16.836
Y123.462 Z-16.84
Y123.34 Z-16.844
Y123.218 Z-16.848
Y123.096 Z-16.852
Y122.974 Z-16.856
Y122.852 Z-16.859
Y122.73 Z-16.863
Y122.608 Z-16.867
Y122.486 Z-16.871
Y122.364 Z-16.874
Y122.242 Z-16.878
Y122.12 Z-16.882
Y121.998 Z-16.885
Y121.876 Z-16.889
Y121.754 Z-16.892
Y121.632 Z-16.895
Y121.51 Z-16.899
Y121.388 Z-16.902
Y121.266 Z-16.905
Y121.144 Z-16.909
Y121.022 Z-16.912
Y120.9 Z-16.915
Y120.778 Z-16.918
Y120.656 Z-16.921
Y120.534 Z-16.924
Y120.412 Z-16.927
Y120.29 Z-16.93
Y120.168 Z-16.933
Y120.046 Z-16.936
Y119.924 Z-16.938
Y119.802 Z-16.941
Y119.68 Z-16.944
Y119.558 Z-16.946
Y119.436 Z-16.949
Y119.314 Z-16.951
Y119.07 Z-16.956
Y118.826 Z-16.961
Y118.582 Z-16.965
Y118.338 Z-16.969
Y118.094 Z-16.973
Y117.85 Z-16.976
Y117.606 Z-16.98
Y117.362 Z-16.983
Y117.118 Z-16.986
Y116.874 Z-16.988
Y116.63 Z-16.991
Y116.386 Z-16.993
Y116.142 Z-16.995
Y115.898 Z-16.996
Y115.654 Z-16.998
Y115.41 Z-16.999
Y115.166
Y114.922 Z-17.
Y114.802
Y114.689
Y114.682
Y0.015
X1.495 Y-0.124
X1.488 Y-0.193
X1.477 Y-0.262
X1.463 Y-0.332
X1.445 Y-0.401
X1.424 Y-0.47
X1.4 Y-0.539
X1.37 Y-0.611
X1.338 Y-0.678
X1.301 Y-0.747
X1.259 Y-0.816
X1.232 Y-0.856
X1.157 Y-0.954
X1.093 Y-1.027
X1.027 Y-1.093
X0.955 Y-1.157
X0.857 Y-1.231
X0.816 Y-1.258
X0.747 Y-1.301
X0.678 Y-1.338
X0.611 Y-1.37
X0.539 Y-1.4
X0.47 Y-1.424
X0.401 Y-1.445
X0.332 Y-1.463
X0.263 Y-1.477
X0.193 Y-1.487
X0.124 Y-1.495
X-0.014 Y-1.5
X-78.086
X-78.224 Y-1.495
X-78.293 Y-1.487
X-78.363 Y-1.477
X-78.432 Y-1.463
X-78.501 Y-1.445
X-78.57 Y-1.424
X-78.639 Y-1.4
X-78.711 Y-1.37
X-78.778 Y-1.338
X-78.847 Y-1.301
X-78.916 Y-1.258
X-78.957 Y-1.231
X-79.055 Y-1.157
X-79.127 Y-1.093
X-79.193 Y-1.027
X-79.257 Y-0.954
X-79.332 Y-0.856
X-79.359 Y-0.816
X-79.401 Y-0.747
X-79.438 Y-0.678
X-79.47 Y-0.611
X-79.5 Y-0.539
X-79.524 Y-0.47
X-79.545 Y-0.401
X-79.563 Y-0.332
X-79.577 Y-0.262
X-79.588 Y-0.193
X-79.595 Y-0.124
X-79.6 Y0.015
Y147.585
X-79.595 Y147.724
X-79.588 Y147.793
X-79.577 Y147.862
X-79.563 Y147.932
X-79.545 Y148.001
X-79.524 Y148.07
X-79.5 Y148.139
X-79.47 Y148.211
X-79.438 Y148.278
X-79.401 Y148.347
X-79.359 Y148.416
X-79.332 Y148.456
X-79.257 Y148.554
X-79.193 Y148.627
X-79.127 Y148.693
X-79.055 Y148.757
X-78.957 Y148.831
X-78.916 Y148.858
X-78.847 Y148.901
X-78.778 Y148.938
X-78.711 Y148.97
X-78.639 Y149.
X-78.57 Y149.024
X-78.501 Y149.045
X-78.432 Y149.063
X-78.363 Y149.077
X-78.293 Y149.087
X-78.224 Y149.095
X-78.086 Y149.1
X-1.812
X-0.014
X0.124 Y149.095
X0.193 Y149.087
X0.263 Y149.077
X0.332 Y149.063
X0.401 Y149.045
X0.47 Y149.024
X0.539 Y149.
X0.611 Y148.97
X0.678 Y148.938
X0.747 Y148.901
X0.816 Y148.858
X0.857 Y148.831
X0.955 Y148.757
X1.027 Y148.693
X1.093 Y148.627
X1.157 Y148.554
X1.232 Y148.456
X1.259 Y148.416
X1.301 Y148.347
X1.338 Y148.278
X1.37 Y148.211
X1.4 Y148.139
X1.424 Y148.07
X1.445 Y148.001
X1.463 Y147.932
X1.477 Y147.862
X1.488 Y147.793
X1.495 Y147.724
X1.5 Y147.585
Y114.682
G3 X1.853 Y114.387 I0.3 J0.
G1 X3.206 Y114.629
X3.271 Y114.641 Z-16.992
X3.334 Y114.652 Z-16.97
X3.39 Y114.662 Z-16.935
X3.437 Y114.67 Z-16.887
X3.472 Y114.677 Z-16.83
X3.494 Y114.68 Z-16.767
X3.501 Y114.682 Z-16.7
G0 Z2.

M9
G53 Z0.
M30
