(1-DRILL)
(T2  D=3. CR=0. - ZMIN=-12. - FLAT END MILL)
G0 G90 G94 G17
G21
G53 Z0.

(DRILL1)
M5
M9
T2
(PART OF A 10 PACK CARBIDE)
M3 S18000
G54
M9
G0 X6. Y5.
Z2.
Z1.
G1 Z-2. F33.
G0 Z1.
Z0.
G1 Z-4. F33.
G0 Z1.
Z-2.
G1 Z-6. F33.
G0 Z1.
Z-4.
G1 Z-8. F33.
G0 Z1.
Z-6.
G1 Z-10. F33.
G0 Z1.
Z-8.
G1 Z-12. F33.
G0 Z1.
Y35.
G1 Z-2. F33.
G0 Z1.
Z0.
G1 Z-4. F33.
G0 Z1.
Z-2.
G1 Z-6. F33.
G0 Z1.
Z-4.
G1 Z-8. F33.
G0 Z1.
Z-6.
G1 Z-10. F33.
G0 Z1.
Z-8.
G1 Z-12. F33.
G0 Z1.
Y135.
G1 Z-2. F33.
G0 Z1.
Z0.
G1 Z-4. F33.
G0 Z1.
Z-2.
G1 Z-6. F33.
G0 Z1.
Z-4.
G1 Z-8. F33.
G0 Z1.
Z-6.
G1 Z-10. F33.
G0 Z1.
Z-8.
G1 Z-12. F33.
G0 Z1.
Y165.
G1 Z-2. F33.
G0 Z1.
Z0.
G1 Z-4. F33.
G0 Z1.
Z-2.
G1 Z-6. F33.
G0 Z1.
Z-4.
G1 Z-8. F33.
G0 Z1.
Z-6.
G1 Z-10. F33.
G0 Z1.
Z-8.
G1 Z-12. F33.
G0 Z1.
Z2.

M9
G53 Z0.
M30
