(2-HOLES)
(T2  D=3. CR=0. - ZMIN=-12. - FLAT END MILL)
G0 G90 G94 G17
G21
G53 Z0.

(CONTOUR - HOLES)
M5
M9
T2
(PART OF A 10 PACK CARBIDE)
M3 S18000
G54
M9
G0 X97.549 Y15.184
Z2.
G1 Z-2. F250.
G3 X97.258 Y14.87 I0.009 J-0.3
G1 X97.265 Y14.736
Y14.734
X97.303 Y14.472
Y14.47
X97.366 Y14.215
X97.367 Y14.213
X97.454 Y13.964
X97.455 Y13.962
X97.566 Y13.724
X97.567 Y13.722
X97.701 Y13.495
X97.702 Y13.493
X97.856 Y13.28
X97.858 Y13.279
X98.033 Y13.081
X98.035 Y13.079
X98.228 Y12.9
X98.229 Y12.898
X98.438 Y12.739
X98.441 Y12.737
X98.664 Y12.598
X98.901 Y12.481
X98.903 Y12.48
X99.15 Y12.387
X99.151 Y12.386
X99.407 Y12.317
X99.409 Y12.316
X99.667 Y12.272
X99.669
X99.934 Y12.253
X100.197 Y12.259
X100.199
X100.463 Y12.291
X100.722 Y12.348
X100.724 Y12.349
X100.973 Y12.43
X100.975
X101.217 Y12.536
X101.219 Y12.537
X101.45 Y12.665
X101.452 Y12.666
X101.667 Y12.816
X101.67 Y12.817
X101.87 Y12.987
X101.873 Y12.989
X102.056 Y13.177
X102.058 Y13.179
X102.223 Y13.385
X102.225 Y13.387
X102.368 Y13.606
X102.369 Y13.608
X102.492 Y13.841
X102.493 Y13.843
X102.592 Y14.086
X102.593 Y14.088
X102.668 Y14.34
Y14.342
X102.719 Y14.602
X102.72 Y14.604
X102.745 Y14.867
Y14.869
Y15.132
Y15.134
X102.72 Y15.396
X102.719 Y15.398
X102.668 Y15.657
Y15.659
X102.593 Y15.91
X102.592 Y15.912
X102.493 Y16.157
X102.492 Y16.159
X102.369 Y16.392
X102.368 Y16.395
X102.224 Y16.615
X102.223 Y16.616
X102.058 Y16.821
X102.056 Y16.823
X101.872 Y17.012
X101.87 Y17.014
X101.669 Y17.183
X101.668 Y17.184
X101.45 Y17.334
X101.448 Y17.336
X101.219 Y17.463
X101.217 Y17.464
X100.975 Y17.569
X100.974 Y17.57
X100.724 Y17.651
X100.722 Y17.652
X100.463 Y17.709
X100.199 Y17.741
X100.197
X99.934 Y17.747
X99.67 Y17.728
X99.668
X99.408 Y17.684
X99.407 Y17.683
X99.152 Y17.614
X99.15 Y17.613
X98.903 Y17.52
X98.901 Y17.519
X98.666 Y17.402
X98.664 Y17.401
X98.44 Y17.262
X98.438 Y17.261
X98.23 Y17.102
X98.228 Y17.1
X98.034 Y16.92
X98.032 Y16.918
X97.858 Y16.722
X97.857 Y16.72
X97.702 Y16.508
X97.701 Y16.506
X97.567 Y16.277
X97.566 Y16.276
X97.455 Y16.038
X97.454 Y16.036
X97.367 Y15.788
X97.366 Y15.785
X97.303 Y15.53
Y15.528
X97.265 Y15.266
Y15.264
X97.252 Y15.002
Y15.
X97.258 Y14.87
G3 X97.572 Y14.584 I0.3 J0.014
G2 X97.866 Y14.176 I0.014 J-0.3
G3 X97.96 Y13.831 I0.279 J-0.109
X99.73 Y13.838 I0.881 J1.12
X99.739 Y13.844 I-0.89 J1.113 F83.
X97.943 Y16.058 Z-2.156 I-0.898 J1.107
X99.739 Y13.844 Z-2.313 I0.898 J-1.107
X97.943 Y16.058 Z-2.469 I-0.898 J1.107
X99.739 Y13.844 Z-2.625 I0.898 J-1.107
X97.943 Y16.058 Z-2.782 I-0.898 J1.107
X99.739 Y13.844 Z-2.938 I0.898 J-1.107
X97.943 Y16.058 Z-3.094 I-0.898 J1.107
X99.739 Y13.844 Z-3.25 I0.898 J-1.107
X97.943 Y16.058 Z-3.407 I-0.898 J1.107
X99.739 Y13.844 Z-3.563 I0.898 J-1.107
X97.943 Y16.058 Z-3.719 I-0.898 J1.107
X99.739 Y13.844 Z-3.875 I0.898 J-1.107
X98.783 Y16.375 Z-4. I-0.898 J1.107
X98.772 Y16.374 I0.058 J-1.424
G1 X98.617 Y16.367 F250.
G3 X97.258 Y14.87 I0.069 J-1.428
G1 X97.265 Y14.736
Y14.734
X97.303 Y14.472
Y14.47
X97.366 Y14.215
X97.367 Y14.213
X97.454 Y13.964
X97.455 Y13.962
X97.566 Y13.724
X97.567 Y13.722
X97.701 Y13.495
X97.702 Y13.493
X97.856 Y13.28
X97.858 Y13.279
X98.033 Y13.081
X98.035 Y13.079
X98.228 Y12.9
X98.229 Y12.898
X98.438 Y12.739
X98.441 Y12.737
X98.664 Y12.598
X98.901 Y12.481
X98.903 Y12.48
X99.15 Y12.387
X99.151 Y12.386
X99.407 Y12.317
X99.409 Y12.316
X99.667 Y12.272
X99.669
X99.934 Y12.253
X100.197 Y12.259
X100.199
X100.463 Y12.291
X100.722 Y12.348
X100.724 Y12.349
X100.973 Y12.43
X100.975
X101.217 Y12.536
X101.219 Y12.537
X101.45 Y12.665
X101.452 Y12.666
X101.667 Y12.816
X101.67 Y12.817
X101.87 Y12.987
X101.873 Y12.989
X102.056 Y13.177
X102.058 Y13.179
X102.223 Y13.385
X102.225 Y13.387
X102.368 Y13.606
X102.369 Y13.608
X102.492 Y13.841
X102.493 Y13.843
X102.592 Y14.086
X102.593 Y14.088
X102.668 Y14.34
Y14.342
X102.719 Y14.602
X102.72 Y14.604
X102.745 Y14.867
Y14.869
Y15.132
Y15.134
X102.72 Y15.396
X102.719 Y15.398
X102.668 Y15.657
Y15.659
X102.593 Y15.91
X102.592 Y15.912
X102.493 Y16.157
X102.492 Y16.159
X102.369 Y16.392
X102.368 Y16.395
X102.224 Y16.615
X102.223 Y16.616
X102.058 Y16.821
X102.056 Y16.823
X101.872 Y17.012
X101.87 Y17.014
X101.669 Y17.183
X101.668 Y17.184
X101.45 Y17.334
X101.448 Y17.336
X101.219 Y17.463
X101.217 Y17.464
X100.975 Y17.569
X100.974 Y17.57
X100.724 Y17.651
X100.722 Y17.652
X100.463 Y17.709
X100.199 Y17.741
X100.197
X99.934 Y17.747
X99.67 Y17.728
X99.668
X99.408 Y17.684
X99.407 Y17.683
X99.152 Y17.614
X99.15 Y17.613
X98.903 Y17.52
X98.901 Y17.519
X98.666 Y17.402
X98.664 Y17.401
X98.44 Y17.262
X98.438 Y17.261
X98.23 Y17.102
X98.228 Y17.1
X98.034 Y16.92
X98.032 Y16.918
X97.858 Y16.722
X97.857 Y16.72
X97.702 Y16.508
X97.701 Y16.506
X97.567 Y16.277
X97.566 Y16.276
X97.455 Y16.038
X97.454 Y16.036
X97.367 Y15.788
X97.366 Y15.785
X97.303 Y15.53
Y15.528
X97.265 Y15.266
Y15.264
X97.252 Y15.002
Y15.
X97.258 Y14.87
G3 X97.572 Y14.584 I0.3 J0.014
G2 X97.866 Y14.176 I0.014 J-0.3
G3 X97.96 Y13.831 I0.279 J-0.109
X99.73 Y13.838 I0.881 J1.12
X99.739 Y13.844 I-0.89 J1.113 F83.
X97.943 Y16.058 Z-4.156 I-0.898 J1.107
X99.739 Y13.844 Z-4.313 I0.898 J-1.107
X97.943 Y16.058 Z-4.469 I-0.898 J1.107
X99.739 Y13.844 Z-4.625 I0.898 J-1.107
X97.943 Y16.058 Z-4.782 I-0.898 J1.107
X99.739 Y13.844 Z-4.938 I0.898 J-1.107
X97.943 Y16.058 Z-5.094 I-0.898 J1.107
X99.739 Y13.844 Z-5.25 I0.898 J-1.107
X97.943 Y16.058 Z-5.407 I-0.898 J1.107
X99.739 Y13.844 Z-5.563 I0.898 J-1.107
X97.943 Y16.058 Z-5.719 I-0.898 J1.107
X99.739 Y13.844 Z-5.875 I0.898 J-1.107
X98.783 Y16.375 Z-6. I-0.898 J1.107
X98.772 Y16.374 I0.058 J-1.424
G1 X98.617 Y16.367 F250.
G3 X97.258 Y14.87 I0.069 J-1.428
G1 X97.265 Y14.736
Y14.734
X97.303 Y14.472
Y14.47
X97.366 Y14.215
X97.367 Y14.213
X97.454 Y13.964
X97.455 Y13.962
X97.566 Y13.724
X97.567 Y13.722
X97.701 Y13.495
X97.702 Y13.493
X97.856 Y13.28
X97.858 Y13.279
X98.033 Y13.081
X98.035 Y13.079
X98.228 Y12.9
X98.229 Y12.898
X98.438 Y12.739
X98.441 Y12.737
X98.664 Y12.598
X98.901 Y12.481
X98.903 Y12.48
X99.15 Y12.387
X99.151 Y12.386
X99.407 Y12.317
X99.409 Y12.316
X99.667 Y12.272
X99.669
X99.934 Y12.253
X100.197 Y12.259
X100.199
X100.463 Y12.291
X100.722 Y12.348
X100.724 Y12.349
X100.973 Y12.43
X100.975
X101.217 Y12.536
X101.219 Y12.537
X101.45 Y12.665
X101.452 Y12.666
X101.667 Y12.816
X101.67 Y12.817
X101.87 Y12.987
X101.873 Y12.989
X102.056 Y13.177
X102.058 Y13.179
X102.223 Y13.385
X102.225 Y13.387
X102.368 Y13.606
X102.369 Y13.608
X102.492 Y13.841
X102.493 Y13.843
X102.592 Y14.086
X102.593 Y14.088
X102.668 Y14.34
Y14.342
X102.719 Y14.602
X102.72 Y14.604
X102.745 Y14.867
Y14.869
Y15.132
Y15.134
X102.72 Y15.396
X102.719 Y15.398
X102.668 Y15.657
Y15.659
X102.593 Y15.91
X102.592 Y15.912
X102.493 Y16.157
X102.492 Y16.159
X102.369 Y16.392
X102.368 Y16.395
X102.224 Y16.615
X102.223 Y16.616
X102.058 Y16.821
X102.056 Y16.823
X101.872 Y17.012
X101.87 Y17.014
X101.669 Y17.183
X101.668 Y17.184
X101.45 Y17.334
X101.448 Y17.336
X101.219 Y17.463
X101.217 Y17.464
X100.975 Y17.569
X100.974 Y17.57
X100.724 Y17.651
X100.722 Y17.652
X100.463 Y17.709
X100.199 Y17.741
X100.197
X99.934 Y17.747
X99.67 Y17.728
X99.668
X99.408 Y17.684
X99.407 Y17.683
X99.152 Y17.614
X99.15 Y17.613
X98.903 Y17.52
X98.901 Y17.519
X98.666 Y17.402
X98.664 Y17.401
X98.44 Y17.262
X98.438 Y17.261
X98.23 Y17.102
X98.228 Y17.1
X98.034 Y16.92
X98.032 Y16.918
X97.858 Y16.722
X97.857 Y16.72
X97.702 Y16.508
X97.701 Y16.506
X97.567 Y16.277
X97.566 Y16.276
X97.455 Y16.038
X97.454 Y16.036
X97.367 Y15.788
X97.366 Y15.785
X97.303 Y15.53
Y15.528
X97.265 Y15.266
Y15.264
X97.252 Y15.002
Y15.
X97.258 Y14.87
G3 X97.572 Y14.584 I0.3 J0.014
G2 X97.866 Y14.176 I0.014 J-0.3
G3 X97.96 Y13.831 I0.279 J-0.109
X99.73 Y13.838 I0.881 J1.12
X99.739 Y13.844 I-0.89 J1.113 F83.
X97.943 Y16.058 Z-6.156 I-0.898 J1.107
X99.739 Y13.844 Z-6.313 I0.898 J-1.107
X97.943 Y16.058 Z-6.469 I-0.898 J1.107
X99.739 Y13.844 Z-6.625 I0.898 J-1.107
X97.943 Y16.058 Z-6.782 I-0.898 J1.107
X99.739 Y13.844 Z-6.938 I0.898 J-1.107
X97.943 Y16.058 Z-7.094 I-0.898 J1.107
X99.739 Y13.844 Z-7.25 I0.898 J-1.107
X97.943 Y16.058 Z-7.407 I-0.898 J1.107
X99.739 Y13.844 Z-7.563 I0.898 J-1.107
X97.943 Y16.058 Z-7.719 I-0.898 J1.107
X99.739 Y13.844 Z-7.875 I0.898 J-1.107
X98.783 Y16.375 Z-8. I-0.898 J1.107
X98.772 Y16.374 I0.058 J-1.424
G1 X98.617 Y16.367 F250.
G3 X97.258 Y14.87 I0.069 J-1.428
G1 X97.265 Y14.736
Y14.734
X97.303 Y14.472
Y14.47
X97.366 Y14.215
X97.367 Y14.213
X97.454 Y13.964
X97.455 Y13.962
X97.566 Y13.724
X97.567 Y13.722
X97.701 Y13.495
X97.702 Y13.493
X97.856 Y13.28
X97.858 Y13.279
X98.033 Y13.081
X98.035 Y13.079
X98.228 Y12.9
X98.229 Y12.898
X98.438 Y12.739
X98.441 Y12.737
X98.664 Y12.598
X98.901 Y12.481
X98.903 Y12.48
X99.15 Y12.387
X99.151 Y12.386
X99.407 Y12.317
X99.409 Y12.316
X99.667 Y12.272
X99.669
X99.934 Y12.253
X100.197 Y12.259
X100.199
X100.463 Y12.291
X100.722 Y12.348
X100.724 Y12.349
X100.973 Y12.43
X100.975
X101.217 Y12.536
X101.219 Y12.537
X101.45 Y12.665
X101.452 Y12.666
X101.667 Y12.816
X101.67 Y12.817
X101.87 Y12.987
X101.873 Y12.989
X102.056 Y13.177
X102.058 Y13.179
X102.223 Y13.385
X102.225 Y13.387
X102.368 Y13.606
X102.369 Y13.608
X102.492 Y13.841
X102.493 Y13.843
X102.592 Y14.086
X102.593 Y14.088
X102.668 Y14.34
Y14.342
X102.719 Y14.602
X102.72 Y14.604
X102.745 Y14.867
Y14.869
Y15.132
Y15.134
X102.72 Y15.396
X102.719 Y15.398
X102.668 Y15.657
Y15.659
X102.593 Y15.91
X102.592 Y15.912
X102.493 Y16.157
X102.492 Y16.159
X102.369 Y16.392
X102.368 Y16.395
X102.224 Y16.615
X102.223 Y16.616
X102.058 Y16.821
X102.056 Y16.823
X101.872 Y17.012
X101.87 Y17.014
X101.669 Y17.183
X101.668 Y17.184
X101.45 Y17.334
X101.448 Y17.336
X101.219 Y17.463
X101.217 Y17.464
X100.975 Y17.569
X100.974 Y17.57
X100.724 Y17.651
X100.722 Y17.652
X100.463 Y17.709
X100.199 Y17.741
X100.197
X99.934 Y17.747
X99.67 Y17.728
X99.668
X99.408 Y17.684
X99.407 Y17.683
X99.152 Y17.614
X99.15 Y17.613
X98.903 Y17.52
X98.901 Y17.519
X98.666 Y17.402
X98.664 Y17.401
X98.44 Y17.262
X98.438 Y17.261
X98.23 Y17.102
X98.228 Y17.1
X98.034 Y16.92
X98.032 Y16.918
X97.858 Y16.722
X97.857 Y16.72
X97.702 Y16.508
X97.701 Y16.506
X97.567 Y16.277
X97.566 Y16.276
X97.455 Y16.038
X97.454 Y16.036
X97.367 Y15.788
X97.366 Y15.785
X97.303 Y15.53
Y15.528
X97.265 Y15.266
Y15.264
X97.252 Y15.002
Y15.
X97.258 Y14.87
G3 X97.572 Y14.584 I0.3 J0.014
G2 X97.866 Y14.176 I0.014 J-0.3
G3 X97.96 Y13.831 I0.279 J-0.109
X99.73 Y13.838 I0.881 J1.12
X99.739 Y13.844 I-0.89 J1.113 F83.
X97.943 Y16.058 Z-8.156 I-0.898 J1.107
X99.739 Y13.844 Z-8.313 I0.898 J-1.107
X97.943 Y16.058 Z-8.469 I-0.898 J1.107
X99.739 Y13.844 Z-8.625 I0.898 J-1.107
X97.943 Y16.058 Z-8.782 I-0.898 J1.107
X99.739 Y13.844 Z-8.938 I0.898 J-1.107
X97.943 Y16.058 Z-9.094 I-0.898 J1.107
X99.739 Y13.844 Z-9.25 I0.898 J-1.107
X97.943 Y16.058 Z-9.407 I-0.898 J1.107
X99.739 Y13.844 Z-9.563 I0.898 J-1.107
X97.943 Y16.058 Z-9.719 I-0.898 J1.107
X99.739 Y13.844 Z-9.875 I0.898 J-1.107
X98.783 Y16.375 Z-10. I-0.898 J1.107
X98.772 Y16.374 I0.058 J-1.424
G1 X98.617 Y16.367 F250.
G3 X97.258 Y14.87 I0.069 J-1.428
G1 X97.265 Y14.736
Y14.734
X97.303 Y14.472
Y14.47
X97.366 Y14.215
X97.367 Y14.213
X97.454 Y13.964
X97.455 Y13.962
X97.566 Y13.724
X97.567 Y13.722
X97.701 Y13.495
X97.702 Y13.493
X97.856 Y13.28
X97.858 Y13.279
X98.033 Y13.081
X98.035 Y13.079
X98.228 Y12.9
X98.229 Y12.898
X98.438 Y12.739
X98.441 Y12.737
X98.664 Y12.598
X98.901 Y12.481
X98.903 Y12.48
X99.15 Y12.387
X99.151 Y12.386
X99.407 Y12.317
X99.409 Y12.316
X99.667 Y12.272
X99.669
X99.934 Y12.253
X100.197 Y12.259
X100.199
X100.463 Y12.291
X100.722 Y12.348
X100.724 Y12.349
X100.973 Y12.43
X100.975
X101.217 Y12.536
X101.219 Y12.537
X101.45 Y12.665
X101.452 Y12.666
X101.667 Y12.816
X101.67 Y12.817
X101.87 Y12.987
X101.873 Y12.989
X102.056 Y13.177
X102.058 Y13.179
X102.223 Y13.385
X102.225 Y13.387
X102.368 Y13.606
X102.369 Y13.608
X102.492 Y13.841
X102.493 Y13.843
X102.592 Y14.086
X102.593 Y14.088
X102.668 Y14.34
Y14.342
X102.719 Y14.602
X102.72 Y14.604
X102.745 Y14.867
Y14.869
Y15.132
Y15.134
X102.72 Y15.396
X102.719 Y15.398
X102.668 Y15.657
Y15.659
X102.593 Y15.91
X102.592 Y15.912
X102.493 Y16.157
X102.492 Y16.159
X102.369 Y16.392
X102.368 Y16.395
X102.224 Y16.615
X102.223 Y16.616
X102.058 Y16.821
X102.056 Y16.823
X101.872 Y17.012
X101.87 Y17.014
X101.669 Y17.183
X101.668 Y17.184
X101.45 Y17.334
X101.448 Y17.336
X101.219 Y17.463
X101.217 Y17.464
X100.975 Y17.569
X100.974 Y17.57
X100.724 Y17.651
X100.722 Y17.652
X100.463 Y17.709
X100.199 Y17.741
X100.197
X99.934 Y17.747
X99.67 Y17.728
X99.668
X99.408 Y17.684
X99.407 Y17.683
X99.152 Y17.614
X99.15 Y17.613
X98.903 Y17.52
X98.901 Y17.519
X98.666 Y17.402
X98.664 Y17.401
X98.44 Y17.262
X98.438 Y17.261
X98.23 Y17.102
X98.228 Y17.1
X98.034 Y16.92
X98.032 Y16.918
X97.858 Y16.722
X97.857 Y16.72
X97.702 Y16.508
X97.701 Y16.506
X97.567 Y16.277
X97.566 Y16.276
X97.455 Y16.038
X97.454 Y16.036
X97.367 Y15.788
X97.366 Y15.785
X97.303 Y15.53
Y15.528
X97.265 Y15.266
Y15.264
X97.252 Y15.002
Y15.
X97.258 Y14.87
G3 X97.572 Y14.584 I0.3 J0.014
G2 X97.866 Y14.176 I0.014 J-0.3
G3 X97.96 Y13.831 I0.279 J-0.109
X99.73 Y13.838 I0.881 J1.12
X99.739 Y13.844 I-0.89 J1.113 F83.
X97.943 Y16.058 Z-10.156 I-0.898 J1.107
X99.739 Y13.844 Z-10.313 I0.898 J-1.107
X97.943 Y16.058 Z-10.469 I-0.898 J1.107
X99.739 Y13.844 Z-10.625 I0.898 J-1.107
X97.943 Y16.058 Z-10.782 I-0.898 J1.107
X99.739 Y13.844 Z-10.938 I0.898 J-1.107
X97.943 Y16.058 Z-11.094 I-0.898 J1.107
X99.739 Y13.844 Z-11.25 I0.898 J-1.107
X97.943 Y16.058 Z-11.407 I-0.898 J1.107
X99.739 Y13.844 Z-11.563 I0.898 J-1.107
X97.943 Y16.058 Z-11.719 I-0.898 J1.107
X99.739 Y13.844 Z-11.875 I0.898 J-1.107
X98.783 Y16.375 Z-12. I-0.898 J1.107
X98.772 Y16.374 I0.058 J-1.424
G1 X98.617 Y16.367 F250.
G3 X97.258 Y14.87 I0.069 J-1.428
G1 X97.265 Y14.736
Y14.734
X97.303 Y14.472
Y14.47
X97.366 Y14.215
X97.367 Y14.213
X97.454 Y13.964
X97.455 Y13.962
X97.566 Y13.724
X97.567 Y13.722
X97.701 Y13.495
X97.702 Y13.493
X97.856 Y13.28
X97.858 Y13.279
X98.033 Y13.081
X98.035 Y13.079
X98.228 Y12.9
X98.229 Y12.898
X98.438 Y12.739
X98.441 Y12.737
X98.664 Y12.598
X98.901 Y12.481
X98.903 Y12.48
X99.15 Y12.387
X99.151 Y12.386
X99.407 Y12.317
X99.409 Y12.316
X99.667 Y12.272
X99.669
X99.934 Y12.253
X100.197 Y12.259
X100.199
X100.463 Y12.291
X100.722 Y12.348
X100.724 Y12.349
X100.973 Y12.43
X100.975
X101.217 Y12.536
X101.219 Y12.537
X101.45 Y12.665
X101.452 Y12.666
X101.667 Y12.816
X101.67 Y12.817
X101.87 Y12.987
X101.873 Y12.989
X102.056 Y13.177
X102.058 Y13.179
X102.223 Y13.385
X102.225 Y13.387
X102.368 Y13.606
X102.369 Y13.608
X102.492 Y13.841
X102.493 Y13.843
X102.592 Y14.086
X102.593 Y14.088
X102.668 Y14.34
Y14.342
X102.719 Y14.602
X102.72 Y14.604
X102.745 Y14.867
Y14.869
Y15.132
Y15.134
X102.72 Y15.396
X102.719 Y15.398
X102.668 Y15.657
Y15.659
X102.593 Y15.91
X102.592 Y15.912
X102.493 Y16.157
X102.492 Y16.159
X102.369 Y16.392
X102.368 Y16.395
X102.224 Y16.615
X102.223 Y16.616
X102.058 Y16.821
X102.056 Y16.823
X101.872 Y17.012
X101.87 Y17.014
X101.669 Y17.183
X101.668 Y17.184
X101.45 Y17.334
X101.448 Y17.336
X101.219 Y17.463
X101.217 Y17.464
X100.975 Y17.569
X100.974 Y17.57
X100.724 Y17.651
X100.722 Y17.652
X100.463 Y17.709
X100.199 Y17.741
X100.197
X99.934 Y17.747
X99.67 Y17.728
X99.668
X99.408 Y17.684
X99.407 Y17.683
X99.152 Y17.614
X99.15 Y17.613
X98.903 Y17.52
X98.901 Y17.519
X98.666 Y17.402
X98.664 Y17.401
X98.44 Y17.262
X98.438 Y17.261
X98.23 Y17.102
X98.228 Y17.1
X98.034 Y16.92
X98.032 Y16.918
X97.858 Y16.722
X97.857 Y16.72
X97.702 Y16.508
X97.701 Y16.506
X97.567 Y16.277
X97.566 Y16.276
X97.455 Y16.038
X97.454 Y16.036
X97.367 Y15.788
X97.366 Y15.785
X97.303 Y15.53
Y15.528
X97.265 Y15.266
Y15.264
X97.252 Y15.002
Y15.
X97.258 Y14.87
G3 X97.578 Y14.585 I0.3 J0.014
G0 Z3.
X99.692 Y152.55
Z2.987
G1 Z-2. F250.
G3 X100. Y152.254 I0.3 J0.004
G1 X100.137 Y152.258
X100.274 Y152.268
X100.411 Y152.285
X100.548 Y152.31
X100.636 Y152.329
X100.685 Y152.342
X100.823 Y152.381
X100.96 Y152.428
X101.06 Y152.468
X101.097 Y152.484
X101.234 Y152.548
X101.343 Y152.606
X101.371 Y152.621
X101.44 Y152.663
X101.508 Y152.705
X101.564 Y152.744
X101.645 Y152.802
X101.747 Y152.883
X101.782 Y152.912
X101.903 Y153.021
X101.919 Y153.036
X102.037 Y153.16
X102.056 Y153.182
X102.154 Y153.298
X102.194 Y153.349
X102.257 Y153.436
X102.331 Y153.548
X102.346 Y153.575
X102.425 Y153.713
X102.468 Y153.797
X102.493 Y153.852
X102.553 Y153.99
X102.603 Y154.128
X102.605 Y154.133
X102.646 Y154.267
X102.681 Y154.405
X102.694 Y154.474
X102.707 Y154.544
X102.727 Y154.682
X102.74 Y154.82
X102.742 Y154.87
X102.745 Y154.959
X102.744 Y155.097
X102.742 Y155.13
X102.735 Y155.236
X102.72 Y155.374
X102.697 Y155.512
X102.667 Y155.651
X102.629 Y155.789
X102.605 Y155.867
X102.584 Y155.928
X102.53 Y156.066
X102.468 Y156.203
X102.467 Y156.204
X102.432 Y156.273
X102.395 Y156.343
X102.331 Y156.452
X102.311 Y156.481
X102.216 Y156.619
X102.194 Y156.651
X102.109 Y156.758
X102.056 Y156.818
X101.985 Y156.896
X101.919 Y156.964
X101.843 Y157.035
X101.782 Y157.088
X101.677 Y157.173
X101.645 Y157.198
X101.508 Y157.295
X101.481 Y157.311
X101.371 Y157.379
X101.239 Y157.45
X101.234 Y157.452
X101.097 Y157.516
X100.96 Y157.572
X100.916 Y157.588
X100.823 Y157.619
X100.685 Y157.658
X100.548 Y157.69
X100.411 Y157.715
X100.317 Y157.727
X100.274 Y157.732
X100.137 Y157.742
X100. Y157.746
X99.931 Y157.744
X99.863 Y157.742
X99.726 Y157.732
X99.683 Y157.727
X99.589 Y157.715
X99.452 Y157.69
X99.315 Y157.658
X99.177 Y157.619
X99.084 Y157.588
X99.04 Y157.572
X98.903 Y157.516
X98.766 Y157.452
X98.761 Y157.45
X98.629 Y157.379
X98.519 Y157.311
X98.492 Y157.295
X98.355 Y157.198
X98.323 Y157.173
X98.218 Y157.088
X98.157 Y157.035
X98.081 Y156.964
X98.015 Y156.896
X97.944 Y156.818
X97.891 Y156.758
X97.806 Y156.651
X97.784 Y156.619
X97.689 Y156.481
X97.669 Y156.452
X97.605 Y156.343
X97.568 Y156.273
X97.533 Y156.204
X97.532 Y156.203
X97.47 Y156.066
X97.416 Y155.928
X97.395 Y155.867
X97.371 Y155.789
X97.333 Y155.651
X97.303 Y155.512
X97.28 Y155.374
X97.265 Y155.236
X97.258 Y155.13
X97.256 Y155.097
X97.255 Y154.959
X97.258 Y154.87
X97.26 Y154.82
X97.273 Y154.682
X97.293 Y154.544
X97.306 Y154.474
X97.319 Y154.405
X97.354 Y154.267
X97.395 Y154.133
X97.397 Y154.128
X97.447 Y153.99
X97.507 Y153.852
X97.532 Y153.797
X97.575 Y153.713
X97.654 Y153.575
X97.669 Y153.548
X97.743 Y153.436
X97.806 Y153.349
X97.846 Y153.298
X97.944 Y153.182
X97.963 Y153.16
X98.081 Y153.036
X98.097 Y153.021
X98.218 Y152.912
X98.253 Y152.883
X98.355 Y152.802
X98.436 Y152.744
X98.492 Y152.705
X98.56 Y152.663
X98.629 Y152.621
X98.657 Y152.606
X98.766 Y152.548
X98.903 Y152.484
X98.94 Y152.468
X99.04 Y152.428
X99.177 Y152.381
X99.315 Y152.342
X99.364 Y152.329
X99.452 Y152.31
X99.589 Y152.285
X99.726 Y152.268
X99.863 Y152.258
X99.931 Y152.256
X100. Y152.254
G3 X100.307 Y152.547 I0.007 J0.3
G2 X100.707 Y152.822 I0.3 J-0.007
G3 X101.035 Y152.91 I0.1 J0.283
X101.087 Y154.703 I-1.081 J0.929
X101.081 Y154.711 I-1.133 J-0.864 F83.
X98.827 Y152.966 Z-2.156 I-1.127 J-0.872
X101.081 Y154.711 Z-2.313 I1.127 J0.872
X98.827 Y152.966 Z-2.469 I-1.127 J-0.872
X101.081 Y154.711 Z-2.625 I1.127 J0.872
X98.827 Y152.966 Z-2.782 I-1.127 J-0.872
X101.081 Y154.711 Z-2.938 I1.127 J0.872
X98.827 Y152.966 Z-3.094 I-1.127 J-0.872
X101.081 Y154.711 Z-3.25 I1.127 J0.872
X98.827 Y152.966 Z-3.407 I-1.127 J-0.872
X101.081 Y154.711 Z-3.563 I1.127 J0.872
X98.828 Y152.966 Z-3.719 I-1.127 J-0.872
X101.081 Y154.711 Z-3.875 I1.127 J0.872
X98.529 Y153.812 Z-4. I-1.127 J-0.872
X98.53 Y153.802 I1.425 J0.026
G1 X98.534 Y153.647 F250.
G3 X100. Y152.254 I1.43 J0.037
G1 X100.137 Y152.258
X100.274 Y152.268
X100.411 Y152.285
X100.548 Y152.31
X100.636 Y152.329
X100.685 Y152.342
X100.823 Y152.381
X100.96 Y152.428
X101.06 Y152.468
X101.097 Y152.484
X101.234 Y152.548
X101.343 Y152.606
X101.371 Y152.621
X101.44 Y152.663
X101.508 Y152.705
X101.564 Y152.744
X101.645 Y152.802
X101.747 Y152.883
X101.782 Y152.912
X101.903 Y153.021
X101.919 Y153.036
X102.037 Y153.16
X102.056 Y153.182
X102.154 Y153.298
X102.194 Y153.349
X102.257 Y153.436
X102.331 Y153.548
X102.346 Y153.575
X102.425 Y153.713
X102.468 Y153.797
X102.493 Y153.852
X102.553 Y153.99
X102.603 Y154.128
X102.605 Y154.133
X102.646 Y154.267
X102.681 Y154.405
X102.694 Y154.474
X102.707 Y154.544
X102.727 Y154.682
X102.74 Y154.82
X102.742 Y154.87
X102.745 Y154.959
X102.744 Y155.097
X102.742 Y155.13
X102.735 Y155.236
X102.72 Y155.374
X102.697 Y155.512
X102.667 Y155.651
X102.629 Y155.789
X102.605 Y155.867
X102.584 Y155.928
X102.53 Y156.066
X102.468 Y156.203
X102.467 Y156.204
X102.432 Y156.273
X102.395 Y156.343
X102.331 Y156.452
X102.311 Y156.481
X102.216 Y156.619
X102.194 Y156.651
X102.109 Y156.758
X102.056 Y156.818
X101.985 Y156.896
X101.919 Y156.964
X101.843 Y157.035
X101.782 Y157.088
X101.677 Y157.173
X101.645 Y157.198
X101.508 Y157.295
X101.481 Y157.311
X101.371 Y157.379
X101.239 Y157.45
X101.234 Y157.452
X101.097 Y157.516
X100.96 Y157.572
X100.916 Y157.588
X100.823 Y157.619
X100.685 Y157.658
X100.548 Y157.69
X100.411 Y157.715
X100.317 Y157.727
X100.274 Y157.732
X100.137 Y157.742
X100. Y157.746
X99.931 Y157.744
X99.863 Y157.742
X99.726 Y157.732
X99.683 Y157.727
X99.589 Y157.715
X99.452 Y157.69
X99.315 Y157.658
X99.177 Y157.619
X99.084 Y157.588
X99.04 Y157.572
X98.903 Y157.516
X98.766 Y157.452
X98.761 Y157.45
X98.629 Y157.379
X98.519 Y157.311
X98.492 Y157.295
X98.355 Y157.198
X98.323 Y157.173
X98.218 Y157.088
X98.157 Y157.035
X98.081 Y156.964
X98.015 Y156.896
X97.944 Y156.818
X97.891 Y156.758
X97.806 Y156.651
X97.784 Y156.619
X97.689 Y156.481
X97.669 Y156.452
X97.605 Y156.343
X97.568 Y156.273
X97.533 Y156.204
X97.532 Y156.203
X97.47 Y156.066
X97.416 Y155.928
X97.395 Y155.867
X97.371 Y155.789
X97.333 Y155.651
X97.303 Y155.512
X97.28 Y155.374
X97.265 Y155.236
X97.258 Y155.13
X97.256 Y155.097
X97.255 Y154.959
X97.258 Y154.87
X97.26 Y154.82
X97.273 Y154.682
X97.293 Y154.544
X97.306 Y154.474
X97.319 Y154.405
X97.354 Y154.267
X97.395 Y154.133
X97.397 Y154.128
X97.447 Y153.99
X97.507 Y153.852
X97.532 Y153.797
X97.575 Y153.713
X97.654 Y153.575
X97.669 Y153.548
X97.743 Y153.436
X97.806 Y153.349
X97.846 Y153.298
X97.944 Y153.182
X97.963 Y153.16
X98.081 Y153.036
X98.097 Y153.021
X98.218 Y152.912
X98.253 Y152.883
X98.355 Y152.802
X98.436 Y152.744
X98.492 Y152.705
X98.56 Y152.663
X98.629 Y152.621
X98.657 Y152.606
X98.766 Y152.548
X98.903 Y152.484
X98.94 Y152.468
X99.04 Y152.428
X99.177 Y152.381
X99.315 Y152.342
X99.364 Y152.329
X99.452 Y152.31
X99.589 Y152.285
X99.726 Y152.268
X99.863 Y152.258
X99.931 Y152.256
X100. Y152.254
G3 X100.307 Y152.547 I0.007 J0.3
G2 X100.707 Y152.822 I0.3 J-0.007
G3 X101.035 Y152.91 I0.1 J0.283
X101.087 Y154.703 I-1.081 J0.929
X101.081 Y154.711 I-1.133 J-0.864 F83.
X98.827 Y152.966 Z-4.156 I-1.127 J-0.872
X101.081 Y154.711 Z-4.313 I1.127 J0.872
X98.827 Y152.966 Z-4.469 I-1.127 J-0.872
X101.081 Y154.711 Z-4.625 I1.127 J0.872
X98.827 Y152.966 Z-4.782 I-1.127 J-0.872
X101.081 Y154.711 Z-4.938 I1.127 J0.872
X98.827 Y152.966 Z-5.094 I-1.127 J-0.872
X101.081 Y154.711 Z-5.25 I1.127 J0.872
X98.827 Y152.966 Z-5.407 I-1.127 J-0.872
X101.081 Y154.711 Z-5.563 I1.127 J0.872
X98.828 Y152.966 Z-5.719 I-1.127 J-0.872
X101.081 Y154.711 Z-5.875 I1.127 J0.872
X98.529 Y153.812 Z-6. I-1.127 J-0.872
X98.53 Y153.802 I1.425 J0.026
G1 X98.534 Y153.647 F250.
G3 X100. Y152.254 I1.43 J0.037
G1 X100.137 Y152.258
X100.274 Y152.268
X100.411 Y152.285
X100.548 Y152.31
X100.636 Y152.329
X100.685 Y152.342
X100.823 Y152.381
X100.96 Y152.428
X101.06 Y152.468
X101.097 Y152.484
X101.234 Y152.548
X101.343 Y152.606
X101.371 Y152.621
X101.44 Y152.663
X101.508 Y152.705
X101.564 Y152.744
X101.645 Y152.802
X101.747 Y152.883
X101.782 Y152.912
X101.903 Y153.021
X101.919 Y153.036
X102.037 Y153.16
X102.056 Y153.182
X102.154 Y153.298
X102.194 Y153.349
X102.257 Y153.436
X102.331 Y153.548
X102.346 Y153.575
X102.425 Y153.713
X102.468 Y153.797
X102.493 Y153.852
X102.553 Y153.99
X102.603 Y154.128
X102.605 Y154.133
X102.646 Y154.267
X102.681 Y154.405
X102.694 Y154.474
X102.707 Y154.544
X102.727 Y154.682
X102.74 Y154.82
X102.742 Y154.87
X102.745 Y154.959
X102.744 Y155.097
X102.742 Y155.13
X102.735 Y155.236
X102.72 Y155.374
X102.697 Y155.512
X102.667 Y155.651
X102.629 Y155.789
X102.605 Y155.867
X102.584 Y155.928
X102.53 Y156.066
X102.468 Y156.203
X102.467 Y156.204
X102.432 Y156.273
X102.395 Y156.343
X102.331 Y156.452
X102.311 Y156.481
X102.216 Y156.619
X102.194 Y156.651
X102.109 Y156.758
X102.056 Y156.818
X101.985 Y156.896
X101.919 Y156.964
X101.843 Y157.035
X101.782 Y157.088
X101.677 Y157.173
X101.645 Y157.198
X101.508 Y157.295
X101.481 Y157.311
X101.371 Y157.379
X101.239 Y157.45
X101.234 Y157.452
X101.097 Y157.516
X100.96 Y157.572
X100.916 Y157.588
X100.823 Y157.619
X100.685 Y157.658
X100.548 Y157.69
X100.411 Y157.715
X100.317 Y157.727
X100.274 Y157.732
X100.137 Y157.742
X100. Y157.746
X99.931 Y157.744
X99.863 Y157.742
X99.726 Y157.732
X99.683 Y157.727
X99.589 Y157.715
X99.452 Y157.69
X99.315 Y157.658
X99.177 Y157.619
X99.084 Y157.588
X99.04 Y157.572
X98.903 Y157.516
X98.766 Y157.452
X98.761 Y157.45
X98.629 Y157.379
X98.519 Y157.311
X98.492 Y157.295
X98.355 Y157.198
X98.323 Y157.173
X98.218 Y157.088
X98.157 Y157.035
X98.081 Y156.964
X98.015 Y156.896
X97.944 Y156.818
X97.891 Y156.758
X97.806 Y156.651
X97.784 Y156.619
X97.689 Y156.481
X97.669 Y156.452
X97.605 Y156.343
X97.568 Y156.273
X97.533 Y156.204
X97.532 Y156.203
X97.47 Y156.066
X97.416 Y155.928
X97.395 Y155.867
X97.371 Y155.789
X97.333 Y155.651
X97.303 Y155.512
X97.28 Y155.374
X97.265 Y155.236
X97.258 Y155.13
X97.256 Y155.097
X97.255 Y154.959
X97.258 Y154.87
X97.26 Y154.82
X97.273 Y154.682
X97.293 Y154.544
X97.306 Y154.474
X97.319 Y154.405
X97.354 Y154.267
X97.395 Y154.133
X97.397 Y154.128
X97.447 Y153.99
X97.507 Y153.852
X97.532 Y153.797
X97.575 Y153.713
X97.654 Y153.575
X97.669 Y153.548
X97.743 Y153.436
X97.806 Y153.349
X97.846 Y153.298
X97.944 Y153.182
X97.963 Y153.16
X98.081 Y153.036
X98.097 Y153.021
X98.218 Y152.912
X98.253 Y152.883
X98.355 Y152.802
X98.436 Y152.744
X98.492 Y152.705
X98.56 Y152.663
X98.629 Y152.621
X98.657 Y152.606
X98.766 Y152.548
X98.903 Y152.484
X98.94 Y152.468
X99.04 Y152.428
X99.177 Y152.381
X99.315 Y152.342
X99.364 Y152.329
X99.452 Y152.31
X99.589 Y152.285
X99.726 Y152.268
X99.863 Y152.258
X99.931 Y152.256
X100. Y152.254
G3 X100.307 Y152.547 I0.007 J0.3
G2 X100.707 Y152.822 I0.3 J-0.007
G3 X101.035 Y152.91 I0.1 J0.283
X101.087 Y154.703 I-1.081 J0.929
X101.081 Y154.711 I-1.133 J-0.864 F83.
X98.827 Y152.966 Z-6.156 I-1.127 J-0.872
X101.081 Y154.711 Z-6.313 I1.127 J0.872
X98.827 Y152.966 Z-6.469 I-1.127 J-0.872
X101.081 Y154.711 Z-6.625 I1.127 J0.872
X98.827 Y152.966 Z-6.782 I-1.127 J-0.872
X101.081 Y154.711 Z-6.938 I1.127 J0.872
X98.827 Y152.966 Z-7.094 I-1.127 J-0.872
X101.081 Y154.711 Z-7.25 I1.127 J0.872
X98.827 Y152.966 Z-7.407 I-1.127 J-0.872
X101.081 Y154.711 Z-7.563 I1.127 J0.872
X98.828 Y152.966 Z-7.719 I-1.127 J-0.872
X101.081 Y154.711 Z-7.875 I1.127 J0.872
X98.529 Y153.812 Z-8. I-1.127 J-0.872
X98.53 Y153.802 I1.425 J0.026
G1 X98.534 Y153.647 F250.
G3 X100. Y152.254 I1.43 J0.037
G1 X100.137 Y152.258
X100.274 Y152.268
X100.411 Y152.285
X100.548 Y152.31
X100.636 Y152.329
X100.685 Y152.342
X100.823 Y152.381
X100.96 Y152.428
X101.06 Y152.468
X101.097 Y152.484
X101.234 Y152.548
X101.343 Y152.606
X101.371 Y152.621
X101.44 Y152.663
X101.508 Y152.705
X101.564 Y152.744
X101.645 Y152.802
X101.747 Y152.883
X101.782 Y152.912
X101.903 Y153.021
X101.919 Y153.036
X102.037 Y153.16
X102.056 Y153.182
X102.154 Y153.298
X102.194 Y153.349
X102.257 Y153.436
X102.331 Y153.548
X102.346 Y153.575
X102.425 Y153.713
X102.468 Y153.797
X102.493 Y153.852
X102.553 Y153.99
X102.603 Y154.128
X102.605 Y154.133
X102.646 Y154.267
X102.681 Y154.405
X102.694 Y154.474
X102.707 Y154.544
X102.727 Y154.682
X102.74 Y154.82
X102.742 Y154.87
X102.745 Y154.959
X102.744 Y155.097
X102.742 Y155.13
X102.735 Y155.236
X102.72 Y155.374
X102.697 Y155.512
X102.667 Y155.651
X102.629 Y155.789
X102.605 Y155.867
X102.584 Y155.928
X102.53 Y156.066
X102.468 Y156.203
X102.467 Y156.204
X102.432 Y156.273
X102.395 Y156.343
X102.331 Y156.452
X102.311 Y156.481
X102.216 Y156.619
X102.194 Y156.651
X102.109 Y156.758
X102.056 Y156.818
X101.985 Y156.896
X101.919 Y156.964
X101.843 Y157.035
X101.782 Y157.088
X101.677 Y157.173
X101.645 Y157.198
X101.508 Y157.295
X101.481 Y157.311
X101.371 Y157.379
X101.239 Y157.45
X101.234 Y157.452
X101.097 Y157.516
X100.96 Y157.572
X100.916 Y157.588
X100.823 Y157.619
X100.685 Y157.658
X100.548 Y157.69
X100.411 Y157.715
X100.317 Y157.727
X100.274 Y157.732
X100.137 Y157.742
X100. Y157.746
X99.931 Y157.744
X99.863 Y157.742
X99.726 Y157.732
X99.683 Y157.727
X99.589 Y157.715
X99.452 Y157.69
X99.315 Y157.658
X99.177 Y157.619
X99.084 Y157.588
X99.04 Y157.572
X98.903 Y157.516
X98.766 Y157.452
X98.761 Y157.45
X98.629 Y157.379
X98.519 Y157.311
X98.492 Y157.295
X98.355 Y157.198
X98.323 Y157.173
X98.218 Y157.088
X98.157 Y157.035
X98.081 Y156.964
X98.015 Y156.896
X97.944 Y156.818
X97.891 Y156.758
X97.806 Y156.651
X97.784 Y156.619
X97.689 Y156.481
X97.669 Y156.452
X97.605 Y156.343
X97.568 Y156.273
X97.533 Y156.204
X97.532 Y156.203
X97.47 Y156.066
X97.416 Y155.928
X97.395 Y155.867
X97.371 Y155.789
X97.333 Y155.651
X97.303 Y155.512
X97.28 Y155.374
X97.265 Y155.236
X97.258 Y155.13
X97.256 Y155.097
X97.255 Y154.959
X97.258 Y154.87
X97.26 Y154.82
X97.273 Y154.682
X97.293 Y154.544
X97.306 Y154.474
X97.319 Y154.405
X97.354 Y154.267
X97.395 Y154.133
X97.397 Y154.128
X97.447 Y153.99
X97.507 Y153.852
X97.532 Y153.797
X97.575 Y153.713
X97.654 Y153.575
X97.669 Y153.548
X97.743 Y153.436
X97.806 Y153.349
X97.846 Y153.298
X97.944 Y153.182
X97.963 Y153.16
X98.081 Y153.036
X98.097 Y153.021
X98.218 Y152.912
X98.253 Y152.883
X98.355 Y152.802
X98.436 Y152.744
X98.492 Y152.705
X98.56 Y152.663
X98.629 Y152.621
X98.657 Y152.606
X98.766 Y152.548
X98.903 Y152.484
X98.94 Y152.468
X99.04 Y152.428
X99.177 Y152.381
X99.315 Y152.342
X99.364 Y152.329
X99.452 Y152.31
X99.589 Y152.285
X99.726 Y152.268
X99.863 Y152.258
X99.931 Y152.256
X100. Y152.254
G3 X100.307 Y152.547 I0.007 J0.3
G2 X100.707 Y152.822 I0.3 J-0.007
G3 X101.035 Y152.91 I0.1 J0.283
X101.087 Y154.703 I-1.081 J0.929
X101.081 Y154.711 I-1.133 J-0.864 F83.
X98.827 Y152.966 Z-8.156 I-1.127 J-0.872
X101.081 Y154.711 Z-8.313 I1.127 J0.872
X98.827 Y152.966 Z-8.469 I-1.127 J-0.872
X101.081 Y154.711 Z-8.625 I1.127 J0.872
X98.827 Y152.966 Z-8.782 I-1.127 J-0.872
X101.081 Y154.711 Z-8.938 I1.127 J0.872
X98.827 Y152.966 Z-9.094 I-1.127 J-0.872
X101.081 Y154.711 Z-9.25 I1.127 J0.872
X98.827 Y152.966 Z-9.407 I-1.127 J-0.872
X101.081 Y154.711 Z-9.563 I1.127 J0.872
X98.828 Y152.966 Z-9.719 I-1.127 J-0.872
X101.081 Y154.711 Z-9.875 I1.127 J0.872
X98.529 Y153.812 Z-10. I-1.127 J-0.872
X98.53 Y153.802 I1.425 J0.026
G1 X98.534 Y153.647 F250.
G3 X100. Y152.254 I1.43 J0.037
G1 X100.137 Y152.258
X100.274 Y152.268
X100.411 Y152.285
X100.548 Y152.31
X100.636 Y152.329
X100.685 Y152.342
X100.823 Y152.381
X100.96 Y152.428
X101.06 Y152.468
X101.097 Y152.484
X101.234 Y152.548
X101.343 Y152.606
X101.371 Y152.621
X101.44 Y152.663
X101.508 Y152.705
X101.564 Y152.744
X101.645 Y152.802
X101.747 Y152.883
X101.782 Y152.912
X101.903 Y153.021
X101.919 Y153.036
X102.037 Y153.16
X102.056 Y153.182
X102.154 Y153.298
X102.194 Y153.349
X102.257 Y153.436
X102.331 Y153.548
X102.346 Y153.575
X102.425 Y153.713
X102.468 Y153.797
X102.493 Y153.852
X102.553 Y153.99
X102.603 Y154.128
X102.605 Y154.133
X102.646 Y154.267
X102.681 Y154.405
X102.694 Y154.474
X102.707 Y154.544
X102.727 Y154.682
X102.74 Y154.82
X102.742 Y154.87
X102.745 Y154.959
X102.744 Y155.097
X102.742 Y155.13
X102.735 Y155.236
X102.72 Y155.374
X102.697 Y155.512
X102.667 Y155.651
X102.629 Y155.789
X102.605 Y155.867
X102.584 Y155.928
X102.53 Y156.066
X102.468 Y156.203
X102.467 Y156.204
X102.432 Y156.273
X102.395 Y156.343
X102.331 Y156.452
X102.311 Y156.481
X102.216 Y156.619
X102.194 Y156.651
X102.109 Y156.758
X102.056 Y156.818
X101.985 Y156.896
X101.919 Y156.964
X101.843 Y157.035
X101.782 Y157.088
X101.677 Y157.173
X101.645 Y157.198
X101.508 Y157.295
X101.481 Y157.311
X101.371 Y157.379
X101.239 Y157.45
X101.234 Y157.452
X101.097 Y157.516
X100.96 Y157.572
X100.916 Y157.588
X100.823 Y157.619
X100.685 Y157.658
X100.548 Y157.69
X100.411 Y157.715
X100.317 Y157.727
X100.274 Y157.732
X100.137 Y157.742
X100. Y157.746
X99.931 Y157.744
X99.863 Y157.742
X99.726 Y157.732
X99.683 Y157.727
X99.589 Y157.715
X99.452 Y157.69
X99.315 Y157.658
X99.177 Y157.619
X99.084 Y157.588
X99.04 Y157.572
X98.903 Y157.516
X98.766 Y157.452
X98.761 Y157.45
X98.629 Y157.379
X98.519 Y157.311
X98.492 Y157.295
X98.355 Y157.198
X98.323 Y157.173
X98.218 Y157.088
X98.157 Y157.035
X98.081 Y156.964
X98.015 Y156.896
X97.944 Y156.818
X97.891 Y156.758
X97.806 Y156.651
X97.784 Y156.619
X97.689 Y156.481
X97.669 Y156.452
X97.605 Y156.343
X97.568 Y156.273
X97.533 Y156.204
X97.532 Y156.203
X97.47 Y156.066
X97.416 Y155.928
X97.395 Y155.867
X97.371 Y155.789
X97.333 Y155.651
X97.303 Y155.512
X97.28 Y155.374
X97.265 Y155.236
X97.258 Y155.13
X97.256 Y155.097
X97.255 Y154.959
X97.258 Y154.87
X97.26 Y154.82
X97.273 Y154.682
X97.293 Y154.544
X97.306 Y154.474
X97.319 Y154.405
X97.354 Y154.267
X97.395 Y154.133
X97.397 Y154.128
X97.447 Y153.99
X97.507 Y153.852
X97.532 Y153.797
X97.575 Y153.713
X97.654 Y153.575
X97.669 Y153.548
X97.743 Y153.436
X97.806 Y153.349
X97.846 Y153.298
X97.944 Y153.182
X97.963 Y153.16
X98.081 Y153.036
X98.097 Y153.021
X98.218 Y152.912
X98.253 Y152.883
X98.355 Y152.802
X98.436 Y152.744
X98.492 Y152.705
X98.56 Y152.663
X98.629 Y152.621
X98.657 Y152.606
X98.766 Y152.548
X98.903 Y152.484
X98.94 Y152.468
X99.04 Y152.428
X99.177 Y152.381
X99.315 Y152.342
X99.364 Y152.329
X99.452 Y152.31
X99.589 Y152.285
X99.726 Y152.268
X99.863 Y152.258
X99.931 Y152.256
X100. Y152.254
G3 X100.307 Y152.547 I0.007 J0.3
G2 X100.707 Y152.822 I0.3 J-0.007
G3 X101.035 Y152.91 I0.1 J0.283
X101.087 Y154.703 I-1.081 J0.929
X101.081 Y154.711 I-1.133 J-0.864 F83.
X98.827 Y152.966 Z-10.156 I-1.127 J-0.872
X101.081 Y154.711 Z-10.313 I1.127 J0.872
X98.827 Y152.966 Z-10.469 I-1.127 J-0.872
X101.081 Y154.711 Z-10.625 I1.127 J0.872
X98.827 Y152.966 Z-10.782 I-1.127 J-0.872
X101.081 Y154.711 Z-10.938 I1.127 J0.872
X98.827 Y152.966 Z-11.094 I-1.127 J-0.872
X101.081 Y154.711 Z-11.25 I1.127 J0.872
X98.827 Y152.966 Z-11.407 I-1.127 J-0.872
X101.081 Y154.711 Z-11.563 I1.127 J0.872
X98.828 Y152.966 Z-11.719 I-1.127 J-0.872
X101.081 Y154.711 Z-11.875 I1.127 J0.872
X98.529 Y153.812 Z-12. I-1.127 J-0.872
X98.53 Y153.802 I1.425 J0.026
G1 X98.534 Y153.647 F250.
G3 X100. Y152.254 I1.43 J0.037
G1 X100.137 Y152.258
X100.274 Y152.268
X100.411 Y152.285
X100.548 Y152.31
X100.636 Y152.329
X100.685 Y152.342
X100.823 Y152.381
X100.96 Y152.428
X101.06 Y152.468
X101.097 Y152.484
X101.234 Y152.548
X101.343 Y152.606
X101.371 Y152.621
X101.44 Y152.663
X101.508 Y152.705
X101.564 Y152.744
X101.645 Y152.802
X101.747 Y152.883
X101.782 Y152.912
X101.903 Y153.021
X101.919 Y153.036
X102.037 Y153.16
X102.056 Y153.182
X102.154 Y153.298
X102.194 Y153.349
X102.257 Y153.436
X102.331 Y153.548
X102.346 Y153.575
X102.425 Y153.713
X102.468 Y153.797
X102.493 Y153.852
X102.553 Y153.99
X102.603 Y154.128
X102.605 Y154.133
X102.646 Y154.267
X102.681 Y154.405
X102.694 Y154.474
X102.707 Y154.544
X102.727 Y154.682
X102.74 Y154.82
X102.742 Y154.87
X102.745 Y154.959
X102.744 Y155.097
X102.742 Y155.13
X102.735 Y155.236
X102.72 Y155.374
X102.697 Y155.512
X102.667 Y155.651
X102.629 Y155.789
X102.605 Y155.867
X102.584 Y155.928
X102.53 Y156.066
X102.468 Y156.203
X102.467 Y156.204
X102.432 Y156.273
X102.395 Y156.343
X102.331 Y156.452
X102.311 Y156.481
X102.216 Y156.619
X102.194 Y156.651
X102.109 Y156.758
X102.056 Y156.818
X101.985 Y156.896
X101.919 Y156.964
X101.843 Y157.035
X101.782 Y157.088
X101.677 Y157.173
X101.645 Y157.198
X101.508 Y157.295
X101.481 Y157.311
X101.371 Y157.379
X101.239 Y157.45
X101.234 Y157.452
X101.097 Y157.516
X100.96 Y157.572
X100.916 Y157.588
X100.823 Y157.619
X100.685 Y157.658
X100.548 Y157.69
X100.411 Y157.715
X100.317 Y157.727
X100.274 Y157.732
X100.137 Y157.742
X100. Y157.746
X99.931 Y157.744
X99.863 Y157.742
X99.726 Y157.732
X99.683 Y157.727
X99.589 Y157.715
X99.452 Y157.69
X99.315 Y157.658
X99.177 Y157.619
X99.084 Y157.588
X99.04 Y157.572
X98.903 Y157.516
X98.766 Y157.452
X98.761 Y157.45
X98.629 Y157.379
X98.519 Y157.311
X98.492 Y157.295
X98.355 Y157.198
X98.323 Y157.173
X98.218 Y157.088
X98.157 Y157.035
X98.081 Y156.964
X98.015 Y156.896
X97.944 Y156.818
X97.891 Y156.758
X97.806 Y156.651
X97.784 Y156.619
X97.689 Y156.481
X97.669 Y156.452
X97.605 Y156.343
X97.568 Y156.273
X97.533 Y156.204
X97.532 Y156.203
X97.47 Y156.066
X97.416 Y155.928
X97.395 Y155.867
X97.371 Y155.789
X97.333 Y155.651
X97.303 Y155.512
X97.28 Y155.374
X97.265 Y155.236
X97.258 Y155.13
X97.256 Y155.097
X97.255 Y154.959
X97.258 Y154.87
X97.26 Y154.82
X97.273 Y154.682
X97.293 Y154.544
X97.306 Y154.474
X97.319 Y154.405
X97.354 Y154.267
X97.395 Y154.133
X97.397 Y154.128
X97.447 Y153.99
X97.507 Y153.852
X97.532 Y153.797
X97.575 Y153.713
X97.654 Y153.575
X97.669 Y153.548
X97.743 Y153.436
X97.806 Y153.349
X97.846 Y153.298
X97.944 Y153.182
X97.963 Y153.16
X98.081 Y153.036
X98.097 Y153.021
X98.218 Y152.912
X98.253 Y152.883
X98.355 Y152.802
X98.436 Y152.744
X98.492 Y152.705
X98.56 Y152.663
X98.629 Y152.621
X98.657 Y152.606
X98.766 Y152.548
X98.903 Y152.484
X98.94 Y152.468
X99.04 Y152.428
X99.177 Y152.381
X99.315 Y152.342
X99.364 Y152.329
X99.452 Y152.31
X99.589 Y152.285
X99.726 Y152.268
X99.863 Y152.258
X99.931 Y152.256
X100. Y152.254
G3 X100.292 Y152.566 I-0.008 J0.3
G0 Z2.

M9
G53 Z0.
M30
