(3-OUTEREDGE)
(T2  D=3. CR=0. - ZMIN=-12. - FLAT END MILL)
G0 G90 G94 G17
G21
G53 Z0.

(CONTOUR - OUTER EDGE1)
M5
M9
T2
(PART OF A 10 PACK CARBIDE)
M3 S18000
G54
M9
G0 X-3.682 Y-2.034
Z2.
Z1.294
G1 Z-1.7 F250.
X-3.675 Y-2.031 Z-1.767
X-3.655 Y-2.022 Z-1.83
X-3.623 Y-2.006 Z-1.887
X-3.58 Y-1.986 Z-1.935
X-3.528 Y-1.962 Z-1.97
X-3.471 Y-1.935 Z-1.992
X-3.411 Y-1.906 Z-2.
X-1.514 Y-1.007
G3 X-1.372 Y-0.607 I-0.129 J0.271
G1 X-1.4 Y-0.54
X-1.424 Y-0.47
X-1.445 Y-0.401
X-1.463 Y-0.332
X-1.477 Y-0.263
X-1.487 Y-0.194
X-1.495 Y-0.124
X-1.5 Y0.014
Y44.998
X-1.498 Y45.068
X-1.494 Y45.137
X-1.486 Y45.206
X-1.475 Y45.275
X-1.46 Y45.344
X-1.442 Y45.414
X-1.42 Y45.483
X-1.395 Y45.552
X-1.372 Y45.607
X-1.332 Y45.69
X-1.293 Y45.76
X-1.25 Y45.829
X-1.233 Y45.854
X-1.192 Y45.91
X-1.146 Y45.967
X-1.095 Y46.025
X-1.014 Y46.106
X-0.957 Y46.155
X-0.897 Y46.202
X-0.838 Y46.244
X-0.818 Y46.257
X-0.749 Y46.299
X-0.68 Y46.337
X-0.582 Y46.383
X-0.542 Y46.399
X-0.473 Y46.424
X-0.403 Y46.445
X-0.334 Y46.462
X-0.265 Y46.476
X-0.196 Y46.487
X-0.127 Y46.495
X0.012 Y46.5
X17.857
X17.995 Y46.503
X18.063 Y46.507
X18.065 Y46.508
X18.127 Y46.52
X18.129
X18.19 Y46.541
X18.192 Y46.542
X18.248 Y46.57
X18.25 Y46.571
X18.302 Y46.606
X18.351 Y46.649
X18.353 Y46.65
X18.393 Y46.696
X18.395 Y46.698
X18.429 Y46.75
X18.431 Y46.753
X18.458 Y46.809
X18.459 Y46.811
X18.48 Y46.871
Y46.874
X18.492 Y46.934
X18.493 Y46.936
X18.5 Y47.075
Y122.925
X18.493 Y123.064
X18.492 Y123.066
X18.48 Y123.126
Y123.129
X18.459 Y123.189
X18.458 Y123.191
X18.431 Y123.247
X18.429 Y123.25
X18.395 Y123.302
X18.393 Y123.304
X18.353 Y123.35
X18.351 Y123.351
X18.302 Y123.394
X18.25 Y123.429
X18.248 Y123.43
X18.192 Y123.458
X18.19 Y123.459
X18.129 Y123.48
X18.127
X18.065 Y123.492
X18.063 Y123.493
X17.995 Y123.497
X17.857 Y123.5
X0.012
X-0.127 Y123.505
X-0.196 Y123.513
X-0.265 Y123.524
X-0.334 Y123.538
X-0.403 Y123.555
X-0.473 Y123.576
X-0.542 Y123.601
X-0.582 Y123.617
X-0.68 Y123.663
X-0.749 Y123.701
X-0.818 Y123.743
X-0.838 Y123.756
X-0.897 Y123.798
X-0.957 Y123.845
X-1.014 Y123.894
X-1.095 Y123.975
X-1.146 Y124.033
X-1.192 Y124.09
X-1.233 Y124.146
X-1.25 Y124.171
X-1.293 Y124.24
X-1.332 Y124.31
X-1.372 Y124.393
X-1.395 Y124.448
X-1.42 Y124.517
X-1.442 Y124.586
X-1.46 Y124.656
X-1.475 Y124.725
X-1.486 Y124.794
X-1.494 Y124.863
X-1.498 Y124.932
X-1.5 Y125.002
Y169.986
X-1.495 Y170.124
X-1.487 Y170.194
X-1.477 Y170.263
X-1.463 Y170.332
X-1.445 Y170.401
X-1.424 Y170.47
X-1.4 Y170.54
X-1.372 Y170.607
X-1.338 Y170.678
X-1.301 Y170.747
X-1.258 Y170.817
X-1.233 Y170.854
X-1.157 Y170.955
X-1.095 Y171.025
X-1.027 Y171.093
X-0.957 Y171.155
X-0.856 Y171.232
X-0.818 Y171.257
X-0.749 Y171.299
X-0.68 Y171.337
X-0.61 Y171.37
X-0.542 Y171.399
X-0.473 Y171.424
X-0.403 Y171.445
X-0.334 Y171.462
X-0.265 Y171.476
X-0.196 Y171.487
X-0.127 Y171.495
X0.012 Y171.5
X107.913
X108.052 Y171.499
X108.19 Y171.491
X108.328 Y171.482
X108.467 Y171.469
X108.605 Y171.444
X108.743 Y171.416
X108.882 Y171.387
X108.943 Y171.37
X109.02 Y171.345
X109.158 Y171.298
X109.297 Y171.251
X109.344 Y171.232
X109.435 Y171.19
X109.631 Y171.093
X109.712 Y171.052
X109.781 Y171.013
X109.85 Y170.968
X109.988 Y170.876
X110.076 Y170.817
X110.127 Y170.78
X110.248 Y170.678
X110.406 Y170.54
X110.478 Y170.472
X110.542 Y170.404
X110.68 Y170.246
X110.781 Y170.124
X110.818 Y170.074
X110.877 Y169.986
X110.97 Y169.848
X111.014 Y169.778
X111.054 Y169.709
X111.095 Y169.628
X111.191 Y169.432
X111.233 Y169.34
X111.252 Y169.294
X111.299 Y169.156
X111.346 Y169.017
X111.372 Y168.938
X111.388 Y168.879
X111.417 Y168.74
X111.444 Y168.602
X111.469 Y168.463
X111.482 Y168.325
X111.491 Y168.187
X111.499 Y168.048
X111.5 Y167.91
Y2.09
X111.499 Y1.952
X111.491 Y1.813
X111.482 Y1.675
X111.469 Y1.537
X111.444 Y1.398
X111.417 Y1.26
X111.388 Y1.121
X111.372 Y1.062
X111.346 Y0.983
X111.299 Y0.844
X111.252 Y0.706
X111.233 Y0.66
X111.191 Y0.568
X111.095 Y0.372
X111.054 Y0.291
X111.014 Y0.222
X110.97 Y0.152
X110.877 Y0.014
X110.818 Y-0.074
X110.781 Y-0.124
X110.68 Y-0.246
X110.542 Y-0.404
X110.478 Y-0.472
X110.406 Y-0.54
X110.248 Y-0.678
X110.127 Y-0.78
X110.076 Y-0.817
X109.988 Y-0.876
X109.85 Y-0.968
X109.781 Y-1.013
X109.712 Y-1.052
X109.631 Y-1.093
X109.435 Y-1.19
X109.344 Y-1.232
X109.297 Y-1.25
X109.158 Y-1.298
X109.02 Y-1.345
X108.943 Y-1.37
X108.882 Y-1.387
X108.743 Y-1.416
X108.605 Y-1.444
X108.467 Y-1.469
X108.328 Y-1.482
X108.19 Y-1.491
X108.052 Y-1.499
X107.913 Y-1.5
X0.012
X-0.127 Y-1.495
X-0.196 Y-1.487
X-0.265 Y-1.476
X-0.334 Y-1.462
X-0.403 Y-1.445
X-0.473 Y-1.424
X-0.542 Y-1.399
X-0.61 Y-1.37
X-0.68 Y-1.337
X-0.749 Y-1.299
X-0.818 Y-1.257
X-0.856 Y-1.232
X-0.957 Y-1.155
X-1.027 Y-1.093
X-1.095 Y-1.025
X-1.157 Y-0.955
X-1.233 Y-0.854
X-1.258 Y-0.817
X-1.301 Y-0.747
X-1.338 Y-0.678
X-1.372 Y-0.607
G3 X-1.771 Y-0.464 I-0.271 J-0.129
G2 X-2.2 Y-0.2 I-0.129 J0.271
G3 X-2.419 Y0.082 I-0.3 J-0.007
X-4.051 Y-0.605 I-0.383 J-1.373
X-4.056 Y-0.614 I1.249 J-0.686 F83.
X-1.548 Y-1.967 Z-2.156 I1.254 J-0.677
X-4.056 Y-0.614 Z-2.313 I-1.254 J0.677
X-1.548 Y-1.967 Z-2.469 I1.254 J-0.677
X-4.056 Y-0.614 Z-2.625 I-1.254 J0.677
X-1.548 Y-1.967 Z-2.782 I1.254 J-0.677
X-4.056 Y-0.614 Z-2.938 I-1.254 J0.677
X-1.548 Y-1.967 Z-3.094 I1.254 J-0.677
X-4.056 Y-0.614 Z-3.25 I-1.254 J0.677
X-1.548 Y-1.967 Z-3.407 I1.254 J-0.677
X-4.056 Y-0.614 Z-3.563 I-1.254 J0.677
X-1.548 Y-1.967 Z-3.719 I1.254 J-0.677
X-4.056 Y-0.614 Z-3.875 I-1.254 J0.677
X-2.201 Y-2.583 Z-4. I1.254 J-0.677
X-2.191 Y-2.578 I-0.601 J1.292
G1 X-2.051 Y-2.512 F250.
G3 X-1.372 Y-0.607 I-0.613 J1.292
G1 X-1.4 Y-0.54
X-1.424 Y-0.47
X-1.445 Y-0.401
X-1.463 Y-0.332
X-1.477 Y-0.263
X-1.487 Y-0.194
X-1.495 Y-0.124
X-1.5 Y0.014
Y44.998
X-1.498 Y45.068
X-1.494 Y45.137
X-1.486 Y45.206
X-1.475 Y45.275
X-1.46 Y45.344
X-1.442 Y45.414
X-1.42 Y45.483
X-1.395 Y45.552
X-1.372 Y45.607
X-1.332 Y45.69
X-1.293 Y45.76
X-1.25 Y45.829
X-1.233 Y45.854
X-1.192 Y45.91
X-1.146 Y45.967
X-1.095 Y46.025
X-1.014 Y46.106
X-0.957 Y46.155
X-0.897 Y46.202
X-0.838 Y46.244
X-0.818 Y46.257
X-0.749 Y46.299
X-0.68 Y46.337
X-0.582 Y46.383
X-0.542 Y46.399
X-0.473 Y46.424
X-0.403 Y46.445
X-0.334 Y46.462
X-0.265 Y46.476
X-0.196 Y46.487
X-0.127 Y46.495
X0.012 Y46.5
X17.857
X17.995 Y46.503
X18.063 Y46.507
X18.065 Y46.508
X18.127 Y46.52
X18.129
X18.19 Y46.541
X18.192 Y46.542
X18.248 Y46.57
X18.25 Y46.571
X18.302 Y46.606
X18.351 Y46.649
X18.353 Y46.65
X18.393 Y46.696
X18.395 Y46.698
X18.429 Y46.75
X18.431 Y46.753
X18.458 Y46.809
X18.459 Y46.811
X18.48 Y46.871
Y46.874
X18.492 Y46.934
X18.493 Y46.936
X18.5 Y47.075
Y122.925
X18.493 Y123.064
X18.492 Y123.066
X18.48 Y123.126
Y123.129
X18.459 Y123.189
X18.458 Y123.191
X18.431 Y123.247
X18.429 Y123.25
X18.395 Y123.302
X18.393 Y123.304
X18.353 Y123.35
X18.351 Y123.351
X18.302 Y123.394
X18.25 Y123.429
X18.248 Y123.43
X18.192 Y123.458
X18.19 Y123.459
X18.129 Y123.48
X18.127
X18.065 Y123.492
X18.063 Y123.493
X17.995 Y123.497
X17.857 Y123.5
X0.012
X-0.127 Y123.505
X-0.196 Y123.513
X-0.265 Y123.524
X-0.334 Y123.538
X-0.403 Y123.555
X-0.473 Y123.576
X-0.542 Y123.601
X-0.582 Y123.617
X-0.68 Y123.663
X-0.749 Y123.701
X-0.818 Y123.743
X-0.838 Y123.756
X-0.897 Y123.798
X-0.957 Y123.845
X-1.014 Y123.894
X-1.095 Y123.975
X-1.146 Y124.033
X-1.192 Y124.09
X-1.233 Y124.146
X-1.25 Y124.171
X-1.293 Y124.24
X-1.332 Y124.31
X-1.372 Y124.393
X-1.395 Y124.448
X-1.42 Y124.517
X-1.442 Y124.586
X-1.46 Y124.656
X-1.475 Y124.725
X-1.486 Y124.794
X-1.494 Y124.863
X-1.498 Y124.932
X-1.5 Y125.002
Y169.986
X-1.495 Y170.124
X-1.487 Y170.194
X-1.477 Y170.263
X-1.463 Y170.332
X-1.445 Y170.401
X-1.424 Y170.47
X-1.4 Y170.54
X-1.372 Y170.607
X-1.338 Y170.678
X-1.301 Y170.747
X-1.258 Y170.817
X-1.233 Y170.854
X-1.157 Y170.955
X-1.095 Y171.025
X-1.027 Y171.093
X-0.957 Y171.155
X-0.856 Y171.232
X-0.818 Y171.257
X-0.749 Y171.299
X-0.68 Y171.337
X-0.61 Y171.37
X-0.542 Y171.399
X-0.473 Y171.424
X-0.403 Y171.445
X-0.334 Y171.462
X-0.265 Y171.476
X-0.196 Y171.487
X-0.127 Y171.495
X0.012 Y171.5
X107.913
X108.052 Y171.499
X108.19 Y171.491
X108.328 Y171.482
X108.467 Y171.469
X108.605 Y171.444
X108.743 Y171.416
X108.882 Y171.387
X108.943 Y171.37
X109.02 Y171.345
X109.158 Y171.298
X109.297 Y171.251
X109.344 Y171.232
X109.435 Y171.19
X109.631 Y171.093
X109.712 Y171.052
X109.781 Y171.013
X109.85 Y170.968
X109.988 Y170.876
X110.076 Y170.817
X110.127 Y170.78
X110.248 Y170.678
X110.406 Y170.54
X110.478 Y170.472
X110.542 Y170.404
X110.68 Y170.246
X110.781 Y170.124
X110.818 Y170.074
X110.877 Y169.986
X110.97 Y169.848
X111.014 Y169.778
X111.054 Y169.709
X111.095 Y169.628
X111.191 Y169.432
X111.233 Y169.34
X111.252 Y169.294
X111.299 Y169.156
X111.346 Y169.017
X111.372 Y168.938
X111.388 Y168.879
X111.417 Y168.74
X111.444 Y168.602
X111.469 Y168.463
X111.482 Y168.325
X111.491 Y168.187
X111.499 Y168.048
X111.5 Y167.91
Y2.09
X111.499 Y1.952
X111.491 Y1.813
X111.482 Y1.675
X111.469 Y1.537
X111.444 Y1.398
X111.417 Y1.26
X111.388 Y1.121
X111.372 Y1.062
X111.346 Y0.983
X111.299 Y0.844
X111.252 Y0.706
X111.233 Y0.66
X111.191 Y0.568
X111.095 Y0.372
X111.054 Y0.291
X111.014 Y0.222
X110.97 Y0.152
X110.877 Y0.014
X110.818 Y-0.074
X110.781 Y-0.124
X110.68 Y-0.246
X110.542 Y-0.404
X110.478 Y-0.472
X110.406 Y-0.54
X110.248 Y-0.678
X110.127 Y-0.78
X110.076 Y-0.817
X109.988 Y-0.876
X109.85 Y-0.968
X109.781 Y-1.013
X109.712 Y-1.052
X109.631 Y-1.093
X109.435 Y-1.19
X109.344 Y-1.232
X109.297 Y-1.25
X109.158 Y-1.298
X109.02 Y-1.345
X108.943 Y-1.37
X108.882 Y-1.387
X108.743 Y-1.416
X108.605 Y-1.444
X108.467 Y-1.469
X108.328 Y-1.482
X108.19 Y-1.491
X108.052 Y-1.499
X107.913 Y-1.5
X0.012
X-0.127 Y-1.495
X-0.196 Y-1.487
X-0.265 Y-1.476
X-0.334 Y-1.462
X-0.403 Y-1.445
X-0.473 Y-1.424
X-0.542 Y-1.399
X-0.61 Y-1.37
X-0.68 Y-1.337
X-0.749 Y-1.299
X-0.818 Y-1.257
X-0.856 Y-1.232
X-0.957 Y-1.155
X-1.027 Y-1.093
X-1.095 Y-1.025
X-1.157 Y-0.955
X-1.233 Y-0.854
X-1.258 Y-0.817
X-1.301 Y-0.747
X-1.338 Y-0.678
X-1.372 Y-0.607
G3 X-1.771 Y-0.464 I-0.271 J-0.129
G2 X-2.2 Y-0.2 I-0.129 J0.271
G3 X-2.419 Y0.082 I-0.3 J-0.007
X-4.051 Y-0.605 I-0.383 J-1.373
X-4.056 Y-0.614 I1.249 J-0.686 F83.
X-1.548 Y-1.967 Z-4.156 I1.254 J-0.677
X-4.056 Y-0.614 Z-4.313 I-1.254 J0.677
X-1.548 Y-1.967 Z-4.469 I1.254 J-0.677
X-4.056 Y-0.614 Z-4.625 I-1.254 J0.677
X-1.548 Y-1.967 Z-4.782 I1.254 J-0.677
X-4.056 Y-0.614 Z-4.938 I-1.254 J0.677
X-1.548 Y-1.967 Z-5.094 I1.254 J-0.677
X-4.056 Y-0.614 Z-5.25 I-1.254 J0.677
X-1.548 Y-1.967 Z-5.407 I1.254 J-0.677
X-4.056 Y-0.614 Z-5.563 I-1.254 J0.677
X-1.548 Y-1.967 Z-5.719 I1.254 J-0.677
X-4.056 Y-0.614 Z-5.875 I-1.254 J0.677
X-2.201 Y-2.583 Z-6. I1.254 J-0.677
X-2.191 Y-2.578 I-0.601 J1.292
G1 X-2.051 Y-2.512 F250.
G3 X-1.372 Y-0.607 I-0.613 J1.292
G1 X-1.4 Y-0.54
X-1.424 Y-0.47
X-1.445 Y-0.401
X-1.463 Y-0.332
X-1.477 Y-0.263
X-1.487 Y-0.194
X-1.495 Y-0.124
X-1.5 Y0.014
Y44.998
X-1.498 Y45.068
X-1.494 Y45.137
X-1.486 Y45.206
X-1.475 Y45.275
X-1.46 Y45.344
X-1.442 Y45.414
X-1.42 Y45.483
X-1.395 Y45.552
X-1.372 Y45.607
X-1.332 Y45.69
X-1.293 Y45.76
X-1.25 Y45.829
X-1.233 Y45.854
X-1.192 Y45.91
X-1.146 Y45.967
X-1.095 Y46.025
X-1.014 Y46.106
X-0.957 Y46.155
X-0.897 Y46.202
X-0.838 Y46.244
X-0.818 Y46.257
X-0.749 Y46.299
X-0.68 Y46.337
X-0.582 Y46.383
X-0.542 Y46.399
X-0.473 Y46.424
X-0.403 Y46.445
X-0.334 Y46.462
X-0.265 Y46.476
X-0.196 Y46.487
X-0.127 Y46.495
X0.012 Y46.5
X17.857
X17.995 Y46.503
X18.063 Y46.507
X18.065 Y46.508
X18.127 Y46.52
X18.129
X18.19 Y46.541
X18.192 Y46.542
X18.248 Y46.57
X18.25 Y46.571
X18.302 Y46.606
X18.351 Y46.649
X18.353 Y46.65
X18.393 Y46.696
X18.395 Y46.698
X18.429 Y46.75
X18.431 Y46.753
X18.458 Y46.809
X18.459 Y46.811
X18.48 Y46.871
Y46.874
X18.492 Y46.934
X18.493 Y46.936
X18.5 Y47.075
Y122.925
X18.493 Y123.064
X18.492 Y123.066
X18.48 Y123.126
Y123.129
X18.459 Y123.189
X18.458 Y123.191
X18.431 Y123.247
X18.429 Y123.25
X18.395 Y123.302
X18.393 Y123.304
X18.353 Y123.35
X18.351 Y123.351
X18.302 Y123.394
X18.25 Y123.429
X18.248 Y123.43
X18.192 Y123.458
X18.19 Y123.459
X18.129 Y123.48
X18.127
X18.065 Y123.492
X18.063 Y123.493
X17.995 Y123.497
X17.857 Y123.5
X0.012
X-0.127 Y123.505
X-0.196 Y123.513
X-0.265 Y123.524
X-0.334 Y123.538
X-0.403 Y123.555
X-0.473 Y123.576
X-0.542 Y123.601
X-0.582 Y123.617
X-0.68 Y123.663
X-0.749 Y123.701
X-0.818 Y123.743
X-0.838 Y123.756
X-0.897 Y123.798
X-0.957 Y123.845
X-1.014 Y123.894
X-1.095 Y123.975
X-1.146 Y124.033
X-1.192 Y124.09
X-1.233 Y124.146
X-1.25 Y124.171
X-1.293 Y124.24
X-1.332 Y124.31
X-1.372 Y124.393
X-1.395 Y124.448
X-1.42 Y124.517
X-1.442 Y124.586
X-1.46 Y124.656
X-1.475 Y124.725
X-1.486 Y124.794
X-1.494 Y124.863
X-1.498 Y124.932
X-1.5 Y125.002
Y169.986
X-1.495 Y170.124
X-1.487 Y170.194
X-1.477 Y170.263
X-1.463 Y170.332
X-1.445 Y170.401
X-1.424 Y170.47
X-1.4 Y170.54
X-1.372 Y170.607
X-1.338 Y170.678
X-1.301 Y170.747
X-1.258 Y170.817
X-1.233 Y170.854
X-1.157 Y170.955
X-1.095 Y171.025
X-1.027 Y171.093
X-0.957 Y171.155
X-0.856 Y171.232
X-0.818 Y171.257
X-0.749 Y171.299
X-0.68 Y171.337
X-0.61 Y171.37
X-0.542 Y171.399
X-0.473 Y171.424
X-0.403 Y171.445
X-0.334 Y171.462
X-0.265 Y171.476
X-0.196 Y171.487
X-0.127 Y171.495
X0.012 Y171.5
X107.913
X108.052 Y171.499
X108.19 Y171.491
X108.328 Y171.482
X108.467 Y171.469
X108.605 Y171.444
X108.743 Y171.416
X108.882 Y171.387
X108.943 Y171.37
X109.02 Y171.345
X109.158 Y171.298
X109.297 Y171.251
X109.344 Y171.232
X109.435 Y171.19
X109.631 Y171.093
X109.712 Y171.052
X109.781 Y171.013
X109.85 Y170.968
X109.988 Y170.876
X110.076 Y170.817
X110.127 Y170.78
X110.248 Y170.678
X110.406 Y170.54
X110.478 Y170.472
X110.542 Y170.404
X110.68 Y170.246
X110.781 Y170.124
X110.818 Y170.074
X110.877 Y169.986
X110.97 Y169.848
X111.014 Y169.778
X111.054 Y169.709
X111.095 Y169.628
X111.191 Y169.432
X111.233 Y169.34
X111.252 Y169.294
X111.299 Y169.156
X111.346 Y169.017
X111.372 Y168.938
X111.388 Y168.879
X111.417 Y168.74
X111.444 Y168.602
X111.469 Y168.463
X111.482 Y168.325
X111.491 Y168.187
X111.499 Y168.048
X111.5 Y167.91
Y2.09
X111.499 Y1.952
X111.491 Y1.813
X111.482 Y1.675
X111.469 Y1.537
X111.444 Y1.398
X111.417 Y1.26
X111.388 Y1.121
X111.372 Y1.062
X111.346 Y0.983
X111.299 Y0.844
X111.252 Y0.706
X111.233 Y0.66
X111.191 Y0.568
X111.095 Y0.372
X111.054 Y0.291
X111.014 Y0.222
X110.97 Y0.152
X110.877 Y0.014
X110.818 Y-0.074
X110.781 Y-0.124
X110.68 Y-0.246
X110.542 Y-0.404
X110.478 Y-0.472
X110.406 Y-0.54
X110.248 Y-0.678
X110.127 Y-0.78
X110.076 Y-0.817
X109.988 Y-0.876
X109.85 Y-0.968
X109.781 Y-1.013
X109.712 Y-1.052
X109.631 Y-1.093
X109.435 Y-1.19
X109.344 Y-1.232
X109.297 Y-1.25
X109.158 Y-1.298
X109.02 Y-1.345
X108.943 Y-1.37
X108.882 Y-1.387
X108.743 Y-1.416
X108.605 Y-1.444
X108.467 Y-1.469
X108.328 Y-1.482
X108.19 Y-1.491
X108.052 Y-1.499
X107.913 Y-1.5
X0.012
X-0.127 Y-1.495
X-0.196 Y-1.487
X-0.265 Y-1.476
X-0.334 Y-1.462
X-0.403 Y-1.445
X-0.473 Y-1.424
X-0.542 Y-1.399
X-0.61 Y-1.37
X-0.68 Y-1.337
X-0.749 Y-1.299
X-0.818 Y-1.257
X-0.856 Y-1.232
X-0.957 Y-1.155
X-1.027 Y-1.093
X-1.095 Y-1.025
X-1.157 Y-0.955
X-1.233 Y-0.854
X-1.258 Y-0.817
X-1.301 Y-0.747
X-1.338 Y-0.678
X-1.372 Y-0.607
G3 X-1.771 Y-0.464 I-0.271 J-0.129
G2 X-2.2 Y-0.2 I-0.129 J0.271
G3 X-2.419 Y0.082 I-0.3 J-0.007
X-4.051 Y-0.605 I-0.383 J-1.373
X-4.056 Y-0.614 I1.249 J-0.686 F83.
X-1.548 Y-1.967 Z-6.156 I1.254 J-0.677
X-4.056 Y-0.614 Z-6.313 I-1.254 J0.677
X-1.548 Y-1.967 Z-6.469 I1.254 J-0.677
X-4.056 Y-0.614 Z-6.625 I-1.254 J0.677
X-1.548 Y-1.967 Z-6.782 I1.254 J-0.677
X-4.056 Y-0.614 Z-6.938 I-1.254 J0.677
X-1.548 Y-1.967 Z-7.094 I1.254 J-0.677
X-4.056 Y-0.614 Z-7.25 I-1.254 J0.677
X-1.548 Y-1.967 Z-7.407 I1.254 J-0.677
X-4.056 Y-0.614 Z-7.563 I-1.254 J0.677
X-1.548 Y-1.967 Z-7.719 I1.254 J-0.677
X-4.056 Y-0.614 Z-7.875 I-1.254 J0.677
X-2.201 Y-2.583 Z-8. I1.254 J-0.677
X-2.191 Y-2.578 I-0.601 J1.292
G1 X-2.051 Y-2.512 F250.
G3 X-1.372 Y-0.607 I-0.613 J1.292
G1 X-1.4 Y-0.54
X-1.424 Y-0.47
X-1.445 Y-0.401
X-1.463 Y-0.332
X-1.477 Y-0.263
X-1.487 Y-0.194
X-1.495 Y-0.124
X-1.5 Y0.014
Y44.998
X-1.498 Y45.068
X-1.494 Y45.137
X-1.486 Y45.206
X-1.475 Y45.275
X-1.46 Y45.344
X-1.442 Y45.414
X-1.42 Y45.483
X-1.395 Y45.552
X-1.372 Y45.607
X-1.332 Y45.69
X-1.293 Y45.76
X-1.25 Y45.829
X-1.233 Y45.854
X-1.192 Y45.91
X-1.146 Y45.967
X-1.095 Y46.025
X-1.014 Y46.106
X-0.957 Y46.155
X-0.897 Y46.202
X-0.838 Y46.244
X-0.818 Y46.257
X-0.749 Y46.299
X-0.68 Y46.337
X-0.582 Y46.383
X-0.542 Y46.399
X-0.473 Y46.424
X-0.403 Y46.445
X-0.334 Y46.462
X-0.265 Y46.476
X-0.196 Y46.487
X-0.127 Y46.495
X0.012 Y46.5
X17.857
X17.995 Y46.503
X18.063 Y46.507
X18.065 Y46.508
X18.127 Y46.52
X18.129
X18.19 Y46.541
X18.192 Y46.542
X18.248 Y46.57
X18.25 Y46.571
X18.302 Y46.606
X18.351 Y46.649
X18.353 Y46.65
X18.393 Y46.696
X18.395 Y46.698
X18.429 Y46.75
X18.431 Y46.753
X18.458 Y46.809
X18.459 Y46.811
X18.48 Y46.871
Y46.874
X18.492 Y46.934
X18.493 Y46.936
X18.5 Y47.075
Y122.925
X18.493 Y123.064
X18.492 Y123.066
X18.48 Y123.126
Y123.129
X18.459 Y123.189
X18.458 Y123.191
X18.431 Y123.247
X18.429 Y123.25
X18.395 Y123.302
X18.393 Y123.304
X18.353 Y123.35
X18.351 Y123.351
X18.302 Y123.394
X18.25 Y123.429
X18.248 Y123.43
X18.192 Y123.458
X18.19 Y123.459
X18.129 Y123.48
X18.127
X18.065 Y123.492
X18.063 Y123.493
X17.995 Y123.497
X17.857 Y123.5
X0.012
X-0.127 Y123.505
X-0.196 Y123.513
X-0.265 Y123.524
X-0.334 Y123.538
X-0.403 Y123.555
X-0.473 Y123.576
X-0.542 Y123.601
X-0.582 Y123.617
X-0.68 Y123.663
X-0.749 Y123.701
X-0.818 Y123.743
X-0.838 Y123.756
X-0.897 Y123.798
X-0.957 Y123.845
X-1.014 Y123.894
X-1.095 Y123.975
X-1.146 Y124.033
X-1.192 Y124.09
X-1.233 Y124.146
X-1.25 Y124.171
X-1.293 Y124.24
X-1.332 Y124.31
X-1.372 Y124.393
X-1.395 Y124.448
X-1.42 Y124.517
X-1.442 Y124.586
X-1.46 Y124.656
X-1.475 Y124.725
X-1.486 Y124.794
X-1.494 Y124.863
X-1.498 Y124.932
X-1.5 Y125.002
Y169.986
X-1.495 Y170.124
X-1.487 Y170.194
X-1.477 Y170.263
X-1.463 Y170.332
X-1.445 Y170.401
X-1.424 Y170.47
X-1.4 Y170.54
X-1.372 Y170.607
X-1.338 Y170.678
X-1.301 Y170.747
X-1.258 Y170.817
X-1.233 Y170.854
X-1.157 Y170.955
X-1.095 Y171.025
X-1.027 Y171.093
X-0.957 Y171.155
X-0.856 Y171.232
X-0.818 Y171.257
X-0.749 Y171.299
X-0.68 Y171.337
X-0.61 Y171.37
X-0.542 Y171.399
X-0.473 Y171.424
X-0.403 Y171.445
X-0.334 Y171.462
X-0.265 Y171.476
X-0.196 Y171.487
X-0.127 Y171.495
X0.012 Y171.5
X107.913
X108.052 Y171.499
X108.19 Y171.491
X108.328 Y171.482
X108.467 Y171.469
X108.605 Y171.444
X108.743 Y171.416
X108.882 Y171.387
X108.943 Y171.37
X109.02 Y171.345
X109.158 Y171.298
X109.297 Y171.251
X109.344 Y171.232
X109.435 Y171.19
X109.631 Y171.093
X109.712 Y171.052
X109.781 Y171.013
X109.85 Y170.968
X109.988 Y170.876
X110.076 Y170.817
X110.127 Y170.78
X110.248 Y170.678
X110.406 Y170.54
X110.478 Y170.472
X110.542 Y170.404
X110.68 Y170.246
X110.781 Y170.124
X110.818 Y170.074
X110.877 Y169.986
X110.97 Y169.848
X111.014 Y169.778
X111.054 Y169.709
X111.095 Y169.628
X111.191 Y169.432
X111.233 Y169.34
X111.252 Y169.294
X111.299 Y169.156
X111.346 Y169.017
X111.372 Y168.938
X111.388 Y168.879
X111.417 Y168.74
X111.444 Y168.602
X111.469 Y168.463
X111.482 Y168.325
X111.491 Y168.187
X111.499 Y168.048
X111.5 Y167.91
Y2.09
X111.499 Y1.952
X111.491 Y1.813
X111.482 Y1.675
X111.469 Y1.537
X111.444 Y1.398
X111.417 Y1.26
X111.388 Y1.121
X111.372 Y1.062
X111.346 Y0.983
X111.299 Y0.844
X111.252 Y0.706
X111.233 Y0.66
X111.191 Y0.568
X111.095 Y0.372
X111.054 Y0.291
X111.014 Y0.222
X110.97 Y0.152
X110.877 Y0.014
X110.818 Y-0.074
X110.781 Y-0.124
X110.68 Y-0.246
X110.542 Y-0.404
X110.478 Y-0.472
X110.406 Y-0.54
X110.248 Y-0.678
X110.127 Y-0.78
X110.076 Y-0.817
X109.988 Y-0.876
X109.85 Y-0.968
X109.781 Y-1.013
X109.712 Y-1.052
X109.631 Y-1.093
X109.435 Y-1.19
X109.344 Y-1.232
X109.297 Y-1.25
X109.158 Y-1.298
X109.02 Y-1.345
X108.943 Y-1.37
X108.882 Y-1.387
X108.743 Y-1.416
X108.605 Y-1.444
X108.467 Y-1.469
X108.328 Y-1.482
X108.19 Y-1.491
X108.052 Y-1.499
X107.913 Y-1.5
X0.012
X-0.127 Y-1.495
X-0.196 Y-1.487
X-0.265 Y-1.476
X-0.334 Y-1.462
X-0.403 Y-1.445
X-0.473 Y-1.424
X-0.542 Y-1.399
X-0.61 Y-1.37
X-0.68 Y-1.337
X-0.749 Y-1.299
X-0.818 Y-1.257
X-0.856 Y-1.232
X-0.957 Y-1.155
X-1.027 Y-1.093
X-1.095 Y-1.025
X-1.157 Y-0.955
X-1.233 Y-0.854
X-1.258 Y-0.817
X-1.301 Y-0.747
X-1.338 Y-0.678
X-1.372 Y-0.607
G3 X-1.771 Y-0.464 I-0.271 J-0.129
G2 X-2.2 Y-0.2 I-0.129 J0.271
G3 X-2.419 Y0.082 I-0.3 J-0.007
X-4.051 Y-0.605 I-0.383 J-1.373
X-4.056 Y-0.614 I1.249 J-0.686 F83.
X-1.548 Y-1.967 Z-8.156 I1.254 J-0.677
X-4.056 Y-0.614 Z-8.313 I-1.254 J0.677
X-1.548 Y-1.967 Z-8.469 I1.254 J-0.677
X-4.056 Y-0.614 Z-8.625 I-1.254 J0.677
X-1.548 Y-1.967 Z-8.782 I1.254 J-0.677
X-4.056 Y-0.614 Z-8.938 I-1.254 J0.677
X-1.548 Y-1.967 Z-9.094 I1.254 J-0.677
X-4.056 Y-0.614 Z-9.25 I-1.254 J0.677
X-1.548 Y-1.967 Z-9.407 I1.254 J-0.677
X-4.056 Y-0.614 Z-9.563 I-1.254 J0.677
X-1.548 Y-1.967 Z-9.719 I1.254 J-0.677
X-4.056 Y-0.614 Z-9.875 I-1.254 J0.677
X-2.201 Y-2.583 Z-10. I1.254 J-0.677
X-2.191 Y-2.578 I-0.601 J1.292
G1 X-2.051 Y-2.512 F250.
G3 X-1.372 Y-0.607 I-0.613 J1.292
G1 X-1.4 Y-0.54
X-1.424 Y-0.47
X-1.445 Y-0.401
X-1.463 Y-0.332
X-1.477 Y-0.263
X-1.487 Y-0.194
X-1.495 Y-0.124
X-1.5 Y0.014
Y44.998
X-1.498 Y45.068
X-1.494 Y45.137
X-1.486 Y45.206
X-1.475 Y45.275
X-1.46 Y45.344
X-1.442 Y45.414
X-1.42 Y45.483
X-1.395 Y45.552
X-1.372 Y45.607
X-1.332 Y45.69
X-1.293 Y45.76
X-1.25 Y45.829
X-1.233 Y45.854
X-1.192 Y45.91
X-1.146 Y45.967
X-1.095 Y46.025
X-1.014 Y46.106
X-0.957 Y46.155
X-0.897 Y46.202
X-0.838 Y46.244
X-0.818 Y46.257
X-0.749 Y46.299
X-0.68 Y46.337
X-0.582 Y46.383
X-0.542 Y46.399
X-0.473 Y46.424
X-0.403 Y46.445
X-0.334 Y46.462
X-0.265 Y46.476
X-0.196 Y46.487
X-0.127 Y46.495
X0.012 Y46.5
X17.857
X17.995 Y46.503
X18.063 Y46.507
X18.065 Y46.508
X18.127 Y46.52
X18.129
X18.19 Y46.541
X18.192 Y46.542
X18.248 Y46.57
X18.25 Y46.571
X18.302 Y46.606
X18.351 Y46.649
X18.353 Y46.65
X18.393 Y46.696
X18.395 Y46.698
X18.429 Y46.75
X18.431 Y46.753
X18.458 Y46.809
X18.459 Y46.811
X18.48 Y46.871
Y46.874
X18.492 Y46.934
X18.493 Y46.936
X18.5 Y47.075
Y122.925
X18.493 Y123.064
X18.492 Y123.066
X18.48 Y123.126
Y123.129
X18.459 Y123.189
X18.458 Y123.191
X18.431 Y123.247
X18.429 Y123.25
X18.395 Y123.302
X18.393 Y123.304
X18.353 Y123.35
X18.351 Y123.351
X18.302 Y123.394
X18.25 Y123.429
X18.248 Y123.43
X18.192 Y123.458
X18.19 Y123.459
X18.129 Y123.48
X18.127
X18.065 Y123.492
X18.063 Y123.493
X17.995 Y123.497
X17.857 Y123.5
X0.012
X-0.127 Y123.505
X-0.196 Y123.513
X-0.265 Y123.524
X-0.334 Y123.538
X-0.403 Y123.555
X-0.473 Y123.576
X-0.542 Y123.601
X-0.582 Y123.617
X-0.68 Y123.663
X-0.749 Y123.701
X-0.818 Y123.743
X-0.838 Y123.756
X-0.897 Y123.798
X-0.957 Y123.845
X-1.014 Y123.894
X-1.095 Y123.975
X-1.146 Y124.033
X-1.192 Y124.09
X-1.233 Y124.146
X-1.25 Y124.171
X-1.293 Y124.24
X-1.332 Y124.31
X-1.372 Y124.393
X-1.395 Y124.448
X-1.42 Y124.517
X-1.442 Y124.586
X-1.46 Y124.656
X-1.475 Y124.725
X-1.486 Y124.794
X-1.494 Y124.863
X-1.498 Y124.932
X-1.5 Y125.002
Y169.986
X-1.495 Y170.124
X-1.487 Y170.194
X-1.477 Y170.263
X-1.463 Y170.332
X-1.445 Y170.401
X-1.424 Y170.47
X-1.4 Y170.54
X-1.372 Y170.607
X-1.338 Y170.678
X-1.301 Y170.747
X-1.258 Y170.817
X-1.233 Y170.854
X-1.157 Y170.955
X-1.095 Y171.025
X-1.027 Y171.093
X-0.957 Y171.155
X-0.856 Y171.232
X-0.818 Y171.257
X-0.749 Y171.299
X-0.68 Y171.337
X-0.61 Y171.37
X-0.542 Y171.399
X-0.473 Y171.424
X-0.403 Y171.445
X-0.334 Y171.462
X-0.265 Y171.476
X-0.196 Y171.487
X-0.127 Y171.495
X0.012 Y171.5
X107.913
X108.052 Y171.499
X108.19 Y171.491
X108.328 Y171.482
X108.467 Y171.469
X108.605 Y171.444
X108.743 Y171.416
X108.882 Y171.387
X108.943 Y171.37
X109.02 Y171.345
X109.158 Y171.298
X109.297 Y171.251
X109.344 Y171.232
X109.435 Y171.19
X109.631 Y171.093
X109.712 Y171.052
X109.781 Y171.013
X109.85 Y170.968
X109.988 Y170.876
X110.076 Y170.817
X110.127 Y170.78
X110.248 Y170.678
X110.406 Y170.54
X110.478 Y170.472
X110.542 Y170.404
X110.68 Y170.246
X110.781 Y170.124
X110.818 Y170.074
X110.877 Y169.986
X110.97 Y169.848
X111.014 Y169.778
X111.054 Y169.709
X111.095 Y169.628
X111.191 Y169.432
X111.233 Y169.34
X111.252 Y169.294
X111.299 Y169.156
X111.346 Y169.017
X111.372 Y168.938
X111.388 Y168.879
X111.417 Y168.74
X111.444 Y168.602
X111.469 Y168.463
X111.482 Y168.325
X111.491 Y168.187
X111.499 Y168.048
X111.5 Y167.91
Y2.09
X111.499 Y1.952
X111.491 Y1.813
X111.482 Y1.675
X111.469 Y1.537
X111.444 Y1.398
X111.417 Y1.26
X111.388 Y1.121
X111.372 Y1.062
X111.346 Y0.983
X111.299 Y0.844
X111.252 Y0.706
X111.233 Y0.66
X111.191 Y0.568
X111.095 Y0.372
X111.054 Y0.291
X111.014 Y0.222
X110.97 Y0.152
X110.877 Y0.014
X110.818 Y-0.074
X110.781 Y-0.124
X110.68 Y-0.246
X110.542 Y-0.404
X110.478 Y-0.472
X110.406 Y-0.54
X110.248 Y-0.678
X110.127 Y-0.78
X110.076 Y-0.817
X109.988 Y-0.876
X109.85 Y-0.968
X109.781 Y-1.013
X109.712 Y-1.052
X109.631 Y-1.093
X109.435 Y-1.19
X109.344 Y-1.232
X109.297 Y-1.25
X109.158 Y-1.298
X109.02 Y-1.345
X108.943 Y-1.37
X108.882 Y-1.387
X108.743 Y-1.416
X108.605 Y-1.444
X108.467 Y-1.469
X108.328 Y-1.482
X108.19 Y-1.491
X108.052 Y-1.499
X107.913 Y-1.5
X0.012
X-0.127 Y-1.495
X-0.196 Y-1.487
X-0.265 Y-1.476
X-0.334 Y-1.462
X-0.403 Y-1.445
X-0.473 Y-1.424
X-0.542 Y-1.399
X-0.61 Y-1.37
X-0.68 Y-1.337
X-0.749 Y-1.299
X-0.818 Y-1.257
X-0.856 Y-1.232
X-0.957 Y-1.155
X-1.027 Y-1.093
X-1.095 Y-1.025
X-1.157 Y-0.955
X-1.233 Y-0.854
X-1.258 Y-0.817
X-1.301 Y-0.747
X-1.338 Y-0.678
X-1.372 Y-0.607
G3 X-1.771 Y-0.464 I-0.271 J-0.129
G2 X-2.2 Y-0.2 I-0.129 J0.271
G3 X-2.419 Y0.082 I-0.3 J-0.007
X-4.051 Y-0.605 I-0.383 J-1.373
X-4.056 Y-0.614 I1.249 J-0.686 F83.
X-1.548 Y-1.967 Z-10.156 I1.254 J-0.677
X-4.056 Y-0.614 Z-10.313 I-1.254 J0.677
X-1.548 Y-1.967 Z-10.469 I1.254 J-0.677
X-4.056 Y-0.614 Z-10.625 I-1.254 J0.677
X-1.548 Y-1.967 Z-10.782 I1.254 J-0.677
X-4.056 Y-0.614 Z-10.938 I-1.254 J0.677
X-1.548 Y-1.967 Z-11.094 I1.254 J-0.677
X-4.056 Y-0.614 Z-11.25 I-1.254 J0.677
X-1.548 Y-1.967 Z-11.407 I1.254 J-0.677
X-4.056 Y-0.614 Z-11.563 I-1.254 J0.677
X-1.548 Y-1.967 Z-11.719 I1.254 J-0.677
X-4.056 Y-0.614 Z-11.875 I-1.254 J0.677
X-2.201 Y-2.583 Z-12. I1.254 J-0.677
X-2.191 Y-2.578 I-0.601 J1.292
G1 X-2.051 Y-2.512 F250.
G3 X-1.372 Y-0.607 I-0.613 J1.292
G1 X-1.4 Y-0.54
X-1.424 Y-0.47
X-1.445 Y-0.401
X-1.463 Y-0.332
X-1.477 Y-0.263
X-1.487 Y-0.194
X-1.495 Y-0.124
X-1.5 Y0.014
Y44.998
X-1.498 Y45.068
X-1.494 Y45.137
X-1.486 Y45.206
X-1.475 Y45.275
X-1.46 Y45.344
X-1.442 Y45.414
X-1.42 Y45.483
X-1.395 Y45.552
X-1.372 Y45.607
X-1.332 Y45.69
X-1.293 Y45.76
X-1.25 Y45.829
X-1.233 Y45.854
X-1.192 Y45.91
X-1.146 Y45.967
X-1.095 Y46.025
X-1.014 Y46.106
X-0.957 Y46.155
X-0.897 Y46.202
X-0.838 Y46.244
X-0.818 Y46.257
X-0.749 Y46.299
X-0.68 Y46.337
X-0.582 Y46.383
X-0.542 Y46.399
X-0.473 Y46.424
X-0.403 Y46.445
X-0.334 Y46.462
X-0.265 Y46.476
X-0.196 Y46.487
X-0.127 Y46.495
X0.012 Y46.5
X17.857
X17.995 Y46.503
X18.063 Y46.507
X18.065 Y46.508
X18.127 Y46.52
X18.129
X18.19 Y46.541
X18.192 Y46.542
X18.248 Y46.57
X18.25 Y46.571
X18.302 Y46.606
X18.351 Y46.649
X18.353 Y46.65
X18.393 Y46.696
X18.395 Y46.698
X18.429 Y46.75
X18.431 Y46.753
X18.458 Y46.809
X18.459 Y46.811
X18.48 Y46.871
Y46.874
X18.492 Y46.934
X18.493 Y46.936
X18.5 Y47.075
Y122.925
X18.493 Y123.064
X18.492 Y123.066
X18.48 Y123.126
Y123.129
X18.459 Y123.189
X18.458 Y123.191
X18.431 Y123.247
X18.429 Y123.25
X18.395 Y123.302
X18.393 Y123.304
X18.353 Y123.35
X18.351 Y123.351
X18.302 Y123.394
X18.25 Y123.429
X18.248 Y123.43
X18.192 Y123.458
X18.19 Y123.459
X18.129 Y123.48
X18.127
X18.065 Y123.492
X18.063 Y123.493
X17.995 Y123.497
X17.857 Y123.5
X0.012
X-0.127 Y123.505
X-0.196 Y123.513
X-0.265 Y123.524
X-0.334 Y123.538
X-0.403 Y123.555
X-0.473 Y123.576
X-0.542 Y123.601
X-0.582 Y123.617
X-0.68 Y123.663
X-0.749 Y123.701
X-0.818 Y123.743
X-0.838 Y123.756
X-0.897 Y123.798
X-0.957 Y123.845
X-1.014 Y123.894
X-1.095 Y123.975
X-1.146 Y124.033
X-1.192 Y124.09
X-1.233 Y124.146
X-1.25 Y124.171
X-1.293 Y124.24
X-1.332 Y124.31
X-1.372 Y124.393
X-1.395 Y124.448
X-1.42 Y124.517
X-1.442 Y124.586
X-1.46 Y124.656
X-1.475 Y124.725
X-1.486 Y124.794
X-1.494 Y124.863
X-1.498 Y124.932
X-1.5 Y125.002
Y169.986
X-1.495 Y170.124
X-1.487 Y170.194
X-1.477 Y170.263
X-1.463 Y170.332
X-1.445 Y170.401
X-1.424 Y170.47
X-1.4 Y170.54
X-1.372 Y170.607
X-1.338 Y170.678
X-1.301 Y170.747
X-1.258 Y170.817
X-1.233 Y170.854
X-1.157 Y170.955
X-1.095 Y171.025
X-1.027 Y171.093
X-0.957 Y171.155
X-0.856 Y171.232
X-0.818 Y171.257
X-0.749 Y171.299
X-0.68 Y171.337
X-0.61 Y171.37
X-0.542 Y171.399
X-0.473 Y171.424
X-0.403 Y171.445
X-0.334 Y171.462
X-0.265 Y171.476
X-0.196 Y171.487
X-0.127 Y171.495
X0.012 Y171.5
X107.913
X108.052 Y171.499
X108.19 Y171.491
X108.328 Y171.482
X108.467 Y171.469
X108.605 Y171.444
X108.743 Y171.416
X108.882 Y171.387
X108.943 Y171.37
X109.02 Y171.345
X109.158 Y171.298
X109.297 Y171.251
X109.344 Y171.232
X109.435 Y171.19
X109.631 Y171.093
X109.712 Y171.052
X109.781 Y171.013
X109.85 Y170.968
X109.988 Y170.876
X110.076 Y170.817
X110.127 Y170.78
X110.248 Y170.678
X110.406 Y170.54
X110.478 Y170.472
X110.542 Y170.404
X110.68 Y170.246
X110.781 Y170.124
X110.818 Y170.074
X110.877 Y169.986
X110.97 Y169.848
X111.014 Y169.778
X111.054 Y169.709
X111.095 Y169.628
X111.191 Y169.432
X111.233 Y169.34
X111.252 Y169.294
X111.299 Y169.156
X111.346 Y169.017
X111.372 Y168.938
X111.388 Y168.879
X111.417 Y168.74
X111.444 Y168.602
X111.469 Y168.463
X111.482 Y168.325
X111.491 Y168.187
X111.499 Y168.048
X111.5 Y167.91
Y2.09
X111.499 Y1.952
X111.491 Y1.813
X111.482 Y1.675
X111.469 Y1.537
X111.444 Y1.398
X111.417 Y1.26
X111.388 Y1.121
X111.372 Y1.062
X111.346 Y0.983
X111.299 Y0.844
X111.252 Y0.706
X111.233 Y0.66
X111.191 Y0.568
X111.095 Y0.372
X111.054 Y0.291
X111.014 Y0.222
X110.97 Y0.152
X110.877 Y0.014
X110.818 Y-0.074
X110.781 Y-0.124
X110.68 Y-0.246
X110.542 Y-0.404
X110.478 Y-0.472
X110.406 Y-0.54
X110.248 Y-0.678
X110.127 Y-0.78
X110.076 Y-0.817
X109.988 Y-0.876
X109.85 Y-0.968
X109.781 Y-1.013
X109.712 Y-1.052
X109.631 Y-1.093
X109.435 Y-1.19
X109.344 Y-1.232
X109.297 Y-1.25
X109.158 Y-1.298
X109.02 Y-1.345
X108.943 Y-1.37
X108.882 Y-1.387
X108.743 Y-1.416
X108.605 Y-1.444
X108.467 Y-1.469
X108.328 Y-1.482
X108.19 Y-1.491
X108.052 Y-1.499
X107.913 Y-1.5
X0.012
X-0.127 Y-1.495
X-0.196 Y-1.487
X-0.265 Y-1.476
X-0.334 Y-1.462
X-0.403 Y-1.445
X-0.473 Y-1.424
X-0.542 Y-1.399
X-0.61 Y-1.37
X-0.68 Y-1.337
X-0.749 Y-1.299
X-0.818 Y-1.257
X-0.856 Y-1.232
X-0.957 Y-1.155
X-1.027 Y-1.093
X-1.095 Y-1.025
X-1.157 Y-0.955
X-1.233 Y-0.854
X-1.258 Y-0.817
X-1.301 Y-0.747
X-1.338 Y-0.678
X-1.372 Y-0.607
G3 X-1.801 Y-0.48 I-0.271 J-0.129
G1 X-3.828 Y-1.735
X-3.885 Y-1.77 Z-11.992
X-3.939 Y-1.803 Z-11.97
X-3.987 Y-1.833 Z-11.935
X-4.027 Y-1.858 Z-11.887
X-4.058 Y-1.877 Z-11.83
X-4.077 Y-1.889 Z-11.767
X-4.083 Y-1.893 Z-11.7
G0 Z2.

M9
G53 Z0.
M30
