%
(1)
(T2  D=3 CR=0 - ZMIN=-11.499 - flat end mill)
G90 G94
G17
G21
G28 G91 Z0
G90

(Clear Inner)
M9
T2 M6
(Part of a 10 Pack Carbide)
S5000 M3
G54
M9
G0 X2.467 Y1.362
Z2
Z1.001
Z0.8
G1 Z0.5 F1000
G3 X1.63 Y-1.362 Z0.344 I-0.419 J-1.362 F333.3
X2.467 Y1.362 Z0.187 I0.419 J1.362
X1.63 Y-1.362 Z0.031 I-0.419 J-1.362
X2.467 Y1.362 Z-0.125 I0.419 J1.362
X1.63 Y-1.362 Z-0.282 I-0.419 J-1.362
X2.467 Y1.362 Z-0.438 I0.419 J1.362
X1.63 Y-1.362 Z-0.594 I-0.419 J-1.362
X2.467 Y1.362 Z-0.751 I0.419 J1.362
X1.63 Y-1.362 Z-0.907 I-0.419 J-1.362
X3.474 Y0 Z-1 I0.419 J1.362
X0.624 I-1.425
X3.474 I1.425
G1 X3.513 Y0.811 F1000
X3.502 Y0.961
X3.465 Y1.106
X3.407 Y1.245
X3.331 Y1.374
X3.241 Y1.494
X3.138 Y1.603
X3.025 Y1.701
X2.902 Y1.787
X2.771 Y1.862
X2.635 Y1.924
X2.494 Y1.974
X2.348 Y2.012
X2.201 Y2.037
X2.051 Y2.051
X1.901 Y2.052
X1.752 Y2.042
X1.603 Y2.02
X1.457 Y1.987
X1.314 Y1.942
X1.174 Y1.887
X1.039 Y1.822
X0.909 Y1.747
X0.786 Y1.662
X0.668 Y1.568
X0.558 Y1.466
X0.456 Y1.357
X0.362 Y1.24
X0.276 Y1.117
X0.2 Y0.987
X0.134 Y0.853
X0.077 Y0.714
X0.03 Y0.572
X-0.006 Y0.426
X-0.032 Y0.278
X-0.047 Y0.129
X-0.051 Y-0.021
X-0.044 Y-0.171
X-0.027 Y-0.32
X0.001 Y-0.467
X0.039 Y-0.612
X0.088 Y-0.754
X0.147 Y-0.892
X0.215 Y-1.026
X0.293 Y-1.154
X0.38 Y-1.276
X0.475 Y-1.392
X0.578 Y-1.501
X0.689 Y-1.602
X0.807 Y-1.695
X0.931 Y-1.779
X1.06 Y-1.855
X1.195 Y-1.92
X1.334 Y-1.976
X1.477 Y-2.022
X1.623 Y-2.058
X1.771 Y-2.083
X1.92 Y-2.098
X2.07 Y-2.102
X2.22 Y-2.095
X2.369 Y-2.077
X2.516 Y-2.049
X2.661 Y-2.01
X2.803 Y-1.962
X2.941 Y-1.903
X3.074 Y-1.834
X3.203 Y-1.757
X3.325 Y-1.67
X3.441 Y-1.574
X3.55 Y-1.471
X3.651 Y-1.36
X3.744 Y-1.243
X3.828 Y-1.119
X3.907 Y-0.983
X3.994 Y-0.805
X4.088 Y-0.574
X4.175 Y-0.31
X4.234 Y-0.077
X4.269 Y0.116
X4.289 Y0.299
X4.296 Y0.474
X4.292 Y0.633
X4.276 Y0.794
X4.25 Y0.95
X4.214 Y1.095
X4.168 Y1.243
X4.111 Y1.386
X4.047 Y1.521
X3.972 Y1.654
X3.886 Y1.785
X3.792 Y1.908
X3.69 Y2.023
X3.577 Y2.135
X3.454 Y2.24
X3.324 Y2.338
X3.188 Y2.425
X3.044 Y2.504
X2.892 Y2.575
X2.732 Y2.635
X2.567 Y2.686
X2.398 Y2.724
X2.226 Y2.751
X2.051 Y2.767
X1.873 Y2.77
X1.693 Y2.76
X1.512 Y2.738
X1.332 Y2.704
X1.153 Y2.656
X0.976 Y2.596
X0.804 Y2.523
X0.637 Y2.439
X0.475 Y2.343
X0.32 Y2.235
X0.172 Y2.116
X0.031 Y1.987
X-0.1 Y1.848
X-0.222 Y1.699
X-0.334 Y1.542
X-0.435 Y1.377
X-0.525 Y1.204
X-0.603 Y1.026
X-0.668 Y0.842
X-0.72 Y0.654
X-0.76 Y0.462
X-0.786 Y0.268
X-0.798 Y0.072
X-0.797 Y-0.124
X-0.783 Y-0.32
X-0.754 Y-0.514
X-0.713 Y-0.707
X-0.658 Y-0.895
X-0.59 Y-1.08
X-0.51 Y-1.26
X-0.417 Y-1.433
X-0.313 Y-1.6
X-0.197 Y-1.759
X-0.07 Y-1.91
X0.066 Y-2.052
X0.213 Y-2.184
X0.368 Y-2.306
X0.531 Y-2.416
X0.702 Y-2.515
X0.879 Y-2.603
X1.062 Y-2.677
X1.249 Y-2.739
X1.441 Y-2.788
X1.635 Y-2.823
X1.832 Y-2.845
X2.029 Y-2.853
X2.227 Y-2.848
X2.424 Y-2.829
X2.619 Y-2.796
X2.811 Y-2.75
X3 Y-2.69
X3.184 Y-2.618
X3.362 Y-2.533
X3.535 Y-2.436
X3.7 Y-2.327
X3.858 Y-2.206
X4.012 Y-2.071
X4.16 Y-1.922
X4.306 Y-1.753
X4.452 Y-1.558
X4.589 Y-1.345
X4.711 Y-1.124
X4.816 Y-0.897
X4.904 Y-0.666
X4.975 Y-0.436
X5.028 Y-0.205
X5.064 Y0.025
X5.084 Y0.251
X5.088 Y0.475
X5.077 Y0.696
X5.051 Y0.912
X5.01 Y1.124
X4.956 Y1.331
X4.887 Y1.533
X4.805 Y1.729
X4.709 Y1.919
X4.601 Y2.102
X4.479 Y2.278
X4.346 Y2.445
X4.201 Y2.603
X4.044 Y2.751
X3.877 Y2.889
X3.698 Y3.016
X3.511 Y3.131
X3.314 Y3.234
X3.11 Y3.323
X2.898 Y3.398
X2.68 Y3.459
X2.457 Y3.506
X2.229 Y3.536
X1.997 Y3.552
X1.764 Y3.551
X1.53 Y3.533
X1.296 Y3.5
X1.064 Y3.45
X0.835 Y3.384
X0.61 Y3.301
X0.39 Y3.203
X0.176 Y3.09
X-0.03 Y2.961
X-0.227 Y2.818
X-0.415 Y2.661
X-0.592 Y2.491
X-0.757 Y2.308
X-0.91 Y2.114
X-1.049 Y1.909
X-1.174 Y1.694
X-1.284 Y1.471
X-1.379 Y1.24
X-1.458 Y1.003
X-1.52 Y0.76
X-1.565 Y0.513
X-1.593 Y0.264
X-1.604 Y0.013
X-1.597 Y-0.238
X-1.573 Y-0.489
X-1.531 Y-0.737
X-1.473 Y-0.982
X-1.397 Y-1.223
X-1.305 Y-1.458
X-1.197 Y-1.686
X-1.074 Y-1.906
X-0.935 Y-2.117
X-0.782 Y-2.318
X-0.616 Y-2.508
X-0.436 Y-2.686
X-0.245 Y-2.851
X-0.043 Y-3.003
X0.17 Y-3.141
X0.391 Y-3.263
X0.621 Y-3.37
X0.857 Y-3.461
X1.1 Y-3.535
X1.347 Y-3.592
X1.597 Y-3.632
X1.849 Y-3.655
X2.103 Y-3.66
X2.356 Y-3.647
X2.608 Y-3.617
X2.857 Y-3.57
X3.102 Y-3.505
X3.343 Y-3.424
X3.578 Y-3.326
X3.807 Y-3.211
X4.031 Y-3.078
X4.249 Y-2.928
X4.46 Y-2.76
X4.665 Y-2.572
X4.861 Y-2.366
X5.045 Y-2.142
X5.216 Y-1.904
X5.37 Y-1.653
X5.506 Y-1.392
X5.624 Y-1.124
X5.722 Y-0.849
X5.801 Y-0.571
X5.859 Y-0.29
X5.898 Y-0.008
X5.916 Y0.274
Y0.49
X5.915 Y0.525
X5.913 Y0.559
X5.909 Y0.593
X5.87 Y0.901
X5.857 Y0.983
X5.83 Y1.065
X5.505 Y1.884
X5.49 Y1.916
X5.398 Y2.048
X4.921 Y2.704
X4.902 Y2.726
X4.878 Y2.749
X4.179 Y3.327
X4.137 Y3.359
X4.015 Y3.42
X3.278 Y3.767
X3.237 Y3.784
X3.196 Y3.795
X2.294 Y3.968
X2.253 Y3.973
X2.212 Y3.974
X1.311 Y3.917
X1.27 Y3.913
X1.229 Y3.905
X0.328 Y3.612
X0.287 Y3.593
X0.246 Y3.568
X-0.492 Y3.1
X-0.533 Y3.072
X-0.576 Y3.032
X-1.191 Y2.376
X-1.229 Y2.328
X-1.294 Y2.212
X-1.655 Y1.557
X-1.695 Y1.48
X-1.721 Y1.403
X-1.934 Y0.574
X-1.951 Y0.492
X-1.953 Y0.41
Y-0.41
X-1.951 Y-0.492
X-1.934 Y-0.574
X-1.721 Y-1.403
X-1.695 Y-1.48
X-1.655 Y-1.557
X-1.294 Y-2.212
X-1.229 Y-2.328
X-1.191 Y-2.376
X-0.574 Y-3.034
X-0.533 Y-3.072
X-0.492 Y-3.1
X0.246 Y-3.568
X0.287 Y-3.593
X0.328 Y-3.612
X1.229 Y-3.905
X1.27 Y-3.913
X1.311 Y-3.917
X2.212 Y-3.974
X2.253 Y-3.973
X2.294 Y-3.968
X3.196 Y-3.795
X3.237 Y-3.784
X3.278 Y-3.767
X4.015 Y-3.42
X4.137 Y-3.359
X4.179 Y-3.327
X4.878 Y-2.749
X4.902 Y-2.726
X4.921 Y-2.704
X5.398 Y-2.048
X5.49 Y-1.916
X5.505 Y-1.884
X5.83 Y-1.065
X5.857 Y-0.983
X5.87 Y-0.901
X5.974 Y-0.082
X5.982 Y0
X5.974 Y0.082
X5.909 Y0.593
G3 X5.413 Y0.768 I-0.296 J-0.048
G1 X5.384 Y0.724 Z-0.995
X5.355 Y0.681 Z-0.981
X5.329 Y0.641 Z-0.958
X5.32 Y0.588 Z-0.916
X5.313 Y0.545 Z-0.863
X5.314 Y0.523 Z-0.824
X5.315 Y0.508 Z-0.781
X5.317 Y0.499 Z-0.741
Y0.497 Z-0.7
G0 Z1.001
X2.467 Y1.362
Z-0.2
G1 Z-0.5 F1000
G3 X1.63 Y-1.362 Z-0.656 I-0.419 J-1.362 F333.3
X2.467 Y1.362 Z-0.813 I0.419 J1.362
X1.63 Y-1.362 Z-0.969 I-0.419 J-1.362
X2.467 Y1.362 Z-1.125 I0.419 J1.362
X1.63 Y-1.362 Z-1.282 I-0.419 J-1.362
X2.467 Y1.362 Z-1.438 I0.419 J1.362
X1.63 Y-1.362 Z-1.594 I-0.419 J-1.362
X2.467 Y1.362 Z-1.751 I0.419 J1.362
X1.63 Y-1.362 Z-1.907 I-0.419 J-1.362
X3.474 Y0 Z-2 I0.419 J1.362
X0.624 I-1.425
X3.474 I1.425
G1 X3.513 Y0.811 F1000
X3.502 Y0.961
X3.465 Y1.106
X3.407 Y1.245
X3.331 Y1.374
X3.241 Y1.494
X3.138 Y1.603
X3.025 Y1.701
X2.902 Y1.787
X2.771 Y1.862
X2.635 Y1.924
X2.494 Y1.974
X2.348 Y2.012
X2.201 Y2.037
X2.051 Y2.051
X1.901 Y2.052
X1.752 Y2.042
X1.603 Y2.02
X1.457 Y1.987
X1.314 Y1.942
X1.174 Y1.887
X1.039 Y1.822
X0.909 Y1.747
X0.786 Y1.662
X0.668 Y1.568
X0.558 Y1.466
X0.456 Y1.357
X0.362 Y1.24
X0.276 Y1.117
X0.2 Y0.987
X0.134 Y0.853
X0.077 Y0.714
X0.03 Y0.572
X-0.006 Y0.426
X-0.032 Y0.278
X-0.047 Y0.129
X-0.051 Y-0.021
X-0.044 Y-0.171
X-0.027 Y-0.32
X0.001 Y-0.467
X0.039 Y-0.612
X0.088 Y-0.754
X0.147 Y-0.892
X0.215 Y-1.026
X0.293 Y-1.154
X0.38 Y-1.276
X0.475 Y-1.392
X0.578 Y-1.501
X0.689 Y-1.602
X0.807 Y-1.695
X0.931 Y-1.779
X1.06 Y-1.855
X1.195 Y-1.92
X1.334 Y-1.976
X1.477 Y-2.022
X1.623 Y-2.058
X1.771 Y-2.083
X1.92 Y-2.098
X2.07 Y-2.102
X2.22 Y-2.095
X2.369 Y-2.077
X2.516 Y-2.049
X2.661 Y-2.01
X2.803 Y-1.962
X2.941 Y-1.903
X3.074 Y-1.834
X3.203 Y-1.757
X3.325 Y-1.67
X3.441 Y-1.574
X3.55 Y-1.471
X3.651 Y-1.36
X3.744 Y-1.243
X3.828 Y-1.119
X3.907 Y-0.983
X3.994 Y-0.805
X4.088 Y-0.574
X4.175 Y-0.31
X4.234 Y-0.077
X4.269 Y0.116
X4.289 Y0.299
X4.296 Y0.474
X4.292 Y0.633
X4.276 Y0.794
X4.25 Y0.95
X4.214 Y1.095
X4.168 Y1.243
X4.111 Y1.386
X4.047 Y1.521
X3.972 Y1.654
X3.886 Y1.785
X3.792 Y1.908
X3.69 Y2.023
X3.577 Y2.135
X3.454 Y2.24
X3.324 Y2.338
X3.188 Y2.425
X3.044 Y2.504
X2.892 Y2.575
X2.732 Y2.635
X2.567 Y2.686
X2.398 Y2.724
X2.226 Y2.751
X2.051 Y2.767
X1.873 Y2.77
X1.693 Y2.76
X1.512 Y2.738
X1.332 Y2.704
X1.153 Y2.656
X0.976 Y2.596
X0.804 Y2.523
X0.637 Y2.439
X0.475 Y2.343
X0.32 Y2.235
X0.172 Y2.116
X0.031 Y1.987
X-0.1 Y1.848
X-0.222 Y1.699
X-0.334 Y1.542
X-0.435 Y1.377
X-0.525 Y1.204
X-0.603 Y1.026
X-0.668 Y0.842
X-0.72 Y0.654
X-0.76 Y0.462
X-0.786 Y0.268
X-0.798 Y0.072
X-0.797 Y-0.124
X-0.783 Y-0.32
X-0.754 Y-0.514
X-0.713 Y-0.707
X-0.658 Y-0.895
X-0.59 Y-1.08
X-0.51 Y-1.26
X-0.417 Y-1.433
X-0.313 Y-1.6
X-0.197 Y-1.759
X-0.07 Y-1.91
X0.066 Y-2.052
X0.213 Y-2.184
X0.368 Y-2.306
X0.531 Y-2.416
X0.702 Y-2.515
X0.879 Y-2.603
X1.062 Y-2.677
X1.249 Y-2.739
X1.441 Y-2.788
X1.635 Y-2.823
X1.832 Y-2.845
X2.029 Y-2.853
X2.227 Y-2.848
X2.424 Y-2.829
X2.619 Y-2.796
X2.811 Y-2.75
X3 Y-2.69
X3.184 Y-2.618
X3.362 Y-2.533
X3.535 Y-2.436
X3.7 Y-2.327
X3.858 Y-2.206
X4.012 Y-2.071
X4.16 Y-1.922
X4.306 Y-1.753
X4.452 Y-1.558
X4.589 Y-1.345
X4.711 Y-1.124
X4.816 Y-0.897
X4.904 Y-0.666
X4.975 Y-0.436
X5.028 Y-0.205
X5.064 Y0.025
X5.084 Y0.251
X5.088 Y0.475
X5.077 Y0.696
X5.051 Y0.912
X5.01 Y1.124
X4.956 Y1.331
X4.887 Y1.533
X4.805 Y1.729
X4.709 Y1.919
X4.601 Y2.102
X4.479 Y2.278
X4.346 Y2.445
X4.201 Y2.603
X4.044 Y2.751
X3.877 Y2.889
X3.698 Y3.016
X3.511 Y3.131
X3.314 Y3.234
X3.11 Y3.323
X2.898 Y3.398
X2.68 Y3.459
X2.457 Y3.506
X2.229 Y3.536
X1.997 Y3.552
X1.764 Y3.551
X1.53 Y3.533
X1.296 Y3.5
X1.064 Y3.45
X0.835 Y3.384
X0.61 Y3.301
X0.39 Y3.203
X0.176 Y3.09
X-0.03 Y2.961
X-0.227 Y2.818
X-0.415 Y2.661
X-0.592 Y2.491
X-0.757 Y2.308
X-0.91 Y2.114
X-1.049 Y1.909
X-1.174 Y1.694
X-1.284 Y1.471
X-1.379 Y1.24
X-1.458 Y1.003
X-1.52 Y0.76
X-1.565 Y0.513
X-1.593 Y0.264
X-1.604 Y0.013
X-1.597 Y-0.238
X-1.573 Y-0.489
X-1.531 Y-0.737
X-1.473 Y-0.982
X-1.397 Y-1.223
X-1.305 Y-1.458
X-1.197 Y-1.686
X-1.074 Y-1.906
X-0.935 Y-2.117
X-0.782 Y-2.318
X-0.616 Y-2.508
X-0.436 Y-2.686
X-0.245 Y-2.851
X-0.043 Y-3.003
X0.17 Y-3.141
X0.391 Y-3.263
X0.621 Y-3.37
X0.857 Y-3.461
X1.1 Y-3.535
X1.347 Y-3.592
X1.597 Y-3.632
X1.849 Y-3.655
X2.103 Y-3.66
X2.356 Y-3.647
X2.608 Y-3.617
X2.857 Y-3.57
X3.102 Y-3.505
X3.343 Y-3.424
X3.578 Y-3.326
X3.807 Y-3.211
X4.031 Y-3.078
X4.249 Y-2.928
X4.46 Y-2.76
X4.665 Y-2.572
X4.861 Y-2.366
X5.045 Y-2.142
X5.216 Y-1.904
X5.37 Y-1.653
X5.506 Y-1.392
X5.624 Y-1.124
X5.722 Y-0.849
X5.801 Y-0.571
X5.859 Y-0.29
X5.898 Y-0.008
X5.916 Y0.274
Y0.49
X5.915 Y0.525
X5.913 Y0.559
X5.909 Y0.593
X5.87 Y0.901
X5.857 Y0.983
X5.83 Y1.065
X5.505 Y1.884
X5.49 Y1.916
X5.398 Y2.048
X4.921 Y2.704
X4.902 Y2.726
X4.878 Y2.749
X4.179 Y3.327
X4.137 Y3.359
X4.015 Y3.42
X3.278 Y3.767
X3.237 Y3.784
X3.196 Y3.795
X2.294 Y3.968
X2.253 Y3.973
X2.212 Y3.974
X1.311 Y3.917
X1.27 Y3.913
X1.229 Y3.905
X0.328 Y3.612
X0.287 Y3.593
X0.246 Y3.568
X-0.492 Y3.1
X-0.533 Y3.072
X-0.576 Y3.032
X-1.191 Y2.376
X-1.229 Y2.328
X-1.294 Y2.212
X-1.655 Y1.557
X-1.695 Y1.48
X-1.721 Y1.403
X-1.934 Y0.574
X-1.951 Y0.492
X-1.953 Y0.41
Y-0.41
X-1.951 Y-0.492
X-1.934 Y-0.574
X-1.721 Y-1.403
X-1.695 Y-1.48
X-1.655 Y-1.557
X-1.294 Y-2.212
X-1.229 Y-2.328
X-1.191 Y-2.376
X-0.574 Y-3.034
X-0.533 Y-3.072
X-0.492 Y-3.1
X0.246 Y-3.568
X0.287 Y-3.593
X0.328 Y-3.612
X1.229 Y-3.905
X1.27 Y-3.913
X1.311 Y-3.917
X2.212 Y-3.974
X2.253 Y-3.973
X2.294 Y-3.968
X3.196 Y-3.795
X3.237 Y-3.784
X3.278 Y-3.767
X4.015 Y-3.42
X4.137 Y-3.359
X4.179 Y-3.327
X4.878 Y-2.749
X4.902 Y-2.726
X4.921 Y-2.704
X5.398 Y-2.048
X5.49 Y-1.916
X5.505 Y-1.884
X5.83 Y-1.065
X5.857 Y-0.983
X5.87 Y-0.901
X5.974 Y-0.082
X5.982 Y0
X5.974 Y0.082
X5.909 Y0.593
G3 X5.413 Y0.768 I-0.296 J-0.048
G1 X5.384 Y0.724 Z-1.995
X5.355 Y0.681 Z-1.981
X5.329 Y0.641 Z-1.958
X5.32 Y0.588 Z-1.916
X5.313 Y0.545 Z-1.863
X5.314 Y0.523 Z-1.824
X5.315 Y0.508 Z-1.781
X5.317 Y0.499 Z-1.741
Y0.497 Z-1.7
G0 Z1.001
X2.467 Y1.362
Z-1.2
G1 Z-1.5 F1000
G3 X1.63 Y-1.362 Z-1.656 I-0.419 J-1.362 F333.3
X2.467 Y1.362 Z-1.813 I0.419 J1.362
X1.63 Y-1.362 Z-1.969 I-0.419 J-1.362
X2.467 Y1.362 Z-2.125 I0.419 J1.362
X1.63 Y-1.362 Z-2.282 I-0.419 J-1.362
X2.467 Y1.362 Z-2.438 I0.419 J1.362
X1.63 Y-1.362 Z-2.594 I-0.419 J-1.362
X2.467 Y1.362 Z-2.751 I0.419 J1.362
X1.63 Y-1.362 Z-2.907 I-0.419 J-1.362
X3.474 Y0 Z-3 I0.419 J1.362
X0.624 I-1.425
X3.474 I1.425
G1 X3.513 Y0.811 F1000
X3.502 Y0.961
X3.465 Y1.106
X3.407 Y1.245
X3.331 Y1.374
X3.241 Y1.494
X3.138 Y1.603
X3.025 Y1.701
X2.902 Y1.787
X2.771 Y1.862
X2.635 Y1.924
X2.494 Y1.974
X2.348 Y2.012
X2.201 Y2.037
X2.051 Y2.051
X1.901 Y2.052
X1.752 Y2.042
X1.603 Y2.02
X1.457 Y1.987
X1.314 Y1.942
X1.174 Y1.887
X1.039 Y1.822
X0.909 Y1.747
X0.786 Y1.662
X0.668 Y1.568
X0.558 Y1.466
X0.456 Y1.357
X0.362 Y1.24
X0.276 Y1.117
X0.2 Y0.987
X0.134 Y0.853
X0.077 Y0.714
X0.03 Y0.572
X-0.006 Y0.426
X-0.032 Y0.278
X-0.047 Y0.129
X-0.051 Y-0.021
X-0.044 Y-0.171
X-0.027 Y-0.32
X0.001 Y-0.467
X0.039 Y-0.612
X0.088 Y-0.754
X0.147 Y-0.892
X0.215 Y-1.026
X0.293 Y-1.154
X0.38 Y-1.276
X0.475 Y-1.392
X0.578 Y-1.501
X0.689 Y-1.602
X0.807 Y-1.695
X0.931 Y-1.779
X1.06 Y-1.855
X1.195 Y-1.92
X1.334 Y-1.976
X1.477 Y-2.022
X1.623 Y-2.058
X1.771 Y-2.083
X1.92 Y-2.098
X2.07 Y-2.102
X2.22 Y-2.095
X2.369 Y-2.077
X2.516 Y-2.049
X2.661 Y-2.01
X2.803 Y-1.962
X2.941 Y-1.903
X3.074 Y-1.834
X3.203 Y-1.757
X3.325 Y-1.67
X3.441 Y-1.574
X3.55 Y-1.471
X3.651 Y-1.36
X3.744 Y-1.243
X3.828 Y-1.119
X3.907 Y-0.983
X3.994 Y-0.805
X4.088 Y-0.574
X4.175 Y-0.31
X4.234 Y-0.077
X4.269 Y0.116
X4.289 Y0.299
X4.296 Y0.474
X4.292 Y0.633
X4.276 Y0.794
X4.25 Y0.95
X4.214 Y1.095
X4.168 Y1.243
X4.111 Y1.386
X4.047 Y1.521
X3.972 Y1.654
X3.886 Y1.785
X3.792 Y1.908
X3.69 Y2.023
X3.577 Y2.135
X3.454 Y2.24
X3.324 Y2.338
X3.188 Y2.425
X3.044 Y2.504
X2.892 Y2.575
X2.732 Y2.635
X2.567 Y2.686
X2.398 Y2.724
X2.226 Y2.751
X2.051 Y2.767
X1.873 Y2.77
X1.693 Y2.76
X1.512 Y2.738
X1.332 Y2.704
X1.153 Y2.656
X0.976 Y2.596
X0.804 Y2.523
X0.637 Y2.439
X0.475 Y2.343
X0.32 Y2.235
X0.172 Y2.116
X0.031 Y1.987
X-0.1 Y1.848
X-0.222 Y1.699
X-0.334 Y1.542
X-0.435 Y1.377
X-0.525 Y1.204
X-0.603 Y1.026
X-0.668 Y0.842
X-0.72 Y0.654
X-0.76 Y0.462
X-0.786 Y0.268
X-0.798 Y0.072
X-0.797 Y-0.124
X-0.783 Y-0.32
X-0.754 Y-0.514
X-0.713 Y-0.707
X-0.658 Y-0.895
X-0.59 Y-1.08
X-0.51 Y-1.26
X-0.417 Y-1.433
X-0.313 Y-1.6
X-0.197 Y-1.759
X-0.07 Y-1.91
X0.066 Y-2.052
X0.213 Y-2.184
X0.368 Y-2.306
X0.531 Y-2.416
X0.702 Y-2.515
X0.879 Y-2.603
X1.062 Y-2.677
X1.249 Y-2.739
X1.441 Y-2.788
X1.635 Y-2.823
X1.832 Y-2.845
X2.029 Y-2.853
X2.227 Y-2.848
X2.424 Y-2.829
X2.619 Y-2.796
X2.811 Y-2.75
X3 Y-2.69
X3.184 Y-2.618
X3.362 Y-2.533
X3.535 Y-2.436
X3.7 Y-2.327
X3.858 Y-2.206
X4.012 Y-2.071
X4.16 Y-1.922
X4.306 Y-1.753
X4.452 Y-1.558
X4.589 Y-1.345
X4.711 Y-1.124
X4.816 Y-0.897
X4.904 Y-0.666
X4.975 Y-0.436
X5.028 Y-0.205
X5.064 Y0.025
X5.084 Y0.251
X5.088 Y0.475
X5.077 Y0.696
X5.051 Y0.912
X5.01 Y1.124
X4.956 Y1.331
X4.887 Y1.533
X4.805 Y1.729
X4.709 Y1.919
X4.601 Y2.102
X4.479 Y2.278
X4.346 Y2.445
X4.201 Y2.603
X4.044 Y2.751
X3.877 Y2.889
X3.698 Y3.016
X3.511 Y3.131
X3.314 Y3.234
X3.11 Y3.323
X2.898 Y3.398
X2.68 Y3.459
X2.457 Y3.506
X2.229 Y3.536
X1.997 Y3.552
X1.764 Y3.551
X1.53 Y3.533
X1.296 Y3.5
X1.064 Y3.45
X0.835 Y3.384
X0.61 Y3.301
X0.39 Y3.203
X0.176 Y3.09
X-0.03 Y2.961
X-0.227 Y2.818
X-0.415 Y2.661
X-0.592 Y2.491
X-0.757 Y2.308
X-0.91 Y2.114
X-1.049 Y1.909
X-1.174 Y1.694
X-1.284 Y1.471
X-1.379 Y1.24
X-1.458 Y1.003
X-1.52 Y0.76
X-1.565 Y0.513
X-1.593 Y0.264
X-1.604 Y0.013
X-1.597 Y-0.238
X-1.573 Y-0.489
X-1.531 Y-0.737
X-1.473 Y-0.982
X-1.397 Y-1.223
X-1.305 Y-1.458
X-1.197 Y-1.686
X-1.074 Y-1.906
X-0.935 Y-2.117
X-0.782 Y-2.318
X-0.616 Y-2.508
X-0.436 Y-2.686
X-0.245 Y-2.851
X-0.043 Y-3.003
X0.17 Y-3.141
X0.391 Y-3.263
X0.621 Y-3.37
X0.857 Y-3.461
X1.1 Y-3.535
X1.347 Y-3.592
X1.597 Y-3.632
X1.849 Y-3.655
X2.103 Y-3.66
X2.356 Y-3.647
X2.608 Y-3.617
X2.857 Y-3.57
X3.102 Y-3.505
X3.343 Y-3.424
X3.578 Y-3.326
X3.807 Y-3.211
X4.031 Y-3.078
X4.249 Y-2.928
X4.46 Y-2.76
X4.665 Y-2.572
X4.861 Y-2.366
X5.045 Y-2.142
X5.216 Y-1.904
X5.37 Y-1.653
X5.506 Y-1.392
X5.624 Y-1.124
X5.722 Y-0.849
X5.801 Y-0.571
X5.859 Y-0.29
X5.898 Y-0.008
X5.916 Y0.274
Y0.49
X5.915 Y0.525
X5.913 Y0.559
X5.909 Y0.593
X5.87 Y0.901
X5.857 Y0.983
X5.83 Y1.065
X5.505 Y1.884
X5.49 Y1.916
X5.398 Y2.048
X4.921 Y2.704
X4.902 Y2.726
X4.878 Y2.749
X4.179 Y3.327
X4.137 Y3.359
X4.015 Y3.42
X3.278 Y3.767
X3.237 Y3.784
X3.196 Y3.795
X2.294 Y3.968
X2.253 Y3.973
X2.212 Y3.974
X1.311 Y3.917
X1.27 Y3.913
X1.229 Y3.905
X0.328 Y3.612
X0.287 Y3.593
X0.246 Y3.568
X-0.492 Y3.1
X-0.533 Y3.072
X-0.576 Y3.032
X-1.191 Y2.376
X-1.229 Y2.328
X-1.294 Y2.212
X-1.655 Y1.557
X-1.695 Y1.48
X-1.721 Y1.403
X-1.934 Y0.574
X-1.951 Y0.492
X-1.953 Y0.41
Y-0.41
X-1.951 Y-0.492
X-1.934 Y-0.574
X-1.721 Y-1.403
X-1.695 Y-1.48
X-1.655 Y-1.557
X-1.294 Y-2.212
X-1.229 Y-2.328
X-1.191 Y-2.376
X-0.574 Y-3.034
X-0.533 Y-3.072
X-0.492 Y-3.1
X0.246 Y-3.568
X0.287 Y-3.593
X0.328 Y-3.612
X1.229 Y-3.905
X1.27 Y-3.913
X1.311 Y-3.917
X2.212 Y-3.974
X2.253 Y-3.973
X2.294 Y-3.968
X3.196 Y-3.795
X3.237 Y-3.784
X3.278 Y-3.767
X4.015 Y-3.42
X4.137 Y-3.359
X4.179 Y-3.327
X4.878 Y-2.749
X4.902 Y-2.726
X4.921 Y-2.704
X5.398 Y-2.048
X5.49 Y-1.916
X5.505 Y-1.884
X5.83 Y-1.065
X5.857 Y-0.983
X5.87 Y-0.901
X5.974 Y-0.082
X5.982 Y0
X5.974 Y0.082
X5.909 Y0.593
G3 X5.413 Y0.768 I-0.296 J-0.048
G1 X5.384 Y0.724 Z-2.995
X5.355 Y0.681 Z-2.981
X5.329 Y0.641 Z-2.958
X5.32 Y0.588 Z-2.916
X5.313 Y0.545 Z-2.863
X5.314 Y0.523 Z-2.824
X5.315 Y0.508 Z-2.781
X5.317 Y0.499 Z-2.741
Y0.497 Z-2.7
G0 Z1.001
X2.467 Y1.362
Z-2.2
G1 Z-2.5 F1000
G3 X1.63 Y-1.362 Z-2.656 I-0.419 J-1.362 F333.3
X2.467 Y1.362 Z-2.813 I0.419 J1.362
X1.63 Y-1.362 Z-2.969 I-0.419 J-1.362
X2.467 Y1.362 Z-3.125 I0.419 J1.362
X1.63 Y-1.362 Z-3.282 I-0.419 J-1.362
X2.467 Y1.362 Z-3.438 I0.419 J1.362
X1.63 Y-1.362 Z-3.594 I-0.419 J-1.362
X2.467 Y1.362 Z-3.751 I0.419 J1.362
X1.63 Y-1.362 Z-3.907 I-0.419 J-1.362
X3.474 Y0 Z-4 I0.419 J1.362
X0.624 I-1.425
X3.474 I1.425
G1 X3.513 Y0.811 F1000
X3.502 Y0.961
X3.465 Y1.106
X3.407 Y1.245
X3.331 Y1.374
X3.241 Y1.494
X3.138 Y1.603
X3.025 Y1.701
X2.902 Y1.787
X2.771 Y1.862
X2.635 Y1.924
X2.494 Y1.974
X2.348 Y2.012
X2.201 Y2.037
X2.051 Y2.051
X1.901 Y2.052
X1.752 Y2.042
X1.603 Y2.02
X1.457 Y1.987
X1.314 Y1.942
X1.174 Y1.887
X1.039 Y1.822
X0.909 Y1.747
X0.786 Y1.662
X0.668 Y1.568
X0.558 Y1.466
X0.456 Y1.357
X0.362 Y1.24
X0.276 Y1.117
X0.2 Y0.987
X0.134 Y0.853
X0.077 Y0.714
X0.03 Y0.572
X-0.006 Y0.426
X-0.032 Y0.278
X-0.047 Y0.129
X-0.051 Y-0.021
X-0.044 Y-0.171
X-0.027 Y-0.32
X0.001 Y-0.467
X0.039 Y-0.612
X0.088 Y-0.754
X0.147 Y-0.892
X0.215 Y-1.026
X0.293 Y-1.154
X0.38 Y-1.276
X0.475 Y-1.392
X0.578 Y-1.501
X0.689 Y-1.602
X0.807 Y-1.695
X0.931 Y-1.779
X1.06 Y-1.855
X1.195 Y-1.92
X1.334 Y-1.976
X1.477 Y-2.022
X1.623 Y-2.058
X1.771 Y-2.083
X1.92 Y-2.098
X2.07 Y-2.102
X2.22 Y-2.095
X2.369 Y-2.077
X2.516 Y-2.049
X2.661 Y-2.01
X2.803 Y-1.962
X2.941 Y-1.903
X3.074 Y-1.834
X3.203 Y-1.757
X3.325 Y-1.67
X3.441 Y-1.574
X3.55 Y-1.471
X3.651 Y-1.36
X3.744 Y-1.243
X3.828 Y-1.119
X3.907 Y-0.983
X3.994 Y-0.805
X4.088 Y-0.574
X4.175 Y-0.31
X4.234 Y-0.077
X4.269 Y0.116
X4.289 Y0.299
X4.296 Y0.474
X4.292 Y0.633
X4.276 Y0.794
X4.25 Y0.95
X4.214 Y1.095
X4.168 Y1.243
X4.111 Y1.386
X4.047 Y1.521
X3.972 Y1.654
X3.886 Y1.785
X3.792 Y1.908
X3.69 Y2.023
X3.577 Y2.135
X3.454 Y2.24
X3.324 Y2.338
X3.188 Y2.425
X3.044 Y2.504
X2.892 Y2.575
X2.732 Y2.635
X2.567 Y2.686
X2.398 Y2.724
X2.226 Y2.751
X2.051 Y2.767
X1.873 Y2.77
X1.693 Y2.76
X1.512 Y2.738
X1.332 Y2.704
X1.153 Y2.656
X0.976 Y2.596
X0.804 Y2.523
X0.637 Y2.439
X0.475 Y2.343
X0.32 Y2.235
X0.172 Y2.116
X0.031 Y1.987
X-0.1 Y1.848
X-0.222 Y1.699
X-0.334 Y1.542
X-0.435 Y1.377
X-0.525 Y1.204
X-0.603 Y1.026
X-0.668 Y0.842
X-0.72 Y0.654
X-0.76 Y0.462
X-0.786 Y0.268
X-0.798 Y0.072
X-0.797 Y-0.124
X-0.783 Y-0.32
X-0.754 Y-0.514
X-0.713 Y-0.707
X-0.658 Y-0.895
X-0.59 Y-1.08
X-0.51 Y-1.26
X-0.417 Y-1.433
X-0.313 Y-1.6
X-0.197 Y-1.759
X-0.07 Y-1.91
X0.066 Y-2.052
X0.213 Y-2.184
X0.368 Y-2.306
X0.531 Y-2.416
X0.702 Y-2.515
X0.879 Y-2.603
X1.062 Y-2.677
X1.249 Y-2.739
X1.441 Y-2.788
X1.635 Y-2.823
X1.832 Y-2.845
X2.029 Y-2.853
X2.227 Y-2.848
X2.424 Y-2.829
X2.619 Y-2.796
X2.811 Y-2.75
X3 Y-2.69
X3.184 Y-2.618
X3.362 Y-2.533
X3.535 Y-2.436
X3.7 Y-2.327
X3.858 Y-2.206
X4.012 Y-2.071
X4.16 Y-1.922
X4.306 Y-1.753
X4.452 Y-1.558
X4.589 Y-1.345
X4.711 Y-1.124
X4.816 Y-0.897
X4.904 Y-0.666
X4.975 Y-0.436
X5.028 Y-0.205
X5.064 Y0.025
X5.084 Y0.251
X5.088 Y0.475
X5.077 Y0.696
X5.051 Y0.912
X5.01 Y1.124
X4.956 Y1.331
X4.887 Y1.533
X4.805 Y1.729
X4.709 Y1.919
X4.601 Y2.102
X4.479 Y2.278
X4.346 Y2.445
X4.201 Y2.603
X4.044 Y2.751
X3.877 Y2.889
X3.698 Y3.016
X3.511 Y3.131
X3.314 Y3.234
X3.11 Y3.323
X2.898 Y3.398
X2.68 Y3.459
X2.457 Y3.506
X2.229 Y3.536
X1.997 Y3.552
X1.764 Y3.551
X1.53 Y3.533
X1.296 Y3.5
X1.064 Y3.45
X0.835 Y3.384
X0.61 Y3.301
X0.39 Y3.203
X0.176 Y3.09
X-0.03 Y2.961
X-0.227 Y2.818
X-0.415 Y2.661
X-0.592 Y2.491
X-0.757 Y2.308
X-0.91 Y2.114
X-1.049 Y1.909
X-1.174 Y1.694
X-1.284 Y1.471
X-1.379 Y1.24
X-1.458 Y1.003
X-1.52 Y0.76
X-1.565 Y0.513
X-1.593 Y0.264
X-1.604 Y0.013
X-1.597 Y-0.238
X-1.573 Y-0.489
X-1.531 Y-0.737
X-1.473 Y-0.982
X-1.397 Y-1.223
X-1.305 Y-1.458
X-1.197 Y-1.686
X-1.074 Y-1.906
X-0.935 Y-2.117
X-0.782 Y-2.318
X-0.616 Y-2.508
X-0.436 Y-2.686
X-0.245 Y-2.851
X-0.043 Y-3.003
X0.17 Y-3.141
X0.391 Y-3.263
X0.621 Y-3.37
X0.857 Y-3.461
X1.1 Y-3.535
X1.347 Y-3.592
X1.597 Y-3.632
X1.849 Y-3.655
X2.103 Y-3.66
X2.356 Y-3.647
X2.608 Y-3.617
X2.857 Y-3.57
X3.102 Y-3.505
X3.343 Y-3.424
X3.578 Y-3.326
X3.807 Y-3.211
X4.031 Y-3.078
X4.249 Y-2.928
X4.46 Y-2.76
X4.665 Y-2.572
X4.861 Y-2.366
X5.045 Y-2.142
X5.216 Y-1.904
X5.37 Y-1.653
X5.506 Y-1.392
X5.624 Y-1.124
X5.722 Y-0.849
X5.801 Y-0.571
X5.859 Y-0.29
X5.898 Y-0.008
X5.916 Y0.274
Y0.49
X5.915 Y0.525
X5.913 Y0.559
X5.909 Y0.593
X5.87 Y0.901
X5.857 Y0.983
X5.83 Y1.065
X5.505 Y1.884
X5.49 Y1.916
X5.398 Y2.048
X4.921 Y2.704
X4.902 Y2.726
X4.878 Y2.749
X4.179 Y3.327
X4.137 Y3.359
X4.015 Y3.42
X3.278 Y3.767
X3.237 Y3.784
X3.196 Y3.795
X2.294 Y3.968
X2.253 Y3.973
X2.212 Y3.974
X1.311 Y3.917
X1.27 Y3.913
X1.229 Y3.905
X0.328 Y3.612
X0.287 Y3.593
X0.246 Y3.568
X-0.492 Y3.1
X-0.533 Y3.072
X-0.576 Y3.032
X-1.191 Y2.376
X-1.229 Y2.328
X-1.294 Y2.212
X-1.655 Y1.557
X-1.695 Y1.48
X-1.721 Y1.403
X-1.934 Y0.574
X-1.951 Y0.492
X-1.953 Y0.41
Y-0.41
X-1.951 Y-0.492
X-1.934 Y-0.574
X-1.721 Y-1.403
X-1.695 Y-1.48
X-1.655 Y-1.557
X-1.294 Y-2.212
X-1.229 Y-2.328
X-1.191 Y-2.376
X-0.574 Y-3.034
X-0.533 Y-3.072
X-0.492 Y-3.1
X0.246 Y-3.568
X0.287 Y-3.593
X0.328 Y-3.612
X1.229 Y-3.905
X1.27 Y-3.913
X1.311 Y-3.917
X2.212 Y-3.974
X2.253 Y-3.973
X2.294 Y-3.968
X3.196 Y-3.795
X3.237 Y-3.784
X3.278 Y-3.767
X4.015 Y-3.42
X4.137 Y-3.359
X4.179 Y-3.327
X4.878 Y-2.749
X4.902 Y-2.726
X4.921 Y-2.704
X5.398 Y-2.048
X5.49 Y-1.916
X5.505 Y-1.884
X5.83 Y-1.065
X5.857 Y-0.983
X5.87 Y-0.901
X5.974 Y-0.082
X5.982 Y0
X5.974 Y0.082
X5.909 Y0.593
G3 X5.413 Y0.768 I-0.296 J-0.048
G1 X5.384 Y0.724 Z-3.995
X5.355 Y0.681 Z-3.981
X5.329 Y0.641 Z-3.958
X5.32 Y0.588 Z-3.916
X5.313 Y0.545 Z-3.863
X5.314 Y0.523 Z-3.824
X5.315 Y0.508 Z-3.781
X5.317 Y0.499 Z-3.741
Y0.497 Z-3.7
G0 Z1.001
X2.467 Y1.362
Z-3.2
G1 Z-3.5 F1000
G3 X1.63 Y-1.362 Z-3.656 I-0.419 J-1.362 F333.3
X2.467 Y1.362 Z-3.813 I0.419 J1.362
X1.63 Y-1.362 Z-3.969 I-0.419 J-1.362
X2.467 Y1.362 Z-4.125 I0.419 J1.362
X1.63 Y-1.362 Z-4.282 I-0.419 J-1.362
X2.467 Y1.362 Z-4.438 I0.419 J1.362
X1.63 Y-1.362 Z-4.594 I-0.419 J-1.362
X2.467 Y1.362 Z-4.751 I0.419 J1.362
X1.63 Y-1.362 Z-4.907 I-0.419 J-1.362
X3.474 Y0 Z-5 I0.419 J1.362
X0.624 I-1.425
X3.474 I1.425
G1 X3.513 Y0.811 F1000
X3.502 Y0.961
X3.465 Y1.106
X3.407 Y1.245
X3.331 Y1.374
X3.241 Y1.494
X3.138 Y1.603
X3.025 Y1.701
X2.902 Y1.787
X2.771 Y1.862
X2.635 Y1.924
X2.494 Y1.974
X2.348 Y2.012
X2.201 Y2.037
X2.051 Y2.051
X1.901 Y2.052
X1.752 Y2.042
X1.603 Y2.02
X1.457 Y1.987
X1.314 Y1.942
X1.174 Y1.887
X1.039 Y1.822
X0.909 Y1.747
X0.786 Y1.662
X0.668 Y1.568
X0.558 Y1.466
X0.456 Y1.357
X0.362 Y1.24
X0.276 Y1.117
X0.2 Y0.987
X0.134 Y0.853
X0.077 Y0.714
X0.03 Y0.572
X-0.006 Y0.426
X-0.032 Y0.278
X-0.047 Y0.129
X-0.051 Y-0.021
X-0.044 Y-0.171
X-0.027 Y-0.32
X0.001 Y-0.467
X0.039 Y-0.612
X0.088 Y-0.754
X0.147 Y-0.892
X0.215 Y-1.026
X0.293 Y-1.154
X0.38 Y-1.276
X0.475 Y-1.392
X0.578 Y-1.501
X0.689 Y-1.602
X0.807 Y-1.695
X0.931 Y-1.779
X1.06 Y-1.855
X1.195 Y-1.92
X1.334 Y-1.976
X1.477 Y-2.022
X1.623 Y-2.058
X1.771 Y-2.083
X1.92 Y-2.098
X2.07 Y-2.102
X2.22 Y-2.095
X2.369 Y-2.077
X2.516 Y-2.049
X2.661 Y-2.01
X2.803 Y-1.962
X2.941 Y-1.903
X3.074 Y-1.834
X3.203 Y-1.757
X3.325 Y-1.67
X3.441 Y-1.574
X3.55 Y-1.471
X3.651 Y-1.36
X3.744 Y-1.243
X3.828 Y-1.119
X3.907 Y-0.983
X3.994 Y-0.805
X4.088 Y-0.574
X4.175 Y-0.31
X4.234 Y-0.077
X4.269 Y0.116
X4.289 Y0.299
X4.296 Y0.474
X4.292 Y0.633
X4.276 Y0.794
X4.25 Y0.95
X4.214 Y1.095
X4.168 Y1.243
X4.111 Y1.386
X4.047 Y1.521
X3.972 Y1.654
X3.886 Y1.785
X3.792 Y1.908
X3.69 Y2.023
X3.577 Y2.135
X3.454 Y2.24
X3.324 Y2.338
X3.188 Y2.425
X3.044 Y2.504
X2.892 Y2.575
X2.732 Y2.635
X2.567 Y2.686
X2.398 Y2.724
X2.226 Y2.751
X2.051 Y2.767
X1.873 Y2.77
X1.693 Y2.76
X1.512 Y2.738
X1.332 Y2.704
X1.153 Y2.656
X0.976 Y2.596
X0.804 Y2.523
X0.637 Y2.439
X0.475 Y2.343
X0.32 Y2.235
X0.172 Y2.116
X0.031 Y1.987
X-0.1 Y1.848
X-0.222 Y1.699
X-0.334 Y1.542
X-0.435 Y1.377
X-0.525 Y1.204
X-0.603 Y1.026
X-0.668 Y0.842
X-0.72 Y0.654
X-0.76 Y0.462
X-0.786 Y0.268
X-0.798 Y0.072
X-0.797 Y-0.124
X-0.783 Y-0.32
X-0.754 Y-0.514
X-0.713 Y-0.707
X-0.658 Y-0.895
X-0.59 Y-1.08
X-0.51 Y-1.26
X-0.417 Y-1.433
X-0.313 Y-1.6
X-0.197 Y-1.759
X-0.07 Y-1.91
X0.066 Y-2.052
X0.213 Y-2.184
X0.368 Y-2.306
X0.531 Y-2.416
X0.702 Y-2.515
X0.879 Y-2.603
X1.062 Y-2.677
X1.249 Y-2.739
X1.441 Y-2.788
X1.635 Y-2.823
X1.832 Y-2.845
X2.029 Y-2.853
X2.227 Y-2.848
X2.424 Y-2.829
X2.619 Y-2.796
X2.811 Y-2.75
X3 Y-2.69
X3.184 Y-2.618
X3.362 Y-2.533
X3.535 Y-2.436
X3.7 Y-2.327
X3.858 Y-2.206
X4.012 Y-2.071
X4.16 Y-1.922
X4.306 Y-1.753
X4.452 Y-1.558
X4.589 Y-1.345
X4.711 Y-1.124
X4.816 Y-0.897
X4.904 Y-0.666
X4.975 Y-0.436
X5.028 Y-0.205
X5.064 Y0.025
X5.084 Y0.251
X5.088 Y0.475
X5.077 Y0.696
X5.051 Y0.912
X5.01 Y1.124
X4.956 Y1.331
X4.887 Y1.533
X4.805 Y1.729
X4.709 Y1.919
X4.601 Y2.102
X4.479 Y2.278
X4.346 Y2.445
X4.201 Y2.603
X4.044 Y2.751
X3.877 Y2.889
X3.698 Y3.016
X3.511 Y3.131
X3.314 Y3.234
X3.11 Y3.323
X2.898 Y3.398
X2.68 Y3.459
X2.457 Y3.506
X2.229 Y3.536
X1.997 Y3.552
X1.764 Y3.551
X1.53 Y3.533
X1.296 Y3.5
X1.064 Y3.45
X0.835 Y3.384
X0.61 Y3.301
X0.39 Y3.203
X0.176 Y3.09
X-0.03 Y2.961
X-0.227 Y2.818
X-0.415 Y2.661
X-0.592 Y2.491
X-0.757 Y2.308
X-0.91 Y2.114
X-1.049 Y1.909
X-1.174 Y1.694
X-1.284 Y1.471
X-1.379 Y1.24
X-1.458 Y1.003
X-1.52 Y0.76
X-1.565 Y0.513
X-1.593 Y0.264
X-1.604 Y0.013
X-1.597 Y-0.238
X-1.573 Y-0.489
X-1.531 Y-0.737
X-1.473 Y-0.982
X-1.397 Y-1.223
X-1.305 Y-1.458
X-1.197 Y-1.686
X-1.074 Y-1.906
X-0.935 Y-2.117
X-0.782 Y-2.318
X-0.616 Y-2.508
X-0.436 Y-2.686
X-0.245 Y-2.851
X-0.043 Y-3.003
X0.17 Y-3.141
X0.391 Y-3.263
X0.621 Y-3.37
X0.857 Y-3.461
X1.1 Y-3.535
X1.347 Y-3.592
X1.597 Y-3.632
X1.849 Y-3.655
X2.103 Y-3.66
X2.356 Y-3.647
X2.608 Y-3.617
X2.857 Y-3.57
X3.102 Y-3.505
X3.343 Y-3.424
X3.578 Y-3.326
X3.807 Y-3.211
X4.031 Y-3.078
X4.249 Y-2.928
X4.46 Y-2.76
X4.665 Y-2.572
X4.861 Y-2.366
X5.045 Y-2.142
X5.216 Y-1.904
X5.37 Y-1.653
X5.506 Y-1.392
X5.624 Y-1.124
X5.722 Y-0.849
X5.801 Y-0.571
X5.859 Y-0.29
X5.898 Y-0.008
X5.916 Y0.274
Y0.49
X5.915 Y0.525
X5.913 Y0.559
X5.909 Y0.593
X5.87 Y0.901
X5.857 Y0.983
X5.83 Y1.065
X5.505 Y1.884
X5.49 Y1.916
X5.398 Y2.048
X4.921 Y2.704
X4.902 Y2.726
X4.878 Y2.749
X4.179 Y3.327
X4.137 Y3.359
X4.015 Y3.42
X3.278 Y3.767
X3.237 Y3.784
X3.196 Y3.795
X2.294 Y3.968
X2.253 Y3.973
X2.212 Y3.974
X1.311 Y3.917
X1.27 Y3.913
X1.229 Y3.905
X0.328 Y3.612
X0.287 Y3.593
X0.246 Y3.568
X-0.492 Y3.1
X-0.533 Y3.072
X-0.576 Y3.032
X-1.191 Y2.376
X-1.229 Y2.328
X-1.294 Y2.212
X-1.655 Y1.557
X-1.695 Y1.48
X-1.721 Y1.403
X-1.934 Y0.574
X-1.951 Y0.492
X-1.953 Y0.41
Y-0.41
X-1.951 Y-0.492
X-1.934 Y-0.574
X-1.721 Y-1.403
X-1.695 Y-1.48
X-1.655 Y-1.557
X-1.294 Y-2.212
X-1.229 Y-2.328
X-1.191 Y-2.376
X-0.574 Y-3.034
X-0.533 Y-3.072
X-0.492 Y-3.1
X0.246 Y-3.568
X0.287 Y-3.593
X0.328 Y-3.612
X1.229 Y-3.905
X1.27 Y-3.913
X1.311 Y-3.917
X2.212 Y-3.974
X2.253 Y-3.973
X2.294 Y-3.968
X3.196 Y-3.795
X3.237 Y-3.784
X3.278 Y-3.767
X4.015 Y-3.42
X4.137 Y-3.359
X4.179 Y-3.327
X4.878 Y-2.749
X4.902 Y-2.726
X4.921 Y-2.704
X5.398 Y-2.048
X5.49 Y-1.916
X5.505 Y-1.884
X5.83 Y-1.065
X5.857 Y-0.983
X5.87 Y-0.901
X5.974 Y-0.082
X5.982 Y0
X5.974 Y0.082
X5.909 Y0.593
G3 X5.413 Y0.768 I-0.296 J-0.048
G1 X5.384 Y0.724 Z-4.995
X5.355 Y0.681 Z-4.981
X5.329 Y0.641 Z-4.958
X5.32 Y0.588 Z-4.916
X5.313 Y0.545 Z-4.863
X5.314 Y0.523 Z-4.824
X5.315 Y0.508 Z-4.781
X5.317 Y0.499 Z-4.741
Y0.497 Z-4.7
G0 Z1.001
X2.467 Y1.362
Z-4.2
G1 Z-4.5 F1000
G3 X1.63 Y-1.362 Z-4.656 I-0.419 J-1.362 F333.3
X2.467 Y1.362 Z-4.813 I0.419 J1.362
X1.63 Y-1.362 Z-4.969 I-0.419 J-1.362
X2.467 Y1.362 Z-5.125 I0.419 J1.362
X1.63 Y-1.362 Z-5.282 I-0.419 J-1.362
X2.467 Y1.362 Z-5.438 I0.419 J1.362
X1.63 Y-1.362 Z-5.594 I-0.419 J-1.362
X2.467 Y1.362 Z-5.751 I0.419 J1.362
X1.63 Y-1.362 Z-5.907 I-0.419 J-1.362
X3.474 Y0 Z-6 I0.419 J1.362
X0.624 I-1.425
X3.474 I1.425
G1 X3.513 Y0.811 F1000
X3.502 Y0.961
X3.465 Y1.106
X3.407 Y1.245
X3.331 Y1.374
X3.241 Y1.494
X3.138 Y1.603
X3.025 Y1.701
X2.902 Y1.787
X2.771 Y1.862
X2.635 Y1.924
X2.494 Y1.974
X2.348 Y2.012
X2.201 Y2.037
X2.051 Y2.051
X1.901 Y2.052
X1.752 Y2.042
X1.603 Y2.02
X1.457 Y1.987
X1.314 Y1.942
X1.174 Y1.887
X1.039 Y1.822
X0.909 Y1.747
X0.786 Y1.662
X0.668 Y1.568
X0.558 Y1.466
X0.456 Y1.357
X0.362 Y1.24
X0.276 Y1.117
X0.2 Y0.987
X0.134 Y0.853
X0.077 Y0.714
X0.03 Y0.572
X-0.006 Y0.426
X-0.032 Y0.278
X-0.047 Y0.129
X-0.051 Y-0.021
X-0.044 Y-0.171
X-0.027 Y-0.32
X0.001 Y-0.467
X0.039 Y-0.612
X0.088 Y-0.754
X0.147 Y-0.892
X0.215 Y-1.026
X0.293 Y-1.154
X0.38 Y-1.276
X0.475 Y-1.392
X0.578 Y-1.501
X0.689 Y-1.602
X0.807 Y-1.695
X0.931 Y-1.779
X1.06 Y-1.855
X1.195 Y-1.92
X1.334 Y-1.976
X1.477 Y-2.022
X1.623 Y-2.058
X1.771 Y-2.083
X1.92 Y-2.098
X2.07 Y-2.102
X2.22 Y-2.095
X2.369 Y-2.077
X2.516 Y-2.049
X2.661 Y-2.01
X2.803 Y-1.962
X2.941 Y-1.903
X3.074 Y-1.834
X3.203 Y-1.757
X3.325 Y-1.67
X3.441 Y-1.574
X3.55 Y-1.471
X3.651 Y-1.36
X3.744 Y-1.243
X3.828 Y-1.119
X3.907 Y-0.983
X3.994 Y-0.805
X4.088 Y-0.574
X4.175 Y-0.31
X4.234 Y-0.077
X4.269 Y0.116
X4.289 Y0.299
X4.296 Y0.474
X4.292 Y0.633
X4.276 Y0.794
X4.25 Y0.95
X4.214 Y1.095
X4.168 Y1.243
X4.111 Y1.386
X4.047 Y1.521
X3.972 Y1.654
X3.886 Y1.785
X3.792 Y1.908
X3.69 Y2.023
X3.577 Y2.135
X3.454 Y2.24
X3.324 Y2.338
X3.188 Y2.425
X3.044 Y2.504
X2.892 Y2.575
X2.732 Y2.635
X2.567 Y2.686
X2.398 Y2.724
X2.226 Y2.751
X2.051 Y2.767
X1.873 Y2.77
X1.693 Y2.76
X1.512 Y2.738
X1.332 Y2.704
X1.153 Y2.656
X0.976 Y2.596
X0.804 Y2.523
X0.637 Y2.439
X0.475 Y2.343
X0.32 Y2.235
X0.172 Y2.116
X0.031 Y1.987
X-0.1 Y1.848
X-0.222 Y1.699
X-0.334 Y1.542
X-0.435 Y1.377
X-0.525 Y1.204
X-0.603 Y1.026
X-0.668 Y0.842
X-0.72 Y0.654
X-0.76 Y0.462
X-0.786 Y0.268
X-0.798 Y0.072
X-0.797 Y-0.124
X-0.783 Y-0.32
X-0.754 Y-0.514
X-0.713 Y-0.707
X-0.658 Y-0.895
X-0.59 Y-1.08
X-0.51 Y-1.26
X-0.417 Y-1.433
X-0.313 Y-1.6
X-0.197 Y-1.759
X-0.07 Y-1.91
X0.066 Y-2.052
X0.213 Y-2.184
X0.368 Y-2.306
X0.531 Y-2.416
X0.702 Y-2.515
X0.879 Y-2.603
X1.062 Y-2.677
X1.249 Y-2.739
X1.441 Y-2.788
X1.635 Y-2.823
X1.832 Y-2.845
X2.029 Y-2.853
X2.227 Y-2.848
X2.424 Y-2.829
X2.619 Y-2.796
X2.811 Y-2.75
X3 Y-2.69
X3.184 Y-2.618
X3.362 Y-2.533
X3.535 Y-2.436
X3.7 Y-2.327
X3.858 Y-2.206
X4.012 Y-2.071
X4.16 Y-1.922
X4.306 Y-1.753
X4.452 Y-1.558
X4.589 Y-1.345
X4.711 Y-1.124
X4.816 Y-0.897
X4.904 Y-0.666
X4.975 Y-0.436
X5.028 Y-0.205
X5.064 Y0.025
X5.084 Y0.251
X5.088 Y0.475
X5.077 Y0.696
X5.051 Y0.912
X5.01 Y1.124
X4.956 Y1.331
X4.887 Y1.533
X4.805 Y1.729
X4.709 Y1.919
X4.601 Y2.102
X4.479 Y2.278
X4.346 Y2.445
X4.201 Y2.603
X4.044 Y2.751
X3.877 Y2.889
X3.698 Y3.016
X3.511 Y3.131
X3.314 Y3.234
X3.11 Y3.323
X2.898 Y3.398
X2.68 Y3.459
X2.457 Y3.506
X2.229 Y3.536
X1.997 Y3.552
X1.764 Y3.551
X1.53 Y3.533
X1.296 Y3.5
X1.064 Y3.45
X0.835 Y3.384
X0.61 Y3.301
X0.39 Y3.203
X0.176 Y3.09
X-0.03 Y2.961
X-0.227 Y2.818
X-0.415 Y2.661
X-0.592 Y2.491
X-0.757 Y2.308
X-0.91 Y2.114
X-1.049 Y1.909
X-1.174 Y1.694
X-1.284 Y1.471
X-1.379 Y1.24
X-1.458 Y1.003
X-1.52 Y0.76
X-1.565 Y0.513
X-1.593 Y0.264
X-1.604 Y0.013
X-1.597 Y-0.238
X-1.573 Y-0.489
X-1.531 Y-0.737
X-1.473 Y-0.982
X-1.397 Y-1.223
X-1.305 Y-1.458
X-1.197 Y-1.686
X-1.074 Y-1.906
X-0.935 Y-2.117
X-0.782 Y-2.318
X-0.616 Y-2.508
X-0.436 Y-2.686
X-0.245 Y-2.851
X-0.043 Y-3.003
X0.17 Y-3.141
X0.391 Y-3.263
X0.621 Y-3.37
X0.857 Y-3.461
X1.1 Y-3.535
X1.347 Y-3.592
X1.597 Y-3.632
X1.849 Y-3.655
X2.103 Y-3.66
X2.356 Y-3.647
X2.608 Y-3.617
X2.857 Y-3.57
X3.102 Y-3.505
X3.343 Y-3.424
X3.578 Y-3.326
X3.807 Y-3.211
X4.031 Y-3.078
X4.249 Y-2.928
X4.46 Y-2.76
X4.665 Y-2.572
X4.861 Y-2.366
X5.045 Y-2.142
X5.216 Y-1.904
X5.37 Y-1.653
X5.506 Y-1.392
X5.624 Y-1.124
X5.722 Y-0.849
X5.801 Y-0.571
X5.859 Y-0.29
X5.898 Y-0.008
X5.916 Y0.274
Y0.49
X5.915 Y0.525
X5.913 Y0.559
X5.909 Y0.593
X5.87 Y0.901
X5.857 Y0.983
X5.83 Y1.065
X5.505 Y1.884
X5.49 Y1.916
X5.398 Y2.048
X4.921 Y2.704
X4.902 Y2.726
X4.878 Y2.749
X4.179 Y3.327
X4.137 Y3.359
X4.015 Y3.42
X3.278 Y3.767
X3.237 Y3.784
X3.196 Y3.795
X2.294 Y3.968
X2.253 Y3.973
X2.212 Y3.974
X1.311 Y3.917
X1.27 Y3.913
X1.229 Y3.905
X0.328 Y3.612
X0.287 Y3.593
X0.246 Y3.568
X-0.492 Y3.1
X-0.533 Y3.072
X-0.576 Y3.032
X-1.191 Y2.376
X-1.229 Y2.328
X-1.294 Y2.212
X-1.655 Y1.557
X-1.695 Y1.48
X-1.721 Y1.403
X-1.934 Y0.574
X-1.951 Y0.492
X-1.953 Y0.41
Y-0.41
X-1.951 Y-0.492
X-1.934 Y-0.574
X-1.721 Y-1.403
X-1.695 Y-1.48
X-1.655 Y-1.557
X-1.294 Y-2.212
X-1.229 Y-2.328
X-1.191 Y-2.376
X-0.574 Y-3.034
X-0.533 Y-3.072
X-0.492 Y-3.1
X0.246 Y-3.568
X0.287 Y-3.593
X0.328 Y-3.612
X1.229 Y-3.905
X1.27 Y-3.913
X1.311 Y-3.917
X2.212 Y-3.974
X2.253 Y-3.973
X2.294 Y-3.968
X3.196 Y-3.795
X3.237 Y-3.784
X3.278 Y-3.767
X4.015 Y-3.42
X4.137 Y-3.359
X4.179 Y-3.327
X4.878 Y-2.749
X4.902 Y-2.726
X4.921 Y-2.704
X5.398 Y-2.048
X5.49 Y-1.916
X5.505 Y-1.884
X5.83 Y-1.065
X5.857 Y-0.983
X5.87 Y-0.901
X5.974 Y-0.082
X5.982 Y0
X5.974 Y0.082
X5.909 Y0.593
G3 X5.413 Y0.768 I-0.296 J-0.048
G1 X5.384 Y0.724 Z-5.995
X5.355 Y0.681 Z-5.981
X5.329 Y0.641 Z-5.958
X5.32 Y0.588 Z-5.916
X5.313 Y0.545 Z-5.863
X5.314 Y0.523 Z-5.824
X5.315 Y0.508 Z-5.781
X5.317 Y0.499 Z-5.741
Y0.497 Z-5.7
G0 Z1.001
X2.467 Y1.362
Z-5.2
G1 Z-5.5 F1000
G3 X1.63 Y-1.362 Z-5.656 I-0.419 J-1.362 F333.3
X2.467 Y1.362 Z-5.813 I0.419 J1.362
X1.63 Y-1.362 Z-5.969 I-0.419 J-1.362
X2.467 Y1.362 Z-6.125 I0.419 J1.362
X1.63 Y-1.362 Z-6.282 I-0.419 J-1.362
X2.467 Y1.362 Z-6.438 I0.419 J1.362
X1.63 Y-1.362 Z-6.594 I-0.419 J-1.362
X2.467 Y1.362 Z-6.751 I0.419 J1.362
X1.63 Y-1.362 Z-6.907 I-0.419 J-1.362
X3.474 Y0 Z-7 I0.419 J1.362
X0.624 I-1.425
X3.474 I1.425
G1 X3.513 Y0.811 F1000
X3.502 Y0.961
X3.465 Y1.106
X3.407 Y1.245
X3.331 Y1.374
X3.241 Y1.494
X3.138 Y1.603
X3.025 Y1.701
X2.902 Y1.787
X2.771 Y1.862
X2.635 Y1.924
X2.494 Y1.974
X2.348 Y2.012
X2.201 Y2.037
X2.051 Y2.051
X1.901 Y2.052
X1.752 Y2.042
X1.603 Y2.02
X1.457 Y1.987
X1.314 Y1.942
X1.174 Y1.887
X1.039 Y1.822
X0.909 Y1.747
X0.786 Y1.662
X0.668 Y1.568
X0.558 Y1.466
X0.456 Y1.357
X0.362 Y1.24
X0.276 Y1.117
X0.2 Y0.987
X0.134 Y0.853
X0.077 Y0.714
X0.03 Y0.572
X-0.006 Y0.426
X-0.032 Y0.278
X-0.047 Y0.129
X-0.051 Y-0.021
X-0.044 Y-0.171
X-0.027 Y-0.32
X0.001 Y-0.467
X0.039 Y-0.612
X0.088 Y-0.754
X0.147 Y-0.892
X0.215 Y-1.026
X0.293 Y-1.154
X0.38 Y-1.276
X0.475 Y-1.392
X0.578 Y-1.501
X0.689 Y-1.602
X0.807 Y-1.695
X0.931 Y-1.779
X1.06 Y-1.855
X1.195 Y-1.92
X1.334 Y-1.976
X1.477 Y-2.022
X1.623 Y-2.058
X1.771 Y-2.083
X1.92 Y-2.098
X2.07 Y-2.102
X2.22 Y-2.095
X2.369 Y-2.077
X2.516 Y-2.049
X2.661 Y-2.01
X2.803 Y-1.962
X2.941 Y-1.903
X3.074 Y-1.834
X3.203 Y-1.757
X3.325 Y-1.67
X3.441 Y-1.574
X3.55 Y-1.471
X3.651 Y-1.36
X3.744 Y-1.243
X3.828 Y-1.119
X3.907 Y-0.983
X3.994 Y-0.805
X4.088 Y-0.574
X4.175 Y-0.31
X4.234 Y-0.077
X4.269 Y0.116
X4.289 Y0.299
X4.296 Y0.474
X4.292 Y0.633
X4.276 Y0.794
X4.25 Y0.95
X4.214 Y1.095
X4.168 Y1.243
X4.111 Y1.386
X4.047 Y1.521
X3.972 Y1.654
X3.886 Y1.785
X3.792 Y1.908
X3.69 Y2.023
X3.577 Y2.135
X3.454 Y2.24
X3.324 Y2.338
X3.188 Y2.425
X3.044 Y2.504
X2.892 Y2.575
X2.732 Y2.635
X2.567 Y2.686
X2.398 Y2.724
X2.226 Y2.751
X2.051 Y2.767
X1.873 Y2.77
X1.693 Y2.76
X1.512 Y2.738
X1.332 Y2.704
X1.153 Y2.656
X0.976 Y2.596
X0.804 Y2.523
X0.637 Y2.439
X0.475 Y2.343
X0.32 Y2.235
X0.172 Y2.116
X0.031 Y1.987
X-0.1 Y1.848
X-0.222 Y1.699
X-0.334 Y1.542
X-0.435 Y1.377
X-0.525 Y1.204
X-0.603 Y1.026
X-0.668 Y0.842
X-0.72 Y0.654
X-0.76 Y0.462
X-0.786 Y0.268
X-0.798 Y0.072
X-0.797 Y-0.124
X-0.783 Y-0.32
X-0.754 Y-0.514
X-0.713 Y-0.707
X-0.658 Y-0.895
X-0.59 Y-1.08
X-0.51 Y-1.26
X-0.417 Y-1.433
X-0.313 Y-1.6
X-0.197 Y-1.759
X-0.07 Y-1.91
X0.066 Y-2.052
X0.213 Y-2.184
X0.368 Y-2.306
X0.531 Y-2.416
X0.702 Y-2.515
X0.879 Y-2.603
X1.062 Y-2.677
X1.249 Y-2.739
X1.441 Y-2.788
X1.635 Y-2.823
X1.832 Y-2.845
X2.029 Y-2.853
X2.227 Y-2.848
X2.424 Y-2.829
X2.619 Y-2.796
X2.811 Y-2.75
X3 Y-2.69
X3.184 Y-2.618
X3.362 Y-2.533
X3.535 Y-2.436
X3.7 Y-2.327
X3.858 Y-2.206
X4.012 Y-2.071
X4.16 Y-1.922
X4.306 Y-1.753
X4.452 Y-1.558
X4.589 Y-1.345
X4.711 Y-1.124
X4.816 Y-0.897
X4.904 Y-0.666
X4.975 Y-0.436
X5.028 Y-0.205
X5.064 Y0.025
X5.084 Y0.251
X5.088 Y0.475
X5.077 Y0.696
X5.051 Y0.912
X5.01 Y1.124
X4.956 Y1.331
X4.887 Y1.533
X4.805 Y1.729
X4.709 Y1.919
X4.601 Y2.102
X4.479 Y2.278
X4.346 Y2.445
X4.201 Y2.603
X4.044 Y2.751
X3.877 Y2.889
X3.698 Y3.016
X3.511 Y3.131
X3.314 Y3.234
X3.11 Y3.323
X2.898 Y3.398
X2.68 Y3.459
X2.457 Y3.506
X2.229 Y3.536
X1.997 Y3.552
X1.764 Y3.551
X1.53 Y3.533
X1.296 Y3.5
X1.064 Y3.45
X0.835 Y3.384
X0.61 Y3.301
X0.39 Y3.203
X0.176 Y3.09
X-0.03 Y2.961
X-0.227 Y2.818
X-0.415 Y2.661
X-0.592 Y2.491
X-0.757 Y2.308
X-0.91 Y2.114
X-1.049 Y1.909
X-1.174 Y1.694
X-1.284 Y1.471
X-1.379 Y1.24
X-1.458 Y1.003
X-1.52 Y0.76
X-1.565 Y0.513
X-1.593 Y0.264
X-1.604 Y0.013
X-1.597 Y-0.238
X-1.573 Y-0.489
X-1.531 Y-0.737
X-1.473 Y-0.982
X-1.397 Y-1.223
X-1.305 Y-1.458
X-1.197 Y-1.686
X-1.074 Y-1.906
X-0.935 Y-2.117
X-0.782 Y-2.318
X-0.616 Y-2.508
X-0.436 Y-2.686
X-0.245 Y-2.851
X-0.043 Y-3.003
X0.17 Y-3.141
X0.391 Y-3.263
X0.621 Y-3.37
X0.857 Y-3.461
X1.1 Y-3.535
X1.347 Y-3.592
X1.597 Y-3.632
X1.849 Y-3.655
X2.103 Y-3.66
X2.356 Y-3.647
X2.608 Y-3.617
X2.857 Y-3.57
X3.102 Y-3.505
X3.343 Y-3.424
X3.578 Y-3.326
X3.807 Y-3.211
X4.031 Y-3.078
X4.249 Y-2.928
X4.46 Y-2.76
X4.665 Y-2.572
X4.861 Y-2.366
X5.045 Y-2.142
X5.216 Y-1.904
X5.37 Y-1.653
X5.506 Y-1.392
X5.624 Y-1.124
X5.722 Y-0.849
X5.801 Y-0.571
X5.859 Y-0.29
X5.898 Y-0.008
X5.916 Y0.274
Y0.49
X5.915 Y0.525
X5.913 Y0.559
X5.909 Y0.593
X5.87 Y0.901
X5.857 Y0.983
X5.83 Y1.065
X5.505 Y1.884
X5.49 Y1.916
X5.398 Y2.048
X4.921 Y2.704
X4.902 Y2.726
X4.878 Y2.749
X4.179 Y3.327
X4.137 Y3.359
X4.015 Y3.42
X3.278 Y3.767
X3.237 Y3.784
X3.196 Y3.795
X2.294 Y3.968
X2.253 Y3.973
X2.212 Y3.974
X1.311 Y3.917
X1.27 Y3.913
X1.229 Y3.905
X0.328 Y3.612
X0.287 Y3.593
X0.246 Y3.568
X-0.492 Y3.1
X-0.533 Y3.072
X-0.576 Y3.032
X-1.191 Y2.376
X-1.229 Y2.328
X-1.294 Y2.212
X-1.655 Y1.557
X-1.695 Y1.48
X-1.721 Y1.403
X-1.934 Y0.574
X-1.951 Y0.492
X-1.953 Y0.41
Y-0.41
X-1.951 Y-0.492
X-1.934 Y-0.574
X-1.721 Y-1.403
X-1.695 Y-1.48
X-1.655 Y-1.557
X-1.294 Y-2.212
X-1.229 Y-2.328
X-1.191 Y-2.376
X-0.574 Y-3.034
X-0.533 Y-3.072
X-0.492 Y-3.1
X0.246 Y-3.568
X0.287 Y-3.593
X0.328 Y-3.612
X1.229 Y-3.905
X1.27 Y-3.913
X1.311 Y-3.917
X2.212 Y-3.974
X2.253 Y-3.973
X2.294 Y-3.968
X3.196 Y-3.795
X3.237 Y-3.784
X3.278 Y-3.767
X4.015 Y-3.42
X4.137 Y-3.359
X4.179 Y-3.327
X4.878 Y-2.749
X4.902 Y-2.726
X4.921 Y-2.704
X5.398 Y-2.048
X5.49 Y-1.916
X5.505 Y-1.884
X5.83 Y-1.065
X5.857 Y-0.983
X5.87 Y-0.901
X5.974 Y-0.082
X5.982 Y0
X5.974 Y0.082
X5.909 Y0.593
G3 X5.413 Y0.768 I-0.296 J-0.048
G1 X5.384 Y0.724 Z-6.995
X5.355 Y0.681 Z-6.981
X5.329 Y0.641 Z-6.958
X5.32 Y0.588 Z-6.916
X5.313 Y0.545 Z-6.863
X5.314 Y0.523 Z-6.824
X5.315 Y0.508 Z-6.781
X5.317 Y0.499 Z-6.741
Y0.497 Z-6.7
G0 Z1.001
X2.467 Y1.362
Z-6.2
G1 Z-6.5 F1000
G3 X1.63 Y-1.362 Z-6.656 I-0.419 J-1.362 F333.3
X2.467 Y1.362 Z-6.813 I0.419 J1.362
X1.63 Y-1.362 Z-6.969 I-0.419 J-1.362
X2.467 Y1.362 Z-7.125 I0.419 J1.362
X1.63 Y-1.362 Z-7.282 I-0.419 J-1.362
X2.467 Y1.362 Z-7.438 I0.419 J1.362
X1.63 Y-1.362 Z-7.594 I-0.419 J-1.362
X2.467 Y1.362 Z-7.751 I0.419 J1.362
X1.63 Y-1.362 Z-7.907 I-0.419 J-1.362
X3.474 Y0 Z-8 I0.419 J1.362
X0.624 I-1.425
X3.474 I1.425
G1 X3.513 Y0.811 F1000
X3.502 Y0.961
X3.465 Y1.106
X3.407 Y1.245
X3.331 Y1.374
X3.241 Y1.494
X3.138 Y1.603
X3.025 Y1.701
X2.902 Y1.787
X2.771 Y1.862
X2.635 Y1.924
X2.494 Y1.974
X2.348 Y2.012
X2.201 Y2.037
X2.051 Y2.051
X1.901 Y2.052
X1.752 Y2.042
X1.603 Y2.02
X1.457 Y1.987
X1.314 Y1.942
X1.174 Y1.887
X1.039 Y1.822
X0.909 Y1.747
X0.786 Y1.662
X0.668 Y1.568
X0.558 Y1.466
X0.456 Y1.357
X0.362 Y1.24
X0.276 Y1.117
X0.2 Y0.987
X0.134 Y0.853
X0.077 Y0.714
X0.03 Y0.572
X-0.006 Y0.426
X-0.032 Y0.278
X-0.047 Y0.129
X-0.051 Y-0.021
X-0.044 Y-0.171
X-0.027 Y-0.32
X0.001 Y-0.467
X0.039 Y-0.612
X0.088 Y-0.754
X0.147 Y-0.892
X0.215 Y-1.026
X0.293 Y-1.154
X0.38 Y-1.276
X0.475 Y-1.392
X0.578 Y-1.501
X0.689 Y-1.602
X0.807 Y-1.695
X0.931 Y-1.779
X1.06 Y-1.855
X1.195 Y-1.92
X1.334 Y-1.976
X1.477 Y-2.022
X1.623 Y-2.058
X1.771 Y-2.083
X1.92 Y-2.098
X2.07 Y-2.102
X2.22 Y-2.095
X2.369 Y-2.077
X2.516 Y-2.049
X2.661 Y-2.01
X2.803 Y-1.962
X2.941 Y-1.903
X3.074 Y-1.834
X3.203 Y-1.757
X3.325 Y-1.67
X3.441 Y-1.574
X3.55 Y-1.471
X3.651 Y-1.36
X3.744 Y-1.243
X3.828 Y-1.119
X3.907 Y-0.983
X3.994 Y-0.805
X4.088 Y-0.574
X4.175 Y-0.31
X4.234 Y-0.077
X4.269 Y0.116
X4.289 Y0.299
X4.296 Y0.474
X4.292 Y0.633
X4.276 Y0.794
X4.25 Y0.95
X4.214 Y1.095
X4.168 Y1.243
X4.111 Y1.386
X4.047 Y1.521
X3.972 Y1.654
X3.886 Y1.785
X3.792 Y1.908
X3.69 Y2.023
X3.577 Y2.135
X3.454 Y2.24
X3.324 Y2.338
X3.188 Y2.425
X3.044 Y2.504
X2.892 Y2.575
X2.732 Y2.635
X2.567 Y2.686
X2.398 Y2.724
X2.226 Y2.751
X2.051 Y2.767
X1.873 Y2.77
X1.693 Y2.76
X1.512 Y2.738
X1.332 Y2.704
X1.153 Y2.656
X0.976 Y2.596
X0.804 Y2.523
X0.637 Y2.439
X0.475 Y2.343
X0.32 Y2.235
X0.172 Y2.116
X0.031 Y1.987
X-0.1 Y1.848
X-0.222 Y1.699
X-0.334 Y1.542
X-0.435 Y1.377
X-0.525 Y1.204
X-0.603 Y1.026
X-0.668 Y0.842
X-0.72 Y0.654
X-0.76 Y0.462
X-0.786 Y0.268
X-0.798 Y0.072
X-0.797 Y-0.124
X-0.783 Y-0.32
X-0.754 Y-0.514
X-0.713 Y-0.707
X-0.658 Y-0.895
X-0.59 Y-1.08
X-0.51 Y-1.26
X-0.417 Y-1.433
X-0.313 Y-1.6
X-0.197 Y-1.759
X-0.07 Y-1.91
X0.066 Y-2.052
X0.213 Y-2.184
X0.368 Y-2.306
X0.531 Y-2.416
X0.702 Y-2.515
X0.879 Y-2.603
X1.062 Y-2.677
X1.249 Y-2.739
X1.441 Y-2.788
X1.635 Y-2.823
X1.832 Y-2.845
X2.029 Y-2.853
X2.227 Y-2.848
X2.424 Y-2.829
X2.619 Y-2.796
X2.811 Y-2.75
X3 Y-2.69
X3.184 Y-2.618
X3.362 Y-2.533
X3.535 Y-2.436
X3.7 Y-2.327
X3.858 Y-2.206
X4.012 Y-2.071
X4.16 Y-1.922
X4.306 Y-1.753
X4.452 Y-1.558
X4.589 Y-1.345
X4.711 Y-1.124
X4.816 Y-0.897
X4.904 Y-0.666
X4.975 Y-0.436
X5.028 Y-0.205
X5.064 Y0.025
X5.084 Y0.251
X5.088 Y0.475
X5.077 Y0.696
X5.051 Y0.912
X5.01 Y1.124
X4.956 Y1.331
X4.887 Y1.533
X4.805 Y1.729
X4.709 Y1.919
X4.601 Y2.102
X4.479 Y2.278
X4.346 Y2.445
X4.201 Y2.603
X4.044 Y2.751
X3.877 Y2.889
X3.698 Y3.016
X3.511 Y3.131
X3.314 Y3.234
X3.11 Y3.323
X2.898 Y3.398
X2.68 Y3.459
X2.457 Y3.506
X2.229 Y3.536
X1.997 Y3.552
X1.764 Y3.551
X1.53 Y3.533
X1.296 Y3.5
X1.064 Y3.45
X0.835 Y3.384
X0.61 Y3.301
X0.39 Y3.203
X0.176 Y3.09
X-0.03 Y2.961
X-0.227 Y2.818
X-0.415 Y2.661
X-0.592 Y2.491
X-0.757 Y2.308
X-0.91 Y2.114
X-1.049 Y1.909
X-1.174 Y1.694
X-1.284 Y1.471
X-1.379 Y1.24
X-1.458 Y1.003
X-1.52 Y0.76
X-1.565 Y0.513
X-1.593 Y0.264
X-1.604 Y0.013
X-1.597 Y-0.238
X-1.573 Y-0.489
X-1.531 Y-0.737
X-1.473 Y-0.982
X-1.397 Y-1.223
X-1.305 Y-1.458
X-1.197 Y-1.686
X-1.074 Y-1.906
X-0.935 Y-2.117
X-0.782 Y-2.318
X-0.616 Y-2.508
X-0.436 Y-2.686
X-0.245 Y-2.851
X-0.043 Y-3.003
X0.17 Y-3.141
X0.391 Y-3.263
X0.621 Y-3.37
X0.857 Y-3.461
X1.1 Y-3.535
X1.347 Y-3.592
X1.597 Y-3.632
X1.849 Y-3.655
X2.103 Y-3.66
X2.356 Y-3.647
X2.608 Y-3.617
X2.857 Y-3.57
X3.102 Y-3.505
X3.343 Y-3.424
X3.578 Y-3.326
X3.807 Y-3.211
X4.031 Y-3.078
X4.249 Y-2.928
X4.46 Y-2.76
X4.665 Y-2.572
X4.861 Y-2.366
X5.045 Y-2.142
X5.216 Y-1.904
X5.37 Y-1.653
X5.506 Y-1.392
X5.624 Y-1.124
X5.722 Y-0.849
X5.801 Y-0.571
X5.859 Y-0.29
X5.898 Y-0.008
X5.916 Y0.274
Y0.49
X5.915 Y0.525
X5.913 Y0.559
X5.909 Y0.593
X5.87 Y0.901
X5.857 Y0.983
X5.83 Y1.065
X5.505 Y1.884
X5.49 Y1.916
X5.398 Y2.048
X4.921 Y2.704
X4.902 Y2.726
X4.878 Y2.749
X4.179 Y3.327
X4.137 Y3.359
X4.015 Y3.42
X3.278 Y3.767
X3.237 Y3.784
X3.196 Y3.795
X2.294 Y3.968
X2.253 Y3.973
X2.212 Y3.974
X1.311 Y3.917
X1.27 Y3.913
X1.229 Y3.905
X0.328 Y3.612
X0.287 Y3.593
X0.246 Y3.568
X-0.492 Y3.1
X-0.533 Y3.072
X-0.576 Y3.032
X-1.191 Y2.376
X-1.229 Y2.328
X-1.294 Y2.212
X-1.655 Y1.557
X-1.695 Y1.48
X-1.721 Y1.403
X-1.934 Y0.574
X-1.951 Y0.492
X-1.953 Y0.41
Y-0.41
X-1.951 Y-0.492
X-1.934 Y-0.574
X-1.721 Y-1.403
X-1.695 Y-1.48
X-1.655 Y-1.557
X-1.294 Y-2.212
X-1.229 Y-2.328
X-1.191 Y-2.376
X-0.574 Y-3.034
X-0.533 Y-3.072
X-0.492 Y-3.1
X0.246 Y-3.568
X0.287 Y-3.593
X0.328 Y-3.612
X1.229 Y-3.905
X1.27 Y-3.913
X1.311 Y-3.917
X2.212 Y-3.974
X2.253 Y-3.973
X2.294 Y-3.968
X3.196 Y-3.795
X3.237 Y-3.784
X3.278 Y-3.767
X4.015 Y-3.42
X4.137 Y-3.359
X4.179 Y-3.327
X4.878 Y-2.749
X4.902 Y-2.726
X4.921 Y-2.704
X5.398 Y-2.048
X5.49 Y-1.916
X5.505 Y-1.884
X5.83 Y-1.065
X5.857 Y-0.983
X5.87 Y-0.901
X5.974 Y-0.082
X5.982 Y0
X5.974 Y0.082
X5.909 Y0.593
G3 X5.413 Y0.768 I-0.296 J-0.048
G1 X5.384 Y0.724 Z-7.995
X5.355 Y0.681 Z-7.981
X5.329 Y0.641 Z-7.958
X5.32 Y0.588 Z-7.916
X5.313 Y0.545 Z-7.863
X5.314 Y0.523 Z-7.824
X5.315 Y0.508 Z-7.781
X5.317 Y0.499 Z-7.741
Y0.497 Z-7.7
G0 Z1.001
X2.467 Y1.362
Z-7.2
G1 Z-7.5 F1000
G3 X1.63 Y-1.362 Z-7.656 I-0.419 J-1.362 F333.3
X2.467 Y1.362 Z-7.813 I0.419 J1.362
X1.63 Y-1.362 Z-7.969 I-0.419 J-1.362
X2.467 Y1.362 Z-8.125 I0.419 J1.362
X1.63 Y-1.362 Z-8.282 I-0.419 J-1.362
X2.467 Y1.362 Z-8.438 I0.419 J1.362
X1.63 Y-1.362 Z-8.594 I-0.419 J-1.362
X2.467 Y1.362 Z-8.751 I0.419 J1.362
X1.63 Y-1.362 Z-8.907 I-0.419 J-1.362
X3.474 Y0 Z-9 I0.419 J1.362
X0.624 I-1.425
X3.474 I1.425
G1 X3.513 Y0.811 F1000
X3.502 Y0.961
X3.465 Y1.106
X3.407 Y1.245
X3.331 Y1.374
X3.241 Y1.494
X3.138 Y1.603
X3.025 Y1.701
X2.902 Y1.787
X2.771 Y1.862
X2.635 Y1.924
X2.494 Y1.974
X2.348 Y2.012
X2.201 Y2.037
X2.051 Y2.051
X1.901 Y2.052
X1.752 Y2.042
X1.603 Y2.02
X1.457 Y1.987
X1.314 Y1.942
X1.174 Y1.887
X1.039 Y1.822
X0.909 Y1.747
X0.786 Y1.662
X0.668 Y1.568
X0.558 Y1.466
X0.456 Y1.357
X0.362 Y1.24
X0.276 Y1.117
X0.2 Y0.987
X0.134 Y0.853
X0.077 Y0.714
X0.03 Y0.572
X-0.006 Y0.426
X-0.032 Y0.278
X-0.047 Y0.129
X-0.051 Y-0.021
X-0.044 Y-0.171
X-0.027 Y-0.32
X0.001 Y-0.467
X0.039 Y-0.612
X0.088 Y-0.754
X0.147 Y-0.892
X0.215 Y-1.026
X0.293 Y-1.154
X0.38 Y-1.276
X0.475 Y-1.392
X0.578 Y-1.501
X0.689 Y-1.602
X0.807 Y-1.695
X0.931 Y-1.779
X1.06 Y-1.855
X1.195 Y-1.92
X1.334 Y-1.976
X1.477 Y-2.022
X1.623 Y-2.058
X1.771 Y-2.083
X1.92 Y-2.098
X2.07 Y-2.102
X2.22 Y-2.095
X2.369 Y-2.077
X2.516 Y-2.049
X2.661 Y-2.01
X2.803 Y-1.962
X2.941 Y-1.903
X3.074 Y-1.834
X3.203 Y-1.757
X3.325 Y-1.67
X3.441 Y-1.574
X3.55 Y-1.471
X3.651 Y-1.36
X3.744 Y-1.243
X3.828 Y-1.119
X3.907 Y-0.983
X3.994 Y-0.805
X4.088 Y-0.574
X4.175 Y-0.31
X4.234 Y-0.077
X4.269 Y0.116
X4.289 Y0.299
X4.296 Y0.474
X4.292 Y0.633
X4.276 Y0.794
X4.25 Y0.95
X4.214 Y1.095
X4.168 Y1.243
X4.111 Y1.386
X4.047 Y1.521
X3.972 Y1.654
X3.886 Y1.785
X3.792 Y1.908
X3.69 Y2.023
X3.577 Y2.135
X3.454 Y2.24
X3.324 Y2.338
X3.188 Y2.425
X3.044 Y2.504
X2.892 Y2.575
X2.732 Y2.635
X2.567 Y2.686
X2.398 Y2.724
X2.226 Y2.751
X2.051 Y2.767
X1.873 Y2.77
X1.693 Y2.76
X1.512 Y2.738
X1.332 Y2.704
X1.153 Y2.656
X0.976 Y2.596
X0.804 Y2.523
X0.637 Y2.439
X0.475 Y2.343
X0.32 Y2.235
X0.172 Y2.116
X0.031 Y1.987
X-0.1 Y1.848
X-0.222 Y1.699
X-0.334 Y1.542
X-0.435 Y1.377
X-0.525 Y1.204
X-0.603 Y1.026
X-0.668 Y0.842
X-0.72 Y0.654
X-0.76 Y0.462
X-0.786 Y0.268
X-0.798 Y0.072
X-0.797 Y-0.124
X-0.783 Y-0.32
X-0.754 Y-0.514
X-0.713 Y-0.707
X-0.658 Y-0.895
X-0.59 Y-1.08
X-0.51 Y-1.26
X-0.417 Y-1.433
X-0.313 Y-1.6
X-0.197 Y-1.759
X-0.07 Y-1.91
X0.066 Y-2.052
X0.213 Y-2.184
X0.368 Y-2.306
X0.531 Y-2.416
X0.702 Y-2.515
X0.879 Y-2.603
X1.062 Y-2.677
X1.249 Y-2.739
X1.441 Y-2.788
X1.635 Y-2.823
X1.832 Y-2.845
X2.029 Y-2.853
X2.227 Y-2.848
X2.424 Y-2.829
X2.619 Y-2.796
X2.811 Y-2.75
X3 Y-2.69
X3.184 Y-2.618
X3.362 Y-2.533
X3.535 Y-2.436
X3.7 Y-2.327
X3.858 Y-2.206
X4.012 Y-2.071
X4.16 Y-1.922
X4.306 Y-1.753
X4.452 Y-1.558
X4.589 Y-1.345
X4.711 Y-1.124
X4.816 Y-0.897
X4.904 Y-0.666
X4.975 Y-0.436
X5.028 Y-0.205
X5.064 Y0.025
X5.084 Y0.251
X5.088 Y0.475
X5.077 Y0.696
X5.051 Y0.912
X5.01 Y1.124
X4.956 Y1.331
X4.887 Y1.533
X4.805 Y1.729
X4.709 Y1.919
X4.601 Y2.102
X4.479 Y2.278
X4.346 Y2.445
X4.201 Y2.603
X4.044 Y2.751
X3.877 Y2.889
X3.698 Y3.016
X3.511 Y3.131
X3.314 Y3.234
X3.11 Y3.323
X2.898 Y3.398
X2.68 Y3.459
X2.457 Y3.506
X2.229 Y3.536
X1.997 Y3.552
X1.764 Y3.551
X1.53 Y3.533
X1.296 Y3.5
X1.064 Y3.45
X0.835 Y3.384
X0.61 Y3.301
X0.39 Y3.203
X0.176 Y3.09
X-0.03 Y2.961
X-0.227 Y2.818
X-0.415 Y2.661
X-0.592 Y2.491
X-0.757 Y2.308
X-0.91 Y2.114
X-1.049 Y1.909
X-1.174 Y1.694
X-1.284 Y1.471
X-1.379 Y1.24
X-1.458 Y1.003
X-1.52 Y0.76
X-1.565 Y0.513
X-1.593 Y0.264
X-1.604 Y0.013
X-1.597 Y-0.238
X-1.573 Y-0.489
X-1.531 Y-0.737
X-1.473 Y-0.982
X-1.397 Y-1.223
X-1.305 Y-1.458
X-1.197 Y-1.686
X-1.074 Y-1.906
X-0.935 Y-2.117
X-0.782 Y-2.318
X-0.616 Y-2.508
X-0.436 Y-2.686
X-0.245 Y-2.851
X-0.043 Y-3.003
X0.17 Y-3.141
X0.391 Y-3.263
X0.621 Y-3.37
X0.857 Y-3.461
X1.1 Y-3.535
X1.347 Y-3.592
X1.597 Y-3.632
X1.849 Y-3.655
X2.103 Y-3.66
X2.356 Y-3.647
X2.608 Y-3.617
X2.857 Y-3.57
X3.102 Y-3.505
X3.343 Y-3.424
X3.578 Y-3.326
X3.807 Y-3.211
X4.031 Y-3.078
X4.249 Y-2.928
X4.46 Y-2.76
X4.665 Y-2.572
X4.861 Y-2.366
X5.045 Y-2.142
X5.216 Y-1.904
X5.37 Y-1.653
X5.506 Y-1.392
X5.624 Y-1.124
X5.722 Y-0.849
X5.801 Y-0.571
X5.859 Y-0.29
X5.898 Y-0.008
X5.916 Y0.274
Y0.49
X5.915 Y0.525
X5.913 Y0.559
X5.909 Y0.593
X5.87 Y0.901
X5.857 Y0.983
X5.83 Y1.065
X5.505 Y1.884
X5.49 Y1.916
X5.398 Y2.048
X4.921 Y2.704
X4.902 Y2.726
X4.878 Y2.749
X4.179 Y3.327
X4.137 Y3.359
X4.015 Y3.42
X3.278 Y3.767
X3.237 Y3.784
X3.196 Y3.795
X2.294 Y3.968
X2.253 Y3.973
X2.212 Y3.974
X1.311 Y3.917
X1.27 Y3.913
X1.229 Y3.905
X0.328 Y3.612
X0.287 Y3.593
X0.246 Y3.568
X-0.492 Y3.1
X-0.533 Y3.072
X-0.576 Y3.032
X-1.191 Y2.376
X-1.229 Y2.328
X-1.294 Y2.212
X-1.655 Y1.557
X-1.695 Y1.48
X-1.721 Y1.403
X-1.934 Y0.574
X-1.951 Y0.492
X-1.953 Y0.41
Y-0.41
X-1.951 Y-0.492
X-1.934 Y-0.574
X-1.721 Y-1.403
X-1.695 Y-1.48
X-1.655 Y-1.557
X-1.294 Y-2.212
X-1.229 Y-2.328
X-1.191 Y-2.376
X-0.574 Y-3.034
X-0.533 Y-3.072
X-0.492 Y-3.1
X0.246 Y-3.568
X0.287 Y-3.593
X0.328 Y-3.612
X1.229 Y-3.905
X1.27 Y-3.913
X1.311 Y-3.917
X2.212 Y-3.974
X2.253 Y-3.973
X2.294 Y-3.968
X3.196 Y-3.795
X3.237 Y-3.784
X3.278 Y-3.767
X4.015 Y-3.42
X4.137 Y-3.359
X4.179 Y-3.327
X4.878 Y-2.749
X4.902 Y-2.726
X4.921 Y-2.704
X5.398 Y-2.048
X5.49 Y-1.916
X5.505 Y-1.884
X5.83 Y-1.065
X5.857 Y-0.983
X5.87 Y-0.901
X5.974 Y-0.082
X5.982 Y0
X5.974 Y0.082
X5.909 Y0.593
G3 X5.413 Y0.768 I-0.296 J-0.048
G1 X5.384 Y0.724 Z-8.995
X5.355 Y0.681 Z-8.981
X5.329 Y0.641 Z-8.958
X5.32 Y0.588 Z-8.916
X5.313 Y0.545 Z-8.863
X5.314 Y0.523 Z-8.824
X5.315 Y0.508 Z-8.781
X5.317 Y0.499 Z-8.741
Y0.497 Z-8.7
G0 Z1.001
X2.467 Y1.362
Z-8.2
G1 Z-8.5 F1000
G3 X1.63 Y-1.362 Z-8.656 I-0.419 J-1.362 F333.3
X2.467 Y1.362 Z-8.813 I0.419 J1.362
X1.63 Y-1.362 Z-8.969 I-0.419 J-1.362
X2.467 Y1.362 Z-9.125 I0.419 J1.362
X1.63 Y-1.362 Z-9.282 I-0.419 J-1.362
X2.467 Y1.362 Z-9.438 I0.419 J1.362
X1.63 Y-1.362 Z-9.594 I-0.419 J-1.362
X2.467 Y1.362 Z-9.751 I0.419 J1.362
X1.63 Y-1.362 Z-9.907 I-0.419 J-1.362
X3.474 Y0 Z-10 I0.419 J1.362
X0.624 I-1.425
X3.474 I1.425
G1 X3.513 Y0.811 F1000
X3.502 Y0.961
X3.465 Y1.106
X3.407 Y1.245
X3.331 Y1.374
X3.241 Y1.494
X3.138 Y1.603
X3.025 Y1.701
X2.902 Y1.787
X2.771 Y1.862
X2.635 Y1.924
X2.494 Y1.974
X2.348 Y2.012
X2.201 Y2.037
X2.051 Y2.051
X1.901 Y2.052
X1.752 Y2.042
X1.603 Y2.02
X1.457 Y1.987
X1.314 Y1.942
X1.174 Y1.887
X1.039 Y1.822
X0.909 Y1.747
X0.786 Y1.662
X0.668 Y1.568
X0.558 Y1.466
X0.456 Y1.357
X0.362 Y1.24
X0.276 Y1.117
X0.2 Y0.987
X0.134 Y0.853
X0.077 Y0.714
X0.03 Y0.572
X-0.006 Y0.426
X-0.032 Y0.278
X-0.047 Y0.129
X-0.051 Y-0.021
X-0.044 Y-0.171
X-0.027 Y-0.32
X0.001 Y-0.467
X0.039 Y-0.612
X0.088 Y-0.754
X0.147 Y-0.892
X0.215 Y-1.026
X0.293 Y-1.154
X0.38 Y-1.276
X0.475 Y-1.392
X0.578 Y-1.501
X0.689 Y-1.602
X0.807 Y-1.695
X0.931 Y-1.779
X1.06 Y-1.855
X1.195 Y-1.92
X1.334 Y-1.976
X1.477 Y-2.022
X1.623 Y-2.058
X1.771 Y-2.083
X1.92 Y-2.098
X2.07 Y-2.102
X2.22 Y-2.095
X2.369 Y-2.077
X2.516 Y-2.049
X2.661 Y-2.01
X2.803 Y-1.962
X2.941 Y-1.903
X3.074 Y-1.834
X3.203 Y-1.757
X3.325 Y-1.67
X3.441 Y-1.574
X3.55 Y-1.471
X3.651 Y-1.36
X3.744 Y-1.243
X3.828 Y-1.119
X3.907 Y-0.983
X3.994 Y-0.805
X4.088 Y-0.574
X4.175 Y-0.31
X4.234 Y-0.077
X4.269 Y0.116
X4.289 Y0.299
X4.296 Y0.474
X4.292 Y0.633
X4.276 Y0.794
X4.25 Y0.95
X4.214 Y1.095
X4.168 Y1.243
X4.111 Y1.386
X4.047 Y1.521
X3.972 Y1.654
X3.886 Y1.785
X3.792 Y1.908
X3.69 Y2.023
X3.577 Y2.135
X3.454 Y2.24
X3.324 Y2.338
X3.188 Y2.425
X3.044 Y2.504
X2.892 Y2.575
X2.732 Y2.635
X2.567 Y2.686
X2.398 Y2.724
X2.226 Y2.751
X2.051 Y2.767
X1.873 Y2.77
X1.693 Y2.76
X1.512 Y2.738
X1.332 Y2.704
X1.153 Y2.656
X0.976 Y2.596
X0.804 Y2.523
X0.637 Y2.439
X0.475 Y2.343
X0.32 Y2.235
X0.172 Y2.116
X0.031 Y1.987
X-0.1 Y1.848
X-0.222 Y1.699
X-0.334 Y1.542
X-0.435 Y1.377
X-0.525 Y1.204
X-0.603 Y1.026
X-0.668 Y0.842
X-0.72 Y0.654
X-0.76 Y0.462
X-0.786 Y0.268
X-0.798 Y0.072
X-0.797 Y-0.124
X-0.783 Y-0.32
X-0.754 Y-0.514
X-0.713 Y-0.707
X-0.658 Y-0.895
X-0.59 Y-1.08
X-0.51 Y-1.26
X-0.417 Y-1.433
X-0.313 Y-1.6
X-0.197 Y-1.759
X-0.07 Y-1.91
X0.066 Y-2.052
X0.213 Y-2.184
X0.368 Y-2.306
X0.531 Y-2.416
X0.702 Y-2.515
X0.879 Y-2.603
X1.062 Y-2.677
X1.249 Y-2.739
X1.441 Y-2.788
X1.635 Y-2.823
X1.832 Y-2.845
X2.029 Y-2.853
X2.227 Y-2.848
X2.424 Y-2.829
X2.619 Y-2.796
X2.811 Y-2.75
X3 Y-2.69
X3.184 Y-2.618
X3.362 Y-2.533
X3.535 Y-2.436
X3.7 Y-2.327
X3.858 Y-2.206
X4.012 Y-2.071
X4.16 Y-1.922
X4.306 Y-1.753
X4.452 Y-1.558
X4.589 Y-1.345
X4.711 Y-1.124
X4.816 Y-0.897
X4.904 Y-0.666
X4.975 Y-0.436
X5.028 Y-0.205
X5.064 Y0.025
X5.084 Y0.251
X5.088 Y0.475
X5.077 Y0.696
X5.051 Y0.912
X5.01 Y1.124
X4.956 Y1.331
X4.887 Y1.533
X4.805 Y1.729
X4.709 Y1.919
X4.601 Y2.102
X4.479 Y2.278
X4.346 Y2.445
X4.201 Y2.603
X4.044 Y2.751
X3.877 Y2.889
X3.698 Y3.016
X3.511 Y3.131
X3.314 Y3.234
X3.11 Y3.323
X2.898 Y3.398
X2.68 Y3.459
X2.457 Y3.506
X2.229 Y3.536
X1.997 Y3.552
X1.764 Y3.551
X1.53 Y3.533
X1.296 Y3.5
X1.064 Y3.45
X0.835 Y3.384
X0.61 Y3.301
X0.39 Y3.203
X0.176 Y3.09
X-0.03 Y2.961
X-0.227 Y2.818
X-0.415 Y2.661
X-0.592 Y2.491
X-0.757 Y2.308
X-0.91 Y2.114
X-1.049 Y1.909
X-1.174 Y1.694
X-1.284 Y1.471
X-1.379 Y1.24
X-1.458 Y1.003
X-1.52 Y0.76
X-1.565 Y0.513
X-1.593 Y0.264
X-1.604 Y0.013
X-1.597 Y-0.238
X-1.573 Y-0.489
X-1.531 Y-0.737
X-1.473 Y-0.982
X-1.397 Y-1.223
X-1.305 Y-1.458
X-1.197 Y-1.686
X-1.074 Y-1.906
X-0.935 Y-2.117
X-0.782 Y-2.318
X-0.616 Y-2.508
X-0.436 Y-2.686
X-0.245 Y-2.851
X-0.043 Y-3.003
X0.17 Y-3.141
X0.391 Y-3.263
X0.621 Y-3.37
X0.857 Y-3.461
X1.1 Y-3.535
X1.347 Y-3.592
X1.597 Y-3.632
X1.849 Y-3.655
X2.103 Y-3.66
X2.356 Y-3.647
X2.608 Y-3.617
X2.857 Y-3.57
X3.102 Y-3.505
X3.343 Y-3.424
X3.578 Y-3.326
X3.807 Y-3.211
X4.031 Y-3.078
X4.249 Y-2.928
X4.46 Y-2.76
X4.665 Y-2.572
X4.861 Y-2.366
X5.045 Y-2.142
X5.216 Y-1.904
X5.37 Y-1.653
X5.506 Y-1.392
X5.624 Y-1.124
X5.722 Y-0.849
X5.801 Y-0.571
X5.859 Y-0.29
X5.898 Y-0.008
X5.916 Y0.274
Y0.49
X5.915 Y0.525
X5.913 Y0.559
X5.909 Y0.593
X5.87 Y0.901
X5.857 Y0.983
X5.83 Y1.065
X5.505 Y1.884
X5.49 Y1.916
X5.398 Y2.048
X4.921 Y2.704
X4.902 Y2.726
X4.878 Y2.749
X4.179 Y3.327
X4.137 Y3.359
X4.015 Y3.42
X3.278 Y3.767
X3.237 Y3.784
X3.196 Y3.795
X2.294 Y3.968
X2.253 Y3.973
X2.212 Y3.974
X1.311 Y3.917
X1.27 Y3.913
X1.229 Y3.905
X0.328 Y3.612
X0.287 Y3.593
X0.246 Y3.568
X-0.492 Y3.1
X-0.533 Y3.072
X-0.576 Y3.032
X-1.191 Y2.376
X-1.229 Y2.328
X-1.294 Y2.212
X-1.655 Y1.557
X-1.695 Y1.48
X-1.721 Y1.403
X-1.934 Y0.574
X-1.951 Y0.492
X-1.953 Y0.41
Y-0.41
X-1.951 Y-0.492
X-1.934 Y-0.574
X-1.721 Y-1.403
X-1.695 Y-1.48
X-1.655 Y-1.557
X-1.294 Y-2.212
X-1.229 Y-2.328
X-1.191 Y-2.376
X-0.574 Y-3.034
X-0.533 Y-3.072
X-0.492 Y-3.1
X0.246 Y-3.568
X0.287 Y-3.593
X0.328 Y-3.612
X1.229 Y-3.905
X1.27 Y-3.913
X1.311 Y-3.917
X2.212 Y-3.974
X2.253 Y-3.973
X2.294 Y-3.968
X3.196 Y-3.795
X3.237 Y-3.784
X3.278 Y-3.767
X4.015 Y-3.42
X4.137 Y-3.359
X4.179 Y-3.327
X4.878 Y-2.749
X4.902 Y-2.726
X4.921 Y-2.704
X5.398 Y-2.048
X5.49 Y-1.916
X5.505 Y-1.884
X5.83 Y-1.065
X5.857 Y-0.983
X5.87 Y-0.901
X5.974 Y-0.082
X5.982 Y0
X5.974 Y0.082
X5.909 Y0.593
G3 X5.413 Y0.768 I-0.296 J-0.048
G1 X5.384 Y0.724 Z-9.995
X5.355 Y0.681 Z-9.981
X5.329 Y0.641 Z-9.958
X5.32 Y0.588 Z-9.916
X5.313 Y0.545 Z-9.863
X5.314 Y0.523 Z-9.824
X5.315 Y0.508 Z-9.781
X5.317 Y0.499 Z-9.741
Y0.497 Z-9.7
G0 Z1.001
X2.467 Y1.362
Z-9.2
G1 Z-9.5 F1000
G3 X1.63 Y-1.362 Z-9.656 I-0.419 J-1.362 F333.3
X2.467 Y1.362 Z-9.813 I0.419 J1.362
X1.63 Y-1.362 Z-9.969 I-0.419 J-1.362
X2.467 Y1.362 Z-10.125 I0.419 J1.362
X1.63 Y-1.362 Z-10.282 I-0.419 J-1.362
X2.467 Y1.362 Z-10.438 I0.419 J1.362
X1.63 Y-1.362 Z-10.594 I-0.419 J-1.362
X2.467 Y1.362 Z-10.751 I0.419 J1.362
X1.63 Y-1.362 Z-10.907 I-0.419 J-1.362
X3.474 Y0 Z-11 I0.419 J1.362
X0.624 I-1.425
X3.474 I1.425
G1 X3.513 Y0.811 F1000
X3.502 Y0.961
X3.465 Y1.106
X3.407 Y1.245
X3.331 Y1.374
X3.241 Y1.494
X3.138 Y1.603
X3.025 Y1.701
X2.902 Y1.787
X2.771 Y1.862
X2.635 Y1.924
X2.494 Y1.974
X2.348 Y2.012
X2.201 Y2.037
X2.051 Y2.051
X1.901 Y2.052
X1.752 Y2.042
X1.603 Y2.02
X1.457 Y1.987
X1.314 Y1.942
X1.174 Y1.887
X1.039 Y1.822
X0.909 Y1.747
X0.786 Y1.662
X0.668 Y1.568
X0.558 Y1.466
X0.456 Y1.357
X0.362 Y1.24
X0.276 Y1.117
X0.2 Y0.987
X0.134 Y0.853
X0.077 Y0.714
X0.03 Y0.572
X-0.006 Y0.426
X-0.032 Y0.278
X-0.047 Y0.129
X-0.051 Y-0.021
X-0.044 Y-0.171
X-0.027 Y-0.32
X0.001 Y-0.467
X0.039 Y-0.612
X0.088 Y-0.754
X0.147 Y-0.892
X0.215 Y-1.026
X0.293 Y-1.154
X0.38 Y-1.276
X0.475 Y-1.392
X0.578 Y-1.501
X0.689 Y-1.602
X0.807 Y-1.695
X0.931 Y-1.779
X1.06 Y-1.855
X1.195 Y-1.92
X1.334 Y-1.976
X1.477 Y-2.022
X1.623 Y-2.058
X1.771 Y-2.083
X1.92 Y-2.098
X2.07 Y-2.102
X2.22 Y-2.095
X2.369 Y-2.077
X2.516 Y-2.049
X2.661 Y-2.01
X2.803 Y-1.962
X2.941 Y-1.903
X3.074 Y-1.834
X3.203 Y-1.757
X3.325 Y-1.67
X3.441 Y-1.574
X3.55 Y-1.471
X3.651 Y-1.36
X3.744 Y-1.243
X3.828 Y-1.119
X3.907 Y-0.983
X3.994 Y-0.805
X4.088 Y-0.574
X4.175 Y-0.31
X4.234 Y-0.077
X4.269 Y0.116
X4.289 Y0.299
X4.296 Y0.474
X4.292 Y0.633
X4.276 Y0.794
X4.25 Y0.95
X4.214 Y1.095
X4.168 Y1.243
X4.111 Y1.386
X4.047 Y1.521
X3.972 Y1.654
X3.886 Y1.785
X3.792 Y1.908
X3.69 Y2.023
X3.577 Y2.135
X3.454 Y2.24
X3.324 Y2.338
X3.188 Y2.425
X3.044 Y2.504
X2.892 Y2.575
X2.732 Y2.635
X2.567 Y2.686
X2.398 Y2.724
X2.226 Y2.751
X2.051 Y2.767
X1.873 Y2.77
X1.693 Y2.76
X1.512 Y2.738
X1.332 Y2.704
X1.153 Y2.656
X0.976 Y2.596
X0.804 Y2.523
X0.637 Y2.439
X0.475 Y2.343
X0.32 Y2.235
X0.172 Y2.116
X0.031 Y1.987
X-0.1 Y1.848
X-0.222 Y1.699
X-0.334 Y1.542
X-0.435 Y1.377
X-0.525 Y1.204
X-0.603 Y1.026
X-0.668 Y0.842
X-0.72 Y0.654
X-0.76 Y0.462
X-0.786 Y0.268
X-0.798 Y0.072
X-0.797 Y-0.124
X-0.783 Y-0.32
X-0.754 Y-0.514
X-0.713 Y-0.707
X-0.658 Y-0.895
X-0.59 Y-1.08
X-0.51 Y-1.26
X-0.417 Y-1.433
X-0.313 Y-1.6
X-0.197 Y-1.759
X-0.07 Y-1.91
X0.066 Y-2.052
X0.213 Y-2.184
X0.368 Y-2.306
X0.531 Y-2.416
X0.702 Y-2.515
X0.879 Y-2.603
X1.062 Y-2.677
X1.249 Y-2.739
X1.441 Y-2.788
X1.635 Y-2.823
X1.832 Y-2.845
X2.029 Y-2.853
X2.227 Y-2.848
X2.424 Y-2.829
X2.619 Y-2.796
X2.811 Y-2.75
X3 Y-2.69
X3.184 Y-2.618
X3.362 Y-2.533
X3.535 Y-2.436
X3.7 Y-2.327
X3.858 Y-2.206
X4.012 Y-2.071
X4.16 Y-1.922
X4.306 Y-1.753
X4.452 Y-1.558
X4.589 Y-1.345
X4.711 Y-1.124
X4.816 Y-0.897
X4.904 Y-0.666
X4.975 Y-0.436
X5.028 Y-0.205
X5.064 Y0.025
X5.084 Y0.251
X5.088 Y0.475
X5.077 Y0.696
X5.051 Y0.912
X5.01 Y1.124
X4.956 Y1.331
X4.887 Y1.533
X4.805 Y1.729
X4.709 Y1.919
X4.601 Y2.102
X4.479 Y2.278
X4.346 Y2.445
X4.201 Y2.603
X4.044 Y2.751
X3.877 Y2.889
X3.698 Y3.016
X3.511 Y3.131
X3.314 Y3.234
X3.11 Y3.323
X2.898 Y3.398
X2.68 Y3.459
X2.457 Y3.506
X2.229 Y3.536
X1.997 Y3.552
X1.764 Y3.551
X1.53 Y3.533
X1.296 Y3.5
X1.064 Y3.45
X0.835 Y3.384
X0.61 Y3.301
X0.39 Y3.203
X0.176 Y3.09
X-0.03 Y2.961
X-0.227 Y2.818
X-0.415 Y2.661
X-0.592 Y2.491
X-0.757 Y2.308
X-0.91 Y2.114
X-1.049 Y1.909
X-1.174 Y1.694
X-1.284 Y1.471
X-1.379 Y1.24
X-1.458 Y1.003
X-1.52 Y0.76
X-1.565 Y0.513
X-1.593 Y0.264
X-1.604 Y0.013
X-1.597 Y-0.238
X-1.573 Y-0.489
X-1.531 Y-0.737
X-1.473 Y-0.982
X-1.397 Y-1.223
X-1.305 Y-1.458
X-1.197 Y-1.686
X-1.074 Y-1.906
X-0.935 Y-2.117
X-0.782 Y-2.318
X-0.616 Y-2.508
X-0.436 Y-2.686
X-0.245 Y-2.851
X-0.043 Y-3.003
X0.17 Y-3.141
X0.391 Y-3.263
X0.621 Y-3.37
X0.857 Y-3.461
X1.1 Y-3.535
X1.347 Y-3.592
X1.597 Y-3.632
X1.849 Y-3.655
X2.103 Y-3.66
X2.356 Y-3.647
X2.608 Y-3.617
X2.857 Y-3.57
X3.102 Y-3.505
X3.343 Y-3.424
X3.578 Y-3.326
X3.807 Y-3.211
X4.031 Y-3.078
X4.249 Y-2.928
X4.46 Y-2.76
X4.665 Y-2.572
X4.861 Y-2.366
X5.045 Y-2.142
X5.216 Y-1.904
X5.37 Y-1.653
X5.506 Y-1.392
X5.624 Y-1.124
X5.722 Y-0.849
X5.801 Y-0.571
X5.859 Y-0.29
X5.898 Y-0.008
X5.916 Y0.274
Y0.49
X5.915 Y0.525
X5.913 Y0.559
X5.909 Y0.593
X5.87 Y0.901
X5.857 Y0.983
X5.83 Y1.065
X5.505 Y1.884
X5.49 Y1.916
X5.398 Y2.048
X4.921 Y2.704
X4.902 Y2.726
X4.878 Y2.749
X4.179 Y3.327
X4.137 Y3.359
X4.015 Y3.42
X3.278 Y3.767
X3.237 Y3.784
X3.196 Y3.795
X2.294 Y3.968
X2.253 Y3.973
X2.212 Y3.974
X1.311 Y3.917
X1.27 Y3.913
X1.229 Y3.905
X0.328 Y3.612
X0.287 Y3.593
X0.246 Y3.568
X-0.492 Y3.1
X-0.533 Y3.072
X-0.576 Y3.032
X-1.191 Y2.376
X-1.229 Y2.328
X-1.294 Y2.212
X-1.655 Y1.557
X-1.695 Y1.48
X-1.721 Y1.403
X-1.934 Y0.574
X-1.951 Y0.492
X-1.953 Y0.41
Y-0.41
X-1.951 Y-0.492
X-1.934 Y-0.574
X-1.721 Y-1.403
X-1.695 Y-1.48
X-1.655 Y-1.557
X-1.294 Y-2.212
X-1.229 Y-2.328
X-1.191 Y-2.376
X-0.574 Y-3.034
X-0.533 Y-3.072
X-0.492 Y-3.1
X0.246 Y-3.568
X0.287 Y-3.593
X0.328 Y-3.612
X1.229 Y-3.905
X1.27 Y-3.913
X1.311 Y-3.917
X2.212 Y-3.974
X2.253 Y-3.973
X2.294 Y-3.968
X3.196 Y-3.795
X3.237 Y-3.784
X3.278 Y-3.767
X4.015 Y-3.42
X4.137 Y-3.359
X4.179 Y-3.327
X4.878 Y-2.749
X4.902 Y-2.726
X4.921 Y-2.704
X5.398 Y-2.048
X5.49 Y-1.916
X5.505 Y-1.884
X5.83 Y-1.065
X5.857 Y-0.983
X5.87 Y-0.901
X5.974 Y-0.082
X5.982 Y0
X5.974 Y0.082
X5.909 Y0.593
G3 X5.413 Y0.768 I-0.296 J-0.048
G1 X5.384 Y0.724 Z-10.995
X5.355 Y0.681 Z-10.981
X5.329 Y0.641 Z-10.958
X5.32 Y0.588 Z-10.916
X5.313 Y0.545 Z-10.863
X5.314 Y0.523 Z-10.824
X5.315 Y0.508 Z-10.781
X5.317 Y0.499 Z-10.741
Y0.497 Z-10.7
G0 Z1.001
X2.53 Y-1.341
Z-10.2
G1 Z-10.5 F1000
G3 X1.567 Y1.341 Z-10.656 I-0.482 J1.341 F333.3
X2.53 Y-1.341 Z-10.813 I0.482 J-1.341
X1.567 Y1.341 Z-10.969 I-0.482 J1.341
X2.53 Y-1.341 Z-11.125 I0.482 J-1.341
X1.567 Y1.341 Z-11.282 I-0.482 J1.341
X2.53 Y-1.341 Z-11.438 I0.482 J-1.341
X3.474 Y0 Z-11.499 I-0.482 J1.341
X0.624 I-1.425
X3.474 I1.425
G1 X3.513 Y0.811 F1000
X3.502 Y0.961
X3.465 Y1.106
X3.407 Y1.245
X3.331 Y1.374
X3.241 Y1.494
X3.138 Y1.603
X3.025 Y1.701
X2.902 Y1.787
X2.771 Y1.862
X2.635 Y1.924
X2.494 Y1.974
X2.348 Y2.012
X2.201 Y2.037
X2.051 Y2.051
X1.901 Y2.052
X1.752 Y2.042
X1.603 Y2.02
X1.457 Y1.987
X1.314 Y1.942
X1.174 Y1.887
X1.039 Y1.822
X0.909 Y1.747
X0.786 Y1.662
X0.668 Y1.568
X0.558 Y1.466
X0.456 Y1.357
X0.362 Y1.24
X0.276 Y1.117
X0.2 Y0.987
X0.134 Y0.853
X0.077 Y0.714
X0.03 Y0.572
X-0.006 Y0.426
X-0.032 Y0.278
X-0.047 Y0.129
X-0.051 Y-0.021
X-0.044 Y-0.171
X-0.027 Y-0.32
X0.001 Y-0.467
X0.039 Y-0.612
X0.088 Y-0.754
X0.147 Y-0.892
X0.215 Y-1.026
X0.293 Y-1.154
X0.38 Y-1.276
X0.475 Y-1.392
X0.578 Y-1.501
X0.689 Y-1.602
X0.807 Y-1.695
X0.931 Y-1.779
X1.06 Y-1.855
X1.195 Y-1.92
X1.334 Y-1.976
X1.477 Y-2.022
X1.623 Y-2.058
X1.771 Y-2.083
X1.92 Y-2.098
X2.07 Y-2.102
X2.22 Y-2.095
X2.369 Y-2.077
X2.516 Y-2.049
X2.661 Y-2.01
X2.803 Y-1.962
X2.941 Y-1.903
X3.074 Y-1.834
X3.203 Y-1.757
X3.325 Y-1.67
X3.441 Y-1.574
X3.55 Y-1.471
X3.651 Y-1.36
X3.744 Y-1.243
X3.828 Y-1.119
X3.907 Y-0.983
X3.994 Y-0.805
X4.088 Y-0.574
X4.175 Y-0.31
X4.234 Y-0.077
X4.269 Y0.116
X4.289 Y0.299
X4.296 Y0.474
X4.292 Y0.633
X4.276 Y0.794
X4.25 Y0.95
X4.214 Y1.095
X4.168 Y1.243
X4.111 Y1.386
X4.047 Y1.521
X3.972 Y1.654
X3.886 Y1.785
X3.792 Y1.908
X3.69 Y2.023
X3.577 Y2.135
X3.454 Y2.24
X3.324 Y2.338
X3.188 Y2.425
X3.044 Y2.504
X2.892 Y2.575
X2.732 Y2.635
X2.567 Y2.686
X2.398 Y2.724
X2.226 Y2.751
X2.051 Y2.767
X1.873 Y2.77
X1.693 Y2.76
X1.512 Y2.738
X1.332 Y2.704
X1.153 Y2.656
X0.976 Y2.596
X0.804 Y2.523
X0.637 Y2.439
X0.475 Y2.343
X0.32 Y2.235
X0.172 Y2.116
X0.031 Y1.987
X-0.1 Y1.848
X-0.222 Y1.699
X-0.334 Y1.542
X-0.435 Y1.377
X-0.525 Y1.204
X-0.603 Y1.026
X-0.668 Y0.842
X-0.72 Y0.654
X-0.76 Y0.462
X-0.786 Y0.268
X-0.798 Y0.072
X-0.797 Y-0.124
X-0.783 Y-0.32
X-0.754 Y-0.514
X-0.713 Y-0.707
X-0.658 Y-0.895
X-0.59 Y-1.08
X-0.51 Y-1.26
X-0.417 Y-1.433
X-0.313 Y-1.6
X-0.197 Y-1.759
X-0.07 Y-1.91
X0.066 Y-2.052
X0.213 Y-2.184
X0.368 Y-2.306
X0.531 Y-2.416
X0.702 Y-2.515
X0.879 Y-2.603
X1.062 Y-2.677
X1.249 Y-2.739
X1.441 Y-2.788
X1.635 Y-2.823
X1.832 Y-2.845
X2.029 Y-2.853
X2.227 Y-2.848
X2.424 Y-2.829
X2.619 Y-2.796
X2.811 Y-2.75
X3 Y-2.69
X3.184 Y-2.618
X3.362 Y-2.533
X3.535 Y-2.436
X3.7 Y-2.327
X3.858 Y-2.206
X4.012 Y-2.071
X4.16 Y-1.922
X4.306 Y-1.753
X4.452 Y-1.558
X4.589 Y-1.345
X4.711 Y-1.124
X4.816 Y-0.897
X4.904 Y-0.666
X4.975 Y-0.436
X5.028 Y-0.205
X5.064 Y0.025
X5.084 Y0.251
X5.088 Y0.475
X5.077 Y0.696
X5.051 Y0.912
X5.01 Y1.124
X4.956 Y1.331
X4.887 Y1.533
X4.805 Y1.729
X4.709 Y1.919
X4.601 Y2.102
X4.479 Y2.278
X4.346 Y2.445
X4.201 Y2.603
X4.044 Y2.751
X3.877 Y2.889
X3.698 Y3.016
X3.511 Y3.131
X3.314 Y3.234
X3.11 Y3.323
X2.898 Y3.398
X2.68 Y3.459
X2.457 Y3.506
X2.229 Y3.536
X1.997 Y3.552
X1.764 Y3.551
X1.53 Y3.533
X1.296 Y3.5
X1.064 Y3.45
X0.835 Y3.384
X0.61 Y3.301
X0.39 Y3.203
X0.176 Y3.09
X-0.03 Y2.961
X-0.227 Y2.818
X-0.415 Y2.661
X-0.592 Y2.491
X-0.757 Y2.308
X-0.91 Y2.114
X-1.049 Y1.909
X-1.174 Y1.694
X-1.284 Y1.471
X-1.379 Y1.24
X-1.458 Y1.003
X-1.52 Y0.76
X-1.565 Y0.513
X-1.593 Y0.264
X-1.604 Y0.013
X-1.597 Y-0.238
X-1.573 Y-0.489
X-1.531 Y-0.737
X-1.473 Y-0.982
X-1.397 Y-1.223
X-1.305 Y-1.458
X-1.197 Y-1.686
X-1.074 Y-1.906
X-0.935 Y-2.117
X-0.782 Y-2.318
X-0.616 Y-2.508
X-0.436 Y-2.686
X-0.245 Y-2.851
X-0.043 Y-3.003
X0.17 Y-3.141
X0.391 Y-3.263
X0.621 Y-3.37
X0.857 Y-3.461
X1.1 Y-3.535
X1.347 Y-3.592
X1.597 Y-3.632
X1.849 Y-3.655
X2.103 Y-3.66
X2.356 Y-3.647
X2.608 Y-3.617
X2.857 Y-3.57
X3.102 Y-3.505
X3.343 Y-3.424
X3.578 Y-3.326
X3.807 Y-3.211
X4.031 Y-3.078
X4.249 Y-2.928
X4.46 Y-2.76
X4.665 Y-2.572
X4.861 Y-2.366
X5.045 Y-2.142
X5.216 Y-1.904
X5.37 Y-1.653
X5.506 Y-1.392
X5.624 Y-1.124
X5.722 Y-0.849
X5.801 Y-0.571
X5.859 Y-0.29
X5.898 Y-0.008
X5.916 Y0.274
Y0.49
X5.915 Y0.525
X5.913 Y0.559
X5.909 Y0.593
X5.87 Y0.901
X5.857 Y0.983
X5.83 Y1.065
X5.505 Y1.884
X5.49 Y1.916
X5.398 Y2.048
X4.921 Y2.704
X4.902 Y2.726
X4.878 Y2.749
X4.179 Y3.327
X4.137 Y3.359
X4.015 Y3.42
X3.278 Y3.767
X3.237 Y3.784
X3.196 Y3.795
X2.294 Y3.968
X2.253 Y3.973
X2.212 Y3.974
X1.311 Y3.917
X1.27 Y3.913
X1.229 Y3.905
X0.328 Y3.612
X0.287 Y3.593
X0.246 Y3.568
X-0.492 Y3.1
X-0.533 Y3.072
X-0.576 Y3.032
X-1.191 Y2.376
X-1.229 Y2.328
X-1.294 Y2.212
X-1.655 Y1.557
X-1.695 Y1.48
X-1.721 Y1.403
X-1.934 Y0.574
X-1.951 Y0.492
X-1.953 Y0.41
Y-0.41
X-1.951 Y-0.492
X-1.934 Y-0.574
X-1.721 Y-1.403
X-1.695 Y-1.48
X-1.655 Y-1.557
X-1.294 Y-2.212
X-1.229 Y-2.328
X-1.191 Y-2.376
X-0.574 Y-3.034
X-0.533 Y-3.072
X-0.492 Y-3.1
X0.246 Y-3.568
X0.287 Y-3.593
X0.328 Y-3.612
X1.229 Y-3.905
X1.27 Y-3.913
X1.311 Y-3.917
X2.212 Y-3.974
X2.253 Y-3.973
X2.294 Y-3.968
X3.196 Y-3.795
X3.237 Y-3.784
X3.278 Y-3.767
X4.015 Y-3.42
X4.137 Y-3.359
X4.179 Y-3.327
X4.878 Y-2.749
X4.902 Y-2.726
X4.921 Y-2.704
X5.398 Y-2.048
X5.49 Y-1.916
X5.505 Y-1.884
X5.83 Y-1.065
X5.857 Y-0.983
X5.87 Y-0.901
X5.974 Y-0.082
X5.982 Y0
X5.974 Y0.082
X5.909 Y0.593
G3 X5.317 Y0.497 I-0.296 J-0.048
G1 X5.328 Y0.431 Z-11.491
X5.338 Y0.368 Z-11.469
X5.347 Y0.312 Z-11.434
X5.354 Y0.265 Z-11.386
X5.36 Y0.23 Z-11.329
X5.364 Y0.208 Z-11.266
X5.365 Y0.201 Z-11.199
G0 Z2
M9
G28 G91 Z0
G28 X0 Y0
M30
%
