%
(2)
(T2  D=3 CR=0 - ZMIN=-12 - flat end mill)
G90 G94
G17
G21
G28 G91 Z0
G90

(Inner Circle)
M9
T2 M6
(Part of a 10 Pack Carbide)
S5000 M3
G54
M9
G0 X-0.972 Y0.142
Z2
Z1.298
G1 Z-0.7 F1000
X-0.979 Y0.141 Z-0.767
X-1.001 Y0.139 Z-0.83
X-1.037 Y0.136 Z-0.887
X-1.084 Y0.132 Z-0.935
X-1.141 Y0.128 Z-0.97
X-1.204 Y0.123 Z-0.992
X-1.271 Y0.117 Z-1
X-2.212 Y0.04
G3 X-2.487 Y-0.283 I0.024 J-0.299
G1 X-2.47 Y-0.484
X-2.453 Y-0.623
X-2.407 Y-0.9
X-2.374 Y-1.038
X-2.339 Y-1.176
X-2.3 Y-1.315
X-2.207 Y-1.592
X-2.149 Y-1.73
X-2.072 Y-1.908
X-2.024 Y-2.007
X-1.934 Y-2.175
X-1.876 Y-2.284
X-1.698 Y-2.561
X-1.658 Y-2.616
X-1.489 Y-2.837
X-1.382 Y-2.962
X-1.243 Y-3.115
X-1.105 Y-3.25
X-0.956 Y-3.391
X-0.829 Y-3.493
X-0.691 Y-3.603
X-0.601 Y-3.668
X-0.395 Y-3.806
X-0.276 Y-3.877
X-0.138 Y-3.954
X0 Y-4.028
X0.276 Y-4.154
X0.414 Y-4.207
X0.553 Y-4.256
X0.691 Y-4.302
X0.967 Y-4.377
X1.105 Y-4.406
X1.243 Y-4.431
X1.382 Y-4.455
X1.658 Y-4.483
X1.796 Y-4.492
X2.072 Y-4.497
X2.211 Y-4.491
X2.349 Y-4.482
X2.487 Y-4.471
X2.763 Y-4.432
X2.901 Y-4.405
X3.178 Y-4.342
X3.316 Y-4.298
X3.454 Y-4.255
X3.552 Y-4.221
X3.868 Y-4.092
X3.887 Y-4.083
X4.16 Y-3.945
X4.283 Y-3.873
X4.421 Y-3.788
X4.559 Y-3.697
X4.788 Y-3.529
X4.836 Y-3.491
X4.974 Y-3.371
X5.106 Y-3.253
X5.25 Y-3.106
X5.372 Y-2.976
X5.526 Y-2.79
X5.597 Y-2.699
X5.695 Y-2.561
X5.79 Y-2.422
X5.953 Y-2.145
X6.023 Y-2.007
X6.089 Y-1.869
X6.151 Y-1.73
X6.257 Y-1.453
X6.299 Y-1.315
X6.355 Y-1.122
X6.375 Y-1.038
X6.433 Y-0.761
X6.452 Y-0.623
X6.469 Y-0.484
X6.485 Y-0.346
X6.496 Y-0.069
Y0.069
X6.485 Y0.346
X6.469 Y0.484
X6.452 Y0.623
X6.433 Y0.761
X6.375 Y1.038
X6.355 Y1.122
X6.299 Y1.315
X6.257 Y1.453
X6.151 Y1.73
X6.089 Y1.869
X6.023 Y2.007
X5.953 Y2.145
X5.79 Y2.422
X5.695 Y2.561
X5.597 Y2.699
X5.526 Y2.79
X5.372 Y2.976
X5.25 Y3.106
X5.106 Y3.253
X4.974 Y3.371
X4.836 Y3.491
X4.788 Y3.529
X4.559 Y3.697
X4.421 Y3.788
X4.283 Y3.873
X4.16 Y3.945
X3.887 Y4.083
X3.868 Y4.092
X3.552 Y4.221
X3.454 Y4.255
X3.316 Y4.298
X3.178 Y4.342
X2.901 Y4.405
X2.763 Y4.432
X2.487 Y4.471
X2.349 Y4.482
X2.211 Y4.491
X2.072 Y4.497
X1.796 Y4.492
X1.658 Y4.483
X1.382 Y4.455
X1.243 Y4.431
X1.105 Y4.406
X0.967 Y4.377
X0.691 Y4.302
X0.553 Y4.256
X0.414 Y4.207
X0.276 Y4.154
X0 Y4.028
X-0.138 Y3.954
X-0.276 Y3.877
X-0.395 Y3.806
X-0.601 Y3.668
X-0.691 Y3.603
X-0.829 Y3.493
X-0.956 Y3.391
X-1.105 Y3.25
X-1.243 Y3.115
X-1.382 Y2.962
X-1.489 Y2.837
X-1.658 Y2.616
X-1.698 Y2.561
X-1.876 Y2.284
X-1.934 Y2.175
X-2.024 Y2.007
X-2.072 Y1.908
X-2.149 Y1.73
X-2.207 Y1.592
X-2.3 Y1.315
X-2.339 Y1.176
X-2.374 Y1.038
X-2.407 Y0.9
X-2.453 Y0.623
X-2.47 Y0.484
X-2.493 Y0.208
X-2.495 Y0.069
Y-0.069
X-2.493 Y-0.208
X-2.487 Y-0.283
X-2.467 Y-0.526
X-2.429 Y-0.767 Z-1.001
X-2.382 Y-1.005
X-2.323 Y-1.242 Z-1.002
X-2.247 Y-1.473 Z-1.004
X-2.162 Y-1.701 Z-1.005
X-2.065 Y-1.925 Z-1.007
X-1.953 Y-2.141 Z-1.009
X-1.832 Y-2.352 Z-1.011
X-1.7 Y-2.557 Z-1.014
X-1.554 Y-2.752 Z-1.017
X-1.401 Y-2.941 Z-1.02
X-1.237 Y-3.122 Z-1.024
X-1.062 Y-3.291 Z-1.027
X-0.88 Y-3.453 Z-1.031
X-0.69 Y-3.604 Z-1.035
X-0.489 Y-3.743 Z-1.039
X-0.284 Y-3.873 Z-1.044
X-0.071 Y-3.992 Z-1.049
X0.149 Y-4.096 Z-1.054
X0.26 Y-4.147 Z-1.056
X0.373 Y-4.192 Z-1.059
X0.488 Y-4.233 Z-1.062
X0.602 Y-4.274 Z-1.064
X0.719 Y-4.31 Z-1.067
X0.836 Y-4.342 Z-1.07
X0.954 Y-4.374 Z-1.073
X1.073 Y-4.4 Z-1.076
X1.192 Y-4.422 Z-1.079
X1.312 Y-4.444 Z-1.082
X1.433 Y-4.46 Z-1.085
X1.554 Y-4.473 Z-1.088
X1.675 Y-4.485 Z-1.091
X1.797 Y-4.492 Z-1.094
X1.918 Y-4.494 Z-1.098
X2.04 Y-4.497 Z-1.101
X2.162 Y-4.494 Z-1.104
X2.283 Y-4.486 Z-1.108
X2.405 Y-4.479 Z-1.111
X2.526 Y-4.466 Z-1.115
X2.647 Y-4.448 Z-1.118
X2.767 Y-4.431 Z-1.122
X2.887 Y-4.408 Z-1.125
X3.005 Y-4.381 Z-1.129
X3.124 Y-4.354 Z-1.133
X3.242 Y-4.322 Z-1.136
X3.358 Y-4.285 Z-1.14
X3.474 Y-4.248 Z-1.144
X3.588 Y-4.207 Z-1.148
X3.701 Y-4.161 Z-1.152
X3.814 Y-4.115 Z-1.156
X3.924 Y-4.064 Z-1.16
X4.033 Y-4.009 Z-1.164
X4.142 Y-3.954 Z-1.168
X4.248 Y-3.895 Z-1.172
X4.352 Y-3.831 Z-1.176
X4.455 Y-3.767 Z-1.18
X4.557 Y-3.699 Z-1.184
X4.655 Y-3.627 Z-1.188
X4.753 Y-3.555 Z-1.193
X4.848 Y-3.48 Z-1.197
X4.94 Y-3.4 Z-1.201
X5.032 Y-3.32 Z-1.205
X5.121 Y-3.237 Z-1.21
X5.207 Y-3.15 Z-1.214
X5.292 Y-3.063 Z-1.218
X5.374 Y-2.973 Z-1.222
X5.452 Y-2.879 Z-1.227
X5.53 Y-2.786 Z-1.231
X5.604 Y-2.689 Z-1.235
X5.674 Y-2.59 Z-1.239
X5.744 Y-2.49 Z-1.244
X5.81 Y-2.388 Z-1.248
X5.872 Y-2.283 Z-1.252
X5.934 Y-2.178 Z-1.256
X5.992 Y-2.071 Z-1.261
X6.045 Y-1.961 Z-1.265
X6.097 Y-1.852 Z-1.269
X6.147 Y-1.74 Z-1.273
X6.19 Y-1.626 Z-1.278
X6.234 Y-1.513 Z-1.282
X6.274 Y-1.398 Z-1.286
X6.309 Y-1.281 Z-1.29
X6.343 Y-1.164 Z-1.295
X6.374 Y-1.046 Z-1.299
X6.423 Y-0.808 Z-1.307
X6.444 Y-0.688 Z-1.312
X6.474 Y-0.446 Z-1.32
X6.485 Y-0.325 Z-1.324
X6.495 Y-0.082 Z-1.333
X6.497 Y0.04 Z-1.337
X6.487 Y0.283 Z-1.346
X6.479 Y0.405 Z-1.35
X6.449 Y0.647 Z-1.359
X6.431 Y0.767 Z-1.363
X6.382 Y1.006 Z-1.371
X6.355 Y1.124 Z-1.376
X6.286 Y1.358 Z-1.384
X6.249 Y1.474 Z-1.388
X6.162 Y1.701 Z-1.397
X6.116 Y1.814 Z-1.401
X6.01 Y2.033 Z-1.41
X5.955 Y2.142 Z-1.414
X5.832 Y2.352 Z-1.422
X5.768 Y2.456 Z-1.427
X5.628 Y2.655 Z-1.435
X5.556 Y2.754 Z-1.439
X5.401 Y2.941 Z-1.448
X5.321 Y3.033 Z-1.452
X5.151 Y3.207 Z-1.461
X5.064 Y3.293 Z-1.465
X4.88 Y3.452 Z-1.473
X4.787 Y3.531 Z-1.478
X4.59 Y3.675 Z-1.486
X4.491 Y3.745 Z-1.49
X4.283 Y3.873 Z-1.499
X4.179 Y3.935 Z-1.503
X3.961 Y4.045 Z-1.512
X3.852 Y4.099 Z-1.516
X3.627 Y4.191 Z-1.524
X3.514 Y4.236 Z-1.529
X3.281 Y4.309 Z-1.537
X3.165 Y4.345 Z-1.541
X2.927 Y4.399 Z-1.55
X2.808 Y4.425 Z-1.554
X2.567 Y4.46 Z-1.563
X2.447 Y4.476 Z-1.567
X2.203 Y4.491 Z-1.575
X2.082 Y4.498 Z-1.58
X1.838 Y4.493 Z-1.588
X1.717 Y4.489 Z-1.592
X1.474 Y4.465 Z-1.601
X1.353 Y4.452 Z-1.605
X1.114 Y4.407 Z-1.614
X0.994 Y4.385 Z-1.618
X0.759 Y4.321 Z-1.626
X0.641 Y4.289 Z-1.631
X0.412 Y4.206 Z-1.639
X0.298 Y4.164 Z-1.643
X0.076 Y4.063 Z-1.652
X-0.035 Y4.012 Z-1.656
X-0.141 Y3.953 Z-1.66
X-0.354 Y3.834 Z-1.669
X-0.455 Y3.766 Z-1.673
X-0.657 Y3.63 Z-1.682
X-0.752 Y3.554 Z-1.686
X-0.943 Y3.403 Z-1.694
X-1.032 Y3.319 Z-1.699
X-1.209 Y3.152 Z-1.707
X-1.291 Y3.062 Z-1.711
X-1.373 Y2.972 Z-1.716
X-1.454 Y2.882 Z-1.72
X-1.529 Y2.785 Z-1.724
X-1.603 Y2.688 Z-1.728
X-1.677 Y2.592 Z-1.733
X-1.743 Y2.49 Z-1.737
X-1.809 Y2.387 Z-1.741
X-1.875 Y2.285 Z-1.745
X-1.933 Y2.178 Z-1.75
X-1.99 Y2.07 Z-1.754
X-2.048 Y1.963 Z-1.758
X-2.097 Y1.851 Z-1.762
X-2.145 Y1.739 Z-1.767
X-2.193 Y1.628 Z-1.771
X-2.233 Y1.513 Z-1.775
X-2.273 Y1.397 Z-1.779
X-2.312 Y1.282 Z-1.784
X-2.342 Y1.164 Z-1.788
X-2.372 Y1.046 Z-1.792
X-2.401 Y0.928 Z-1.796
X-2.423 Y0.808 Z-1.801
X-2.442 Y0.688 Z-1.805
X-2.462 Y0.568 Z-1.809
X-2.474 Y0.446 Z-1.813
X-2.483 Y0.325 Z-1.818
X-2.493 Y0.204 Z-1.822
X-2.495 Y0.082 Z-1.826
Y-0.04 Z-1.83
Y-0.162 Z-1.834
X-2.487 Y-0.283 Z-1.838
X-2.477 Y-0.405 Z-1.842
X-2.467 Y-0.526 Z-1.846
X-2.449 Y-0.647 Z-1.85
X-2.429 Y-0.767 Z-1.854
X-2.41 Y-0.887 Z-1.858
X-2.382 Y-1.005 Z-1.861
X-2.352 Y-1.124 Z-1.865
X-2.323 Y-1.242 Z-1.869
X-2.286 Y-1.358 Z-1.873
X-2.247 Y-1.473 Z-1.876
X-2.208 Y-1.589 Z-1.88
X-2.162 Y-1.701 Z-1.883
X-2.113 Y-1.813 Z-1.887
X-2.065 Y-1.925 Z-1.89
X-2.01 Y-2.033 Z-1.894
X-1.953 Y-2.141 Z-1.897
X-1.895 Y-2.248 Z-1.901
X-1.832 Y-2.352 Z-1.904
X-1.766 Y-2.455 Z-1.907
X-1.7 Y-2.557 Z-1.91
X-1.628 Y-2.655 Z-1.913
X-1.554 Y-2.752 Z-1.917
X-1.48 Y-2.849 Z-1.92
X-1.401 Y-2.941 Z-1.923
X-1.319 Y-3.031 Z-1.926
X-1.237 Y-3.122 Z-1.928
X-1.151 Y-3.207 Z-1.931
X-1.062 Y-3.291 Z-1.934
X-0.973 Y-3.374 Z-1.937
X-0.88 Y-3.453 Z-1.94
X-0.785 Y-3.528 Z-1.942
X-0.69 Y-3.604 Z-1.945
X-0.59 Y-3.675 Z-1.947
X-0.489 Y-3.743 Z-1.95
X-0.284 Y-3.873 Z-1.955
X-0.071 Y-3.992 Z-1.959
X0.149 Y-4.096 Z-1.964
X0.373 Y-4.192 Z-1.968
X0.602 Y-4.274 Z-1.972
X0.836 Y-4.342 Z-1.975
X1.073 Y-4.4 Z-1.979
X1.312 Y-4.444 Z-1.982
X1.554 Y-4.473 Z-1.985
X1.797 Y-4.492 Z-1.988
X2.04 Y-4.497 Z-1.99
X2.283 Y-4.486 Z-1.992
X2.526 Y-4.466 Z-1.994
X2.767 Y-4.431 Z-1.996
X3.005 Y-4.381 Z-1.997
X3.242 Y-4.322 Z-1.998
X3.474 Y-4.248 Z-1.999
X3.701 Y-4.161 Z-2
X3.924 Y-4.064
X3.985 Y-4.034
X4.16 Y-3.945
X4.283 Y-3.873
X4.421 Y-3.788
X4.559 Y-3.697
X4.788 Y-3.529
X4.836 Y-3.491
X4.974 Y-3.371
X5.106 Y-3.253
X5.25 Y-3.106
X5.372 Y-2.976
X5.526 Y-2.79
X5.597 Y-2.699
X5.695 Y-2.561
X5.79 Y-2.422
X5.953 Y-2.145
X6.023 Y-2.007
X6.089 Y-1.869
X6.151 Y-1.73
X6.257 Y-1.453
X6.299 Y-1.315
X6.355 Y-1.122
X6.375 Y-1.038
X6.433 Y-0.761
X6.452 Y-0.623
X6.469 Y-0.484
X6.485 Y-0.346
X6.496 Y-0.069
Y0.069
X6.485 Y0.346
X6.469 Y0.484
X6.452 Y0.623
X6.433 Y0.761
X6.375 Y1.038
X6.355 Y1.122
X6.299 Y1.315
X6.257 Y1.453
X6.151 Y1.73
X6.089 Y1.869
X6.023 Y2.007
X5.953 Y2.145
X5.79 Y2.422
X5.695 Y2.561
X5.597 Y2.699
X5.526 Y2.79
X5.372 Y2.976
X5.25 Y3.106
X5.106 Y3.253
X4.974 Y3.371
X4.836 Y3.491
X4.788 Y3.529
X4.559 Y3.697
X4.421 Y3.788
X4.283 Y3.873
X4.16 Y3.945
X3.887 Y4.083
X3.868 Y4.092
X3.552 Y4.221
X3.454 Y4.255
X3.316 Y4.298
X3.178 Y4.342
X2.901 Y4.405
X2.763 Y4.432
X2.487 Y4.471
X2.349 Y4.482
X2.211 Y4.491
X2.072 Y4.497
X1.796 Y4.492
X1.658 Y4.483
X1.382 Y4.455
X1.243 Y4.431
X1.105 Y4.406
X0.967 Y4.377
X0.691 Y4.302
X0.553 Y4.256
X0.414 Y4.207
X0.276 Y4.154
X0 Y4.028
X-0.138 Y3.954
X-0.276 Y3.877
X-0.395 Y3.806
X-0.601 Y3.668
X-0.691 Y3.603
X-0.829 Y3.493
X-0.956 Y3.391
X-1.105 Y3.25
X-1.243 Y3.115
X-1.382 Y2.962
X-1.489 Y2.837
X-1.658 Y2.616
X-1.698 Y2.561
X-1.876 Y2.284
X-1.934 Y2.175
X-2.024 Y2.007
X-2.072 Y1.908
X-2.149 Y1.73
X-2.207 Y1.592
X-2.3 Y1.315
X-2.339 Y1.176
X-2.374 Y1.038
X-2.407 Y0.9
X-2.453 Y0.623
X-2.47 Y0.484
X-2.493 Y0.208
X-2.495 Y0.069
Y-0.069
X-2.493 Y-0.208
X-2.47 Y-0.484
X-2.453 Y-0.623
X-2.407 Y-0.9
X-2.374 Y-1.038
X-2.339 Y-1.176
X-2.3 Y-1.315
X-2.207 Y-1.592
X-2.149 Y-1.73
X-2.072 Y-1.908
X-2.024 Y-2.007
X-1.934 Y-2.175
X-1.876 Y-2.284
X-1.698 Y-2.561
X-1.658 Y-2.616
X-1.489 Y-2.837
X-1.382 Y-2.962
X-1.243 Y-3.115
X-1.105 Y-3.25
X-0.956 Y-3.391
X-0.829 Y-3.493
X-0.691 Y-3.603
X-0.601 Y-3.668
X-0.395 Y-3.806
X-0.276 Y-3.877
X-0.138 Y-3.954
X0 Y-4.028
X0.276 Y-4.154
X0.414 Y-4.207
X0.553 Y-4.256
X0.691 Y-4.302
X0.967 Y-4.377
X1.105 Y-4.406
X1.243 Y-4.431
X1.382 Y-4.455
X1.658 Y-4.483
X1.796 Y-4.492
X2.072 Y-4.497
X2.211 Y-4.491
X2.349 Y-4.482
X2.487 Y-4.471
X2.763 Y-4.432
X2.901 Y-4.405
X3.178 Y-4.342
X3.316 Y-4.298
X3.454 Y-4.255
X3.552 Y-4.221
X3.868 Y-4.092
X3.887 Y-4.083
X3.985 Y-4.034
X4.202 Y-3.923
X4.409 Y-3.795 Z-2.001
X4.611 Y-3.659
X4.807 Y-3.515 Z-2.002
X4.991 Y-3.356 Z-2.004
X5.169 Y-3.189 Z-2.005
X5.339 Y-3.015 Z-2.007
X5.495 Y-2.827 Z-2.009
X5.643 Y-2.634 Z-2.011
X5.783 Y-2.435 Z-2.014
X5.906 Y-2.225 Z-2.017
X6.021 Y-2.01 Z-2.02
X6.127 Y-1.791 Z-2.024
X6.215 Y-1.563 Z-2.027
X6.293 Y-1.333 Z-2.031
X6.362 Y-1.099 Z-2.035
X6.412 Y-0.861 Z-2.039
X6.453 Y-0.621 Z-2.044
X6.482 Y-0.379 Z-2.049
X6.493 Y-0.136 Z-2.054
X6.498 Y-0.014 Z-2.056
X6.494 Y0.108 Z-2.059
X6.489 Y0.229 Z-2.062
X6.484 Y0.351 Z-2.064
X6.471 Y0.472 Z-2.067
X6.456 Y0.593 Z-2.07
X6.441 Y0.714 Z-2.073
X6.418 Y0.833 Z-2.076
X6.393 Y0.953 Z-2.079
X6.368 Y1.072 Z-2.082
X6.336 Y1.189 Z-2.085
X6.301 Y1.306 Z-2.088
X6.267 Y1.423 Z-2.091
X6.225 Y1.537 Z-2.094
X6.181 Y1.651 Z-2.098
X6.137 Y1.764 Z-2.101
X6.086 Y1.875 Z-2.104
X6.033 Y1.985 Z-2.108
X5.981 Y2.094 Z-2.111
X5.921 Y2.2 Z-2.115
X5.859 Y2.305 Z-2.118
X5.797 Y2.41 Z-2.122
X5.729 Y2.511 Z-2.125
X5.659 Y2.611 Z-2.129
X5.589 Y2.711 Z-2.133
X5.513 Y2.806 Z-2.136
X5.435 Y2.899 Z-2.14
X5.357 Y2.993 Z-2.144
X5.274 Y3.082 Z-2.148
X5.189 Y3.169 Z-2.152
X5.103 Y3.256 Z-2.156
X5.013 Y3.337 Z-2.16
X4.921 Y3.417 Z-2.164
X4.829 Y3.497 Z-2.168
X4.732 Y3.571 Z-2.172
X4.634 Y3.643 Z-2.176
X4.536 Y3.715 Z-2.18
X4.433 Y3.781 Z-2.184
X4.33 Y3.844 Z-2.188
X4.226 Y3.908 Z-2.193
X4.118 Y3.966 Z-2.197
X4.01 Y4.021 Z-2.201
X3.901 Y4.076 Z-2.205
X3.79 Y4.125 Z-2.21
X3.677 Y4.171 Z-2.214
X3.564 Y4.217 Z-2.218
X3.449 Y4.256 Z-2.222
X3.333 Y4.293 Z-2.227
X3.217 Y4.33 Z-2.231
X3.099 Y4.36 Z-2.235
X2.98 Y4.387 Z-2.239
X2.861 Y4.414 Z-2.244
X2.741 Y4.435 Z-2.248
X2.621 Y4.452 Z-2.252
X2.5 Y4.469 Z-2.256
X2.379 Y4.48 Z-2.261
X2.258 Y4.488 Z-2.265
X2.136 Y4.495 Z-2.269
X2.014 Y4.496 Z-2.273
X1.893 Y4.494 Z-2.278
X1.771 Y4.491 Z-2.282
X1.649 Y4.483 Z-2.286
X1.528 Y4.47 Z-2.29
X1.407 Y4.458 Z-2.295
X1.287 Y4.439 Z-2.299
X1.167 Y4.417 Z-2.303
X1.047 Y4.395 Z-2.307
X0.929 Y4.367 Z-2.312
X0.694 Y4.303 Z-2.32
X0.578 Y4.266 Z-2.324
X0.349 Y4.183 Z-2.333
X0.236 Y4.136 Z-2.337
X0.015 Y4.035 Z-2.346
X-0.094 Y3.979 Z-2.35
X-0.306 Y3.86 Z-2.359
X-0.41 Y3.796 Z-2.363
X-0.612 Y3.66 Z-2.371
X-0.71 Y3.588 Z-2.376
X-0.9 Y3.436 Z-2.384
X-0.992 Y3.357 Z-2.388
X-1.17 Y3.19 Z-2.397
X-1.255 Y3.103 Z-2.401
X-1.418 Y2.922 Z-2.41
X-1.496 Y2.828 Z-2.414
X-1.644 Y2.635 Z-2.422
X-1.714 Y2.535 Z-2.427
X-1.846 Y2.33 Z-2.435
X-1.907 Y2.225 Z-2.439
X-2.022 Y2.011 Z-2.448
X-2.075 Y1.901 Z-2.452
X-2.172 Y1.677 Z-2.461
X-2.216 Y1.564 Z-2.465
X-2.294 Y1.333 Z-2.473
X-2.329 Y1.217 Z-2.478
X-2.388 Y0.98 Z-2.486
X-2.414 Y0.861 Z-2.49
X-2.453 Y0.621 Z-2.499
X-2.469 Y0.5 Z-2.503
X-2.489 Y0.258 Z-2.512
X-2.495 Y0.136 Z-2.516
Y-0.108 Z-2.524
X-2.491 Y-0.229 Z-2.529
X-2.471 Y-0.472 Z-2.537
X-2.458 Y-0.593 Z-2.541
X-2.418 Y-0.833 Z-2.55
X-2.395 Y-0.953 Z-2.554
X-2.336 Y-1.189 Z-2.563
X-2.303 Y-1.306 Z-2.567
X-2.225 Y-1.537 Z-2.575
X-2.183 Y-1.651 Z-2.58
X-2.086 Y-1.875 Z-2.588
X-2.035 Y-1.986 Z-2.592
X-1.921 Y-2.2 Z-2.601
X-1.861 Y-2.307 Z-2.605
X-1.729 Y-2.511 Z-2.614
X-1.661 Y-2.612 Z-2.618
X-1.513 Y-2.806 Z-2.626
X-1.437 Y-2.901 Z-2.631
X-1.274 Y-3.082 Z-2.639
X-1.19 Y-3.17 Z-2.643
X-1.013 Y-3.337 Z-2.652
X-0.922 Y-3.419 Z-2.656
X-0.732 Y-3.571 Z-2.665
X-0.635 Y-3.645 Z-2.669
X-0.433 Y-3.781 Z-2.677
X-0.331 Y-3.847 Z-2.682
X-0.225 Y-3.906 Z-2.686
X-0.118 Y-3.966 Z-2.69
X-0.011 Y-4.023 Z-2.694
X0.1 Y-4.074 Z-2.699
X0.21 Y-4.124 Z-2.703
X0.322 Y-4.173 Z-2.707
X0.437 Y-4.215 Z-2.711
X0.551 Y-4.256 Z-2.716
X0.666 Y-4.296 Z-2.72
X0.784 Y-4.328 Z-2.724
X0.901 Y-4.359 Z-2.728
X1.019 Y-4.39 Z-2.733
X1.139 Y-4.412 Z-2.737
X1.259 Y-4.434 Z-2.741
X1.379 Y-4.455 Z-2.745
X1.5 Y-4.467 Z-2.75
X1.621 Y-4.48 Z-2.754
X1.742 Y-4.491 Z-2.758
X1.864 Y-4.493 Z-2.762
X1.986 Y-4.496 Z-2.767
X2.108 Y-4.497 Z-2.771
X2.229 Y-4.489 Z-2.775
X2.351 Y-4.482 Z-2.779
X2.472 Y-4.473 Z-2.784
X2.593 Y-4.456 Z-2.788
X2.713 Y-4.439 Z-2.792
X2.834 Y-4.42 Z-2.796
X2.953 Y-4.393 Z-2.801
X3.071 Y-4.366 Z-2.805
X3.19 Y-4.338 Z-2.809
X3.306 Y-4.301 Z-2.813
X3.422 Y-4.265 Z-2.818
X3.538 Y-4.227 Z-2.822
X3.651 Y-4.181 Z-2.826
X3.763 Y-4.135 Z-2.83
X3.876 Y-4.089 Z-2.834
X3.985 Y-4.034 Z-2.838
X4.093 Y-3.978 Z-2.842
X4.202 Y-3.923 Z-2.846
X4.305 Y-3.859 Z-2.85
X4.409 Y-3.795 Z-2.854
X4.513 Y-3.731 Z-2.858
X4.611 Y-3.659 Z-2.861
X4.709 Y-3.587 Z-2.865
X4.807 Y-3.515 Z-2.869
X4.899 Y-3.435 Z-2.873
X4.991 Y-3.356 Z-2.876
X5.083 Y-3.276 Z-2.88
X5.169 Y-3.189 Z-2.883
X5.254 Y-3.102 Z-2.887
X5.339 Y-3.015 Z-2.89
X5.417 Y-2.921 Z-2.894
X5.495 Y-2.827 Z-2.897
X5.573 Y-2.734 Z-2.9
X5.643 Y-2.634 Z-2.904
X5.713 Y-2.534 Z-2.907
X5.783 Y-2.435 Z-2.91
X5.845 Y-2.33 Z-2.913
X5.906 Y-2.225 Z-2.916
X5.968 Y-2.12 Z-2.92
X6.021 Y-2.01 Z-2.923
X6.074 Y-1.9 Z-2.926
X6.127 Y-1.791 Z-2.928
X6.171 Y-1.677 Z-2.931
X6.215 Y-1.563 Z-2.934
X6.258 Y-1.45 Z-2.937
X6.293 Y-1.333 Z-2.94
X6.328 Y-1.216 Z-2.942
X6.362 Y-1.099 Z-2.945
X6.387 Y-0.98 Z-2.947
X6.412 Y-0.861 Z-2.95
X6.453 Y-0.621 Z-2.955
X6.482 Y-0.379 Z-2.959
X6.493 Y-0.136 Z-2.964
X6.494 Y0.108 Z-2.968
X6.484 Y0.351 Z-2.972
X6.456 Y0.593 Z-2.975
X6.418 Y0.833 Z-2.979
X6.368 Y1.072 Z-2.982
X6.301 Y1.306 Z-2.985
X6.225 Y1.537 Z-2.988
X6.137 Y1.764 Z-2.99
X6.033 Y1.985 Z-2.992
X5.921 Y2.2 Z-2.994
X5.797 Y2.41 Z-2.996
X5.659 Y2.611 Z-2.997
X5.513 Y2.806 Z-2.998
X5.357 Y2.993 Z-2.999
X5.189 Y3.169 Z-3
X5.013 Y3.337
X4.961 Y3.382
X4.836 Y3.491
X4.788 Y3.529
X4.559 Y3.697
X4.421 Y3.788
X4.283 Y3.873
X4.16 Y3.945
X3.887 Y4.083
X3.868 Y4.092
X3.552 Y4.221
X3.454 Y4.255
X3.316 Y4.298
X3.178 Y4.342
X2.901 Y4.405
X2.763 Y4.432
X2.487 Y4.471
X2.349 Y4.482
X2.211 Y4.491
X2.072 Y4.497
X1.796 Y4.492
X1.658 Y4.483
X1.382 Y4.455
X1.243 Y4.431
X1.105 Y4.406
X0.967 Y4.377
X0.691 Y4.302
X0.553 Y4.256
X0.414 Y4.207
X0.276 Y4.154
X0 Y4.028
X-0.138 Y3.954
X-0.276 Y3.877
X-0.395 Y3.806
X-0.601 Y3.668
X-0.691 Y3.603
X-0.829 Y3.493
X-0.956 Y3.391
X-1.105 Y3.25
X-1.243 Y3.115
X-1.382 Y2.962
X-1.489 Y2.837
X-1.658 Y2.616
X-1.698 Y2.561
X-1.876 Y2.284
X-1.934 Y2.175
X-2.024 Y2.007
X-2.072 Y1.908
X-2.149 Y1.73
X-2.207 Y1.592
X-2.3 Y1.315
X-2.339 Y1.176
X-2.374 Y1.038
X-2.407 Y0.9
X-2.453 Y0.623
X-2.47 Y0.484
X-2.493 Y0.208
X-2.495 Y0.069
Y-0.069
X-2.493 Y-0.208
X-2.47 Y-0.484
X-2.453 Y-0.623
X-2.407 Y-0.9
X-2.374 Y-1.038
X-2.339 Y-1.176
X-2.3 Y-1.315
X-2.207 Y-1.592
X-2.149 Y-1.73
X-2.072 Y-1.908
X-2.024 Y-2.007
X-1.934 Y-2.175
X-1.876 Y-2.284
X-1.698 Y-2.561
X-1.658 Y-2.616
X-1.489 Y-2.837
X-1.382 Y-2.962
X-1.243 Y-3.115
X-1.105 Y-3.25
X-0.956 Y-3.391
X-0.829 Y-3.493
X-0.691 Y-3.603
X-0.601 Y-3.668
X-0.395 Y-3.806
X-0.276 Y-3.877
X-0.138 Y-3.954
X0 Y-4.028
X0.276 Y-4.154
X0.414 Y-4.207
X0.553 Y-4.256
X0.691 Y-4.302
X0.967 Y-4.377
X1.105 Y-4.406
X1.243 Y-4.431
X1.382 Y-4.455
X1.658 Y-4.483
X1.796 Y-4.492
X2.072 Y-4.497
X2.211 Y-4.491
X2.349 Y-4.482
X2.487 Y-4.471
X2.763 Y-4.432
X2.901 Y-4.405
X3.178 Y-4.342
X3.316 Y-4.298
X3.454 Y-4.255
X3.552 Y-4.221
X3.868 Y-4.092
X3.887 Y-4.083
X4.16 Y-3.945
X4.283 Y-3.873
X4.421 Y-3.788
X4.559 Y-3.697
X4.788 Y-3.529
X4.836 Y-3.491
X4.974 Y-3.371
X5.106 Y-3.253
X5.25 Y-3.106
X5.372 Y-2.976
X5.526 Y-2.79
X5.597 Y-2.699
X5.695 Y-2.561
X5.79 Y-2.422
X5.953 Y-2.145
X6.023 Y-2.007
X6.089 Y-1.869
X6.151 Y-1.73
X6.257 Y-1.453
X6.299 Y-1.315
X6.355 Y-1.122
X6.375 Y-1.038
X6.433 Y-0.761
X6.452 Y-0.623
X6.469 Y-0.484
X6.485 Y-0.346
X6.496 Y-0.069
Y0.069
X6.485 Y0.346
X6.469 Y0.484
X6.452 Y0.623
X6.433 Y0.761
X6.375 Y1.038
X6.355 Y1.122
X6.299 Y1.315
X6.257 Y1.453
X6.151 Y1.73
X6.089 Y1.869
X6.023 Y2.007
X5.953 Y2.145
X5.79 Y2.422
X5.695 Y2.561
X5.597 Y2.699
X5.526 Y2.79
X5.372 Y2.976
X5.25 Y3.106
X5.106 Y3.253
X4.974 Y3.371
X4.961 Y3.382
X4.775 Y3.539
X4.579 Y3.683 Z-3.001
X4.375 Y3.816
X4.166 Y3.941 Z-3.002
X3.949 Y4.052 Z-3.004
X3.727 Y4.15 Z-3.005
X3.5 Y4.24 Z-3.007
X3.268 Y4.313 Z-3.009
X3.033 Y4.375 Z-3.011
X2.795 Y4.427 Z-3.014
X2.553 Y4.462 Z-3.017
X2.311 Y4.484 Z-3.02
X2.068 Y4.497 Z-3.024
X1.824 Y4.492 Z-3.027
X1.581 Y4.476 Z-3.031
X1.339 Y4.449 Z-3.035
X1.1 Y4.405 Z-3.039
X0.863 Y4.349 Z-3.044
X0.628 Y4.284 Z-3.049
X0.399 Y4.201 Z-3.054
X0.285 Y4.158 Z-3.056
X0.174 Y4.108 Z-3.059
X0.063 Y4.057 Z-3.062
X-0.047 Y4.006 Z-3.064
X-0.153 Y3.946 Z-3.067
X-0.259 Y3.887 Z-3.07
X-0.365 Y3.826 Z-3.073
X-0.466 Y3.758 Z-3.076
X-0.567 Y3.69 Z-3.079
X-0.668 Y3.622 Z-3.082
X-0.763 Y3.546 Z-3.085
X-0.858 Y3.47 Z-3.088
X-0.953 Y3.393 Z-3.091
X-1.042 Y3.31 Z-3.094
X-1.131 Y3.226 Z-3.098
X-1.219 Y3.142 Z-3.101
X-1.3 Y3.052 Z-3.104
X-1.382 Y2.962 Z-3.108
X-1.463 Y2.871 Z-3.111
X-1.537 Y2.774 Z-3.115
X-1.611 Y2.677 Z-3.118
X-1.685 Y2.58 Z-3.122
X-1.751 Y2.478 Z-3.125
X-1.817 Y2.375 Z-3.129
X-1.882 Y2.273 Z-3.133
X-1.94 Y2.165 Z-3.136
X-1.997 Y2.058 Z-3.14
X-2.054 Y1.95 Z-3.144
X-2.102 Y1.839 Z-3.148
X-2.151 Y1.727 Z-3.152
X-2.199 Y1.615 Z-3.156
X-2.238 Y1.499 Z-3.16
X-2.277 Y1.384 Z-3.164
X-2.316 Y1.269 Z-3.168
X-2.346 Y1.151 Z-3.172
X-2.375 Y1.032 Z-3.176
X-2.405 Y0.914 Z-3.18
X-2.425 Y0.794 Z-3.184
X-2.445 Y0.674 Z-3.188
X-2.464 Y0.554 Z-3.193
X-2.475 Y0.432 Z-3.197
X-2.485 Y0.311 Z-3.201
X-2.495 Y0.19 Z-3.205
Y0.068 Z-3.21
Y-0.054 Z-3.214
Y-0.176 Z-3.218
X-2.486 Y-0.297 Z-3.222
X-2.476 Y-0.419 Z-3.227
X-2.466 Y-0.54 Z-3.231
X-2.447 Y-0.66 Z-3.235
X-2.427 Y-0.781 Z-3.239
X-2.407 Y-0.901 Z-3.244
X-2.379 Y-1.019 Z-3.248
X-2.349 Y-1.137 Z-3.252
X-2.32 Y-1.255 Z-3.256
X-2.281 Y-1.371 Z-3.261
X-2.242 Y-1.486 Z-3.265
X-2.203 Y-1.602 Z-3.269
X-2.156 Y-1.714 Z-3.273
X-2.108 Y-1.826 Z-3.278
X-2.059 Y-1.938 Z-3.282
X-2.003 Y-2.046 Z-3.286
X-1.946 Y-2.153 Z-3.29
X-1.889 Y-2.261 Z-3.295
X-1.824 Y-2.364 Z-3.299
X-1.758 Y-2.466 Z-3.303
X-1.692 Y-2.569 Z-3.307
X-1.62 Y-2.666 Z-3.312
X-1.472 Y-2.86 Z-3.32
X-1.391 Y-2.951 Z-3.325
X-1.228 Y-3.132 Z-3.333
X-1.141 Y-3.217 Z-3.337
X-0.963 Y-3.384 Z-3.346
X-0.869 Y-3.461 Z-3.35
X-0.679 Y-3.613 Z-3.359
X-0.579 Y-3.683 Z-3.363
X-0.377 Y-3.819 Z-3.371
X-0.271 Y-3.88 Z-3.376
X-0.059 Y-3.999 Z-3.384
X0.051 Y-4.051 Z-3.388
X0.272 Y-4.153 Z-3.397
X0.386 Y-4.196 Z-3.401
X0.615 Y-4.279 Z-3.41
X0.732 Y-4.313 Z-3.414
X0.967 Y-4.377 Z-3.422
X1.086 Y-4.402 Z-3.427
X1.326 Y-4.447 Z-3.435
X1.447 Y-4.462 Z-3.439
X1.689 Y-4.487 Z-3.448
X1.811 Y-4.492 Z-3.452
X2.054 Y-4.497 Z-3.461
X2.176 Y-4.493 Z-3.465
X2.419 Y-4.478 Z-3.473
X2.54 Y-4.464 Z-3.478
X2.781 Y-4.429 Z-3.486
X2.9 Y-4.405 Z-3.49
X3.138 Y-4.351 Z-3.499
X3.255 Y-4.318 Z-3.503
X3.487 Y-4.244 Z-3.512
X3.601 Y-4.202 Z-3.516
X3.827 Y-4.109 Z-3.524
X3.937 Y-4.058 Z-3.529
X4.154 Y-3.948 Z-3.537
X4.26 Y-3.887 Z-3.541
X4.467 Y-3.76 Z-3.55
X4.568 Y-3.691 Z-3.554
X4.764 Y-3.547 Z-3.563
X4.859 Y-3.471 Z-3.567
X5.043 Y-3.311 Z-3.575
X5.131 Y-3.227 Z-3.58
X5.302 Y-3.053 Z-3.588
X5.383 Y-2.962 Z-3.592
X5.538 Y-2.775 Z-3.601
X5.612 Y-2.678 Z-3.605
X5.752 Y-2.479 Z-3.614
X5.818 Y-2.376 Z-3.618
X5.941 Y-2.166 Z-3.626
X5.998 Y-2.058 Z-3.631
X6.103 Y-1.839 Z-3.639
X6.152 Y-1.727 Z-3.643
X6.239 Y-1.5 Z-3.652
X6.278 Y-1.385 Z-3.656
X6.347 Y-1.151 Z-3.665
X6.377 Y-1.033 Z-3.669
X6.426 Y-0.794 Z-3.677
X6.446 Y-0.674 Z-3.682
X6.476 Y-0.432 Z-3.69
X6.486 Y-0.311 Z-3.694
X6.491 Y-0.189 Z-3.699
X6.496 Y-0.068 Z-3.703
X6.497 Y0.054 Z-3.707
X6.492 Y0.176 Z-3.711
X6.487 Y0.297 Z-3.716
X6.477 Y0.419 Z-3.72
X6.463 Y0.54 Z-3.724
X6.448 Y0.66 Z-3.728
X6.429 Y0.781 Z-3.733
X6.404 Y0.9 Z-3.737
X6.379 Y1.019 Z-3.741
X6.351 Y1.138 Z-3.745
X6.316 Y1.254 Z-3.75
X6.282 Y1.371 Z-3.754
X6.244 Y1.487 Z-3.758
X6.2 Y1.601 Z-3.762
X6.157 Y1.714 Z-3.767
X6.109 Y1.827 Z-3.771
X6.057 Y1.936 Z-3.775
X6.004 Y2.046 Z-3.779
X5.948 Y2.154 Z-3.784
X5.886 Y2.259 Z-3.788
X5.825 Y2.364 Z-3.792
X5.76 Y2.467 Z-3.796
X5.69 Y2.567 Z-3.801
X5.62 Y2.667 Z-3.805
X5.547 Y2.764 Z-3.809
X5.469 Y2.858 Z-3.813
X5.392 Y2.952 Z-3.818
X5.311 Y3.043 Z-3.822
X5.226 Y3.13 Z-3.826
X5.141 Y3.217 Z-3.83
X5.053 Y3.302 Z-3.834
X4.961 Y3.382 Z-3.838
X4.869 Y3.461 Z-3.842
X4.775 Y3.539 Z-3.846
X4.677 Y3.611 Z-3.85
X4.579 Y3.683 Z-3.854
X4.479 Y3.753 Z-3.858
X4.375 Y3.816 Z-3.861
X4.271 Y3.88 Z-3.865
X4.166 Y3.941 Z-3.869
X4.058 Y3.996 Z-3.873
X3.949 Y4.052 Z-3.876
X3.839 Y4.104 Z-3.88
X3.727 Y4.15 Z-3.883
X3.614 Y4.196 Z-3.887
X3.5 Y4.24 Z-3.89
X3.384 Y4.277 Z-3.894
X3.268 Y4.313 Z-3.897
X3.151 Y4.348 Z-3.901
X3.033 Y4.375 Z-3.904
X2.914 Y4.402 Z-3.907
X2.795 Y4.427 Z-3.91
X2.674 Y4.444 Z-3.913
X2.553 Y4.462 Z-3.916
X2.433 Y4.477 Z-3.92
X2.311 Y4.484 Z-3.923
X2.19 Y4.492 Z-3.926
X2.068 Y4.497 Z-3.928
X1.946 Y4.495 Z-3.931
X1.824 Y4.492 Z-3.934
X1.703 Y4.488 Z-3.937
X1.581 Y4.476 Z-3.94
X1.46 Y4.463 Z-3.942
X1.339 Y4.449 Z-3.945
X1.22 Y4.427 Z-3.947
X1.1 Y4.405 Z-3.95
X0.863 Y4.349 Z-3.955
X0.628 Y4.284 Z-3.959
X0.399 Y4.201 Z-3.964
X0.174 Y4.108 Z-3.968
X-0.047 Y4.006 Z-3.972
X-0.259 Y3.887 Z-3.975
X-0.466 Y3.758 Z-3.979
X-0.668 Y3.622 Z-3.982
X-0.858 Y3.47 Z-3.985
X-1.042 Y3.31 Z-3.988
X-1.219 Y3.142 Z-3.99
X-1.382 Y2.962 Z-3.992
X-1.537 Y2.774 Z-3.994
X-1.685 Y2.58 Z-3.996
X-1.817 Y2.375 Z-3.997
X-1.94 Y2.165 Z-3.998
X-2.054 Y1.95 Z-3.999
X-2.151 Y1.727 Z-4
X-2.238 Y1.499
X-2.26 Y1.435
X-2.3 Y1.315
X-2.339 Y1.176
X-2.374 Y1.038
X-2.407 Y0.9
X-2.453 Y0.623
X-2.47 Y0.484
X-2.493 Y0.208
X-2.495 Y0.069
Y-0.069
X-2.493 Y-0.208
X-2.47 Y-0.484
X-2.453 Y-0.623
X-2.407 Y-0.9
X-2.374 Y-1.038
X-2.339 Y-1.176
X-2.3 Y-1.315
X-2.207 Y-1.592
X-2.149 Y-1.73
X-2.072 Y-1.908
X-2.024 Y-2.007
X-1.934 Y-2.175
X-1.876 Y-2.284
X-1.698 Y-2.561
X-1.658 Y-2.616
X-1.489 Y-2.837
X-1.382 Y-2.962
X-1.243 Y-3.115
X-1.105 Y-3.25
X-0.956 Y-3.391
X-0.829 Y-3.493
X-0.691 Y-3.603
X-0.601 Y-3.668
X-0.395 Y-3.806
X-0.276 Y-3.877
X-0.138 Y-3.954
X0 Y-4.028
X0.276 Y-4.154
X0.414 Y-4.207
X0.553 Y-4.256
X0.691 Y-4.302
X0.967 Y-4.377
X1.105 Y-4.406
X1.243 Y-4.431
X1.382 Y-4.455
X1.658 Y-4.483
X1.796 Y-4.492
X2.072 Y-4.497
X2.211 Y-4.491
X2.349 Y-4.482
X2.487 Y-4.471
X2.763 Y-4.432
X2.901 Y-4.405
X3.178 Y-4.342
X3.316 Y-4.298
X3.454 Y-4.255
X3.552 Y-4.221
X3.868 Y-4.092
X3.887 Y-4.083
X4.16 Y-3.945
X4.283 Y-3.873
X4.421 Y-3.788
X4.559 Y-3.697
X4.788 Y-3.529
X4.836 Y-3.491
X4.974 Y-3.371
X5.106 Y-3.253
X5.25 Y-3.106
X5.372 Y-2.976
X5.526 Y-2.79
X5.597 Y-2.699
X5.695 Y-2.561
X5.79 Y-2.422
X5.953 Y-2.145
X6.023 Y-2.007
X6.089 Y-1.869
X6.151 Y-1.73
X6.257 Y-1.453
X6.299 Y-1.315
X6.355 Y-1.122
X6.375 Y-1.038
X6.433 Y-0.761
X6.452 Y-0.623
X6.469 Y-0.484
X6.485 Y-0.346
X6.496 Y-0.069
Y0.069
X6.485 Y0.346
X6.469 Y0.484
X6.452 Y0.623
X6.433 Y0.761
X6.375 Y1.038
X6.355 Y1.122
X6.299 Y1.315
X6.257 Y1.453
X6.151 Y1.73
X6.089 Y1.869
X6.023 Y2.007
X5.953 Y2.145
X5.79 Y2.422
X5.695 Y2.561
X5.597 Y2.699
X5.526 Y2.79
X5.372 Y2.976
X5.25 Y3.106
X5.106 Y3.253
X4.974 Y3.371
X4.836 Y3.491
X4.788 Y3.529
X4.559 Y3.697
X4.421 Y3.788
X4.283 Y3.873
X4.16 Y3.945
X3.887 Y4.083
X3.868 Y4.092
X3.552 Y4.221
X3.454 Y4.255
X3.316 Y4.298
X3.178 Y4.342
X2.901 Y4.405
X2.763 Y4.432
X2.487 Y4.471
X2.349 Y4.482
X2.211 Y4.491
X2.072 Y4.497
X1.796 Y4.492
X1.658 Y4.483
X1.382 Y4.455
X1.243 Y4.431
X1.105 Y4.406
X0.967 Y4.377
X0.691 Y4.302
X0.553 Y4.256
X0.414 Y4.207
X0.276 Y4.154
X0 Y4.028
X-0.138 Y3.954
X-0.276 Y3.877
X-0.395 Y3.806
X-0.601 Y3.668
X-0.691 Y3.603
X-0.829 Y3.493
X-0.956 Y3.391
X-1.105 Y3.25
X-1.243 Y3.115
X-1.382 Y2.962
X-1.489 Y2.837
X-1.658 Y2.616
X-1.698 Y2.561
X-1.876 Y2.284
X-1.934 Y2.175
X-2.024 Y2.007
X-2.072 Y1.908
X-2.149 Y1.73
X-2.207 Y1.592
X-2.26 Y1.435
X-2.333 Y1.203
X-2.392 Y0.966 Z-4.001
X-2.436 Y0.727
X-2.47 Y0.486 Z-4.002
X-2.49 Y0.243 Z-4.004
X-2.495 Y0 Z-4.005
X-2.49 Y-0.244 Z-4.007
X-2.47 Y-0.486 Z-4.009
X-2.436 Y-0.728 Z-4.011
X-2.392 Y-0.967 Z-4.014
X-2.333 Y-1.203 Z-4.017
X-2.26 Y-1.436 Z-4.02
X-2.177 Y-1.665 Z-4.024
X-2.081 Y-1.888 Z-4.027
X-1.971 Y-2.106 Z-4.031
X-1.853 Y-2.319 Z-4.035
X-1.721 Y-2.524 Z-4.039
X-1.578 Y-2.72 Z-4.044
X-1.427 Y-2.912 Z-4.049
X-1.264 Y-3.092 Z-4.054
X-1.18 Y-3.18 Z-4.056
X-1.091 Y-3.264 Z-4.059
X-1.002 Y-3.347 Z-4.062
X-0.911 Y-3.428 Z-4.064
X-0.816 Y-3.504 Z-4.067
X-0.721 Y-3.58 Z-4.07
X-0.623 Y-3.653 Z-4.073
X-0.522 Y-3.721 Z-4.076
X-0.421 Y-3.789 Z-4.079
X-0.318 Y-3.854 Z-4.082
X-0.212 Y-3.913 Z-4.085
X-0.106 Y-3.973 Z-4.088
X0.002 Y-4.029 Z-4.091
X0.113 Y-4.08 Z-4.094
X0.224 Y-4.13 Z-4.098
X0.336 Y-4.178 Z-4.101
X0.45 Y-4.219 Z-4.104
X0.565 Y-4.261 Z-4.108
X0.68 Y-4.299 Z-4.111
X0.798 Y-4.331 Z-4.115
X0.915 Y-4.363 Z-4.118
X1.034 Y-4.392 Z-4.122
X1.153 Y-4.415 Z-4.125
X1.273 Y-4.437 Z-4.129
X1.393 Y-4.456 Z-4.133
X1.514 Y-4.469 Z-4.136
X1.635 Y-4.481 Z-4.14
X1.757 Y-4.491 Z-4.144
X1.879 Y-4.493 Z-4.148
X2 Y-4.496 Z-4.152
X2.122 Z-4.156
X2.244 Y-4.489 Z-4.16
X2.365 Y-4.481 Z-4.164
X2.487 Y-4.471 Z-4.168
X2.607 Y-4.454 Z-4.172
X2.728 Y-4.437 Z-4.176
X2.848 Y-4.417 Z-4.18
X2.967 Y-4.39 Z-4.184
X3.085 Y-4.363 Z-4.188
X3.204 Y-4.334 Z-4.193
X3.32 Y-4.297 Z-4.197
X3.436 Y-4.26 Z-4.201
X3.551 Y-4.222 Z-4.205
X3.664 Y-4.176 Z-4.21
X3.777 Y-4.13 Z-4.214
X3.889 Y-4.082 Z-4.218
X3.997 Y-4.027 Z-4.222
X4.106 Y-3.972 Z-4.227
X4.214 Y-3.915 Z-4.231
X4.318 Y-3.852 Z-4.235
X4.421 Y-3.788 Z-4.239
X4.524 Y-3.723 Z-4.244
X4.623 Y-3.651 Z-4.248
X4.721 Y-3.579 Z-4.252
X4.818 Y-3.506 Z-4.256
X4.91 Y-3.426 Z-4.261
X5.002 Y-3.346 Z-4.265
X5.094 Y-3.265 Z-4.269
X5.179 Y-3.178 Z-4.273
X5.264 Y-3.091 Z-4.278
X5.348 Y-3.004 Z-4.282
X5.504 Y-2.816 Z-4.29
X5.581 Y-2.722 Z-4.295
X5.651 Y-2.622 Z-4.299
X5.721 Y-2.523 Z-4.303
X5.79 Y-2.422 Z-4.307
X5.914 Y-2.212 Z-4.316
X5.974 Y-2.107 Z-4.32
X6.08 Y-1.887 Z-4.329
X6.132 Y-1.777 Z-4.333
X6.22 Y-1.55 Z-4.342
X6.263 Y-1.436 Z-4.346
X6.332 Y-1.202 Z-4.354
X6.366 Y-1.085 Z-4.359
X6.415 Y-0.847 Z-4.367
X6.439 Y-0.727 Z-4.371
X6.469 Y-0.486 Z-4.38
X6.484 Y-0.365 Z-4.384
X6.494 Y-0.121 Z-4.393
X6.499 Y0 Z-4.397
X6.484 Y0.365 Z-4.41
X6.469 Y0.486 Z-4.414
X6.439 Y0.728 Z-4.422
X6.415 Y0.847 Z-4.427
X6.366 Y1.086 Z-4.435
X6.332 Y1.203 Z-4.439
X6.263 Y1.437 Z-4.448
X6.22 Y1.55 Z-4.452
X6.132 Y1.778 Z-4.461
X6.08 Y1.888 Z-4.465
X5.974 Y2.107 Z-4.473
X5.913 Y2.213 Z-4.478
X5.79 Y2.423 Z-4.486
X5.721 Y2.523 Z-4.49
X5.581 Y2.722 Z-4.499
X5.504 Y2.817 Z-4.503
X5.348 Y3.004 Z-4.512
X5.264 Y3.092 Z-4.516
X5.093 Y3.266 Z-4.524
X5.002 Y3.347 Z-4.529
X4.818 Y3.506 Z-4.537
X4.72 Y3.579 Z-4.541
X4.524 Y3.723 Z-4.55
X4.421 Y3.788 Z-4.554
X4.213 Y3.916 Z-4.563
X4.106 Y3.972 Z-4.567
X3.888 Y4.082 Z-4.575
X3.776 Y4.13 Z-4.58
X3.551 Y4.222 Z-4.588
X3.435 Y4.261 Z-4.592
X3.203 Y4.334 Z-4.601
X3.085 Y4.363 Z-4.605
X2.847 Y4.417 Z-4.614
X2.727 Y4.437 Z-4.618
X2.486 Y4.471 Z-4.626
X2.365 Y4.481 Z-4.631
X2.122 Y4.496 Z-4.639
X2 Z-4.643
X1.756 Y4.491 Z-4.652
X1.635 Y4.481 Z-4.656
X1.393 Y4.456 Z-4.665
X1.272 Y4.437 Z-4.669
X1.033 Y4.392 Z-4.677
X0.915 Y4.363 Z-4.682
X0.68 Y4.299 Z-4.69
X0.564 Y4.261 Z-4.694
X0.45 Y4.219 Z-4.699
X0.335 Y4.178 Z-4.703
X0.223 Y4.13 Z-4.707
X0.112 Y4.08 Z-4.711
X0.002 Y4.029 Z-4.716
X-0.106 Y3.972 Z-4.72
X-0.213 Y3.913 Z-4.724
X-0.319 Y3.853 Z-4.728
X-0.422 Y3.788 Z-4.733
X-0.523 Y3.72 Z-4.737
X-0.624 Y3.652 Z-4.741
X-0.721 Y3.579 Z-4.745
X-0.816 Y3.503 Z-4.75
X-0.912 Y3.427 Z-4.754
X-1.003 Y3.347 Z-4.758
X-1.091 Y3.263 Z-4.762
X-1.18 Y3.18 Z-4.767
X-1.264 Y3.092 Z-4.771
X-1.346 Y3.001 Z-4.775
X-1.428 Y2.911 Z-4.779
X-1.505 Y2.817 Z-4.784
X-1.579 Y2.72 Z-4.788
X-1.653 Y2.623 Z-4.792
X-1.722 Y2.523 Z-4.796
X-1.788 Y2.421 Z-4.801
X-1.853 Y2.318 Z-4.805
X-1.914 Y2.213 Z-4.809
X-1.972 Y2.105 Z-4.813
X-2.029 Y1.998 Z-4.818
X-2.081 Y1.888 Z-4.822
X-2.129 Y1.776 Z-4.826
X-2.178 Y1.664 Z-4.83
X-2.221 Y1.55 Z-4.834
X-2.26 Y1.435 Z-4.838
X-2.299 Y1.32 Z-4.842
X-2.333 Y1.203 Z-4.846
X-2.362 Y1.085 Z-4.85
X-2.392 Y0.966 Z-4.854
X-2.416 Y0.847 Z-4.858
X-2.436 Y0.727 Z-4.861
X-2.456 Y0.607 Z-4.865
X-2.47 Y0.486 Z-4.869
X-2.48 Y0.365 Z-4.873
X-2.49 Y0.243 Z-4.876
X-2.495 Y0.121 Z-4.88
Y0 Z-4.883
Y-0.122 Z-4.887
X-2.49 Y-0.244 Z-4.89
X-2.48 Y-0.365 Z-4.894
X-2.47 Y-0.486 Z-4.897
X-2.456 Y-0.607 Z-4.901
X-2.436 Y-0.728 Z-4.904
X-2.416 Y-0.848 Z-4.907
X-2.392 Y-0.967 Z-4.91
X-2.362 Y-1.085 Z-4.913
X-2.333 Y-1.203 Z-4.917
X-2.299 Y-1.32 Z-4.92
X-2.26 Y-1.436 Z-4.923
X-2.221 Y-1.551 Z-4.926
X-2.177 Y-1.665 Z-4.928
X-2.129 Y-1.777 Z-4.931
X-2.081 Y-1.888 Z-4.934
X-2.029 Y-1.998 Z-4.937
X-1.971 Y-2.106 Z-4.94
X-1.914 Y-2.213 Z-4.942
X-1.853 Y-2.319 Z-4.945
X-1.787 Y-2.421 Z-4.947
X-1.721 Y-2.524 Z-4.95
X-1.578 Y-2.72 Z-4.955
X-1.427 Y-2.912 Z-4.959
X-1.264 Y-3.092 Z-4.964
X-1.091 Y-3.264 Z-4.968
X-0.911 Y-3.428 Z-4.972
X-0.721 Y-3.58 Z-4.975
X-0.522 Y-3.721 Z-4.979
X-0.318 Y-3.854 Z-4.982
X-0.106 Y-3.973 Z-4.985
X0.113 Y-4.08 Z-4.988
X0.336 Y-4.178 Z-4.99
X0.565 Y-4.261 Z-4.992
X0.798 Y-4.331 Z-4.994
X1.034 Y-4.392 Z-4.996
X1.273 Y-4.437 Z-4.997
X1.514 Y-4.469 Z-4.998
X1.757 Y-4.491 Z-4.999
X2 Y-4.496 Z-5
X2.244 Y-4.489
X2.311 Y-4.484
X2.349 Y-4.482
X2.487 Y-4.471
X2.763 Y-4.432
X2.901 Y-4.405
X3.178 Y-4.342
X3.316 Y-4.298
X3.454 Y-4.255
X3.552 Y-4.221
X3.868 Y-4.092
X3.887 Y-4.083
X4.16 Y-3.945
X4.283 Y-3.873
X4.421 Y-3.788
X4.559 Y-3.697
X4.788 Y-3.529
X4.836 Y-3.491
X4.974 Y-3.371
X5.106 Y-3.253
X5.25 Y-3.106
X5.372 Y-2.976
X5.526 Y-2.79
X5.597 Y-2.699
X5.695 Y-2.561
X5.79 Y-2.422
X5.953 Y-2.145
X6.023 Y-2.007
X6.089 Y-1.869
X6.151 Y-1.73
X6.257 Y-1.453
X6.299 Y-1.315
X6.355 Y-1.122
X6.375 Y-1.038
X6.433 Y-0.761
X6.452 Y-0.623
X6.469 Y-0.484
X6.485 Y-0.346
X6.496 Y-0.069
Y0.069
X6.485 Y0.346
X6.469 Y0.484
X6.452 Y0.623
X6.433 Y0.761
X6.375 Y1.038
X6.355 Y1.122
X6.299 Y1.315
X6.257 Y1.453
X6.151 Y1.73
X6.089 Y1.869
X6.023 Y2.007
X5.953 Y2.145
X5.79 Y2.422
X5.695 Y2.561
X5.597 Y2.699
X5.526 Y2.79
X5.372 Y2.976
X5.25 Y3.106
X5.106 Y3.253
X4.974 Y3.371
X4.836 Y3.491
X4.788 Y3.529
X4.559 Y3.697
X4.421 Y3.788
X4.283 Y3.873
X4.16 Y3.945
X3.887 Y4.083
X3.868 Y4.092
X3.552 Y4.221
X3.454 Y4.255
X3.316 Y4.298
X3.178 Y4.342
X2.901 Y4.405
X2.763 Y4.432
X2.487 Y4.471
X2.349 Y4.482
X2.211 Y4.491
X2.072 Y4.497
X1.796 Y4.492
X1.658 Y4.483
X1.382 Y4.455
X1.243 Y4.431
X1.105 Y4.406
X0.967 Y4.377
X0.691 Y4.302
X0.553 Y4.256
X0.414 Y4.207
X0.276 Y4.154
X0 Y4.028
X-0.138 Y3.954
X-0.276 Y3.877
X-0.395 Y3.806
X-0.601 Y3.668
X-0.691 Y3.603
X-0.829 Y3.493
X-0.956 Y3.391
X-1.105 Y3.25
X-1.243 Y3.115
X-1.382 Y2.962
X-1.489 Y2.837
X-1.658 Y2.616
X-1.698 Y2.561
X-1.876 Y2.284
X-1.934 Y2.175
X-2.024 Y2.007
X-2.072 Y1.908
X-2.149 Y1.73
X-2.207 Y1.592
X-2.26 Y1.435
X-2.3 Y1.315
X-2.339 Y1.176
X-2.374 Y1.038
X-2.407 Y0.9
X-2.453 Y0.623
X-2.47 Y0.484
X-2.493 Y0.208
X-2.495 Y0.069
Y-0.069
X-2.493 Y-0.208
X-2.47 Y-0.484
X-2.453 Y-0.623
X-2.407 Y-0.9
X-2.374 Y-1.038
X-2.339 Y-1.176
X-2.3 Y-1.315
X-2.207 Y-1.592
X-2.149 Y-1.73
X-2.072 Y-1.908
X-2.024 Y-2.007
X-1.934 Y-2.175
X-1.876 Y-2.284
X-1.698 Y-2.561
X-1.658 Y-2.616
X-1.489 Y-2.837
X-1.382 Y-2.962
X-1.243 Y-3.115
X-1.105 Y-3.25
X-0.956 Y-3.391
X-0.829 Y-3.493
X-0.691 Y-3.603
X-0.601 Y-3.668
X-0.395 Y-3.806
X-0.276 Y-3.877
X-0.138 Y-3.954
X0 Y-4.028
X0.276 Y-4.154
X0.414 Y-4.207
X0.553 Y-4.256
X0.691 Y-4.302
X0.967 Y-4.377
X1.105 Y-4.406
X1.243 Y-4.431
X1.382 Y-4.455
X1.658 Y-4.483
X1.796 Y-4.492
X2.072 Y-4.497
X2.211 Y-4.491
X2.311 Y-4.484
X2.553 Y-4.462
X2.795 Y-4.427 Z-5.001
X3.032 Y-4.375
X3.268 Y-4.313 Z-5.002
X3.5 Y-4.24 Z-5.004
X3.727 Y-4.15 Z-5.005
X3.949 Y-4.052 Z-5.007
X4.166 Y-3.941 Z-5.009
X4.375 Y-3.816 Z-5.011
X4.579 Y-3.683 Z-5.014
X4.775 Y-3.539 Z-5.017
X4.961 Y-3.382 Z-5.02
X5.141 Y-3.217 Z-5.024
X5.311 Y-3.043 Z-5.027
X5.469 Y-2.858 Z-5.031
X5.62 Y-2.667 Z-5.035
X5.76 Y-2.467 Z-5.039
X5.886 Y-2.259 Z-5.044
X6.004 Y-2.046 Z-5.049
X6.109 Y-1.827 Z-5.054
X6.157 Y-1.714 Z-5.056
X6.2 Y-1.601 Z-5.059
X6.244 Y-1.487 Z-5.062
X6.282 Y-1.371 Z-5.064
X6.316 Y-1.255 Z-5.067
X6.351 Y-1.138 Z-5.07
X6.379 Y-1.019 Z-5.073
X6.404 Y-0.9 Z-5.076
X6.429 Y-0.781 Z-5.079
X6.448 Y-0.661 Z-5.082
X6.463 Y-0.54 Z-5.085
X6.477 Y-0.419 Z-5.088
X6.487 Y-0.297 Z-5.091
X6.492 Y-0.176 Z-5.094
X6.497 Y-0.054 Z-5.098
X6.496 Y0.068 Z-5.101
X6.491 Y0.189 Z-5.104
X6.486 Y0.311 Z-5.108
X6.476 Y0.432 Z-5.111
X6.461 Y0.553 Z-5.115
X6.446 Y0.674 Z-5.118
X6.426 Y0.794 Z-5.122
X6.401 Y0.913 Z-5.125
X6.377 Y1.033 Z-5.129
X6.347 Y1.151 Z-5.133
X6.313 Y1.268 Z-5.136
X6.278 Y1.384 Z-5.14
X6.239 Y1.5 Z-5.144
X6.195 Y1.613 Z-5.148
X6.152 Y1.727 Z-5.152
X6.104 Y1.839 Z-5.156
X6.051 Y1.949 Z-5.16
X5.998 Y2.058 Z-5.164
X5.941 Y2.166 Z-5.168
X5.879 Y2.271 Z-5.172
X5.818 Y2.376 Z-5.176
X5.752 Y2.479 Z-5.18
X5.682 Y2.578 Z-5.184
X5.612 Y2.678 Z-5.188
X5.539 Y2.775 Z-5.193
X5.461 Y2.869 Z-5.197
X5.383 Y2.962 Z-5.201
X5.302 Y3.053 Z-5.205
X5.216 Y3.14 Z-5.21
X5.131 Y3.227 Z-5.214
X5.043 Y3.311 Z-5.218
X4.951 Y3.391 Z-5.222
X4.859 Y3.47 Z-5.227
X4.764 Y3.547 Z-5.231
X4.666 Y3.619 Z-5.235
X4.568 Y3.691 Z-5.239
X4.467 Y3.76 Z-5.244
X4.364 Y3.823 Z-5.248
X4.26 Y3.887 Z-5.252
X4.154 Y3.948 Z-5.256
X4.045 Y4.003 Z-5.261
X3.937 Y4.058 Z-5.265
X3.827 Y4.109 Z-5.269
X3.714 Y4.155 Z-5.273
X3.601 Y4.202 Z-5.278
X3.487 Y4.244 Z-5.282
X3.371 Y4.281 Z-5.286
X3.255 Y4.318 Z-5.29
X3.138 Y4.351 Z-5.295
X3.019 Y4.378 Z-5.299
X2.9 Y4.405 Z-5.303
X2.781 Y4.429 Z-5.307
X2.54 Y4.464 Z-5.316
X2.419 Y4.478 Z-5.32
X2.176 Y4.493 Z-5.329
X2.054 Y4.497 Z-5.333
X1.811 Y4.492 Z-5.342
X1.689 Y4.487 Z-5.346
X1.447 Y4.462 Z-5.354
X1.326 Y4.447 Z-5.359
X1.086 Y4.402 Z-5.367
X0.967 Y4.377 Z-5.371
X0.732 Y4.313 Z-5.38
X0.615 Y4.279 Z-5.384
X0.386 Y4.196 Z-5.393
X0.273 Y4.153 Z-5.397
X0.051 Y4.051 Z-5.405
X-0.059 Y3.999 Z-5.41
X-0.271 Y3.88 Z-5.418
X-0.377 Y3.819 Z-5.422
X-0.579 Y3.683 Z-5.431
X-0.679 Y3.613 Z-5.435
X-0.869 Y3.461 Z-5.444
X-0.963 Y3.384 Z-5.448
X-1.141 Y3.217 Z-5.456
X-1.228 Y3.132 Z-5.461
X-1.391 Y2.951 Z-5.469
X-1.472 Y2.86 Z-5.473
X-1.62 Y2.666 Z-5.482
X-1.692 Y2.569 Z-5.486
X-1.824 Y2.364 Z-5.495
X-1.889 Y2.261 Z-5.499
X-2.003 Y2.046 Z-5.507
X-2.059 Y1.938 Z-5.512
X-2.156 Y1.714 Z-5.52
X-2.203 Y1.602 Z-5.524
X-2.281 Y1.371 Z-5.533
X-2.32 Y1.255 Z-5.537
X-2.379 Y1.019 Z-5.546
X-2.407 Y0.901 Z-5.55
X-2.447 Y0.66 Z-5.558
X-2.466 Y0.54 Z-5.563
X-2.486 Y0.297 Z-5.571
X-2.495 Y0.176 Z-5.575
Y-0.068 Z-5.584
Y-0.19 Z-5.588
X-2.475 Y-0.432 Z-5.597
X-2.464 Y-0.554 Z-5.601
X-2.425 Y-0.794 Z-5.609
X-2.405 Y-0.914 Z-5.614
X-2.346 Y-1.151 Z-5.622
X-2.316 Y-1.269 Z-5.626
X-2.199 Y-1.615 Z-5.639
X-2.151 Y-1.727 Z-5.643
X-2.054 Y-1.95 Z-5.652
X-1.997 Y-2.058 Z-5.656
X-1.882 Y-2.273 Z-5.665
X-1.817 Y-2.375 Z-5.669
X-1.685 Y-2.58 Z-5.677
X-1.611 Y-2.677 Z-5.682
X-1.463 Y-2.871 Z-5.69
X-1.382 Y-2.962 Z-5.694
X-1.3 Y-3.052 Z-5.699
X-1.219 Y-3.142 Z-5.703
X-1.131 Y-3.226 Z-5.707
X-0.953 Y-3.393 Z-5.716
X-0.858 Y-3.47 Z-5.72
X-0.763 Y-3.546 Z-5.724
X-0.668 Y-3.622 Z-5.728
X-0.567 Y-3.69 Z-5.733
X-0.466 Y-3.758 Z-5.737
X-0.365 Y-3.826 Z-5.741
X-0.259 Y-3.887 Z-5.745
X-0.153 Y-3.946 Z-5.75
X-0.047 Y-4.005 Z-5.754
X0.063 Y-4.057 Z-5.758
X0.174 Y-4.108 Z-5.762
X0.285 Y-4.158 Z-5.767
X0.399 Y-4.201 Z-5.771
X0.514 Y-4.242 Z-5.775
X0.628 Y-4.284 Z-5.779
X0.745 Y-4.317 Z-5.784
X0.863 Y-4.349 Z-5.788
X0.98 Y-4.381 Z-5.792
X1.1 Y-4.405 Z-5.796
X1.22 Y-4.427 Z-5.801
X1.339 Y-4.449 Z-5.805
X1.46 Y-4.463 Z-5.809
X1.581 Y-4.476 Z-5.813
X1.703 Y-4.488 Z-5.818
X1.824 Y-4.492 Z-5.822
X1.946 Y-4.495 Z-5.826
X2.068 Y-4.497 Z-5.83
X2.189 Y-4.492 Z-5.834
X2.311 Y-4.484 Z-5.838
X2.433 Y-4.477 Z-5.842
X2.553 Y-4.462 Z-5.846
X2.674 Y-4.444 Z-5.85
X2.795 Y-4.427 Z-5.854
X2.914 Y-4.402 Z-5.858
X3.032 Y-4.375 Z-5.861
X3.151 Y-4.348 Z-5.865
X3.268 Y-4.313 Z-5.869
X3.384 Y-4.277 Z-5.873
X3.5 Y-4.24 Z-5.876
X3.614 Y-4.196 Z-5.88
X3.727 Y-4.15 Z-5.883
X3.839 Y-4.104 Z-5.887
X3.949 Y-4.052 Z-5.89
X4.058 Y-3.997 Z-5.894
X4.166 Y-3.941 Z-5.897
X4.271 Y-3.88 Z-5.901
X4.375 Y-3.816 Z-5.904
X4.479 Y-3.753 Z-5.907
X4.579 Y-3.683 Z-5.91
X4.677 Y-3.611 Z-5.913
X4.775 Y-3.539 Z-5.917
X4.869 Y-3.462 Z-5.92
X4.961 Y-3.382 Z-5.923
X5.053 Y-3.302 Z-5.926
X5.141 Y-3.217 Z-5.928
X5.226 Y-3.13 Z-5.931
X5.311 Y-3.043 Z-5.934
X5.392 Y-2.952 Z-5.937
X5.469 Y-2.858 Z-5.94
X5.547 Y-2.764 Z-5.942
X5.62 Y-2.667 Z-5.945
X5.69 Y-2.567 Z-5.947
X5.76 Y-2.467 Z-5.95
X5.886 Y-2.259 Z-5.955
X6.004 Y-2.046 Z-5.959
X6.109 Y-1.827 Z-5.964
X6.2 Y-1.601 Z-5.968
X6.282 Y-1.371 Z-5.972
X6.351 Y-1.138 Z-5.975
X6.404 Y-0.9 Z-5.979
X6.448 Y-0.661 Z-5.982
X6.477 Y-0.419 Z-5.985
X6.492 Y-0.176 Z-5.988
X6.496 Y0.068 Z-5.99
X6.486 Y0.311 Z-5.992
X6.461 Y0.553 Z-5.994
X6.426 Y0.794 Z-5.996
X6.377 Y1.033 Z-5.997
X6.313 Y1.268 Z-5.998
X6.239 Y1.5 Z-5.999
X6.152 Y1.727 Z-6
X6.051 Y1.949
X6.021 Y2.009
X5.953 Y2.145
X5.79 Y2.422
X5.695 Y2.561
X5.597 Y2.699
X5.526 Y2.79
X5.372 Y2.976
X5.25 Y3.106
X5.106 Y3.253
X4.974 Y3.371
X4.836 Y3.491
X4.788 Y3.529
X4.559 Y3.697
X4.421 Y3.788
X4.283 Y3.873
X4.16 Y3.945
X3.887 Y4.083
X3.868 Y4.092
X3.552 Y4.221
X3.454 Y4.255
X3.316 Y4.298
X3.178 Y4.342
X2.901 Y4.405
X2.763 Y4.432
X2.487 Y4.471
X2.349 Y4.482
X2.211 Y4.491
X2.072 Y4.497
X1.796 Y4.492
X1.658 Y4.483
X1.382 Y4.455
X1.243 Y4.431
X1.105 Y4.406
X0.967 Y4.377
X0.691 Y4.302
X0.553 Y4.256
X0.414 Y4.207
X0.276 Y4.154
X0 Y4.028
X-0.138 Y3.954
X-0.276 Y3.877
X-0.395 Y3.806
X-0.601 Y3.668
X-0.691 Y3.603
X-0.829 Y3.493
X-0.956 Y3.391
X-1.105 Y3.25
X-1.243 Y3.115
X-1.382 Y2.962
X-1.489 Y2.837
X-1.658 Y2.616
X-1.698 Y2.561
X-1.876 Y2.284
X-1.934 Y2.175
X-2.024 Y2.007
X-2.072 Y1.908
X-2.149 Y1.73
X-2.207 Y1.592
X-2.3 Y1.315
X-2.339 Y1.176
X-2.374 Y1.038
X-2.407 Y0.9
X-2.453 Y0.623
X-2.47 Y0.484
X-2.493 Y0.208
X-2.495 Y0.069
Y-0.069
X-2.493 Y-0.208
X-2.47 Y-0.484
X-2.453 Y-0.623
X-2.407 Y-0.9
X-2.374 Y-1.038
X-2.339 Y-1.176
X-2.3 Y-1.315
X-2.207 Y-1.592
X-2.149 Y-1.73
X-2.072 Y-1.908
X-2.024 Y-2.007
X-1.934 Y-2.175
X-1.876 Y-2.284
X-1.698 Y-2.561
X-1.658 Y-2.616
X-1.489 Y-2.837
X-1.382 Y-2.962
X-1.243 Y-3.115
X-1.105 Y-3.25
X-0.956 Y-3.391
X-0.829 Y-3.493
X-0.691 Y-3.603
X-0.601 Y-3.668
X-0.395 Y-3.806
X-0.276 Y-3.877
X-0.138 Y-3.954
X0 Y-4.028
X0.276 Y-4.154
X0.414 Y-4.207
X0.553 Y-4.256
X0.691 Y-4.302
X0.967 Y-4.377
X1.105 Y-4.406
X1.243 Y-4.431
X1.382 Y-4.455
X1.658 Y-4.483
X1.796 Y-4.492
X2.072 Y-4.497
X2.211 Y-4.491
X2.311 Y-4.484
X2.349 Y-4.482
X2.487 Y-4.471
X2.763 Y-4.432
X2.901 Y-4.405
X3.178 Y-4.342
X3.316 Y-4.298
X3.454 Y-4.255
X3.552 Y-4.221
X3.868 Y-4.092
X3.887 Y-4.083
X4.16 Y-3.945
X4.283 Y-3.873
X4.421 Y-3.788
X4.559 Y-3.697
X4.788 Y-3.529
X4.836 Y-3.491
X4.974 Y-3.371
X5.106 Y-3.253
X5.25 Y-3.106
X5.372 Y-2.976
X5.526 Y-2.79
X5.597 Y-2.699
X5.695 Y-2.561
X5.79 Y-2.422
X5.953 Y-2.145
X6.023 Y-2.007
X6.089 Y-1.869
X6.151 Y-1.73
X6.257 Y-1.453
X6.299 Y-1.315
X6.355 Y-1.122
X6.375 Y-1.038
X6.433 Y-0.761
X6.452 Y-0.623
X6.469 Y-0.484
X6.485 Y-0.346
X6.496 Y-0.069
Y0.069
X6.485 Y0.346
X6.469 Y0.484
X6.452 Y0.623
X6.433 Y0.761
X6.375 Y1.038
X6.355 Y1.122
X6.299 Y1.315
X6.257 Y1.453
X6.151 Y1.73
X6.089 Y1.869
X6.023 Y2.007
X6.021 Y2.009
X5.907 Y2.224
X5.783 Y2.434 Z-6.001
X5.643 Y2.633
X5.495 Y2.827 Z-6.002
X5.34 Y3.014 Z-6.004
X5.169 Y3.188 Z-6.005
X4.992 Y3.355 Z-6.007
X4.808 Y3.515 Z-6.009
X4.612 Y3.659 Z-6.011
X4.41 Y3.795 Z-6.014
X4.202 Y3.923 Z-6.017
X3.985 Y4.033 Z-6.02
X3.764 Y4.135 Z-6.024
X3.539 Y4.227 Z-6.027
X3.307 Y4.301 Z-6.031
X3.072 Y4.366 Z-6.035
X2.835 Y4.42 Z-6.039
X2.594 Y4.456 Z-6.044
X2.352 Y4.482 Z-6.049
X2.109 Y4.497 Z-6.054
X1.987 Y4.496 Z-6.056
X1.865 Y4.493 Z-6.059
X1.743 Y4.491 Z-6.062
X1.622 Y4.48 Z-6.064
X1.501 Y4.467 Z-6.067
X1.38 Y4.455 Z-6.07
X1.26 Y4.434 Z-6.073
X1.14 Y4.412 Z-6.076
X1.02 Y4.39 Z-6.079
X0.902 Y4.36 Z-6.082
X0.785 Y4.328 Z-6.085
X0.667 Y4.296 Z-6.088
X0.552 Y4.256 Z-6.091
X0.437 Y4.215 Z-6.094
X0.323 Y4.173 Z-6.098
X0.211 Y4.125 Z-6.101
X0.1 Y4.074 Z-6.104
X-0.01 Y4.023 Z-6.108
X-0.118 Y3.966 Z-6.111
X-0.224 Y3.906 Z-6.115
X-0.33 Y3.847 Z-6.118
X-0.433 Y3.781 Z-6.122
X-0.534 Y3.713 Z-6.125
X-0.635 Y3.645 Z-6.129
X-0.731 Y3.571 Z-6.133
X-0.827 Y3.495 Z-6.136
X-0.922 Y3.419 Z-6.14
X-1.012 Y3.338 Z-6.144
X-1.101 Y3.254 Z-6.148
X-1.19 Y3.171 Z-6.152
X-1.273 Y3.082 Z-6.156
X-1.355 Y2.992 Z-6.16
X-1.436 Y2.901 Z-6.164
X-1.513 Y2.806 Z-6.168
X-1.587 Y2.71 Z-6.172
X-1.661 Y2.613 Z-6.176
X-1.729 Y2.512 Z-6.18
X-1.795 Y2.41 Z-6.184
X-1.86 Y2.307 Z-6.188
X-1.92 Y2.201 Z-6.193
X-1.978 Y2.094 Z-6.197
X-2.035 Y1.986 Z-6.201
X-2.086 Y1.876 Z-6.205
X-2.134 Y1.764 Z-6.21
X-2.183 Y1.652 Z-6.214
X-2.225 Y1.538 Z-6.218
X-2.264 Y1.423 Z-6.222
X-2.303 Y1.307 Z-6.227
X-2.336 Y1.19 Z-6.231
X-2.365 Y1.072 Z-6.235
X-2.395 Y0.954 Z-6.239
X-2.418 Y0.834 Z-6.244
X-2.438 Y0.714 Z-6.248
X-2.458 Y0.594 Z-6.252
X-2.471 Y0.473 Z-6.256
X-2.481 Y0.351 Z-6.261
X-2.491 Y0.23 Z-6.265
X-2.495 Y0.108 Z-6.269
Y-0.013 Z-6.273
Y-0.135 Z-6.278
X-2.489 Y-0.257 Z-6.282
X-2.479 Y-0.378 Z-6.286
X-2.469 Y-0.499 Z-6.29
X-2.453 Y-0.62 Z-6.295
X-2.434 Y-0.74 Z-6.299
X-2.414 Y-0.861 Z-6.303
X-2.388 Y-0.98 Z-6.307
X-2.329 Y-1.216 Z-6.316
X-2.294 Y-1.333 Z-6.32
X-2.216 Y-1.563 Z-6.329
X-2.172 Y-1.677 Z-6.333
X-2.076 Y-1.9 Z-6.342
X-2.022 Y-2.01 Z-6.346
X-1.908 Y-2.225 Z-6.354
X-1.846 Y-2.33 Z-6.359
X-1.714 Y-2.535 Z-6.367
X-1.644 Y-2.634 Z-6.371
X-1.496 Y-2.828 Z-6.38
X-1.419 Y-2.921 Z-6.384
X-1.255 Y-3.102 Z-6.393
X-1.17 Y-3.189 Z-6.397
X-0.993 Y-3.356 Z-6.405
X-0.901 Y-3.436 Z-6.41
X-0.711 Y-3.588 Z-6.418
X-0.613 Y-3.66 Z-6.422
X-0.41 Y-3.796 Z-6.431
X-0.307 Y-3.86 Z-6.435
X-0.094 Y-3.979 Z-6.444
X0.014 Y-4.035 Z-6.448
X0.236 Y-4.136 Z-6.456
X0.348 Y-4.182 Z-6.461
X0.577 Y-4.265 Z-6.469
X0.693 Y-4.303 Z-6.473
X0.928 Y-4.367 Z-6.482
X1.046 Y-4.395 Z-6.486
X1.286 Y-4.439 Z-6.495
X1.406 Y-4.458 Z-6.499
X1.648 Y-4.483 Z-6.507
X1.77 Y-4.491 Z-6.512
X2.013 Y-4.496 Z-6.52
X2.135 Y-4.495 Z-6.524
X2.378 Y-4.48 Z-6.533
X2.5 Y-4.469 Z-6.537
X2.741 Y-4.435 Z-6.546
X2.861 Y-4.414 Z-6.55
X3.098 Y-4.36 Z-6.558
X3.216 Y-4.33 Z-6.563
X3.448 Y-4.256 Z-6.571
X3.563 Y-4.217 Z-6.575
X3.789 Y-4.125 Z-6.584
X3.901 Y-4.076 Z-6.588
X4.118 Y-3.966 Z-6.597
X4.225 Y-3.909 Z-6.601
X4.433 Y-3.781 Z-6.609
X4.535 Y-3.715 Z-6.614
X4.731 Y-3.571 Z-6.622
X4.828 Y-3.497 Z-6.626
X5.012 Y-3.338 Z-6.635
X5.103 Y-3.256 Z-6.639
X5.273 Y-3.082 Z-6.648
X5.357 Y-2.994 Z-6.652
X5.513 Y-2.806 Z-6.66
X5.589 Y-2.711 Z-6.665
X5.729 Y-2.512 Z-6.673
X5.797 Y-2.411 Z-6.677
X5.92 Y-2.201 Z-6.686
X5.98 Y-2.095 Z-6.69
X6.033 Y-1.985 Z-6.694
X6.086 Y-1.876 Z-6.699
X6.137 Y-1.765 Z-6.703
X6.181 Y-1.651 Z-6.707
X6.225 Y-1.538 Z-6.711
X6.267 Y-1.424 Z-6.716
X6.301 Y-1.307 Z-6.72
X6.335 Y-1.19 Z-6.724
X6.368 Y-1.073 Z-6.728
X6.393 Y-0.953 Z-6.733
X6.418 Y-0.834 Z-6.737
X6.441 Y-0.715 Z-6.741
X6.456 Y-0.594 Z-6.745
X6.471 Y-0.473 Z-6.75
X6.484 Y-0.352 Z-6.754
X6.489 Y-0.23 Z-6.758
X6.494 Y-0.108 Z-6.762
X6.498 Y0.013 Z-6.767
X6.493 Y0.135 Z-6.771
X6.488 Y0.257 Z-6.775
X6.482 Y0.378 Z-6.779
X6.467 Y0.499 Z-6.784
X6.453 Y0.62 Z-6.788
X6.437 Y0.741 Z-6.792
X6.412 Y0.86 Z-6.796
X6.388 Y0.979 Z-6.801
X6.362 Y1.099 Z-6.805
X6.328 Y1.215 Z-6.809
X6.294 Y1.332 Z-6.813
X6.259 Y1.449 Z-6.818
X6.215 Y1.563 Z-6.822
X6.171 Y1.676 Z-6.826
X6.127 Y1.79 Z-6.83
X6.074 Y1.9 Z-6.834
X6.021 Y2.009 Z-6.838
X5.968 Y2.119 Z-6.842
X5.907 Y2.224 Z-6.846
X5.845 Y2.329 Z-6.85
X5.783 Y2.434 Z-6.854
X5.713 Y2.534 Z-6.858
X5.643 Y2.633 Z-6.861
X5.573 Y2.733 Z-6.865
X5.495 Y2.827 Z-6.869
X5.418 Y2.92 Z-6.873
X5.34 Y3.014 Z-6.876
X5.254 Y3.101 Z-6.88
X5.169 Y3.188 Z-6.883
X5.084 Y3.275 Z-6.887
X4.992 Y3.355 Z-6.89
X4.9 Y3.435 Z-6.894
X4.808 Y3.515 Z-6.897
X4.71 Y3.587 Z-6.901
X4.612 Y3.659 Z-6.904
X4.513 Y3.731 Z-6.907
X4.41 Y3.795 Z-6.91
X4.306 Y3.859 Z-6.913
X4.202 Y3.923 Z-6.916
X4.094 Y3.978 Z-6.92
X3.985 Y4.033 Z-6.923
X3.877 Y4.088 Z-6.926
X3.764 Y4.135 Z-6.928
X3.651 Y4.181 Z-6.931
X3.539 Y4.227 Z-6.934
X3.423 Y4.264 Z-6.937
X3.307 Y4.301 Z-6.94
X3.191 Y4.338 Z-6.942
X3.072 Y4.366 Z-6.945
X2.953 Y4.393 Z-6.947
X2.835 Y4.42 Z-6.95
X2.594 Y4.456 Z-6.955
X2.352 Y4.482 Z-6.959
X2.109 Y4.497 Z-6.964
X1.865 Y4.493 Z-6.968
X1.622 Y4.48 Z-6.972
X1.38 Y4.455 Z-6.975
X1.14 Y4.412 Z-6.979
X0.902 Y4.36 Z-6.982
X0.667 Y4.296 Z-6.985
X0.437 Y4.215 Z-6.988
X0.211 Y4.125 Z-6.99
X-0.01 Y4.023 Z-6.992
X-0.224 Y3.906 Z-6.994
X-0.433 Y3.781 Z-6.996
X-0.635 Y3.645 Z-6.997
X-0.827 Y3.495 Z-6.998
X-1.012 Y3.338 Z-6.999
X-1.19 Y3.171 Z-7
X-1.355 Y2.992
X-1.4 Y2.941
X-1.489 Y2.837
X-1.658 Y2.616
X-1.698 Y2.561
X-1.876 Y2.284
X-1.934 Y2.175
X-2.024 Y2.007
X-2.072 Y1.908
X-2.149 Y1.73
X-2.207 Y1.592
X-2.3 Y1.315
X-2.339 Y1.176
X-2.374 Y1.038
X-2.407 Y0.9
X-2.453 Y0.623
X-2.47 Y0.484
X-2.493 Y0.208
X-2.495 Y0.069
Y-0.069
X-2.493 Y-0.208
X-2.47 Y-0.484
X-2.453 Y-0.623
X-2.407 Y-0.9
X-2.374 Y-1.038
X-2.339 Y-1.176
X-2.3 Y-1.315
X-2.207 Y-1.592
X-2.149 Y-1.73
X-2.072 Y-1.908
X-2.024 Y-2.007
X-1.934 Y-2.175
X-1.876 Y-2.284
X-1.698 Y-2.561
X-1.658 Y-2.616
X-1.489 Y-2.837
X-1.382 Y-2.962
X-1.243 Y-3.115
X-1.105 Y-3.25
X-0.956 Y-3.391
X-0.829 Y-3.493
X-0.691 Y-3.603
X-0.601 Y-3.668
X-0.395 Y-3.806
X-0.276 Y-3.877
X-0.138 Y-3.954
X0 Y-4.028
X0.276 Y-4.154
X0.414 Y-4.207
X0.553 Y-4.256
X0.691 Y-4.302
X0.967 Y-4.377
X1.105 Y-4.406
X1.243 Y-4.431
X1.382 Y-4.455
X1.658 Y-4.483
X1.796 Y-4.492
X2.072 Y-4.497
X2.211 Y-4.491
X2.349 Y-4.482
X2.487 Y-4.471
X2.763 Y-4.432
X2.901 Y-4.405
X3.178 Y-4.342
X3.316 Y-4.298
X3.454 Y-4.255
X3.552 Y-4.221
X3.868 Y-4.092
X3.887 Y-4.083
X4.16 Y-3.945
X4.283 Y-3.873
X4.421 Y-3.788
X4.559 Y-3.697
X4.788 Y-3.529
X4.836 Y-3.491
X4.974 Y-3.371
X5.106 Y-3.253
X5.25 Y-3.106
X5.372 Y-2.976
X5.526 Y-2.79
X5.597 Y-2.699
X5.695 Y-2.561
X5.79 Y-2.422
X5.953 Y-2.145
X6.023 Y-2.007
X6.089 Y-1.869
X6.151 Y-1.73
X6.257 Y-1.453
X6.299 Y-1.315
X6.355 Y-1.122
X6.375 Y-1.038
X6.433 Y-0.761
X6.452 Y-0.623
X6.469 Y-0.484
X6.485 Y-0.346
X6.496 Y-0.069
Y0.069
X6.485 Y0.346
X6.469 Y0.484
X6.452 Y0.623
X6.433 Y0.761
X6.375 Y1.038
X6.355 Y1.122
X6.299 Y1.315
X6.257 Y1.453
X6.151 Y1.73
X6.089 Y1.869
X6.023 Y2.007
X5.953 Y2.145
X5.79 Y2.422
X5.695 Y2.561
X5.597 Y2.699
X5.526 Y2.79
X5.372 Y2.976
X5.25 Y3.106
X5.106 Y3.253
X4.974 Y3.371
X4.836 Y3.491
X4.788 Y3.529
X4.559 Y3.697
X4.421 Y3.788
X4.283 Y3.873
X4.16 Y3.945
X3.887 Y4.083
X3.868 Y4.092
X3.552 Y4.221
X3.454 Y4.255
X3.316 Y4.298
X3.178 Y4.342
X2.901 Y4.405
X2.763 Y4.432
X2.487 Y4.471
X2.349 Y4.482
X2.211 Y4.491
X2.072 Y4.497
X1.796 Y4.492
X1.658 Y4.483
X1.382 Y4.455
X1.243 Y4.431
X1.105 Y4.406
X0.967 Y4.377
X0.691 Y4.302
X0.553 Y4.256
X0.414 Y4.207
X0.276 Y4.154
X0 Y4.028
X-0.138 Y3.954
X-0.276 Y3.877
X-0.395 Y3.806
X-0.601 Y3.668
X-0.691 Y3.603
X-0.829 Y3.493
X-0.956 Y3.391
X-1.105 Y3.25
X-1.243 Y3.115
X-1.382 Y2.962
X-1.4 Y2.941
X-1.554 Y2.752
X-1.7 Y2.557 Z-7.001
X-1.831 Y2.352
X-1.952 Y2.141 Z-7.002
X-2.065 Y1.925 Z-7.004
X-2.162 Y1.701 Z-7.005
X-2.247 Y1.473 Z-7.007
X-2.323 Y1.242 Z-7.009
X-2.382 Y1.006 Z-7.011
X-2.429 Y0.767 Z-7.014
X-2.467 Y0.526 Z-7.017
X-2.487 Y0.284 Z-7.02
X-2.495 Y0.04 Z-7.024
X-2.493 Y-0.203 Z-7.027
X-2.474 Y-0.446 Z-7.031
X-2.442 Y-0.687 Z-7.035
X-2.401 Y-0.928 Z-7.039
X-2.342 Y-1.164 Z-7.044
X-2.273 Y-1.397 Z-7.049
X-2.193 Y-1.627 Z-7.054
X-2.145 Y-1.739 Z-7.056
X-2.097 Y-1.851 Z-7.059
X-2.048 Y-1.962 Z-7.062
X-1.99 Y-2.07 Z-7.064
X-1.933 Y-2.177 Z-7.067
X-1.875 Y-2.284 Z-7.07
X-1.809 Y-2.387 Z-7.073
X-1.743 Y-2.489 Z-7.076
X-1.677 Y-2.591 Z-7.079
X-1.603 Y-2.688 Z-7.082
X-1.529 Y-2.785 Z-7.085
X-1.455 Y-2.881 Z-7.088
X-1.373 Y-2.972 Z-7.091
X-1.291 Y-3.062 Z-7.094
X-1.209 Y-3.152 Z-7.098
X-1.121 Y-3.236 Z-7.101
X-1.032 Y-3.319 Z-7.104
X-0.943 Y-3.402 Z-7.108
X-0.848 Y-3.478 Z-7.111
X-0.753 Y-3.554 Z-7.115
X-0.657 Y-3.63 Z-7.118
X-0.556 Y-3.698 Z-7.122
X-0.455 Y-3.766 Z-7.125
X-0.354 Y-3.834 Z-7.129
X-0.247 Y-3.893 Z-7.133
X-0.141 Y-3.953 Z-7.136
X-0.035 Y-4.012 Z-7.14
X0.076 Y-4.063 Z-7.144
X0.187 Y-4.113 Z-7.148
X0.298 Y-4.164 Z-7.152
X0.412 Y-4.206 Z-7.156
X0.527 Y-4.247 Z-7.16
X0.641 Y-4.288 Z-7.164
X0.759 Y-4.321 Z-7.168
X0.876 Y-4.353 Z-7.172
X0.994 Y-4.385 Z-7.176
X1.113 Y-4.407 Z-7.18
X1.233 Y-4.429 Z-7.184
X1.353 Y-4.452 Z-7.188
X1.474 Y-4.465 Z-7.193
X1.595 Y-4.477 Z-7.197
X1.716 Y-4.489 Z-7.201
X1.838 Y-4.493 Z-7.205
X1.96 Y-4.495 Z-7.21
X2.082 Y-4.498 Z-7.214
X2.203 Y-4.491 Z-7.218
X2.325 Y-4.484 Z-7.222
X2.446 Y-4.476 Z-7.227
X2.567 Y-4.46 Z-7.231
X2.688 Y-4.442 Z-7.235
X2.808 Y-4.425 Z-7.239
X2.927 Y-4.399 Z-7.244
X3.046 Y-4.372 Z-7.248
X3.165 Y-4.345 Z-7.252
X3.281 Y-4.309 Z-7.256
X3.397 Y-4.273 Z-7.261
X3.513 Y-4.236 Z-7.265
X3.627 Y-4.191 Z-7.269
X3.739 Y-4.145 Z-7.273
X3.852 Y-4.099 Z-7.278
X3.961 Y-4.045 Z-7.282
X4.07 Y-3.99 Z-7.286
X4.178 Y-3.935 Z-7.29
X4.283 Y-3.873 Z-7.295
X4.387 Y-3.809 Z-7.299
X4.491 Y-3.745 Z-7.303
X4.59 Y-3.675 Z-7.307
X4.688 Y-3.603 Z-7.312
X4.786 Y-3.531 Z-7.316
X4.88 Y-3.453 Z-7.32
X5.064 Y-3.293 Z-7.329
X5.15 Y-3.207 Z-7.333
X5.321 Y-3.033 Z-7.342
X5.4 Y-2.941 Z-7.346
X5.556 Y-2.754 Z-7.354
X5.628 Y-2.655 Z-7.359
X5.768 Y-2.456 Z-7.367
X5.831 Y-2.352 Z-7.371
X5.955 Y-2.142 Z-7.38
X6.01 Y-2.034 Z-7.384
X6.115 Y-1.814 Z-7.393
X6.162 Y-1.701 Z-7.397
X6.249 Y-1.474 Z-7.405
X6.286 Y-1.358 Z-7.41
X6.355 Y-1.124 Z-7.418
X6.382 Y-1.006 Z-7.422
X6.431 Y-0.767 Z-7.431
X6.449 Y-0.647 Z-7.435
X6.479 Y-0.405 Z-7.444
X6.487 Y-0.284 Z-7.448
X6.497 Y-0.04 Z-7.456
X6.495 Y0.081 Z-7.461
X6.485 Y0.325 Z-7.469
X6.474 Y0.446 Z-7.473
X6.444 Y0.688 Z-7.482
X6.423 Y0.808 Z-7.486
X6.374 Y1.046 Z-7.495
X6.343 Y1.164 Z-7.499
X6.274 Y1.398 Z-7.507
X6.234 Y1.513 Z-7.512
X6.147 Y1.74 Z-7.52
X6.098 Y1.851 Z-7.524
X5.992 Y2.071 Z-7.533
X5.934 Y2.178 Z-7.537
X5.811 Y2.388 Z-7.546
X5.744 Y2.49 Z-7.55
X5.604 Y2.689 Z-7.558
X5.53 Y2.786 Z-7.563
X5.374 Y2.973 Z-7.571
X5.292 Y3.063 Z-7.575
X5.122 Y3.237 Z-7.584
X5.033 Y3.32 Z-7.588
X4.849 Y3.479 Z-7.597
X4.753 Y3.555 Z-7.601
X4.557 Y3.699 Z-7.609
X4.456 Y3.767 Z-7.614
X4.248 Y3.894 Z-7.622
X4.142 Y3.954 Z-7.626
X3.925 Y4.064 Z-7.635
X3.814 Y4.115 Z-7.639
X3.588 Y4.207 Z-7.648
X3.474 Y4.248 Z-7.652
X3.242 Y4.322 Z-7.66
X3.124 Y4.354 Z-7.665
X2.887 Y4.408 Z-7.673
X2.767 Y4.431 Z-7.677
X2.526 Y4.466 Z-7.686
X2.405 Y4.479 Z-7.69
X2.284 Y4.486 Z-7.694
X2.162 Y4.494 Z-7.699
X2.04 Y4.497 Z-7.703
X1.919 Y4.494 Z-7.707
X1.797 Y4.492 Z-7.711
X1.675 Y4.485 Z-7.716
X1.554 Y4.473 Z-7.72
X1.433 Y4.46 Z-7.724
X1.312 Y4.444 Z-7.728
X1.193 Y4.422 Z-7.733
X1.073 Y4.4 Z-7.737
X0.954 Y4.374 Z-7.741
X0.836 Y4.342 Z-7.745
X0.719 Y4.31 Z-7.75
X0.602 Y4.274 Z-7.754
X0.488 Y4.233 Z-7.758
X0.373 Y4.192 Z-7.762
X0.26 Y4.147 Z-7.767
X0.149 Y4.096 Z-7.771
X0.038 Y4.046 Z-7.775
X-0.071 Y3.992 Z-7.779
X-0.177 Y3.933 Z-7.784
X-0.283 Y3.873 Z-7.788
X-0.388 Y3.811 Z-7.792
X-0.489 Y3.743 Z-7.796
X-0.59 Y3.675 Z-7.801
X-0.689 Y3.605 Z-7.805
X-0.785 Y3.529 Z-7.809
X-0.88 Y3.453 Z-7.813
X-0.973 Y3.374 Z-7.818
X-1.062 Y3.291 Z-7.822
X-1.151 Y3.208 Z-7.826
X-1.237 Y3.122 Z-7.83
X-1.319 Y3.032 Z-7.834
X-1.401 Y2.941 Z-7.838
X-1.48 Y2.849 Z-7.842
X-1.554 Y2.752 Z-7.846
X-1.628 Y2.656 Z-7.85
X-1.7 Y2.557 Z-7.854
X-1.766 Y2.455 Z-7.858
X-1.831 Y2.352 Z-7.861
X-1.895 Y2.249 Z-7.865
X-1.952 Y2.141 Z-7.869
X-2.01 Y2.034 Z-7.873
X-2.065 Y1.925 Z-7.876
X-2.113 Y1.813 Z-7.88
X-2.162 Y1.701 Z-7.883
X-2.208 Y1.589 Z-7.887
X-2.247 Y1.473 Z-7.89
X-2.286 Y1.358 Z-7.894
X-2.323 Y1.242 Z-7.897
X-2.352 Y1.124 Z-7.9
X-2.382 Y1.006 Z-7.904
X-2.409 Y0.887 Z-7.907
X-2.429 Y0.767 Z-7.91
X-2.449 Y0.647 Z-7.913
X-2.467 Y0.526 Z-7.916
X-2.477 Y0.405 Z-7.92
X-2.487 Y0.284 Z-7.923
X-2.495 Y0.162 Z-7.926
Y0.04 Z-7.928
Y-0.081 Z-7.931
X-2.493 Y-0.203 Z-7.934
X-2.483 Y-0.325 Z-7.937
X-2.474 Y-0.446 Z-7.94
X-2.462 Y-0.567 Z-7.942
X-2.442 Y-0.687 Z-7.945
X-2.423 Y-0.808 Z-7.947
X-2.401 Y-0.928 Z-7.95
X-2.342 Y-1.164 Z-7.955
X-2.273 Y-1.397 Z-7.959
X-2.193 Y-1.627 Z-7.964
X-2.097 Y-1.851 Z-7.968
X-1.99 Y-2.07 Z-7.972
X-1.875 Y-2.284 Z-7.975
X-1.743 Y-2.489 Z-7.979
X-1.603 Y-2.688 Z-7.982
X-1.455 Y-2.881 Z-7.985
X-1.291 Y-3.062 Z-7.988
X-1.121 Y-3.236 Z-7.99
X-0.943 Y-3.402 Z-7.992
X-0.753 Y-3.554 Z-7.994
X-0.556 Y-3.698 Z-7.996
X-0.354 Y-3.834 Z-7.997
X-0.141 Y-3.953 Z-7.998
X0.076 Y-4.063 Z-7.999
X0.298 Y-4.164 Z-8
X0.527 Y-4.247
X0.591 Y-4.269
X0.691 Y-4.302
X0.967 Y-4.377
X1.105 Y-4.406
X1.243 Y-4.431
X1.382 Y-4.455
X1.658 Y-4.483
X1.796 Y-4.492
X2.072 Y-4.497
X2.211 Y-4.491
X2.349 Y-4.482
X2.487 Y-4.471
X2.763 Y-4.432
X2.901 Y-4.405
X3.178 Y-4.342
X3.316 Y-4.298
X3.454 Y-4.255
X3.552 Y-4.221
X3.868 Y-4.092
X3.887 Y-4.083
X4.16 Y-3.945
X4.283 Y-3.873
X4.421 Y-3.788
X4.559 Y-3.697
X4.788 Y-3.529
X4.836 Y-3.491
X4.974 Y-3.371
X5.106 Y-3.253
X5.25 Y-3.106
X5.372 Y-2.976
X5.526 Y-2.79
X5.597 Y-2.699
X5.695 Y-2.561
X5.79 Y-2.422
X5.953 Y-2.145
X6.023 Y-2.007
X6.089 Y-1.869
X6.151 Y-1.73
X6.257 Y-1.453
X6.299 Y-1.315
X6.355 Y-1.122
X6.375 Y-1.038
X6.433 Y-0.761
X6.452 Y-0.623
X6.469 Y-0.484
X6.485 Y-0.346
X6.496 Y-0.069
Y0.069
X6.485 Y0.346
X6.469 Y0.484
X6.452 Y0.623
X6.433 Y0.761
X6.375 Y1.038
X6.355 Y1.122
X6.299 Y1.315
X6.257 Y1.453
X6.151 Y1.73
X6.089 Y1.869
X6.023 Y2.007
X5.953 Y2.145
X5.79 Y2.422
X5.695 Y2.561
X5.597 Y2.699
X5.526 Y2.79
X5.372 Y2.976
X5.25 Y3.106
X5.106 Y3.253
X4.974 Y3.371
X4.836 Y3.491
X4.788 Y3.529
X4.559 Y3.697
X4.421 Y3.788
X4.283 Y3.873
X4.16 Y3.945
X3.887 Y4.083
X3.868 Y4.092
X3.552 Y4.221
X3.454 Y4.255
X3.316 Y4.298
X3.178 Y4.342
X2.901 Y4.405
X2.763 Y4.432
X2.487 Y4.471
X2.349 Y4.482
X2.211 Y4.491
X2.072 Y4.497
X1.796 Y4.492
X1.658 Y4.483
X1.382 Y4.455
X1.243 Y4.431
X1.105 Y4.406
X0.967 Y4.377
X0.691 Y4.302
X0.553 Y4.256
X0.414 Y4.207
X0.276 Y4.154
X0 Y4.028
X-0.138 Y3.954
X-0.276 Y3.877
X-0.395 Y3.806
X-0.601 Y3.668
X-0.691 Y3.603
X-0.829 Y3.493
X-0.956 Y3.391
X-1.105 Y3.25
X-1.243 Y3.115
X-1.382 Y2.962
X-1.489 Y2.837
X-1.658 Y2.616
X-1.698 Y2.561
X-1.876 Y2.284
X-1.934 Y2.175
X-2.024 Y2.007
X-2.072 Y1.908
X-2.149 Y1.73
X-2.207 Y1.592
X-2.3 Y1.315
X-2.339 Y1.176
X-2.374 Y1.038
X-2.407 Y0.9
X-2.453 Y0.623
X-2.47 Y0.484
X-2.493 Y0.208
X-2.495 Y0.069
Y-0.069
X-2.493 Y-0.208
X-2.47 Y-0.484
X-2.453 Y-0.623
X-2.407 Y-0.9
X-2.374 Y-1.038
X-2.339 Y-1.176
X-2.3 Y-1.315
X-2.207 Y-1.592
X-2.149 Y-1.73
X-2.072 Y-1.908
X-2.024 Y-2.007
X-1.934 Y-2.175
X-1.876 Y-2.284
X-1.698 Y-2.561
X-1.658 Y-2.616
X-1.489 Y-2.837
X-1.382 Y-2.962
X-1.243 Y-3.115
X-1.105 Y-3.25
X-0.956 Y-3.391
X-0.829 Y-3.493
X-0.691 Y-3.603
X-0.601 Y-3.668
X-0.395 Y-3.806
X-0.276 Y-3.877
X-0.138 Y-3.954
X0 Y-4.028
X0.276 Y-4.154
X0.414 Y-4.207
X0.553 Y-4.256
X0.591 Y-4.269
X0.824 Y-4.339
X1.061 Y-4.397 Z-8.001
X1.3 Y-4.442
X1.542 Y-4.472 Z-8.002
X1.784 Y-4.492 Z-8.004
X2.028 Y-4.497 Z-8.005
X2.271 Y-4.487 Z-8.007
X2.514 Y-4.467 Z-8.009
X2.755 Y-4.433 Z-8.011
X2.994 Y-4.384 Z-8.014
X3.23 Y-4.325 Z-8.017
X3.462 Y-4.252 Z-8.02
X3.69 Y-4.165 Z-8.024
X3.913 Y-4.07 Z-8.027
X4.131 Y-3.959 Z-8.031
X4.341 Y-3.837 Z-8.035
X4.547 Y-3.707 Z-8.039
X4.743 Y-3.563 Z-8.044
X4.931 Y-3.408 Z-8.049
X5.113 Y-3.246 Z-8.054
X5.198 Y-3.159 Z-8.056
X5.283 Y-3.072 Z-8.059
X5.366 Y-2.982 Z-8.062
X5.444 Y-2.889 Z-8.064
X5.522 Y-2.795 Z-8.067
X5.597 Y-2.699 Z-8.07
X5.667 Y-2.6 Z-8.073
X5.737 Y-2.5 Z-8.076
X5.804 Y-2.399 Z-8.079
X5.866 Y-2.294 Z-8.082
X5.928 Y-2.189 Z-8.085
X5.986 Y-2.082 Z-8.088
X6.039 Y-1.972 Z-8.091
X6.092 Y-1.863 Z-8.094
X6.142 Y-1.752 Z-8.098
X6.186 Y-1.638 Z-8.101
X6.23 Y-1.524 Z-8.104
X6.271 Y-1.41 Z-8.108
X6.305 Y-1.293 Z-8.111
X6.339 Y-1.176 Z-8.115
X6.371 Y-1.058 Z-8.118
X6.396 Y-0.939 Z-8.122
X6.421 Y-0.82 Z-8.125
X6.443 Y-0.7 Z-8.129
X6.458 Y-0.579 Z-8.133
X6.473 Y-0.458 Z-8.136
X6.485 Y-0.337 Z-8.14
X6.49 Y-0.216 Z-8.144
X6.495 Y-0.094 Z-8.148
X6.498 Y0.028 Z-8.152
X6.493 Y0.15 Z-8.156
X6.488 Y0.271 Z-8.16
X6.481 Y0.393 Z-8.164
X6.466 Y0.514 Z-8.168
X6.451 Y0.635 Z-8.172
X6.434 Y0.755 Z-8.176
X6.409 Y0.874 Z-8.18
X6.385 Y0.994 Z-8.184
X6.358 Y1.113 Z-8.188
X6.289 Y1.346 Z-8.197
X6.254 Y1.463 Z-8.201
X6.21 Y1.576 Z-8.205
X6.166 Y1.69 Z-8.21
X6.121 Y1.803 Z-8.214
X6.068 Y1.913 Z-8.218
X6.015 Y2.022 Z-8.222
X5.961 Y2.131 Z-8.227
X5.899 Y2.237 Z-8.231
X5.838 Y2.342 Z-8.235
X5.775 Y2.446 Z-8.239
X5.705 Y2.546 Z-8.244
X5.635 Y2.645 Z-8.248
X5.564 Y2.744 Z-8.252
X5.486 Y2.838 Z-8.256
X5.408 Y2.932 Z-8.261
X5.33 Y3.025 Z-8.265
X5.244 Y3.112 Z-8.269
X5.159 Y3.199 Z-8.273
X5.073 Y3.285 Z-8.278
X4.981 Y3.365 Z-8.282
X4.889 Y3.444 Z-8.286
X4.796 Y3.523 Z-8.29
X4.6 Y3.667 Z-8.299
X4.501 Y3.739 Z-8.303
X4.294 Y3.866 Z-8.312
X4.19 Y3.93 Z-8.316
X3.972 Y4.04 Z-8.325
X3.864 Y4.094 Z-8.329
X3.638 Y4.186 Z-8.337
X3.525 Y4.232 Z-8.342
X3.293 Y4.306 Z-8.35
X3.177 Y4.342 Z-8.354
X2.939 Y4.396 Z-8.363
X2.82 Y4.423 Z-8.367
X2.459 Y4.475 Z-8.38
X2.337 Y4.483 Z-8.384
X2.094 Y4.498 Z-8.393
X1.972 Y4.495 Z-8.397
X1.729 Y4.49 Z-8.405
X1.608 Y4.478 Z-8.41
X1.365 Y4.454 Z-8.418
X1.245 Y4.432 Z-8.422
X1.006 Y4.387 Z-8.431
X0.888 Y4.356 Z-8.435
X0.653 Y4.292 Z-8.444
X0.538 Y4.251 Z-8.448
X0.309 Y4.168 Z-8.456
X0.198 Y4.119 Z-8.461
X-0.024 Y4.017 Z-8.469
X-0.13 Y3.959 Z-8.473
X-0.343 Y3.84 Z-8.482
X-0.445 Y3.773 Z-8.486
X-0.647 Y3.637 Z-8.495
X-0.743 Y3.562 Z-8.499
X-0.933 Y3.41 Z-8.507
X-1.023 Y3.328 Z-8.512
X-1.2 Y3.161 Z-8.52
X-1.283 Y3.071 Z-8.524
X-1.446 Y2.891 Z-8.533
X-1.521 Y2.795 Z-8.537
X-1.669 Y2.601 Z-8.546
X-1.737 Y2.5 Z-8.55
X-1.868 Y2.295 Z-8.558
X-1.927 Y2.188 Z-8.563
X-2.042 Y1.973 Z-8.571
X-2.092 Y1.862 Z-8.575
X-2.189 Y1.639 Z-8.584
X-2.23 Y1.524 Z-8.588
X-2.308 Y1.294 Z-8.597
X-2.339 Y1.176 Z-8.601
X-2.398 Y0.94 Z-8.609
X-2.421 Y0.82 Z-8.614
X-2.46 Y0.58 Z-8.622
X-2.473 Y0.458 Z-8.626
X-2.492 Y0.216 Z-8.635
X-2.495 Y0.094 Z-8.639
Y-0.15 Z-8.648
X-2.488 Y-0.271 Z-8.652
X-2.468 Y-0.514 Z-8.66
X-2.451 Y-0.635 Z-8.665
X-2.411 Y-0.875 Z-8.673
X-2.385 Y-0.994 Z-8.677
X-2.326 Y-1.23 Z-8.686
X-2.29 Y-1.346 Z-8.69
X-2.212 Y-1.577 Z-8.699
X-2.166 Y-1.69 Z-8.703
X-2.118 Y-1.802 Z-8.707
X-2.07 Y-1.914 Z-8.711
X-2.016 Y-2.023 Z-8.716
X-1.958 Y-2.13 Z-8.72
X-1.901 Y-2.238 Z-8.724
X-1.838 Y-2.342 Z-8.728
X-1.772 Y-2.444 Z-8.733
X-1.707 Y-2.547 Z-8.737
X-1.636 Y-2.646 Z-8.741
X-1.562 Y-2.742 Z-8.745
X-1.488 Y-2.839 Z-8.75
X-1.409 Y-2.932 Z-8.754
X-1.327 Y-3.022 Z-8.758
X-1.246 Y-3.113 Z-8.762
X-1.16 Y-3.199 Z-8.767
X-1.071 Y-3.282 Z-8.771
X-0.982 Y-3.366 Z-8.775
X-0.89 Y-3.445 Z-8.779
X-0.794 Y-3.521 Z-8.784
X-0.699 Y-3.597 Z-8.788
X-0.601 Y-3.668 Z-8.792
X-0.499 Y-3.736 Z-8.796
X-0.398 Y-3.804 Z-8.801
X-0.294 Y-3.867 Z-8.805
X-0.188 Y-3.927 Z-8.809
X-0.082 Y-3.986 Z-8.813
X0.027 Y-4.041 Z-8.818
X0.138 Y-4.091 Z-8.822
X0.249 Y-4.142 Z-8.826
X0.362 Y-4.187 Z-8.83
X0.476 Y-4.229 Z-8.834
X0.591 Y-4.27 Z-8.838
X0.707 Y-4.307 Z-8.842
X0.824 Y-4.339 Z-8.846
X0.942 Y-4.37 Z-8.85
X1.061 Y-4.397 Z-8.854
X1.18 Y-4.42 Z-8.858
X1.3 Y-4.442 Z-8.861
X1.421 Y-4.459 Z-8.865
X1.542 Y-4.472 Z-8.869
X1.663 Y-4.484 Z-8.873
X1.784 Y-4.492 Z-8.876
X1.906 Y-4.494 Z-8.88
X2.028 Y-4.497 Z-8.883
X2.15 Y-4.494 Z-8.887
X2.271 Y-4.487 Z-8.89
X2.393 Y-4.479 Z-8.894
X2.514 Y-4.467 Z-8.897
X2.634 Y-4.45 Z-8.901
X2.755 Y-4.433 Z-8.904
X2.875 Y-4.411 Z-8.907
X2.994 Y-4.384 Z-8.91
X3.112 Y-4.357 Z-8.913
X3.23 Y-4.325 Z-8.917
X3.346 Y-4.289 Z-8.92
X3.462 Y-4.252 Z-8.923
X3.577 Y-4.211 Z-8.926
X3.69 Y-4.165 Z-8.928
X3.802 Y-4.119 Z-8.931
X3.913 Y-4.07 Z-8.934
X4.022 Y-4.015 Z-8.937
X4.131 Y-3.959 Z-8.94
X4.237 Y-3.901 Z-8.942
X4.341 Y-3.837 Z-8.945
X4.445 Y-3.773 Z-8.947
X4.547 Y-3.707 Z-8.95
X4.743 Y-3.563 Z-8.955
X4.931 Y-3.408 Z-8.959
X5.113 Y-3.246 Z-8.964
X5.283 Y-3.072 Z-8.968
X5.444 Y-2.889 Z-8.972
X5.597 Y-2.699 Z-8.975
X5.737 Y-2.5 Z-8.979
X5.866 Y-2.294 Z-8.982
X5.986 Y-2.082 Z-8.985
X6.092 Y-1.863 Z-8.988
X6.186 Y-1.638 Z-8.99
X6.271 Y-1.41 Z-8.992
X6.339 Y-1.176 Z-8.994
X6.396 Y-0.939 Z-8.996
X6.443 Y-0.7 Z-8.997
X6.473 Y-0.458 Z-8.998
X6.49 Y-0.216 Z-8.999
X6.498 Y0.028 Z-9
X6.488 Y0.271
X6.485 Y0.339
Y0.346
X6.469 Y0.484
X6.452 Y0.623
X6.433 Y0.761
X6.375 Y1.038
X6.355 Y1.122
X6.299 Y1.315
X6.257 Y1.453
X6.151 Y1.73
X6.089 Y1.869
X6.023 Y2.007
X5.953 Y2.145
X5.79 Y2.422
X5.695 Y2.561
X5.597 Y2.699
X5.526 Y2.79
X5.372 Y2.976
X5.25 Y3.106
X5.106 Y3.253
X4.974 Y3.371
X4.836 Y3.491
X4.788 Y3.529
X4.559 Y3.697
X4.421 Y3.788
X4.283 Y3.873
X4.16 Y3.945
X3.887 Y4.083
X3.868 Y4.092
X3.552 Y4.221
X3.454 Y4.255
X3.316 Y4.298
X3.178 Y4.342
X2.901 Y4.405
X2.763 Y4.432
X2.487 Y4.471
X2.349 Y4.482
X2.211 Y4.491
X2.072 Y4.497
X1.796 Y4.492
X1.658 Y4.483
X1.382 Y4.455
X1.243 Y4.431
X1.105 Y4.406
X0.967 Y4.377
X0.691 Y4.302
X0.553 Y4.256
X0.414 Y4.207
X0.276 Y4.154
X0 Y4.028
X-0.138 Y3.954
X-0.276 Y3.877
X-0.395 Y3.806
X-0.601 Y3.668
X-0.691 Y3.603
X-0.829 Y3.493
X-0.956 Y3.391
X-1.105 Y3.25
X-1.243 Y3.115
X-1.382 Y2.962
X-1.489 Y2.837
X-1.658 Y2.616
X-1.698 Y2.561
X-1.876 Y2.284
X-1.934 Y2.175
X-2.024 Y2.007
X-2.072 Y1.908
X-2.149 Y1.73
X-2.207 Y1.592
X-2.3 Y1.315
X-2.339 Y1.176
X-2.374 Y1.038
X-2.407 Y0.9
X-2.453 Y0.623
X-2.47 Y0.484
X-2.493 Y0.208
X-2.495 Y0.069
Y-0.069
X-2.493 Y-0.208
X-2.47 Y-0.484
X-2.453 Y-0.623
X-2.407 Y-0.9
X-2.374 Y-1.038
X-2.339 Y-1.176
X-2.3 Y-1.315
X-2.207 Y-1.592
X-2.149 Y-1.73
X-2.072 Y-1.908
X-2.024 Y-2.007
X-1.934 Y-2.175
X-1.876 Y-2.284
X-1.698 Y-2.561
X-1.658 Y-2.616
X-1.489 Y-2.837
X-1.382 Y-2.962
X-1.243 Y-3.115
X-1.105 Y-3.25
X-0.956 Y-3.391
X-0.829 Y-3.493
X-0.691 Y-3.603
X-0.601 Y-3.668
X-0.395 Y-3.806
X-0.276 Y-3.877
X-0.138 Y-3.954
X0 Y-4.028
X0.276 Y-4.154
X0.414 Y-4.207
X0.553 Y-4.256
X0.691 Y-4.302
X0.967 Y-4.377
X1.105 Y-4.406
X1.243 Y-4.431
X1.382 Y-4.455
X1.658 Y-4.483
X1.796 Y-4.492
X2.072 Y-4.497
X2.211 Y-4.491
X2.349 Y-4.482
X2.487 Y-4.471
X2.763 Y-4.432
X2.901 Y-4.405
X3.178 Y-4.342
X3.316 Y-4.298
X3.454 Y-4.255
X3.552 Y-4.221
X3.868 Y-4.092
X3.887 Y-4.083
X4.16 Y-3.945
X4.283 Y-3.873
X4.421 Y-3.788
X4.559 Y-3.697
X4.788 Y-3.529
X4.836 Y-3.491
X4.974 Y-3.371
X5.106 Y-3.253
X5.25 Y-3.106
X5.372 Y-2.976
X5.526 Y-2.79
X5.597 Y-2.699
X5.695 Y-2.561
X5.79 Y-2.422
X5.953 Y-2.145
X6.023 Y-2.007
X6.089 Y-1.869
X6.151 Y-1.73
X6.257 Y-1.453
X6.299 Y-1.315
X6.355 Y-1.122
X6.375 Y-1.038
X6.433 Y-0.761
X6.452 Y-0.623
X6.469 Y-0.484
X6.485 Y-0.346
X6.496 Y-0.069
Y0.069
X6.485 Y0.339
X6.457 Y0.581
X6.42 Y0.821 Z-9.001
X6.371 Y1.06
X6.305 Y1.294 Z-9.002
X6.229 Y1.525 Z-9.004
X6.142 Y1.753 Z-9.005
X6.039 Y1.973 Z-9.007
X5.927 Y2.19 Z-9.009
X5.804 Y2.4 Z-9.011
X5.666 Y2.601 Z-9.014
X5.521 Y2.796 Z-9.017
X5.365 Y2.983 Z-9.02
X5.197 Y3.16 Z-9.024
X5.022 Y3.329 Z-9.027
X4.838 Y3.489 Z-9.031
X4.644 Y3.635 Z-9.035
X4.444 Y3.774 Z-9.039
X4.236 Y3.902 Z-9.044
X4.021 Y4.015 Z-9.049
X3.801 Y4.12 Z-9.054
X3.688 Y4.166 Z-9.056
X3.576 Y4.212 Z-9.059
X3.461 Y4.252 Z-9.062
X3.345 Y4.289 Z-9.064
X3.229 Y4.326 Z-9.067
X3.111 Y4.357 Z-9.07
X2.992 Y4.384 Z-9.073
X2.873 Y4.411 Z-9.076
X2.754 Y4.433 Z-9.079
X2.633 Y4.45 Z-9.082
X2.513 Y4.468 Z-9.085
X2.391 Y4.479 Z-9.088
X2.27 Y4.487 Z-9.091
X2.148 Y4.494 Z-9.094
X2.027 Y4.496 Z-9.098
X1.905 Y4.494 Z-9.101
X1.783 Y4.492 Z-9.104
X1.662 Y4.484 Z-9.108
X1.54 Y4.471 Z-9.111
X1.419 Y4.459 Z-9.115
X1.299 Y4.442 Z-9.118
X1.179 Y4.419 Z-9.122
X1.059 Y4.397 Z-9.125
X0.941 Y4.37 Z-9.129
X0.823 Y4.338 Z-9.133
X0.706 Y4.306 Z-9.136
X0.589 Y4.27 Z-9.14
X0.475 Y4.228 Z-9.144
X0.36 Y4.187 Z-9.148
X0.247 Y4.141 Z-9.152
X0.137 Y4.091 Z-9.156
X0.026 Y4.04 Z-9.16
X-0.083 Y3.985 Z-9.164
X-0.189 Y3.926 Z-9.168
X-0.295 Y3.866 Z-9.172
X-0.4 Y3.803 Z-9.176
X-0.501 Y3.735 Z-9.18
X-0.602 Y3.667 Z-9.184
X-0.7 Y3.596 Z-9.188
X-0.891 Y3.444 Z-9.197
X-0.983 Y3.365 Z-9.201
X-1.072 Y3.282 Z-9.205
X-1.161 Y3.198 Z-9.21
X-1.247 Y3.112 Z-9.214
X-1.328 Y3.021 Z-9.218
X-1.41 Y2.931 Z-9.222
X-1.488 Y2.838 Z-9.227
X-1.562 Y2.741 Z-9.231
X-1.636 Y2.645 Z-9.235
X-1.707 Y2.546 Z-9.239
X-1.773 Y2.443 Z-9.244
X-1.839 Y2.341 Z-9.248
X-1.902 Y2.236 Z-9.252
X-1.959 Y2.129 Z-9.256
X-2.016 Y2.021 Z-9.261
X-2.07 Y1.912 Z-9.265
X-2.119 Y1.801 Z-9.269
X-2.167 Y1.689 Z-9.273
X-2.212 Y1.576 Z-9.278
X-2.251 Y1.46 Z-9.282
X-2.29 Y1.345 Z-9.286
X-2.326 Y1.229 Z-9.29
X-2.385 Y0.992 Z-9.299
X-2.412 Y0.874 Z-9.303
X-2.451 Y0.633 Z-9.312
X-2.468 Y0.513 Z-9.316
X-2.488 Y0.27 Z-9.324
X-2.495 Y0.148 Z-9.329
Y-0.095 Z-9.337
X-2.492 Y-0.217 Z-9.342
X-2.472 Y-0.46 Z-9.35
X-2.46 Y-0.581 Z-9.354
X-2.42 Y-0.821 Z-9.363
X-2.398 Y-0.941 Z-9.367
X-2.339 Y-1.177 Z-9.376
X-2.307 Y-1.295 Z-9.38
X-2.229 Y-1.526 Z-9.388
X-2.188 Y-1.64 Z-9.393
X-2.091 Y-1.864 Z-9.401
X-2.041 Y-1.975 Z-9.405
X-1.927 Y-2.19 Z-9.414
X-1.868 Y-2.296 Z-9.418
X-1.736 Y-2.501 Z-9.427
X-1.669 Y-2.602 Z-9.431
X-1.521 Y-2.796 Z-9.439
X-1.445 Y-2.892 Z-9.444
X-1.282 Y-3.072 Z-9.452
X-1.199 Y-3.162 Z-9.456
X-1.022 Y-3.329 Z-9.465
X-0.932 Y-3.411 Z-9.469
X-0.742 Y-3.563 Z-9.478
X-0.646 Y-3.638 Z-9.482
X-0.443 Y-3.774 Z-9.49
X-0.342 Y-3.841 Z-9.495
X-0.129 Y-3.959 Z-9.503
X-0.022 Y-4.018 Z-9.507
X0.199 Y-4.119 Z-9.516
X0.31 Y-4.169 Z-9.52
X0.54 Y-4.252 Z-9.529
X0.654 Y-4.292 Z-9.533
X0.889 Y-4.356 Z-9.541
X1.007 Y-4.387 Z-9.546
X1.247 Y-4.432 Z-9.554
X1.367 Y-4.454 Z-9.558
X1.609 Y-4.478 Z-9.567
X1.73 Y-4.49 Z-9.571
X1.974 Y-4.495 Z-9.58
X2.095 Y-4.498 Z-9.584
X2.339 Y-4.483 Z-9.592
X2.46 Y-4.475 Z-9.597
X2.701 Y-4.44 Z-9.605
X2.822 Y-4.423 Z-9.609
X3.178 Y-4.342 Z-9.622
X3.294 Y-4.305 Z-9.626
X3.526 Y-4.232 Z-9.635
X3.639 Y-4.186 Z-9.639
X3.865 Y-4.094 Z-9.648
X3.974 Y-4.039 Z-9.652
X4.191 Y-3.929 Z-9.66
X4.295 Y-3.866 Z-9.665
X4.502 Y-3.738 Z-9.673
X4.601 Y-3.667 Z-9.677
X4.798 Y-3.523 Z-9.686
X4.89 Y-3.443 Z-9.69
X5.074 Y-3.284 Z-9.699
X5.16 Y-3.198 Z-9.703
X5.245 Y-3.111 Z-9.707
X5.331 Y-3.024 Z-9.711
X5.409 Y-2.931 Z-9.716
X5.565 Y-2.743 Z-9.724
X5.636 Y-2.644 Z-9.728
X5.706 Y-2.544 Z-9.733
X5.776 Y-2.445 Z-9.737
X5.838 Y-2.34 Z-9.741
X5.9 Y-2.235 Z-9.745
X5.962 Y-2.13 Z-9.75
X6.016 Y-2.021 Z-9.754
X6.069 Y-1.911 Z-9.758
X6.121 Y-1.802 Z-9.762
X6.167 Y-1.689 Z-9.767
X6.21 Y-1.575 Z-9.771
X6.254 Y-1.461 Z-9.775
X6.29 Y-1.345 Z-9.779
X6.324 Y-1.228 Z-9.784
X6.358 Y-1.111 Z-9.788
X6.385 Y-0.992 Z-9.792
X6.41 Y-0.873 Z-9.796
X6.434 Y-0.754 Z-9.801
X6.451 Y-0.633 Z-9.805
X6.466 Y-0.512 Z-9.809
X6.481 Y-0.391 Z-9.813
X6.488 Y-0.27 Z-9.818
X6.493 Y-0.148 Z-9.822
X6.498 Y-0.026 Z-9.826
X6.495 Y0.095 Z-9.83
X6.49 Y0.217 Z-9.834
X6.485 Y0.339 Z-9.838
X6.472 Y0.46 Z-9.842
X6.457 Y0.581 Z-9.846
X6.443 Y0.701 Z-9.85
X6.42 Y0.821 Z-9.854
X6.396 Y0.94 Z-9.858
X6.371 Y1.06 Z-9.861
X6.339 Y1.177 Z-9.865
X6.305 Y1.294 Z-9.869
X6.27 Y1.411 Z-9.873
X6.229 Y1.525 Z-9.876
X6.186 Y1.639 Z-9.88
X6.142 Y1.753 Z-9.883
X6.092 Y1.864 Z-9.887
X6.039 Y1.973 Z-9.89
X5.986 Y2.083 Z-9.894
X5.927 Y2.19 Z-9.897
X5.865 Y2.295 Z-9.901
X5.804 Y2.4 Z-9.904
X5.736 Y2.501 Z-9.907
X5.666 Y2.601 Z-9.91
X5.596 Y2.701 Z-9.913
X5.521 Y2.796 Z-9.917
X5.443 Y2.89 Z-9.92
X5.365 Y2.983 Z-9.923
X5.282 Y3.073 Z-9.926
X5.197 Y3.16 Z-9.928
X5.112 Y3.247 Z-9.931
X5.022 Y3.329 Z-9.934
X4.93 Y3.409 Z-9.937
X4.838 Y3.489 Z-9.94
X4.742 Y3.563 Z-9.942
X4.644 Y3.635 Z-9.945
X4.546 Y3.707 Z-9.947
X4.444 Y3.774 Z-9.95
X4.236 Y3.902 Z-9.955
X4.021 Y4.015 Z-9.959
X3.801 Y4.12 Z-9.964
X3.576 Y4.212 Z-9.968
X3.345 Y4.289 Z-9.972
X3.111 Y4.357 Z-9.975
X2.873 Y4.411 Z-9.979
X2.633 Y4.45 Z-9.982
X2.391 Y4.479 Z-9.985
X2.148 Y4.494 Z-9.988
X1.905 Z-9.99
X1.662 Y4.484 Z-9.992
X1.419 Y4.459 Z-9.994
X1.179 Y4.419 Z-9.996
X0.941 Y4.37 Z-9.997
X0.706 Y4.306 Z-9.998
X0.475 Y4.228 Z-9.999
X0.247 Y4.141 Z-10
X0.026 Y4.04
X-0.034 Y4.01
X-0.138 Y3.954
X-0.276 Y3.877
X-0.395 Y3.806
X-0.601 Y3.668
X-0.691 Y3.603
X-0.829 Y3.493
X-0.956 Y3.391
X-1.105 Y3.25
X-1.243 Y3.115
X-1.382 Y2.962
X-1.489 Y2.837
X-1.658 Y2.616
X-1.698 Y2.561
X-1.876 Y2.284
X-1.934 Y2.175
X-2.024 Y2.007
X-2.072 Y1.908
X-2.149 Y1.73
X-2.207 Y1.592
X-2.3 Y1.315
X-2.339 Y1.176
X-2.374 Y1.038
X-2.407 Y0.9
X-2.453 Y0.623
X-2.47 Y0.484
X-2.493 Y0.208
X-2.495 Y0.069
Y-0.069
X-2.493 Y-0.208
X-2.47 Y-0.484
X-2.453 Y-0.623
X-2.407 Y-0.9
X-2.374 Y-1.038
X-2.339 Y-1.176
X-2.3 Y-1.315
X-2.207 Y-1.592
X-2.149 Y-1.73
X-2.072 Y-1.908
X-2.024 Y-2.007
X-1.934 Y-2.175
X-1.876 Y-2.284
X-1.698 Y-2.561
X-1.658 Y-2.616
X-1.489 Y-2.837
X-1.382 Y-2.962
X-1.243 Y-3.115
X-1.105 Y-3.25
X-0.956 Y-3.391
X-0.829 Y-3.493
X-0.691 Y-3.603
X-0.601 Y-3.668
X-0.395 Y-3.806
X-0.276 Y-3.877
X-0.138 Y-3.954
X0 Y-4.028
X0.276 Y-4.154
X0.414 Y-4.207
X0.553 Y-4.256
X0.691 Y-4.302
X0.967 Y-4.377
X1.105 Y-4.406
X1.243 Y-4.431
X1.382 Y-4.455
X1.658 Y-4.483
X1.796 Y-4.492
X2.072 Y-4.497
X2.211 Y-4.491
X2.349 Y-4.482
X2.487 Y-4.471
X2.763 Y-4.432
X2.901 Y-4.405
X3.178 Y-4.342
X3.316 Y-4.298
X3.454 Y-4.255
X3.552 Y-4.221
X3.868 Y-4.092
X3.887 Y-4.083
X4.16 Y-3.945
X4.283 Y-3.873
X4.421 Y-3.788
X4.559 Y-3.697
X4.788 Y-3.529
X4.836 Y-3.491
X4.974 Y-3.371
X5.106 Y-3.253
X5.25 Y-3.106
X5.372 Y-2.976
X5.526 Y-2.79
X5.597 Y-2.699
X5.695 Y-2.561
X5.79 Y-2.422
X5.953 Y-2.145
X6.023 Y-2.007
X6.089 Y-1.869
X6.151 Y-1.73
X6.257 Y-1.453
X6.299 Y-1.315
X6.355 Y-1.122
X6.375 Y-1.038
X6.433 Y-0.761
X6.452 Y-0.623
X6.469 Y-0.484
X6.485 Y-0.346
X6.496 Y-0.069
Y0.069
X6.485 Y0.339
Y0.346
X6.469 Y0.484
X6.452 Y0.623
X6.433 Y0.761
X6.375 Y1.038
X6.355 Y1.122
X6.299 Y1.315
X6.257 Y1.453
X6.151 Y1.73
X6.089 Y1.869
X6.023 Y2.007
X5.953 Y2.145
X5.79 Y2.422
X5.695 Y2.561
X5.597 Y2.699
X5.526 Y2.79
X5.372 Y2.976
X5.25 Y3.106
X5.106 Y3.253
X4.974 Y3.371
X4.836 Y3.491
X4.788 Y3.529
X4.559 Y3.697
X4.421 Y3.788
X4.283 Y3.873
X4.16 Y3.945
X3.887 Y4.083
X3.868 Y4.092
X3.552 Y4.221
X3.454 Y4.255
X3.316 Y4.298
X3.178 Y4.342
X2.901 Y4.405
X2.763 Y4.432
X2.487 Y4.471
X2.349 Y4.482
X2.211 Y4.491
X2.072 Y4.497
X1.796 Y4.492
X1.658 Y4.483
X1.382 Y4.455
X1.243 Y4.431
X1.105 Y4.406
X0.967 Y4.377
X0.691 Y4.302
X0.553 Y4.256
X0.414 Y4.207
X0.276 Y4.154
X0 Y4.028
X-0.034 Y4.01
X-0.248 Y3.893
X-0.456 Y3.766 Z-10.001
X-0.658 Y3.63
X-0.848 Y3.478 Z-10.002
X-1.032 Y3.319 Z-10.004
X-1.21 Y3.152 Z-10.005
X-1.373 Y2.971 Z-10.007
X-1.529 Y2.784 Z-10.009
X-1.677 Y2.591 Z-10.011
X-1.81 Y2.386 Z-10.014
X-1.933 Y2.177 Z-10.017
X-2.048 Y1.962 Z-10.02
X-2.145 Y1.739 Z-10.024
X-2.234 Y1.512 Z-10.027
X-2.312 Y1.281 Z-10.031
X-2.372 Y1.045 Z-10.035
X-2.423 Y0.807 Z-10.039
X-2.462 Y0.567 Z-10.044
X-2.484 Y0.324 Z-10.049
X-2.495 Y0.081 Z-10.054
Y-0.041 Z-10.056
Y-0.163 Z-10.059
X-2.487 Y-0.284 Z-10.062
X-2.477 Y-0.406 Z-10.064
X-2.467 Y-0.527 Z-10.067
X-2.449 Y-0.648 Z-10.07
X-2.429 Y-0.768 Z-10.073
X-2.409 Y-0.888 Z-10.076
X-2.382 Y-1.006 Z-10.079
X-2.352 Y-1.125 Z-10.082
X-2.323 Y-1.243 Z-10.085
X-2.286 Y-1.359 Z-10.088
X-2.247 Y-1.474 Z-10.091
X-2.207 Y-1.59 Z-10.094
X-2.161 Y-1.702 Z-10.098
X-2.113 Y-1.814 Z-10.101
X-2.065 Y-1.926 Z-10.104
X-2.009 Y-2.034 Z-10.108
X-1.952 Y-2.142 Z-10.111
X-1.895 Y-2.249 Z-10.115
X-1.831 Y-2.353 Z-10.118
X-1.765 Y-2.455 Z-10.122
X-1.699 Y-2.558 Z-10.125
X-1.628 Y-2.656 Z-10.129
X-1.554 Y-2.753 Z-10.133
X-1.48 Y-2.85 Z-10.136
X-1.4 Y-2.942 Z-10.14
X-1.318 Y-3.032 Z-10.144
X-1.237 Y-3.123 Z-10.148
X-1.15 Y-3.208 Z-10.152
X-1.061 Y-3.292 Z-10.156
X-0.973 Y-3.375 Z-10.16
X-0.879 Y-3.453 Z-10.164
X-0.784 Y-3.529 Z-10.168
X-0.689 Y-3.605 Z-10.172
X-0.59 Y-3.675 Z-10.176
X-0.488 Y-3.743 Z-10.18
X-0.387 Y-3.811 Z-10.184
X-0.283 Y-3.874 Z-10.188
X-0.07 Y-3.992 Z-10.197
X0.039 Y-4.046 Z-10.201
X0.15 Y-4.097 Z-10.205
X0.261 Y-4.147 Z-10.21
X0.374 Y-4.192 Z-10.214
X0.489 Y-4.233 Z-10.218
X0.603 Y-4.275 Z-10.222
X0.72 Y-4.31 Z-10.227
X0.837 Y-4.342 Z-10.231
X0.955 Y-4.374 Z-10.235
X1.074 Y-4.4 Z-10.239
X1.193 Y-4.422 Z-10.244
X1.313 Y-4.444 Z-10.248
X1.434 Y-4.461 Z-10.252
X1.555 Y-4.473 Z-10.256
X1.676 Y-4.485 Z-10.261
X1.798 Y-4.492 Z-10.265
X1.919 Y-4.494 Z-10.269
X2.041 Y-4.497 Z-10.273
X2.163 Y-4.493 Z-10.278
X2.284 Y-4.486 Z-10.282
X2.406 Y-4.479 Z-10.286
X2.527 Y-4.465 Z-10.29
X2.648 Y-4.448 Z-10.295
X2.768 Y-4.431 Z-10.299
X2.888 Y-4.408 Z-10.303
X3.125 Y-4.354 Z-10.312
X3.243 Y-4.321 Z-10.316
X3.475 Y-4.248 Z-10.324
X3.589 Y-4.206 Z-10.329
X3.815 Y-4.114 Z-10.337
X3.925 Y-4.064 Z-10.342
X4.142 Y-3.954 Z-10.35
X4.249 Y-3.894 Z-10.354
X4.456 Y-3.767 Z-10.363
X4.557 Y-3.699 Z-10.367
X4.754 Y-3.555 Z-10.376
X4.849 Y-3.479 Z-10.38
X5.033 Y-3.319 Z-10.388
X5.122 Y-3.236 Z-10.393
X5.293 Y-3.062 Z-10.401
X5.375 Y-2.972 Z-10.405
X5.53 Y-2.785 Z-10.414
X5.605 Y-2.689 Z-10.418
X5.745 Y-2.489 Z-10.427
X5.811 Y-2.387 Z-10.431
X5.934 Y-2.177 Z-10.439
X5.992 Y-2.07 Z-10.444
X6.098 Y-1.851 Z-10.452
X6.147 Y-1.739 Z-10.456
X6.235 Y-1.512 Z-10.465
X6.275 Y-1.397 Z-10.469
X6.343 Y-1.163 Z-10.478
X6.374 Y-1.045 Z-10.482
X6.423 Y-0.807 Z-10.49
X6.444 Y-0.687 Z-10.495
X6.474 Y-0.445 Z-10.503
X6.486 Y-0.324 Z-10.507
X6.495 Y-0.081 Z-10.516
X6.497 Y0.041 Z-10.52
X6.487 Y0.284 Z-10.529
X6.479 Y0.406 Z-10.533
X6.449 Y0.648 Z-10.541
X6.431 Y0.768 Z-10.546
X6.382 Y1.007 Z-10.554
X6.354 Y1.125 Z-10.558
X6.286 Y1.359 Z-10.567
X6.249 Y1.475 Z-10.571
X6.161 Y1.702 Z-10.58
X6.115 Y1.815 Z-10.584
X6.009 Y2.034 Z-10.592
X5.954 Y2.143 Z-10.597
X5.831 Y2.353 Z-10.605
X5.767 Y2.457 Z-10.609
X5.627 Y2.656 Z-10.618
X5.556 Y2.754 Z-10.622
X5.4 Y2.942 Z-10.631
X5.32 Y3.034 Z-10.635
X5.15 Y3.208 Z-10.643
X5.063 Y3.293 Z-10.648
X4.879 Y3.453 Z-10.656
X4.786 Y3.531 Z-10.66
X4.589 Y3.675 Z-10.669
X4.49 Y3.746 Z-10.673
X4.386 Y3.81 Z-10.677
X4.282 Y3.873 Z-10.682
X4.178 Y3.936 Z-10.686
X3.961 Y4.046 Z-10.694
X3.851 Y4.099 Z-10.699
X3.739 Y4.145 Z-10.703
X3.626 Y4.191 Z-10.707
X3.513 Y4.236 Z-10.711
X3.396 Y4.273 Z-10.716
X3.28 Y4.31 Z-10.72
X3.164 Y4.345 Z-10.724
X3.045 Y4.372 Z-10.728
X2.926 Y4.399 Z-10.733
X2.807 Y4.425 Z-10.737
X2.687 Y4.442 Z-10.741
X2.566 Y4.46 Z-10.745
X2.446 Y4.476 Z-10.75
X2.324 Y4.484 Z-10.754
X2.202 Y4.491 Z-10.758
X2.081 Y4.498 Z-10.762
X1.959 Y4.495 Z-10.767
X1.837 Y4.493 Z-10.771
X1.716 Y4.489 Z-10.775
X1.594 Y4.477 Z-10.779
X1.473 Y4.465 Z-10.784
X1.352 Y4.452 Z-10.788
X1.232 Y4.429 Z-10.792
X1.113 Y4.407 Z-10.796
X0.993 Y4.384 Z-10.801
X0.875 Y4.352 Z-10.805
X0.758 Y4.32 Z-10.809
X0.64 Y4.288 Z-10.813
X0.526 Y4.247 Z-10.818
X0.411 Y4.205 Z-10.822
X0.297 Y4.164 Z-10.826
X0.186 Y4.113 Z-10.83
X0.075 Y4.063 Z-10.834
X-0.036 Y4.012 Z-10.838
X-0.142 Y3.952 Z-10.842
X-0.248 Y3.893 Z-10.846
X-0.354 Y3.833 Z-10.85
X-0.456 Y3.766 Z-10.854
X-0.557 Y3.698 Z-10.858
X-0.658 Y3.63 Z-10.861
X-0.753 Y3.554 Z-10.865
X-0.848 Y3.478 Z-10.869
X-0.944 Y3.402 Z-10.873
X-1.032 Y3.319 Z-10.876
X-1.121 Y3.235 Z-10.88
X-1.21 Y3.152 Z-10.883
X-1.292 Y3.062 Z-10.887
X-1.373 Y2.971 Z-10.89
X-1.455 Y2.881 Z-10.894
X-1.529 Y2.784 Z-10.897
X-1.603 Y2.688 Z-10.9
X-1.677 Y2.591 Z-10.904
X-1.744 Y2.489 Z-10.907
X-1.81 Y2.386 Z-10.91
X-1.875 Y2.284 Z-10.913
X-1.933 Y2.177 Z-10.916
X-1.991 Y2.069 Z-10.92
X-2.048 Y1.962 Z-10.923
X-2.097 Y1.85 Z-10.926
X-2.145 Y1.739 Z-10.928
X-2.194 Y1.627 Z-10.931
X-2.234 Y1.512 Z-10.934
X-2.273 Y1.396 Z-10.937
X-2.312 Y1.281 Z-10.94
X-2.343 Y1.163 Z-10.942
X-2.372 Y1.045 Z-10.945
X-2.402 Y0.927 Z-10.947
X-2.423 Y0.807 Z-10.95
X-2.462 Y0.567 Z-10.955
X-2.484 Y0.324 Z-10.959
X-2.495 Y0.081 Z-10.964
Y-0.163 Z-10.968
X-2.477 Y-0.406 Z-10.972
X-2.449 Y-0.648 Z-10.975
X-2.409 Y-0.888 Z-10.979
X-2.352 Y-1.125 Z-10.982
X-2.286 Y-1.359 Z-10.985
X-2.207 Y-1.59 Z-10.988
X-2.113 Y-1.814 Z-10.99
X-2.009 Y-2.034 Z-10.992
X-1.895 Y-2.249 Z-10.994
X-1.765 Y-2.455 Z-10.996
X-1.628 Y-2.656 Z-10.997
X-1.48 Y-2.85 Z-10.998
X-1.318 Y-3.032 Z-10.999
X-1.15 Y-3.208 Z-11
X-0.973 Y-3.375
X-0.921 Y-3.419
X-0.829 Y-3.493
X-0.691 Y-3.603
X-0.601 Y-3.668
X-0.395 Y-3.806
X-0.276 Y-3.877
X-0.138 Y-3.954
X0 Y-4.028
X0.276 Y-4.154
X0.414 Y-4.207
X0.553 Y-4.256
X0.691 Y-4.302
X0.967 Y-4.377
X1.105 Y-4.406
X1.243 Y-4.431
X1.382 Y-4.455
X1.658 Y-4.483
X1.796 Y-4.492
X2.072 Y-4.497
X2.211 Y-4.491
X2.349 Y-4.482
X2.487 Y-4.471
X2.763 Y-4.432
X2.901 Y-4.405
X3.178 Y-4.342
X3.316 Y-4.298
X3.454 Y-4.255
X3.552 Y-4.221
X3.868 Y-4.092
X3.887 Y-4.083
X4.16 Y-3.945
X4.283 Y-3.873
X4.421 Y-3.788
X4.559 Y-3.697
X4.788 Y-3.529
X4.836 Y-3.491
X4.974 Y-3.371
X5.106 Y-3.253
X5.25 Y-3.106
X5.372 Y-2.976
X5.526 Y-2.79
X5.597 Y-2.699
X5.695 Y-2.561
X5.79 Y-2.422
X5.953 Y-2.145
X6.023 Y-2.007
X6.089 Y-1.869
X6.151 Y-1.73
X6.257 Y-1.453
X6.299 Y-1.315
X6.355 Y-1.122
X6.375 Y-1.038
X6.433 Y-0.761
X6.452 Y-0.623
X6.469 Y-0.484
X6.485 Y-0.346
X6.496 Y-0.069
Y0.069
X6.485 Y0.346
X6.469 Y0.484
X6.452 Y0.623
X6.433 Y0.761
X6.375 Y1.038
X6.355 Y1.122
X6.299 Y1.315
X6.257 Y1.453
X6.151 Y1.73
X6.089 Y1.869
X6.023 Y2.007
X5.953 Y2.145
X5.79 Y2.422
X5.695 Y2.561
X5.597 Y2.699
X5.526 Y2.79
X5.372 Y2.976
X5.25 Y3.106
X5.106 Y3.253
X4.974 Y3.371
X4.836 Y3.491
X4.788 Y3.529
X4.559 Y3.697
X4.421 Y3.788
X4.283 Y3.873
X4.16 Y3.945
X3.887 Y4.083
X3.868 Y4.092
X3.552 Y4.221
X3.454 Y4.255
X3.316 Y4.298
X3.178 Y4.342
X2.901 Y4.405
X2.763 Y4.432
X2.487 Y4.471
X2.349 Y4.482
X2.211 Y4.491
X2.072 Y4.497
X1.796 Y4.492
X1.658 Y4.483
X1.382 Y4.455
X1.243 Y4.431
X1.105 Y4.406
X0.967 Y4.377
X0.691 Y4.302
X0.553 Y4.256
X0.414 Y4.207
X0.276 Y4.154
X0 Y4.028
X-0.138 Y3.954
X-0.276 Y3.877
X-0.395 Y3.806
X-0.601 Y3.668
X-0.691 Y3.603
X-0.829 Y3.493
X-0.956 Y3.391
X-1.105 Y3.25
X-1.243 Y3.115
X-1.382 Y2.962
X-1.489 Y2.837
X-1.658 Y2.616
X-1.698 Y2.561
X-1.876 Y2.284
X-1.934 Y2.175
X-2.024 Y2.007
X-2.072 Y1.908
X-2.149 Y1.73
X-2.207 Y1.592
X-2.3 Y1.315
X-2.339 Y1.176
X-2.374 Y1.038
X-2.407 Y0.9
X-2.453 Y0.623
X-2.47 Y0.484
X-2.493 Y0.208
X-2.495 Y0.069
Y-0.069
X-2.493 Y-0.208
X-2.47 Y-0.484
X-2.453 Y-0.623
X-2.407 Y-0.9
X-2.374 Y-1.038
X-2.339 Y-1.176
X-2.3 Y-1.315
X-2.207 Y-1.592
X-2.149 Y-1.73
X-2.072 Y-1.908
X-2.024 Y-2.007
X-1.934 Y-2.175
X-1.876 Y-2.284
X-1.698 Y-2.561
X-1.658 Y-2.616
X-1.489 Y-2.837
X-1.382 Y-2.962
X-1.243 Y-3.115
X-1.105 Y-3.25
X-0.956 Y-3.391
X-0.921 Y-3.419
X-0.731 Y-3.572
X-0.533 Y-3.714 Z-11.001
X-0.329 Y-3.847
X-0.117 Y-3.966 Z-11.002
X0.101 Y-4.074 Z-11.004
X0.324 Y-4.174 Z-11.005
X0.553 Y-4.257 Z-11.007
X0.785 Y-4.328 Z-11.009
X1.021 Y-4.39 Z-11.011
X1.26 Y-4.435 Z-11.014
X1.502 Y-4.467 Z-11.017
X1.744 Y-4.491 Z-11.02
X1.988 Y-4.496 Z-11.024
X2.231 Y-4.489 Z-11.027
X2.474 Y-4.473 Z-11.031
X2.715 Y-4.438 Z-11.035
X2.954 Y-4.393 Z-11.039
X3.191 Y-4.338 Z-11.044
X3.424 Y-4.264 Z-11.049
X3.652 Y-4.181 Z-11.054
X3.765 Y-4.135 Z-11.056
X3.877 Y-4.088 Z-11.059
X3.986 Y-4.033 Z-11.062
X4.095 Y-3.978 Z-11.064
X4.203 Y-3.922 Z-11.067
X4.307 Y-3.858 Z-11.07
X4.411 Y-3.795 Z-11.073
X4.514 Y-3.73 Z-11.076
X4.612 Y-3.658 Z-11.079
X4.711 Y-3.586 Z-11.082
X4.809 Y-3.514 Z-11.085
X4.901 Y-3.434 Z-11.088
X4.993 Y-3.355 Z-11.091
X5.085 Y-3.275 Z-11.094
X5.17 Y-3.188 Z-11.098
X5.255 Y-3.101 Z-11.101
X5.34 Y-3.013 Z-11.104
X5.418 Y-2.92 Z-11.108
X5.496 Y-2.826 Z-11.111
X5.574 Y-2.732 Z-11.115
X5.644 Y-2.633 Z-11.118
X5.714 Y-2.533 Z-11.122
X5.784 Y-2.433 Z-11.125
X5.846 Y-2.328 Z-11.129
X5.907 Y-2.223 Z-11.133
X5.969 Y-2.118 Z-11.136
X6.022 Y-2.009 Z-11.14
X6.075 Y-1.899 Z-11.144
X6.128 Y-1.789 Z-11.148
X6.172 Y-1.675 Z-11.152
X6.215 Y-1.562 Z-11.156
X6.259 Y-1.448 Z-11.16
X6.294 Y-1.331 Z-11.164
X6.328 Y-1.215 Z-11.168
X6.362 Y-1.098 Z-11.172
X6.388 Y-0.979 Z-11.176
X6.412 Y-0.859 Z-11.18
X6.437 Y-0.74 Z-11.184
X6.453 Y-0.619 Z-11.188
X6.482 Y-0.378 Z-11.197
X6.488 Y-0.256 Z-11.201
X6.493 Y-0.134 Z-11.205
X6.498 Y-0.012 Z-11.21
X6.494 Y0.109 Z-11.214
X6.489 Y0.231 Z-11.218
X6.484 Y0.353 Z-11.222
X6.471 Y0.474 Z-11.227
X6.456 Y0.595 Z-11.231
X6.441 Y0.715 Z-11.235
X6.417 Y0.835 Z-11.239
X6.393 Y0.954 Z-11.244
X6.368 Y1.073 Z-11.248
X6.335 Y1.191 Z-11.252
X6.301 Y1.308 Z-11.256
X6.267 Y1.424 Z-11.261
X6.224 Y1.539 Z-11.265
X6.181 Y1.652 Z-11.269
X6.137 Y1.766 Z-11.273
X6.085 Y1.876 Z-11.278
X6.033 Y1.986 Z-11.282
X5.98 Y2.096 Z-11.286
X5.92 Y2.202 Z-11.29
X5.858 Y2.307 Z-11.295
X5.797 Y2.412 Z-11.299
X5.728 Y2.513 Z-11.303
X5.588 Y2.712 Z-11.312
X5.512 Y2.807 Z-11.316
X5.434 Y2.901 Z-11.32
X5.356 Y2.994 Z-11.325
X5.273 Y3.083 Z-11.329
X5.102 Y3.257 Z-11.337
X5.012 Y3.338 Z-11.342
X4.828 Y3.498 Z-11.35
X4.731 Y3.572 Z-11.354
X4.534 Y3.716 Z-11.363
X4.432 Y3.782 Z-11.367
X4.224 Y3.909 Z-11.376
X4.117 Y3.966 Z-11.38
X3.9 Y4.077 Z-11.388
X3.788 Y4.125 Z-11.393
X3.563 Y4.217 Z-11.401
X3.447 Y4.257 Z-11.405
X3.215 Y4.33 Z-11.414
X3.097 Y4.36 Z-11.418
X2.86 Y4.414 Z-11.427
X2.74 Y4.435 Z-11.431
X2.499 Y4.47 Z-11.439
X2.377 Y4.48 Z-11.444
X2.134 Y4.495 Z-11.452
X2.013 Y4.496 Z-11.456
X1.769 Y4.491 Z-11.465
X1.648 Y4.482 Z-11.469
X1.405 Y4.458 Z-11.478
X1.285 Y4.439 Z-11.482
X1.045 Y4.395 Z-11.49
X0.927 Y4.366 Z-11.495
X0.692 Y4.303 Z-11.503
X0.576 Y4.265 Z-11.507
X0.347 Y4.182 Z-11.516
X0.235 Y4.135 Z-11.52
X0.013 Y4.034 Z-11.529
X-0.095 Y3.979 Z-11.533
X-0.308 Y3.86 Z-11.541
X-0.411 Y3.795 Z-11.546
X-0.613 Y3.66 Z-11.554
X-0.711 Y3.587 Z-11.558
X-0.902 Y3.435 Z-11.567
X-0.993 Y3.355 Z-11.571
X-1.171 Y3.188 Z-11.58
X-1.256 Y3.101 Z-11.584
X-1.419 Y2.921 Z-11.592
X-1.497 Y2.827 Z-11.597
X-1.645 Y2.633 Z-11.605
X-1.715 Y2.534 Z-11.609
X-1.847 Y2.329 Z-11.618
X-1.908 Y2.224 Z-11.622
X-2.023 Y2.009 Z-11.631
X-2.076 Y1.899 Z-11.635
X-2.173 Y1.676 Z-11.643
X-2.217 Y1.562 Z-11.648
X-2.295 Y1.332 Z-11.656
X-2.33 Y1.215 Z-11.66
X-2.389 Y0.979 Z-11.669
X-2.414 Y0.86 Z-11.673
X-2.454 Y0.619 Z-11.682
X-2.469 Y0.499 Z-11.686
X-2.489 Y0.256 Z-11.694
X-2.495 Y0.134 Z-11.699
Y0.012 Z-11.703
Y-0.109 Z-11.707
X-2.491 Y-0.231 Z-11.711
X-2.481 Y-0.352 Z-11.716
X-2.471 Y-0.474 Z-11.72
X-2.458 Y-0.595 Z-11.724
X-2.438 Y-0.715 Z-11.728
X-2.418 Y-0.835 Z-11.733
X-2.395 Y-0.955 Z-11.737
X-2.365 Y-1.073 Z-11.741
X-2.336 Y-1.191 Z-11.745
X-2.303 Y-1.308 Z-11.75
X-2.264 Y-1.423 Z-11.754
X-2.225 Y-1.539 Z-11.758
X-2.182 Y-1.653 Z-11.762
X-2.134 Y-1.765 Z-11.767
X-2.086 Y-1.877 Z-11.771
X-2.035 Y-1.987 Z-11.775
X-1.977 Y-2.095 Z-11.779
X-1.92 Y-2.202 Z-11.784
X-1.86 Y-2.308 Z-11.788
X-1.794 Y-2.41 Z-11.792
X-1.728 Y-2.513 Z-11.796
X-1.66 Y-2.614 Z-11.801
X-1.586 Y-2.71 Z-11.805
X-1.512 Y-2.807 Z-11.809
X-1.436 Y-2.902 Z-11.813
X-1.354 Y-2.992 Z-11.818
X-1.273 Y-3.083 Z-11.822
X-1.189 Y-3.171 Z-11.826
X-1.1 Y-3.255 Z-11.83
X-1.012 Y-3.338 Z-11.834
X-0.921 Y-3.42 Z-11.838
X-0.826 Y-3.496 Z-11.842
X-0.731 Y-3.572 Z-11.846
X-0.634 Y-3.646 Z-11.85
X-0.533 Y-3.714 Z-11.854
X-0.432 Y-3.781 Z-11.858
X-0.329 Y-3.847 Z-11.861
X-0.223 Y-3.907 Z-11.865
X-0.117 Y-3.966 Z-11.869
X-0.01 Y-4.024 Z-11.873
X0.101 Y-4.074 Z-11.876
X0.212 Y-4.125 Z-11.88
X0.324 Y-4.174 Z-11.883
X0.438 Y-4.215 Z-11.887
X0.553 Y-4.257 Z-11.89
X0.668 Y-4.296 Z-11.894
X0.785 Y-4.328 Z-11.897
X0.903 Y-4.36 Z-11.9
X1.021 Y-4.39 Z-11.904
X1.141 Y-4.412 Z-11.907
X1.26 Y-4.435 Z-11.91
X1.38 Y-4.455 Z-11.913
X1.502 Y-4.467 Z-11.916
X1.623 Y-4.48 Z-11.92
X1.744 Y-4.491 Z-11.923
X1.866 Y-4.493 Z-11.926
X1.988 Y-4.496 Z-11.928
X2.109 Y-4.497 Z-11.931
X2.231 Y-4.489 Z-11.934
X2.353 Y-4.482 Z-11.937
X2.474 Y-4.473 Z-11.94
X2.595 Y-4.456 Z-11.942
X2.715 Y-4.438 Z-11.945
X2.835 Y-4.42 Z-11.947
X2.954 Y-4.393 Z-11.95
X3.191 Y-4.338 Z-11.955
X3.424 Y-4.264 Z-11.959
X3.652 Y-4.181 Z-11.964
X3.877 Y-4.088 Z-11.968
X4.095 Y-3.978 Z-11.972
X4.307 Y-3.858 Z-11.975
X4.514 Y-3.73 Z-11.979
X4.711 Y-3.586 Z-11.982
X4.901 Y-3.434 Z-11.985
X5.085 Y-3.275 Z-11.988
X5.255 Y-3.101 Z-11.99
X5.418 Y-2.92 Z-11.992
X5.574 Y-2.732 Z-11.994
X5.714 Y-2.533 Z-11.996
X5.846 Y-2.328 Z-11.997
X5.969 Y-2.118 Z-11.998
X6.075 Y-1.899 Z-11.999
X6.172 Y-1.675 Z-12
X6.259 Y-1.448
X6.278 Y-1.383
X6.299 Y-1.315
X6.355 Y-1.122
X6.375 Y-1.038
X6.433 Y-0.761
X6.452 Y-0.623
X6.469 Y-0.484
X6.485 Y-0.346
X6.496 Y-0.069
Y0.069
X6.485 Y0.346
X6.469 Y0.484
X6.452 Y0.623
X6.433 Y0.761
X6.375 Y1.038
X6.355 Y1.122
X6.299 Y1.315
X6.257 Y1.453
X6.151 Y1.73
X6.089 Y1.869
X6.023 Y2.007
X5.953 Y2.145
X5.79 Y2.422
X5.695 Y2.561
X5.597 Y2.699
X5.526 Y2.79
X5.372 Y2.976
X5.25 Y3.106
X5.106 Y3.253
X4.974 Y3.371
X4.836 Y3.491
X4.788 Y3.529
X4.559 Y3.697
X4.421 Y3.788
X4.283 Y3.873
X4.16 Y3.945
X3.887 Y4.083
X3.868 Y4.092
X3.552 Y4.221
X3.454 Y4.255
X3.316 Y4.298
X3.178 Y4.342
X2.901 Y4.405
X2.763 Y4.432
X2.487 Y4.471
X2.349 Y4.482
X2.211 Y4.491
X2.072 Y4.497
X1.796 Y4.492
X1.658 Y4.483
X1.382 Y4.455
X1.243 Y4.431
X1.105 Y4.406
X0.967 Y4.377
X0.691 Y4.302
X0.553 Y4.256
X0.414 Y4.207
X0.276 Y4.154
X0 Y4.028
X-0.138 Y3.954
X-0.276 Y3.877
X-0.395 Y3.806
X-0.601 Y3.668
X-0.691 Y3.603
X-0.829 Y3.493
X-0.956 Y3.391
X-1.105 Y3.25
X-1.243 Y3.115
X-1.382 Y2.962
X-1.489 Y2.837
X-1.658 Y2.616
X-1.698 Y2.561
X-1.876 Y2.284
X-1.934 Y2.175
X-2.024 Y2.007
X-2.072 Y1.908
X-2.149 Y1.73
X-2.207 Y1.592
X-2.3 Y1.315
X-2.339 Y1.176
X-2.374 Y1.038
X-2.407 Y0.9
X-2.453 Y0.623
X-2.47 Y0.484
X-2.493 Y0.208
X-2.495 Y0.069
Y-0.069
X-2.493 Y-0.208
X-2.47 Y-0.484
X-2.453 Y-0.623
X-2.407 Y-0.9
X-2.374 Y-1.038
X-2.339 Y-1.176
X-2.3 Y-1.315
X-2.207 Y-1.592
X-2.149 Y-1.73
X-2.072 Y-1.908
X-2.024 Y-2.007
X-1.934 Y-2.175
X-1.876 Y-2.284
X-1.698 Y-2.561
X-1.658 Y-2.616
X-1.489 Y-2.837
X-1.382 Y-2.962
X-1.243 Y-3.115
X-1.105 Y-3.25
X-0.956 Y-3.391
X-0.829 Y-3.493
X-0.691 Y-3.603
X-0.601 Y-3.668
X-0.395 Y-3.806
X-0.276 Y-3.877
X-0.138 Y-3.954
X0 Y-4.028
X0.276 Y-4.154
X0.414 Y-4.207
X0.553 Y-4.256
X0.691 Y-4.302
X0.967 Y-4.377
X1.105 Y-4.406
X1.243 Y-4.431
X1.382 Y-4.455
X1.658 Y-4.483
X1.796 Y-4.492
X2.072 Y-4.497
X2.211 Y-4.491
X2.349 Y-4.482
X2.487 Y-4.471
X2.763 Y-4.432
X2.901 Y-4.405
X3.178 Y-4.342
X3.316 Y-4.298
X3.454 Y-4.255
X3.552 Y-4.221
X3.868 Y-4.092
X3.887 Y-4.083
X4.16 Y-3.945
X4.283 Y-3.873
X4.421 Y-3.788
X4.559 Y-3.697
X4.788 Y-3.529
X4.836 Y-3.491
X4.974 Y-3.371
X5.106 Y-3.253
X5.25 Y-3.106
X5.372 Y-2.976
X5.526 Y-2.79
X5.597 Y-2.699
X5.695 Y-2.561
X5.79 Y-2.422
X5.953 Y-2.145
X6.023 Y-2.007
X6.089 Y-1.869
X6.151 Y-1.73
X6.257 Y-1.453
X6.278 Y-1.383
G3 X6.077 Y-1.009 I-0.287 J0.086
G1 X6.014 Y-0.99 Z-11.992
X5.953 Y-0.971 Z-11.97
X5.898 Y-0.955 Z-11.935
X5.853 Y-0.941 Z-11.887
X5.819 Y-0.931 Z-11.83
X5.797 Y-0.925 Z-11.767
X5.79 Y-0.923 Z-11.7
G0 Z2
M9
G28 G91 Z0
G28 X0 Y0
M30
%
