%
(3)
(T2  D=3 CR=0 - ZMIN=-12 - flat end mill)
G90 G94
G17
G21
G28 G91 Z0
G90

(Outer Border)
M9
T2 M6
(Part of a 10 Pack Carbide)
S5000 M3
G54
M9
G0 X-13.234 Y-19.664
Z2
Z1.297
G1 Z-0.7 F1000
X-13.227 Y-19.662 Z-0.767
X-13.206 Y-19.655 Z-0.83
X-13.172 Y-19.645 Z-0.887
X-13.127 Y-19.63 Z-0.935
X-13.072 Y-19.613 Z-0.97
X-13.012 Y-19.594 Z-0.992
X-12.948 Y-19.574 Z-1
X-12.072 Y-19.298
G3 X-11.876 Y-18.921 I-0.09 J0.286
G1 X-11.887 Y-18.882
X-11.916 Y-18.744
X-11.944 Y-18.605
X-11.969 Y-18.467
X-11.982 Y-18.329
X-11.991 Y-18.19
X-11.999 Y-18.052
X-12 Y-17.914
Y17.914
X-11.999 Y18.052
X-11.991 Y18.19
X-11.982 Y18.329
X-11.969 Y18.467
X-11.944 Y18.605
X-11.916 Y18.744
X-11.887 Y18.882
X-11.876 Y18.921
X-11.845 Y19.02
X-11.798 Y19.159
X-11.75 Y19.297
X-11.738 Y19.328
X-11.69 Y19.435
X-11.6 Y19.617
X-11.552 Y19.712
X-11.513 Y19.781
X-11.468 Y19.85
X-11.376 Y19.989
X-11.324 Y20.065
X-11.28 Y20.127
X-11.186 Y20.239
X-11.042 Y20.404
X-10.98 Y20.47
X-10.91 Y20.536
X-10.903 Y20.542
X-10.746 Y20.68
X-10.634 Y20.774
X-10.573 Y20.819
X-10.495 Y20.871
X-10.357 Y20.963
X-10.288 Y21.008
X-10.219 Y21.048
X-10.127 Y21.095
X-9.943 Y21.186
X-9.839 Y21.234
X-9.805 Y21.247
X-9.667 Y21.296
X-9.529 Y21.342
X-9.438 Y21.372
X-9.391 Y21.385
X-9.253 Y21.414
X-9.115 Y21.442
X-8.976 Y21.467
X-8.838 Y21.481
X-8.7 Y21.49
X-8.562 Y21.499
X-8.424 Y21.5
X8.424
X8.562 Y21.499
X8.7 Y21.49
X8.838 Y21.481
X8.976 Y21.467
X9.115 Y21.442
X9.253 Y21.414
X9.391 Y21.385
X9.438 Y21.372
X9.529 Y21.342
X9.667 Y21.296
X9.805 Y21.247
X9.839 Y21.234
X9.943 Y21.186
X10.127 Y21.095
X10.219 Y21.048
X10.288 Y21.008
X10.357 Y20.963
X10.495 Y20.871
X10.573 Y20.819
X10.634 Y20.774
X10.746 Y20.68
X10.903 Y20.542
X10.91 Y20.536
X10.98 Y20.47
X11.042 Y20.404
X11.186 Y20.239
X11.28 Y20.127
X11.324 Y20.065
X11.376 Y19.989
X11.468 Y19.85
X11.513 Y19.781
X11.552 Y19.712
X11.6 Y19.617
X11.69 Y19.435
X11.738 Y19.328
X11.75 Y19.297
X11.798 Y19.159
X11.845 Y19.02
X11.876 Y18.921
X11.887 Y18.882
X11.916 Y18.744
X11.944 Y18.605
X11.969 Y18.467
X11.982 Y18.329
X11.991 Y18.19
X11.999 Y18.052
X12 Y17.914
Y-17.914
X11.999 Y-18.052
X11.991 Y-18.19
X11.982 Y-18.329
X11.969 Y-18.467
X11.944 Y-18.605
X11.916 Y-18.744
X11.887 Y-18.882
X11.876 Y-18.921
X11.845 Y-19.02
X11.798 Y-19.159
X11.75 Y-19.297
X11.738 Y-19.328
X11.69 Y-19.435
X11.6 Y-19.617
X11.552 Y-19.712
X11.513 Y-19.781
X11.468 Y-19.85
X11.376 Y-19.989
X11.324 Y-20.065
X11.28 Y-20.127
X11.186 Y-20.239
X11.042 Y-20.404
X10.98 Y-20.47
X10.91 Y-20.536
X10.903 Y-20.542
X10.746 Y-20.68
X10.634 Y-20.774
X10.573 Y-20.819
X10.495 Y-20.871
X10.357 Y-20.963
X10.288 Y-21.008
X10.219 Y-21.048
X10.127 Y-21.095
X9.943 Y-21.186
X9.839 Y-21.234
X9.805 Y-21.247
X9.667 Y-21.296
X9.529 Y-21.342
X9.438 Y-21.372
X9.391 Y-21.385
X9.253 Y-21.415
X9.115 Y-21.442
X8.976 Y-21.467
X8.838 Y-21.481
X8.7 Y-21.49
X8.562 Y-21.499
X8.424 Y-21.5
X-8.424
X-8.562 Y-21.499
X-8.7 Y-21.49
X-8.838 Y-21.481
X-8.976 Y-21.467
X-9.115 Y-21.442
X-9.253 Y-21.415
X-9.391 Y-21.385
X-9.438 Y-21.372
X-9.529 Y-21.342
X-9.667 Y-21.296
X-9.805 Y-21.247
X-9.839 Y-21.234
X-9.943 Y-21.186
X-10.127 Y-21.095
X-10.219 Y-21.048
X-10.288 Y-21.008
X-10.357 Y-20.963
X-10.495 Y-20.871
X-10.573 Y-20.819
X-10.634 Y-20.774
X-10.746 Y-20.68
X-10.903 Y-20.542
X-10.91 Y-20.536
X-10.98 Y-20.47
X-11.042 Y-20.404
X-11.186 Y-20.239
X-11.28 Y-20.127
X-11.324 Y-20.065
X-11.376 Y-19.989
X-11.468 Y-19.85
X-11.513 Y-19.781
X-11.552 Y-19.712
X-11.6 Y-19.617
X-11.69 Y-19.435
X-11.738 Y-19.328
X-11.75 Y-19.297
X-11.798 Y-19.159
X-11.845 Y-19.02
X-11.876 Y-18.921
X-11.928 Y-18.683
X-11.952 Y-18.563
X-11.972 Y-18.443 Z-1.001
X-11.982 Y-18.321
X-11.99 Y-18.2
X-12 Y-17.956 Z-1.002
Y-17.712 Z-1.004
Y-17.468 Z-1.005
Y-17.224 Z-1.007
Y-16.98 Z-1.009
Y-16.736 Z-1.012
Y-16.492 Z-1.014
Y-16.248 Z-1.017
Y-16.004 Z-1.02
Y-15.76 Z-1.024
Y-15.516 Z-1.027
Y-15.272 Z-1.031
Y-15.028 Z-1.035
Y-14.784 Z-1.04
Y-14.54 Z-1.044
Y-14.296 Z-1.049
Y-14.174 Z-1.051
Y-14.052 Z-1.054
Y-13.93 Z-1.057
Y-13.808 Z-1.059
Y-13.686 Z-1.062
Y-13.564 Z-1.065
Y-13.442 Z-1.067
Y-13.32 Z-1.07
Y-13.198 Z-1.073
Y-13.076 Z-1.076
Y-12.954 Z-1.079
Y-12.832 Z-1.082
Y-12.71 Z-1.085
Y-12.588 Z-1.088
Y-12.466 Z-1.091
Y-12.344 Z-1.095
Y-12.222 Z-1.098
Y-12.1 Z-1.101
Y-11.978 Z-1.105
Y-11.856 Z-1.108
Y-11.734 Z-1.112
Y-11.612 Z-1.115
Y-11.49 Z-1.119
Y-11.368 Z-1.122
Y-11.246 Z-1.126
Y-11.124 Z-1.129
Y-11.002 Z-1.133
Y-10.88 Z-1.137
Y-10.758 Z-1.141
Y-10.636 Z-1.145
Y-10.514 Z-1.148
Y-10.392 Z-1.152
Y-10.27 Z-1.156
Y-10.148 Z-1.16
Y-10.025 Z-1.164
Y-9.903 Z-1.168
Y-9.781 Z-1.172
Y-9.659 Z-1.177
Y-9.537 Z-1.181
Y-9.415 Z-1.185
Y-9.293 Z-1.189
Y-8.073 Z-1.232
Y-7.951 Z-1.236
Y-7.829 Z-1.24
Y-7.707 Z-1.244
Y-7.585 Z-1.249
Y-7.463 Z-1.253
Y-7.341 Z-1.257
Y-7.219 Z-1.262
Y-7.097 Z-1.266
Y-6.975 Z-1.27
Y-6.853 Z-1.274
Y-6.731 Z-1.279
Y-6.609 Z-1.283
Y-6.487 Z-1.287
Y-6.365 Z-1.291
Y-6.243 Z-1.296
Y-6.121 Z-1.3
Y-5.999 Z-1.304
Y-5.755 Z-1.313
Y-5.389 Z-1.325
Y-5.023 Z-1.338
Y-4.657 Z-1.351
Y-4.291 Z-1.364
Y-3.925 Z-1.377
Y-3.559 Z-1.389
Y-2.949 Z-1.411
Y-2.339 Z-1.432
Y-1.485 Z-1.462
Y-0.021 Z-1.513
Y5.225 Z-1.696
Y5.347 Z-1.7
Y5.469 Z-1.705
Y5.591 Z-1.709
Y5.713 Z-1.713
Y5.835 Z-1.717
Y5.957 Z-1.722
Y6.079 Z-1.726
Y6.201 Z-1.73
Y6.323 Z-1.734
Y6.445 Z-1.739
Y6.567 Z-1.743
Y6.689 Z-1.747
Y6.811 Z-1.751
Y6.933 Z-1.756
Y7.055 Z-1.76
Y7.177 Z-1.764
Y7.299 Z-1.768
Y7.421 Z-1.773
Y7.543 Z-1.777
Y7.665 Z-1.781
Y7.787 Z-1.786
Y7.909 Z-1.79
Y8.031 Z-1.794
Y8.153 Z-1.798
Y8.275 Z-1.803
Y8.642 Z-1.815
Y8.764 Z-1.819
Y8.886 Z-1.824
Y9.008 Z-1.828
Y9.13 Z-1.832
Y9.252 Z-1.836
Y9.374 Z-1.84
Y9.496 Z-1.844
Y9.618 Z-1.848
Y9.74 Z-1.852
Y9.862 Z-1.856
Y9.984 Z-1.859
Y10.106 Z-1.863
Y10.228 Z-1.867
Y10.35 Z-1.871
Y10.472 Z-1.874
Y10.594 Z-1.878
Y10.716 Z-1.882
Y10.838 Z-1.885
Y10.96 Z-1.889
Y11.082 Z-1.892
Y11.204 Z-1.895
Y11.326 Z-1.899
Y11.448 Z-1.902
Y11.57 Z-1.905
Y11.692 Z-1.909
Y11.814 Z-1.912
Y11.936 Z-1.915
Y12.058 Z-1.918
Y12.18 Z-1.921
Y12.302 Z-1.924
Y12.424 Z-1.927
Y12.546 Z-1.93
Y12.668 Z-1.933
Y12.79 Z-1.936
Y12.912 Z-1.938
Y13.034 Z-1.941
Y13.156 Z-1.944
Y13.278 Z-1.946
Y13.4 Z-1.949
Y13.522 Z-1.951
Y13.766 Z-1.956
Y14.01 Z-1.961
Y14.254 Z-1.965
Y14.498 Z-1.969
Y14.742 Z-1.973
Y14.986 Z-1.976
Y15.23 Z-1.98
Y15.474 Z-1.983
Y15.718 Z-1.986
Y15.962 Z-1.988
Y16.206 Z-1.991
Y16.45 Z-1.993
Y16.694 Z-1.995
Y16.938 Z-1.996
Y17.182 Z-1.998
Y17.426 Z-1.999
Y17.67
Y17.914 Z-2
X-11.993 Y18.154
X-11.991 Y18.19
X-11.982 Y18.329
X-11.969 Y18.467
X-11.944 Y18.605
X-11.916 Y18.744
X-11.887 Y18.882
X-11.876 Y18.921
X-11.845 Y19.02
X-11.798 Y19.159
X-11.75 Y19.297
X-11.738 Y19.328
X-11.69 Y19.435
X-11.6 Y19.617
X-11.552 Y19.712
X-11.513 Y19.781
X-11.468 Y19.85
X-11.376 Y19.989
X-11.324 Y20.065
X-11.28 Y20.127
X-11.186 Y20.239
X-11.042 Y20.404
X-10.98 Y20.47
X-10.91 Y20.536
X-10.903 Y20.542
X-10.746 Y20.68
X-10.634 Y20.774
X-10.573 Y20.819
X-10.495 Y20.871
X-10.357 Y20.963
X-10.288 Y21.008
X-10.219 Y21.048
X-10.127 Y21.095
X-9.943 Y21.186
X-9.839 Y21.234
X-9.805 Y21.247
X-9.667 Y21.296
X-9.529 Y21.342
X-9.438 Y21.372
X-9.391 Y21.385
X-9.253 Y21.414
X-9.115 Y21.442
X-8.976 Y21.467
X-8.838 Y21.481
X-8.7 Y21.49
X-8.562 Y21.499
X-8.424 Y21.5
X8.424
X8.562 Y21.499
X8.7 Y21.49
X8.838 Y21.481
X8.976 Y21.467
X9.115 Y21.442
X9.253 Y21.414
X9.391 Y21.385
X9.438 Y21.372
X9.529 Y21.342
X9.667 Y21.296
X9.805 Y21.247
X9.839 Y21.234
X9.943 Y21.186
X10.127 Y21.095
X10.219 Y21.048
X10.288 Y21.008
X10.357 Y20.963
X10.495 Y20.871
X10.573 Y20.819
X10.634 Y20.774
X10.746 Y20.68
X10.903 Y20.542
X10.91 Y20.536
X10.98 Y20.47
X11.042 Y20.404
X11.186 Y20.239
X11.28 Y20.127
X11.324 Y20.065
X11.376 Y19.989
X11.468 Y19.85
X11.513 Y19.781
X11.552 Y19.712
X11.6 Y19.617
X11.69 Y19.435
X11.738 Y19.328
X11.75 Y19.297
X11.798 Y19.159
X11.845 Y19.02
X11.876 Y18.921
X11.887 Y18.882
X11.916 Y18.744
X11.944 Y18.605
X11.969 Y18.467
X11.982 Y18.329
X11.991 Y18.19
X11.999 Y18.052
X12 Y17.914
Y-17.914
X11.999 Y-18.052
X11.991 Y-18.19
X11.982 Y-18.329
X11.969 Y-18.467
X11.944 Y-18.605
X11.916 Y-18.744
X11.887 Y-18.882
X11.876 Y-18.921
X11.845 Y-19.02
X11.798 Y-19.159
X11.75 Y-19.297
X11.738 Y-19.328
X11.69 Y-19.435
X11.6 Y-19.617
X11.552 Y-19.712
X11.513 Y-19.781
X11.468 Y-19.85
X11.376 Y-19.989
X11.324 Y-20.065
X11.28 Y-20.127
X11.186 Y-20.239
X11.042 Y-20.404
X10.98 Y-20.47
X10.91 Y-20.536
X10.903 Y-20.542
X10.746 Y-20.68
X10.634 Y-20.774
X10.573 Y-20.819
X10.495 Y-20.871
X10.357 Y-20.963
X10.288 Y-21.008
X10.219 Y-21.048
X10.127 Y-21.095
X9.943 Y-21.186
X9.839 Y-21.234
X9.805 Y-21.247
X9.667 Y-21.296
X9.529 Y-21.342
X9.438 Y-21.372
X9.391 Y-21.385
X9.253 Y-21.415
X9.115 Y-21.442
X8.976 Y-21.467
X8.838 Y-21.481
X8.7 Y-21.49
X8.562 Y-21.499
X8.424 Y-21.5
X-8.424
X-8.562 Y-21.499
X-8.7 Y-21.49
X-8.838 Y-21.481
X-8.976 Y-21.467
X-9.115 Y-21.442
X-9.253 Y-21.415
X-9.391 Y-21.385
X-9.438 Y-21.372
X-9.529 Y-21.342
X-9.667 Y-21.296
X-9.805 Y-21.247
X-9.839 Y-21.234
X-9.943 Y-21.186
X-10.127 Y-21.095
X-10.219 Y-21.048
X-10.288 Y-21.008
X-10.357 Y-20.963
X-10.495 Y-20.871
X-10.573 Y-20.819
X-10.634 Y-20.774
X-10.746 Y-20.68
X-10.903 Y-20.542
X-10.91 Y-20.536
X-10.98 Y-20.47
X-11.042 Y-20.404
X-11.186 Y-20.239
X-11.28 Y-20.127
X-11.324 Y-20.065
X-11.376 Y-19.989
X-11.468 Y-19.85
X-11.513 Y-19.781
X-11.552 Y-19.712
X-11.6 Y-19.617
X-11.69 Y-19.435
X-11.738 Y-19.328
X-11.75 Y-19.297
X-11.798 Y-19.159
X-11.845 Y-19.02
X-11.876 Y-18.921
X-11.887 Y-18.882
X-11.916 Y-18.744
X-11.944 Y-18.605
X-11.969 Y-18.467
X-11.982 Y-18.329
X-11.991 Y-18.19
X-11.999 Y-18.052
X-12 Y-17.914
Y17.914
X-11.999 Y18.052
X-11.993 Y18.154
X-11.977 Y18.397
X-11.961 Y18.518
X-11.937 Y18.638 Z-2.001
X-11.913 Y18.758
X-11.888 Y18.877
X-11.854 Y18.994 Z-2.002
X-11.815 Y19.11
X-11.776 Y19.225 Z-2.003
X-11.733 Y19.34 Z-2.004
X-11.682 Y19.451
X-11.628 Y19.56 Z-2.005
X-11.574 Y19.669 Z-2.006
X-11.516 Y19.776 Z-2.007
X-11.449 Y19.879 Z-2.008
X-11.381 Y19.98 Z-2.009
X-11.313 Y20.081 Z-2.01
X-11.239 Y20.178 Z-2.012
X-11.078 Y20.362 Z-2.014
X-10.997 Y20.453 Z-2.016
X-10.909 Y20.537 Z-2.017
X-10.725 Y20.698 Z-2.02
X-10.632 Y20.776 Z-2.022
X-10.532 Y20.847 Z-2.024
X-10.329 Y20.982 Z-2.027
X-10.225 Y21.045 Z-2.029
X-10.116 Y21.101 Z-2.031
X-9.897 Y21.208 Z-2.035
X-9.784 Y21.255 Z-2.037
X-9.669 Y21.295 Z-2.04
X-9.438 Y21.372 Z-2.044
X-9.319 Y21.401 Z-2.046
X-9.199 Y21.425 Z-2.049
X-9.08 Y21.449 Z-2.051
X-8.96 Y21.47 Z-2.054
X-8.838 Y21.481 Z-2.057
X-8.716 Y21.489 Z-2.059
X-8.595 Y21.497 Z-2.062
X-8.473 Y21.5 Z-2.065
X-8.351 Z-2.067
X-8.229 Z-2.07
X-8.107 Z-2.073
X-7.985 Z-2.076
X-7.863 Z-2.079
X-7.741 Z-2.082
X-7.619 Z-2.085
X-7.497 Z-2.088
X-7.375 Z-2.091
X-7.253 Z-2.095
X-7.131 Z-2.098
X-7.009 Z-2.101
X-6.887 Z-2.105
X-6.765 Z-2.108
X-6.643 Z-2.112
X-6.521 Z-2.115
X-6.399 Z-2.119
X-6.277 Z-2.122
X-6.155 Z-2.126
X-6.032 Z-2.129
X-5.91 Z-2.133
X-5.788 Z-2.137
X-5.666 Z-2.141
X-5.544 Z-2.145
X-5.422 Z-2.148
X-5.3 Z-2.152
X-5.178 Z-2.156
X-5.056 Z-2.16
X-4.934 Z-2.164
X-4.812 Z-2.168
X-4.69 Z-2.172
X-4.568 Z-2.177
X-4.446 Z-2.181
X-4.324 Z-2.185
X-4.202 Z-2.189
X-2.982 Z-2.232
X-2.86 Z-2.236
X-2.738 Z-2.24
X-2.616 Z-2.244
X-2.494 Z-2.249
X-2.372 Z-2.253
X-2.25 Z-2.257
X-2.128 Z-2.262
X-2.006 Z-2.266
X-1.884 Z-2.27
X-1.762 Z-2.274
X-1.64 Z-2.279
X-1.518 Z-2.283
X-1.396 Z-2.287
X-1.274 Z-2.291
X-1.152 Z-2.296
X-1.03 Z-2.3
X-0.908 Z-2.304
X-0.664 Z-2.313
X-0.298 Z-2.325
X0.068 Z-2.338
X0.434 Z-2.351
X0.8 Z-2.364
X1.166 Z-2.377
X1.532 Z-2.389
X2.142 Z-2.411
X2.752 Z-2.432
X3.606 Z-2.462
X5.07 Z-2.513
X8.486 Z-2.632
X8.608 Y21.496 Z-2.636
X8.852 Y21.48 Z-2.645
X8.973 Y21.468 Z-2.649
X9.093 Y21.446 Z-2.653
X9.213 Y21.422 Z-2.658
X9.332 Y21.398 Z-2.662
X9.451 Y21.368 Z-2.666
X9.566 Y21.33 Z-2.67
X9.682 Y21.29 Z-2.675
X9.797 Y21.25 Z-2.679
X9.909 Y21.202 Z-2.683
X10.019 Y21.149 Z-2.687
X10.128 Y21.095 Z-2.692
X10.237 Y21.039 Z-2.696
X10.34 Y20.975 Z-2.7
X10.442 Y20.907 Z-2.705
X10.543 Y20.839 Z-2.709
X10.642 Y20.768 Z-2.713
X10.736 Y20.689 Z-2.717
X10.827 Y20.609 Z-2.722
X10.919 Y20.528 Z-2.726
X11.006 Y20.443 Z-2.73
X11.087 Y20.352 Z-2.734
X11.168 Y20.26 Z-2.739
X11.248 Y20.168 Z-2.743
X11.321 Y20.07 Z-2.747
X11.389 Y19.969 Z-2.751
X11.457 Y19.867 Z-2.756
X11.523 Y19.765 Z-2.76
X11.58 Y19.657 Z-2.764
X11.634 Y19.548 Z-2.768
X11.688 Y19.438 Z-2.773
X11.739 Y19.327 Z-2.777
X11.78 Y19.212 Z-2.781
X11.819 Y19.097 Z-2.785
X11.858 Y18.981 Z-2.79
X11.891 Y18.864 Z-2.794
X11.916 Y18.744 Z-2.798
X11.94 Y18.625 Z-2.802
X11.963 Y18.505 Z-2.807
X11.978 Y18.384 Z-2.811
X11.986 Y18.262 Z-2.815
X11.994 Y18.14 Z-2.819
X12 Y18.018 Z-2.824
Y17.896 Z-2.828
Y17.774 Z-2.832
Y17.652 Z-2.836
Y17.53 Z-2.84
Y17.408 Z-2.844
Y17.286 Z-2.848
Y17.164 Z-2.852
Y17.042 Z-2.856
Y16.92 Z-2.859
Y16.798 Z-2.863
Y16.676 Z-2.867
Y16.554 Z-2.871
Y16.432 Z-2.874
Y16.31 Z-2.878
Y16.188 Z-2.881
Y16.066 Z-2.885
Y15.944 Z-2.889
Y15.822 Z-2.892
Y15.7 Z-2.895
Y15.578 Z-2.899
Y15.456 Z-2.902
Y15.334 Z-2.905
Y15.212 Z-2.909
Y15.09 Z-2.912
Y14.968 Z-2.915
Y14.846 Z-2.918
Y14.724 Z-2.921
Y14.602 Z-2.924
Y14.48 Z-2.927
Y14.358 Z-2.93
Y14.236 Z-2.933
Y14.114 Z-2.935
Y13.992 Z-2.938
Y13.87 Z-2.941
Y13.748 Z-2.944
Y13.626 Z-2.946
Y13.504 Z-2.949
Y13.382 Z-2.951
Y13.138 Z-2.956
Y12.894 Z-2.96
Y12.65 Z-2.965
Y12.406 Z-2.969
Y12.162 Z-2.973
Y11.918 Z-2.976
Y11.674 Z-2.98
Y11.43 Z-2.983
Y11.186 Z-2.986
Y10.942 Z-2.988
Y10.698 Z-2.991
Y10.454 Z-2.993
Y10.21 Z-2.995
Y9.966 Z-2.996
Y9.722 Z-2.998
Y9.478 Z-2.999
Y9.234
Y8.99 Z-3
Y8.748
Y-17.914
X11.999 Y-18.052
X11.991 Y-18.19
X11.982 Y-18.329
X11.969 Y-18.467
X11.944 Y-18.605
X11.916 Y-18.744
X11.887 Y-18.882
X11.876 Y-18.921
X11.845 Y-19.02
X11.798 Y-19.159
X11.75 Y-19.297
X11.738 Y-19.328
X11.69 Y-19.435
X11.6 Y-19.617
X11.552 Y-19.712
X11.513 Y-19.781
X11.468 Y-19.85
X11.376 Y-19.989
X11.324 Y-20.065
X11.28 Y-20.127
X11.186 Y-20.239
X11.042 Y-20.404
X10.98 Y-20.47
X10.91 Y-20.536
X10.903 Y-20.542
X10.746 Y-20.68
X10.634 Y-20.774
X10.573 Y-20.819
X10.495 Y-20.871
X10.357 Y-20.963
X10.288 Y-21.008
X10.219 Y-21.048
X10.127 Y-21.095
X9.943 Y-21.186
X9.839 Y-21.234
X9.805 Y-21.247
X9.667 Y-21.296
X9.529 Y-21.342
X9.438 Y-21.372
X9.391 Y-21.385
X9.253 Y-21.415
X9.115 Y-21.442
X8.976 Y-21.467
X8.838 Y-21.481
X8.7 Y-21.49
X8.562 Y-21.499
X8.424 Y-21.5
X-8.424
X-8.562 Y-21.499
X-8.7 Y-21.49
X-8.838 Y-21.481
X-8.976 Y-21.467
X-9.115 Y-21.442
X-9.253 Y-21.415
X-9.391 Y-21.385
X-9.438 Y-21.372
X-9.529 Y-21.342
X-9.667 Y-21.296
X-9.805 Y-21.247
X-9.839 Y-21.234
X-9.943 Y-21.186
X-10.127 Y-21.095
X-10.219 Y-21.048
X-10.288 Y-21.008
X-10.357 Y-20.963
X-10.495 Y-20.871
X-10.573 Y-20.819
X-10.634 Y-20.774
X-10.746 Y-20.68
X-10.903 Y-20.542
X-10.91 Y-20.536
X-10.98 Y-20.47
X-11.042 Y-20.404
X-11.186 Y-20.239
X-11.28 Y-20.127
X-11.324 Y-20.065
X-11.376 Y-19.989
X-11.468 Y-19.85
X-11.513 Y-19.781
X-11.552 Y-19.712
X-11.6 Y-19.617
X-11.69 Y-19.435
X-11.738 Y-19.328
X-11.75 Y-19.297
X-11.798 Y-19.159
X-11.845 Y-19.02
X-11.876 Y-18.921
X-11.887 Y-18.882
X-11.916 Y-18.744
X-11.944 Y-18.605
X-11.969 Y-18.467
X-11.982 Y-18.329
X-11.991 Y-18.19
X-11.999 Y-18.052
X-12 Y-17.914
Y17.914
X-11.999 Y18.052
X-11.993 Y18.154
X-11.991 Y18.19
X-11.982 Y18.329
X-11.969 Y18.467
X-11.944 Y18.605
X-11.916 Y18.744
X-11.887 Y18.882
X-11.876 Y18.921
X-11.845 Y19.02
X-11.798 Y19.159
X-11.75 Y19.297
X-11.738 Y19.328
X-11.69 Y19.435
X-11.6 Y19.617
X-11.552 Y19.712
X-11.513 Y19.781
X-11.468 Y19.85
X-11.376 Y19.989
X-11.324 Y20.065
X-11.28 Y20.127
X-11.186 Y20.239
X-11.042 Y20.404
X-10.98 Y20.47
X-10.91 Y20.536
X-10.903 Y20.542
X-10.746 Y20.68
X-10.634 Y20.774
X-10.573 Y20.819
X-10.495 Y20.871
X-10.357 Y20.963
X-10.288 Y21.008
X-10.219 Y21.048
X-10.127 Y21.095
X-9.943 Y21.186
X-9.839 Y21.234
X-9.805 Y21.247
X-9.667 Y21.296
X-9.529 Y21.342
X-9.438 Y21.372
X-9.391 Y21.385
X-9.253 Y21.414
X-9.115 Y21.442
X-8.976 Y21.467
X-8.838 Y21.481
X-8.7 Y21.49
X-8.562 Y21.499
X-8.424 Y21.5
X8.424
X8.562 Y21.499
X8.7 Y21.49
X8.838 Y21.481
X8.976 Y21.467
X9.115 Y21.442
X9.253 Y21.414
X9.391 Y21.385
X9.438 Y21.372
X9.529 Y21.342
X9.667 Y21.296
X9.805 Y21.247
X9.839 Y21.234
X9.943 Y21.186
X10.127 Y21.095
X10.219 Y21.048
X10.288 Y21.008
X10.357 Y20.963
X10.495 Y20.871
X10.573 Y20.819
X10.634 Y20.774
X10.746 Y20.68
X10.903 Y20.542
X10.91 Y20.536
X10.98 Y20.47
X11.042 Y20.404
X11.186 Y20.239
X11.28 Y20.127
X11.324 Y20.065
X11.376 Y19.989
X11.468 Y19.85
X11.513 Y19.781
X11.552 Y19.712
X11.6 Y19.617
X11.69 Y19.435
X11.738 Y19.328
X11.75 Y19.297
X11.798 Y19.159
X11.845 Y19.02
X11.876 Y18.921
X11.887 Y18.882
X11.916 Y18.744
X11.944 Y18.605
X11.969 Y18.467
X11.982 Y18.329
X11.991 Y18.19
X11.999 Y18.052
X12 Y17.914
Y8.748
Y8.504
Y8.26 Z-3.001
Y8.016
Y7.772 Z-3.002
Y7.528 Z-3.004
Y7.284 Z-3.005
Y7.04 Z-3.007
Y6.796 Z-3.009
Y6.552 Z-3.012
Y6.308 Z-3.014
Y6.064 Z-3.017
Y5.82 Z-3.02
Y5.576 Z-3.024
Y5.332 Z-3.027
Y5.088 Z-3.031
Y4.844 Z-3.035
Y4.6 Z-3.04
Y4.356 Z-3.044
Y4.112 Z-3.049
Y3.99 Z-3.051
Y3.868 Z-3.054
Y3.746 Z-3.057
Y3.624 Z-3.059
Y3.502 Z-3.062
Y3.38 Z-3.065
Y3.258 Z-3.067
Y3.136 Z-3.07
Y3.014 Z-3.073
Y2.892 Z-3.076
Y2.77 Z-3.079
Y2.648 Z-3.082
Y2.526 Z-3.085
Y2.404 Z-3.088
Y2.282 Z-3.091
Y2.16 Z-3.095
Y2.038 Z-3.098
Y1.916 Z-3.101
Y1.794 Z-3.105
Y1.672 Z-3.108
Y1.55 Z-3.112
Y1.428 Z-3.115
Y1.306 Z-3.119
Y1.184 Z-3.122
Y1.062 Z-3.126
Y0.94 Z-3.129
Y0.818 Z-3.133
Y0.696 Z-3.137
Y0.574 Z-3.141
Y0.452 Z-3.145
Y0.33 Z-3.148
Y0.208 Z-3.152
Y0.086 Z-3.156
Y-0.036 Z-3.16
Y-0.158 Z-3.164
Y-0.28 Z-3.168
Y-0.402 Z-3.172
Y-0.524 Z-3.177
Y-0.646 Z-3.181
Y-0.768 Z-3.185
Y-0.89 Z-3.189
Y-2.11 Z-3.232
Y-2.232 Z-3.236
Y-2.354 Z-3.24
Y-2.476 Z-3.244
Y-2.598 Z-3.249
Y-2.72 Z-3.253
Y-2.842 Z-3.257
Y-2.964 Z-3.262
Y-3.086 Z-3.266
Y-3.208 Z-3.27
Y-3.33 Z-3.274
Y-3.452 Z-3.279
Y-3.574 Z-3.283
Y-3.696 Z-3.287
Y-3.818 Z-3.291
Y-3.94 Z-3.296
Y-4.062 Z-3.3
Y-4.184 Z-3.304
Y-4.428 Z-3.313
Y-4.794 Z-3.325
Y-5.16 Z-3.338
Y-5.526 Z-3.351
Y-5.892 Z-3.364
Y-6.258 Z-3.377
Y-6.624 Z-3.389
Y-7.234 Z-3.411
Y-7.844 Z-3.432
Y-8.698 Z-3.462
Y-10.163 Z-3.513
Y-15.409 Z-3.696
Y-15.531 Z-3.7
Y-15.653 Z-3.705
Y-15.775 Z-3.709
Y-15.897 Z-3.713
Y-16.019 Z-3.717
Y-16.141 Z-3.722
Y-16.263 Z-3.726
Y-16.385 Z-3.73
Y-16.507 Z-3.734
Y-16.629 Z-3.739
Y-16.751 Z-3.743
Y-16.873 Z-3.747
Y-16.995 Z-3.751
Y-17.117 Z-3.756
Y-17.239 Z-3.76
Y-17.361 Z-3.764
Y-17.483 Z-3.768
Y-17.605 Z-3.773
Y-17.727 Z-3.777
Y-17.849 Z-3.781
Y-17.971 Z-3.786
X11.997 Y-18.093 Z-3.79
X11.989 Y-18.215 Z-3.794
X11.981 Y-18.336 Z-3.798
X11.97 Y-18.458 Z-3.803
X11.949 Y-18.578 Z-3.807
X11.925 Y-18.698 Z-3.811
X11.902 Y-18.817 Z-3.815
X11.872 Y-18.936 Z-3.819
X11.835 Y-19.052 Z-3.824
X11.795 Y-19.167 Z-3.828
X11.756 Y-19.283 Z-3.832
X11.709 Y-19.396 Z-3.836
X11.655 Y-19.505 Z-3.84
X11.601 Y-19.615 Z-3.844
X11.546 Y-19.723 Z-3.848
X11.483 Y-19.828 Z-3.852
X11.415 Y-19.929 Z-3.856
X11.347 Y-20.031 Z-3.859
X11.277 Y-20.13 Z-3.863
X11.199 Y-20.224 Z-3.867
X11.119 Y-20.316 Z-3.871
X11.038 Y-20.408 Z-3.874
X10.954 Y-20.496 Z-3.878
X10.863 Y-20.577 Z-3.882
X10.771 Y-20.658 Z-3.885
X10.679 Y-20.738 Z-3.889
X10.583 Y-20.812 Z-3.892
X10.481 Y-20.88 Z-3.895
X10.38 Y-20.948 Z-3.899
X10.278 Y-21.015 Z-3.902
X10.171 Y-21.074 Z-3.905
X10.062 Y-21.128 Z-3.909
X9.952 Y-21.182 Z-3.912
X9.841 Y-21.233 Z-3.915
X9.727 Y-21.275 Z-3.918
X9.611 Y-21.314 Z-3.921
X9.496 Y-21.354 Z-3.924
X9.379 Y-21.388 Z-3.927
X9.259 Y-21.413 Z-3.93
X9.14 Y-21.437 Z-3.933
X9.02 Y-21.46 Z-3.936
X8.899 Y-21.477 Z-3.938
X8.777 Y-21.485 Z-3.941
X8.656 Y-21.493 Z-3.944
X8.534 Y-21.5 Z-3.946
X8.412 Z-3.949
X8.29 Z-3.951
X8.046 Z-3.956
X7.802 Z-3.961
X7.558 Z-3.965
X7.314 Z-3.969
X7.07 Z-3.973
X6.826 Z-3.976
X6.582 Z-3.98
X6.338 Z-3.983
X6.094 Z-3.986
X5.85 Z-3.988
X5.606 Z-3.991
X5.362 Z-3.993
X5.118 Z-3.995
X4.874 Z-3.996
X4.63 Z-3.998
X4.386 Z-3.999
X4.142
X3.898 Z-4
X3.657
X-8.424
X-8.562 Y-21.499
X-8.7 Y-21.49
X-8.838 Y-21.481
X-8.976 Y-21.467
X-9.115 Y-21.442
X-9.253 Y-21.415
X-9.391 Y-21.385
X-9.438 Y-21.372
X-9.529 Y-21.342
X-9.667 Y-21.296
X-9.805 Y-21.247
X-9.839 Y-21.234
X-9.943 Y-21.186
X-10.127 Y-21.095
X-10.219 Y-21.048
X-10.288 Y-21.008
X-10.357 Y-20.963
X-10.495 Y-20.871
X-10.573 Y-20.819
X-10.634 Y-20.774
X-10.746 Y-20.68
X-10.903 Y-20.542
X-10.91 Y-20.536
X-10.98 Y-20.47
X-11.042 Y-20.404
X-11.186 Y-20.239
X-11.28 Y-20.127
X-11.324 Y-20.065
X-11.376 Y-19.989
X-11.468 Y-19.85
X-11.513 Y-19.781
X-11.552 Y-19.712
X-11.6 Y-19.617
X-11.69 Y-19.435
X-11.738 Y-19.328
X-11.75 Y-19.297
X-11.798 Y-19.159
X-11.845 Y-19.02
X-11.876 Y-18.921
X-11.887 Y-18.882
X-11.916 Y-18.744
X-11.944 Y-18.605
X-11.969 Y-18.467
X-11.982 Y-18.329
X-11.991 Y-18.19
X-11.999 Y-18.052
X-12 Y-17.914
Y17.914
X-11.999 Y18.052
X-11.991 Y18.19
X-11.982 Y18.329
X-11.969 Y18.467
X-11.944 Y18.605
X-11.916 Y18.744
X-11.887 Y18.882
X-11.876 Y18.921
X-11.845 Y19.02
X-11.798 Y19.159
X-11.75 Y19.297
X-11.738 Y19.328
X-11.69 Y19.435
X-11.6 Y19.617
X-11.552 Y19.712
X-11.513 Y19.781
X-11.468 Y19.85
X-11.376 Y19.989
X-11.324 Y20.065
X-11.28 Y20.127
X-11.186 Y20.239
X-11.042 Y20.404
X-10.98 Y20.47
X-10.91 Y20.536
X-10.903 Y20.542
X-10.746 Y20.68
X-10.634 Y20.774
X-10.573 Y20.819
X-10.495 Y20.871
X-10.357 Y20.963
X-10.288 Y21.008
X-10.219 Y21.048
X-10.127 Y21.095
X-9.943 Y21.186
X-9.839 Y21.234
X-9.805 Y21.247
X-9.667 Y21.296
X-9.529 Y21.342
X-9.438 Y21.372
X-9.391 Y21.385
X-9.253 Y21.414
X-9.115 Y21.442
X-8.976 Y21.467
X-8.838 Y21.481
X-8.7 Y21.49
X-8.562 Y21.499
X-8.424 Y21.5
X8.424
X8.562 Y21.499
X8.7 Y21.49
X8.838 Y21.481
X8.976 Y21.467
X9.115 Y21.442
X9.253 Y21.414
X9.391 Y21.385
X9.438 Y21.372
X9.529 Y21.342
X9.667 Y21.296
X9.805 Y21.247
X9.839 Y21.234
X9.943 Y21.186
X10.127 Y21.095
X10.219 Y21.048
X10.288 Y21.008
X10.357 Y20.963
X10.495 Y20.871
X10.573 Y20.819
X10.634 Y20.774
X10.746 Y20.68
X10.903 Y20.542
X10.91 Y20.536
X10.98 Y20.47
X11.042 Y20.404
X11.186 Y20.239
X11.28 Y20.127
X11.324 Y20.065
X11.376 Y19.989
X11.468 Y19.85
X11.513 Y19.781
X11.552 Y19.712
X11.6 Y19.617
X11.69 Y19.435
X11.738 Y19.328
X11.75 Y19.297
X11.798 Y19.159
X11.845 Y19.02
X11.876 Y18.921
X11.887 Y18.882
X11.916 Y18.744
X11.944 Y18.605
X11.969 Y18.467
X11.982 Y18.329
X11.991 Y18.19
X11.999 Y18.052
X12 Y17.914
Y-17.914
X11.999 Y-18.052
X11.991 Y-18.19
X11.982 Y-18.329
X11.969 Y-18.467
X11.944 Y-18.605
X11.916 Y-18.744
X11.887 Y-18.882
X11.876 Y-18.921
X11.845 Y-19.02
X11.798 Y-19.159
X11.75 Y-19.297
X11.738 Y-19.328
X11.69 Y-19.435
X11.6 Y-19.617
X11.552 Y-19.712
X11.513 Y-19.781
X11.468 Y-19.85
X11.376 Y-19.989
X11.324 Y-20.065
X11.28 Y-20.127
X11.186 Y-20.239
X11.042 Y-20.404
X10.98 Y-20.47
X10.91 Y-20.536
X10.903 Y-20.542
X10.746 Y-20.68
X10.634 Y-20.774
X10.573 Y-20.819
X10.495 Y-20.871
X10.357 Y-20.963
X10.288 Y-21.008
X10.219 Y-21.048
X10.127 Y-21.095
X9.943 Y-21.186
X9.839 Y-21.234
X9.805 Y-21.247
X9.667 Y-21.296
X9.529 Y-21.342
X9.438 Y-21.372
X9.391 Y-21.385
X9.253 Y-21.415
X9.115 Y-21.442
X8.976 Y-21.467
X8.838 Y-21.481
X8.7 Y-21.49
X8.562 Y-21.499
X8.424 Y-21.5
X3.657
X3.413
X3.169 Z-4.001
X2.925
X2.681 Z-4.002
X2.437 Z-4.004
X2.193 Z-4.005
X1.949 Z-4.007
X1.705 Z-4.009
X1.461 Z-4.012
X1.217 Z-4.014
X0.973 Z-4.017
X0.729 Z-4.02
X0.485 Z-4.024
X0.241 Z-4.027
X-0.003 Z-4.031
X-0.247 Z-4.035
X-0.491 Z-4.04
X-0.735 Z-4.044
X-0.979 Z-4.049
X-1.101 Z-4.051
X-1.223 Z-4.054
X-1.345 Z-4.057
X-1.467 Z-4.059
X-1.589 Z-4.062
X-1.711 Z-4.065
X-1.833 Z-4.067
X-1.955 Z-4.07
X-2.077 Z-4.073
X-2.199 Z-4.076
X-2.321 Z-4.079
X-2.443 Z-4.082
X-2.565 Z-4.085
X-2.687 Z-4.088
X-2.809 Z-4.091
X-2.931 Z-4.095
X-3.053 Z-4.098
X-3.175 Z-4.101
X-3.297 Z-4.105
X-3.419 Z-4.108
X-3.541 Z-4.112
X-3.663 Z-4.115
X-3.785 Z-4.119
X-3.907 Z-4.122
X-4.029 Z-4.126
X-4.151 Z-4.129
X-4.273 Z-4.133
X-4.395 Z-4.137
X-4.517 Z-4.141
X-4.639 Z-4.145
X-4.761 Z-4.148
X-4.883 Z-4.152
X-5.005 Z-4.156
X-5.127 Z-4.16
X-5.249 Z-4.164
X-5.371 Z-4.168
X-5.493 Z-4.172
X-5.615 Z-4.177
X-5.737 Z-4.181
X-5.859 Z-4.185
X-5.981 Z-4.189
X-7.201 Z-4.232
X-7.323 Z-4.236
X-7.445 Z-4.24
X-7.567 Z-4.244
X-7.689 Z-4.249
X-7.811 Z-4.253
X-7.933 Z-4.257
X-8.055 Z-4.262
X-8.177 Z-4.266
X-8.299 Z-4.27
X-8.421 Z-4.274
X-8.543 Y-21.499 Z-4.279
X-8.665 Y-21.492 Z-4.283
X-8.787 Y-21.484 Z-4.287
X-8.909 Y-21.476 Z-4.291
X-9.03 Y-21.459 Z-4.296
X-9.149 Y-21.435 Z-4.3
X-9.269 Y-21.411 Z-4.304
X-9.388 Y-21.385 Z-4.308
X-9.505 Y-21.35 Z-4.313
X-9.736 Y-21.272 Z-4.321
X-9.85 Y-21.229 Z-4.325
X-9.961 Y-21.177 Z-4.33
X-10.07 Y-21.123 Z-4.334
X-10.18 Y-21.069 Z-4.338
X-10.286 Y-21.01 Z-4.342
X-10.388 Y-20.943 Z-4.347
X-10.489 Y-20.875 Z-4.351
X-10.59 Y-20.807 Z-4.355
X-10.687 Y-20.732 Z-4.359
X-10.779 Y-20.651 Z-4.364
X-10.87 Y-20.571 Z-4.368
X-10.961 Y-20.489 Z-4.372
X-11.045 Y-20.4 Z-4.377
X-11.205 Y-20.217 Z-4.385
X-11.283 Y-20.123 Z-4.389
X-11.353 Y-20.023 Z-4.394
X-11.421 Y-19.921 Z-4.398
X-11.488 Y-19.82 Z-4.402
X-11.551 Y-19.715 Z-4.406
X-11.606 Y-19.606 Z-4.411
X-11.66 Y-19.497 Z-4.415
X-11.713 Y-19.387 Z-4.419
X-11.759 Y-19.274 Z-4.423
X-11.798 Y-19.158 Z-4.428
X-11.838 Y-19.043 Z-4.432
X-11.875 Y-18.927 Z-4.436
X-11.903 Y-18.808 Z-4.44
X-11.951 Y-18.569 Z-4.449
X-11.971 Y-18.448 Z-4.453
X-11.982 Y-18.327 Z-4.457
X-11.99 Y-18.205 Z-4.462
X-11.998 Y-18.083 Z-4.466
X-12 Y-17.961 Z-4.47
Y-15.765 Z-4.547
Y-14.667 Z-4.585
Y-14.057 Z-4.607
Y-13.691 Z-4.619
Y-13.325 Z-4.632
Y-12.959 Z-4.645
Y-12.593 Z-4.658
Y-12.227 Z-4.67
Y-11.861 Z-4.683
Y-11.495 Z-4.696
Y-11.373 Z-4.7
Y-11.251 Z-4.705
Y-11.129 Z-4.709
Y-11.007 Z-4.713
Y-10.885 Z-4.717
Y-10.763 Z-4.722
Y-10.641 Z-4.726
Y-10.519 Z-4.73
Y-10.397 Z-4.734
Y-10.275 Z-4.739
Y-10.153 Z-4.743
Y-10.031 Z-4.747
Y-9.909 Z-4.751
Y-9.787 Z-4.756
Y-9.665 Z-4.76
Y-9.543 Z-4.764
Y-9.421 Z-4.768
Y-9.299 Z-4.773
Y-9.177 Z-4.777
Y-9.055 Z-4.781
Y-8.933 Z-4.785
Y-8.811 Z-4.79
Y-8.689 Z-4.794
Y-8.567 Z-4.798
Y-8.445 Z-4.802
Y-8.079 Z-4.815
Y-7.957 Z-4.819
Y-7.835 Z-4.824
Y-7.713 Z-4.828
Y-7.591 Z-4.832
Y-7.469 Z-4.836
Y-7.347 Z-4.84
Y-7.225 Z-4.844
Y-7.103 Z-4.848
Y-6.981 Z-4.852
Y-6.859 Z-4.856
Y-6.737 Z-4.859
Y-6.615 Z-4.863
Y-6.493 Z-4.867
Y-6.371 Z-4.871
Y-6.249 Z-4.874
Y-6.127 Z-4.878
Y-6.005 Z-4.881
Y-5.883 Z-4.885
Y-5.761 Z-4.889
Y-5.639 Z-4.892
Y-5.517 Z-4.895
Y-5.395 Z-4.899
Y-5.273 Z-4.902
Y-5.151 Z-4.905
Y-5.029 Z-4.909
Y-4.907 Z-4.912
Y-4.785 Z-4.915
Y-4.663 Z-4.918
Y-4.541 Z-4.921
Y-4.419 Z-4.924
Y-4.297 Z-4.927
Y-4.175 Z-4.93
Y-4.053 Z-4.933
Y-3.931 Z-4.935
Y-3.809 Z-4.938
Y-3.687 Z-4.941
Y-3.565 Z-4.944
Y-3.443 Z-4.946
Y-3.321 Z-4.949
Y-3.199 Z-4.951
Y-2.955 Z-4.956
Y-2.711 Z-4.96
Y-2.467 Z-4.965
Y-2.222 Z-4.969
Y-1.978 Z-4.973
Y-1.734 Z-4.976
Y-1.49 Z-4.98
Y-1.246 Z-4.983
Y-1.002 Z-4.986
Y-0.758 Z-4.988
Y-0.514 Z-4.991
Y-0.27 Z-4.993
Y-0.026 Z-4.995
Y0.218 Z-4.996
Y0.462 Z-4.998
Y0.706 Z-4.999
Y0.95
Y1.194 Z-5
Y1.435
Y17.914
X-11.999 Y18.052
X-11.991 Y18.19
X-11.982 Y18.329
X-11.969 Y18.467
X-11.944 Y18.605
X-11.916 Y18.744
X-11.887 Y18.882
X-11.876 Y18.921
X-11.845 Y19.02
X-11.798 Y19.159
X-11.75 Y19.297
X-11.738 Y19.328
X-11.69 Y19.435
X-11.6 Y19.617
X-11.552 Y19.712
X-11.513 Y19.781
X-11.468 Y19.85
X-11.376 Y19.989
X-11.324 Y20.065
X-11.28 Y20.127
X-11.186 Y20.239
X-11.042 Y20.404
X-10.98 Y20.47
X-10.91 Y20.536
X-10.903 Y20.542
X-10.746 Y20.68
X-10.634 Y20.774
X-10.573 Y20.819
X-10.495 Y20.871
X-10.357 Y20.963
X-10.288 Y21.008
X-10.219 Y21.048
X-10.127 Y21.095
X-9.943 Y21.186
X-9.839 Y21.234
X-9.805 Y21.247
X-9.667 Y21.296
X-9.529 Y21.342
X-9.438 Y21.372
X-9.391 Y21.385
X-9.253 Y21.414
X-9.115 Y21.442
X-8.976 Y21.467
X-8.838 Y21.481
X-8.7 Y21.49
X-8.562 Y21.499
X-8.424 Y21.5
X8.424
X8.562 Y21.499
X8.7 Y21.49
X8.838 Y21.481
X8.976 Y21.467
X9.115 Y21.442
X9.253 Y21.414
X9.391 Y21.385
X9.438 Y21.372
X9.529 Y21.342
X9.667 Y21.296
X9.805 Y21.247
X9.839 Y21.234
X9.943 Y21.186
X10.127 Y21.095
X10.219 Y21.048
X10.288 Y21.008
X10.357 Y20.963
X10.495 Y20.871
X10.573 Y20.819
X10.634 Y20.774
X10.746 Y20.68
X10.903 Y20.542
X10.91 Y20.536
X10.98 Y20.47
X11.042 Y20.404
X11.186 Y20.239
X11.28 Y20.127
X11.324 Y20.065
X11.376 Y19.989
X11.468 Y19.85
X11.513 Y19.781
X11.552 Y19.712
X11.6 Y19.617
X11.69 Y19.435
X11.738 Y19.328
X11.75 Y19.297
X11.798 Y19.159
X11.845 Y19.02
X11.876 Y18.921
X11.887 Y18.882
X11.916 Y18.744
X11.944 Y18.605
X11.969 Y18.467
X11.982 Y18.329
X11.991 Y18.19
X11.999 Y18.052
X12 Y17.914
Y-17.914
X11.999 Y-18.052
X11.991 Y-18.19
X11.982 Y-18.329
X11.969 Y-18.467
X11.944 Y-18.605
X11.916 Y-18.744
X11.887 Y-18.882
X11.876 Y-18.921
X11.845 Y-19.02
X11.798 Y-19.159
X11.75 Y-19.297
X11.738 Y-19.328
X11.69 Y-19.435
X11.6 Y-19.617
X11.552 Y-19.712
X11.513 Y-19.781
X11.468 Y-19.85
X11.376 Y-19.989
X11.324 Y-20.065
X11.28 Y-20.127
X11.186 Y-20.239
X11.042 Y-20.404
X10.98 Y-20.47
X10.91 Y-20.536
X10.903 Y-20.542
X10.746 Y-20.68
X10.634 Y-20.774
X10.573 Y-20.819
X10.495 Y-20.871
X10.357 Y-20.963
X10.288 Y-21.008
X10.219 Y-21.048
X10.127 Y-21.095
X9.943 Y-21.186
X9.839 Y-21.234
X9.805 Y-21.247
X9.667 Y-21.296
X9.529 Y-21.342
X9.438 Y-21.372
X9.391 Y-21.385
X9.253 Y-21.415
X9.115 Y-21.442
X8.976 Y-21.467
X8.838 Y-21.481
X8.7 Y-21.49
X8.562 Y-21.499
X8.424 Y-21.5
X-8.424
X-8.562 Y-21.499
X-8.7 Y-21.49
X-8.838 Y-21.481
X-8.976 Y-21.467
X-9.115 Y-21.442
X-9.253 Y-21.415
X-9.391 Y-21.385
X-9.438 Y-21.372
X-9.529 Y-21.342
X-9.667 Y-21.296
X-9.805 Y-21.247
X-9.839 Y-21.234
X-9.943 Y-21.186
X-10.127 Y-21.095
X-10.219 Y-21.048
X-10.288 Y-21.008
X-10.357 Y-20.963
X-10.495 Y-20.871
X-10.573 Y-20.819
X-10.634 Y-20.774
X-10.746 Y-20.68
X-10.903 Y-20.542
X-10.91 Y-20.536
X-10.98 Y-20.47
X-11.042 Y-20.404
X-11.186 Y-20.239
X-11.28 Y-20.127
X-11.324 Y-20.065
X-11.376 Y-19.989
X-11.468 Y-19.85
X-11.513 Y-19.781
X-11.552 Y-19.712
X-11.6 Y-19.617
X-11.69 Y-19.435
X-11.738 Y-19.328
X-11.75 Y-19.297
X-11.798 Y-19.159
X-11.845 Y-19.02
X-11.876 Y-18.921
X-11.887 Y-18.882
X-11.916 Y-18.744
X-11.944 Y-18.605
X-11.969 Y-18.467
X-11.982 Y-18.329
X-11.991 Y-18.19
X-11.999 Y-18.052
X-12 Y-17.914
Y1.435
Y1.679
Y1.923 Z-5.001
Y2.167
Y2.411 Z-5.002
Y2.655 Z-5.004
Y2.899 Z-5.005
Y3.143 Z-5.007
Y3.387 Z-5.009
Y3.631 Z-5.012
Y3.875 Z-5.014
Y4.119 Z-5.017
Y4.364 Z-5.02
Y4.608 Z-5.024
Y4.852 Z-5.027
Y5.096 Z-5.031
Y5.34 Z-5.035
Y5.584 Z-5.04
Y5.828 Z-5.044
Y6.072 Z-5.049
Y6.194 Z-5.051
Y6.316 Z-5.054
Y6.438 Z-5.057
Y6.56 Z-5.059
Y6.682 Z-5.062
Y6.804 Z-5.065
Y6.926 Z-5.067
Y7.048 Z-5.07
Y7.17 Z-5.073
Y7.292 Z-5.076
Y7.414 Z-5.079
Y7.536 Z-5.082
Y7.658 Z-5.085
Y7.78 Z-5.088
Y7.902 Z-5.091
Y8.024 Z-5.095
Y8.146 Z-5.098
Y8.268 Z-5.101
Y8.39 Z-5.105
Y8.512 Z-5.108
Y8.634 Z-5.112
Y8.756 Z-5.115
Y8.878 Z-5.119
Y9 Z-5.122
Y9.122 Z-5.126
Y9.244 Z-5.129
Y9.366 Z-5.133
Y9.488 Z-5.137
Y9.61 Z-5.141
Y9.732 Z-5.145
Y9.854 Z-5.148
Y9.976 Z-5.152
Y10.098 Z-5.156
Y10.22 Z-5.16
Y10.342 Z-5.164
Y10.464 Z-5.168
Y10.586 Z-5.172
Y10.708 Z-5.177
Y10.83 Z-5.181
Y10.952 Z-5.185
Y11.074 Z-5.189
Y12.294 Z-5.232
Y12.416 Z-5.236
Y12.538 Z-5.24
Y12.66 Z-5.244
Y12.782 Z-5.249
Y12.904 Z-5.253
Y13.026 Z-5.257
Y13.148 Z-5.262
Y13.27 Z-5.266
Y13.392 Z-5.27
Y13.514 Z-5.274
Y13.636 Z-5.279
Y13.758 Z-5.283
Y13.88 Z-5.287
Y14.002 Z-5.291
Y14.124 Z-5.296
Y14.246 Z-5.3
Y14.368 Z-5.304
Y14.612 Z-5.313
Y14.978 Z-5.325
Y15.344 Z-5.338
Y15.71 Z-5.351
Y16.076 Z-5.364
Y16.442 Z-5.377
Y16.808 Z-5.389
Y17.418 Z-5.411
Y17.906 Z-5.428
Y18.028 Z-5.432
X-11.993 Y18.15 Z-5.436
X-11.985 Y18.272 Z-5.44
X-11.977 Y18.394 Z-5.445
X-11.961 Y18.515 Z-5.449
X-11.938 Y18.634 Z-5.453
X-11.914 Y18.754 Z-5.457
X-11.889 Y18.873 Z-5.462
X-11.855 Y18.991 Z-5.466
X-11.816 Y19.106 Z-5.47
X-11.777 Y19.222 Z-5.475
X-11.735 Y19.336 Z-5.479
X-11.684 Y19.447 Z-5.483
X-11.576 Y19.666 Z-5.492
X-11.518 Y19.773 Z-5.496
X-11.451 Y19.875 Z-5.5
X-11.383 Y19.977 Z-5.504
X-11.315 Y20.078 Z-5.509
X-11.241 Y20.175 Z-5.513
X-11.161 Y20.267 Z-5.517
X-11.081 Y20.359 Z-5.521
X-10.999 Y20.45 Z-5.526
X-10.912 Y20.534 Z-5.53
X-10.82 Y20.615 Z-5.534
X-10.728 Y20.695 Z-5.538
X-10.635 Y20.774 Z-5.543
X-10.535 Y20.844 Z-5.547
X-10.332 Y20.98 Z-5.555
X-10.228 Y21.043 Z-5.56
X-10.12 Y21.099 Z-5.564
X-10.01 Y21.153 Z-5.568
X-9.901 Y21.207 Z-5.572
X-9.788 Y21.254 Z-5.577
X-9.673 Y21.294 Z-5.581
X-9.557 Y21.333 Z-5.585
X-9.441 Y21.371 Z-5.59
X-9.323 Y21.4 Z-5.594
X-9.203 Y21.424 Z-5.598
X-9.084 Y21.448 Z-5.602
X-8.963 Y21.469 Z-5.607
X-8.842 Y21.481 Z-5.611
X-8.598 Y21.497 Z-5.619
X-8.477 Y21.5 Z-5.624
X-8.111 Z-5.636
X-7.744 Z-5.649
X-7.378 Z-5.662
X-7.012 Z-5.675
X-6.646 Z-5.687
X-6.28 Z-5.7
X-6.158 Z-5.705
X-6.036 Z-5.709
X-5.914 Z-5.713
X-5.792 Z-5.717
X-5.67 Z-5.722
X-5.548 Z-5.726
X-5.426 Z-5.73
X-5.304 Z-5.734
X-5.182 Z-5.739
X-5.06 Z-5.743
X-4.938 Z-5.747
X-4.816 Z-5.751
X-4.694 Z-5.756
X-4.572 Z-5.76
X-4.45 Z-5.764
X-4.328 Z-5.768
X-4.206 Z-5.773
X-4.084 Z-5.777
X-3.962 Z-5.781
X-3.84 Z-5.785
X-3.718 Z-5.79
X-3.596 Z-5.794
X-3.474 Z-5.798
X-3.352 Z-5.802
X-2.986 Z-5.815
X-2.864 Z-5.819
X-2.742 Z-5.824
X-2.62 Z-5.828
X-2.498 Z-5.832
X-2.376 Z-5.836
X-2.254 Z-5.84
X-2.132 Z-5.844
X-2.01 Z-5.848
X-1.888 Z-5.852
X-1.766 Z-5.856
X-1.644 Z-5.859
X-1.522 Z-5.863
X-1.4 Z-5.867
X-1.278 Z-5.871
X-1.156 Z-5.874
X-1.034 Z-5.878
X-0.912 Z-5.881
X-0.79 Z-5.885
X-0.668 Z-5.889
X-0.546 Z-5.892
X-0.424 Z-5.895
X-0.302 Z-5.899
X-0.18 Z-5.902
X-0.058 Z-5.905
X0.064 Z-5.909
X0.186 Z-5.912
X0.308 Z-5.915
X0.43 Z-5.918
X0.552 Z-5.921
X0.674 Z-5.924
X0.796 Z-5.927
X0.918 Z-5.93
X1.04 Z-5.933
X1.162 Z-5.935
X1.284 Z-5.938
X1.406 Z-5.941
X1.528 Z-5.944
X1.65 Z-5.946
X1.772 Z-5.949
X1.894 Z-5.951
X2.138 Z-5.956
X2.382 Z-5.96
X2.626 Z-5.965
X2.87 Z-5.969
X3.114 Z-5.973
X3.358 Z-5.976
X3.602 Z-5.98
X3.846 Z-5.983
X4.09 Z-5.986
X4.334 Z-5.988
X4.578 Z-5.991
X4.822 Z-5.993
X5.066 Z-5.995
X5.31 Z-5.996
X5.554 Z-5.998
X5.798 Z-5.999
X6.042
X6.286 Z-6
X6.528
X8.424
X8.562 Y21.499
X8.7 Y21.49
X8.838 Y21.481
X8.976 Y21.467
X9.115 Y21.442
X9.253 Y21.414
X9.391 Y21.385
X9.438 Y21.372
X9.529 Y21.342
X9.667 Y21.296
X9.805 Y21.247
X9.839 Y21.234
X9.943 Y21.186
X10.127 Y21.095
X10.219 Y21.048
X10.288 Y21.008
X10.357 Y20.963
X10.495 Y20.871
X10.573 Y20.819
X10.634 Y20.774
X10.746 Y20.68
X10.903 Y20.542
X10.91 Y20.536
X10.98 Y20.47
X11.042 Y20.404
X11.186 Y20.239
X11.28 Y20.127
X11.324 Y20.065
X11.376 Y19.989
X11.468 Y19.85
X11.513 Y19.781
X11.552 Y19.712
X11.6 Y19.617
X11.69 Y19.435
X11.738 Y19.328
X11.75 Y19.297
X11.798 Y19.159
X11.845 Y19.02
X11.876 Y18.921
X11.887 Y18.882
X11.916 Y18.744
X11.944 Y18.605
X11.969 Y18.467
X11.982 Y18.329
X11.991 Y18.19
X11.999 Y18.052
X12 Y17.914
Y-17.914
X11.999 Y-18.052
X11.991 Y-18.19
X11.982 Y-18.329
X11.969 Y-18.467
X11.944 Y-18.605
X11.916 Y-18.744
X11.887 Y-18.882
X11.876 Y-18.921
X11.845 Y-19.02
X11.798 Y-19.159
X11.75 Y-19.297
X11.738 Y-19.328
X11.69 Y-19.435
X11.6 Y-19.617
X11.552 Y-19.712
X11.513 Y-19.781
X11.468 Y-19.85
X11.376 Y-19.989
X11.324 Y-20.065
X11.28 Y-20.127
X11.186 Y-20.239
X11.042 Y-20.404
X10.98 Y-20.47
X10.91 Y-20.536
X10.903 Y-20.542
X10.746 Y-20.68
X10.634 Y-20.774
X10.573 Y-20.819
X10.495 Y-20.871
X10.357 Y-20.963
X10.288 Y-21.008
X10.219 Y-21.048
X10.127 Y-21.095
X9.943 Y-21.186
X9.839 Y-21.234
X9.805 Y-21.247
X9.667 Y-21.296
X9.529 Y-21.342
X9.438 Y-21.372
X9.391 Y-21.385
X9.253 Y-21.415
X9.115 Y-21.442
X8.976 Y-21.467
X8.838 Y-21.481
X8.7 Y-21.49
X8.562 Y-21.499
X8.424 Y-21.5
X-8.424
X-8.562 Y-21.499
X-8.7 Y-21.49
X-8.838 Y-21.481
X-8.976 Y-21.467
X-9.115 Y-21.442
X-9.253 Y-21.415
X-9.391 Y-21.385
X-9.438 Y-21.372
X-9.529 Y-21.342
X-9.667 Y-21.296
X-9.805 Y-21.247
X-9.839 Y-21.234
X-9.943 Y-21.186
X-10.127 Y-21.095
X-10.219 Y-21.048
X-10.288 Y-21.008
X-10.357 Y-20.963
X-10.495 Y-20.871
X-10.573 Y-20.819
X-10.634 Y-20.774
X-10.746 Y-20.68
X-10.903 Y-20.542
X-10.91 Y-20.536
X-10.98 Y-20.47
X-11.042 Y-20.404
X-11.186 Y-20.239
X-11.28 Y-20.127
X-11.324 Y-20.065
X-11.376 Y-19.989
X-11.468 Y-19.85
X-11.513 Y-19.781
X-11.552 Y-19.712
X-11.6 Y-19.617
X-11.69 Y-19.435
X-11.738 Y-19.328
X-11.75 Y-19.297
X-11.798 Y-19.159
X-11.845 Y-19.02
X-11.876 Y-18.921
X-11.887 Y-18.882
X-11.916 Y-18.744
X-11.944 Y-18.605
X-11.969 Y-18.467
X-11.982 Y-18.329
X-11.991 Y-18.19
X-11.999 Y-18.052
X-12 Y-17.914
Y1.435
Y17.914
X-11.999 Y18.052
X-11.991 Y18.19
X-11.982 Y18.329
X-11.969 Y18.467
X-11.944 Y18.605
X-11.916 Y18.744
X-11.887 Y18.882
X-11.876 Y18.921
X-11.845 Y19.02
X-11.798 Y19.159
X-11.75 Y19.297
X-11.738 Y19.328
X-11.69 Y19.435
X-11.6 Y19.617
X-11.552 Y19.712
X-11.513 Y19.781
X-11.468 Y19.85
X-11.376 Y19.989
X-11.324 Y20.065
X-11.28 Y20.127
X-11.186 Y20.239
X-11.042 Y20.404
X-10.98 Y20.47
X-10.91 Y20.536
X-10.903 Y20.542
X-10.746 Y20.68
X-10.634 Y20.774
X-10.573 Y20.819
X-10.495 Y20.871
X-10.357 Y20.963
X-10.288 Y21.008
X-10.219 Y21.048
X-10.127 Y21.095
X-9.943 Y21.186
X-9.839 Y21.234
X-9.805 Y21.247
X-9.667 Y21.296
X-9.529 Y21.342
X-9.438 Y21.372
X-9.391 Y21.385
X-9.253 Y21.414
X-9.115 Y21.442
X-8.976 Y21.467
X-8.838 Y21.481
X-8.7 Y21.49
X-8.562 Y21.499
X-8.424 Y21.5
X6.528
X6.772
X7.016 Z-6.001
X7.26
X7.504 Z-6.002
X7.748 Z-6.004
X7.992 Z-6.005
X8.236 Z-6.007
X8.48 Z-6.009
X8.724 Y21.489 Z-6.012
X8.845 Y21.481 Z-6.013
X8.967 Y21.469 Z-6.014
X9.087 Y21.447 Z-6.016
X9.207 Y21.424 Z-6.017
X9.326 Y21.4 Z-6.019
X9.445 Y21.37 Z-6.02
X9.676 Y21.292 Z-6.024
X9.791 Y21.253 Z-6.025
X9.904 Y21.205 Z-6.027
X10.123 Y21.097 Z-6.031
X10.231 Y21.042 Z-6.033
X10.335 Y20.978 Z-6.035
X10.538 Y20.842 Z-6.04
X10.637 Y20.772 Z-6.042
X10.731 Y20.693 Z-6.044
X10.914 Y20.532 Z-6.049
X11.002 Y20.447 Z-6.051
X11.083 Y20.356 Z-6.054
X11.164 Y20.265 Z-6.057
X11.244 Y20.172 Z-6.059
X11.317 Y20.075 Z-6.062
X11.385 Y19.974 Z-6.065
X11.453 Y19.872 Z-6.067
X11.519 Y19.77 Z-6.07
X11.578 Y19.663 Z-6.073
X11.632 Y19.553 Z-6.076
X11.686 Y19.444 Z-6.079
X11.736 Y19.333 Z-6.082
X11.778 Y19.218 Z-6.085
X11.817 Y19.103 Z-6.088
X11.856 Y18.987 Z-6.091
X11.89 Y18.87 Z-6.095
X11.915 Y18.751 Z-6.098
X11.939 Y18.631 Z-6.101
X11.962 Y18.511 Z-6.105
X11.977 Y18.39 Z-6.108
X11.986 Y18.268 Z-6.112
X11.994 Y18.147 Z-6.115
X12 Y18.025 Z-6.119
Y17.903 Z-6.122
Y17.781 Z-6.126
Y17.659 Z-6.129
Y17.537 Z-6.133
Y17.415 Z-6.137
Y17.293 Z-6.141
Y17.171 Z-6.145
Y17.049 Z-6.148
Y16.927 Z-6.152
Y16.805 Z-6.156
Y16.683 Z-6.16
Y16.561 Z-6.164
Y16.439 Z-6.168
Y16.317 Z-6.172
Y16.195 Z-6.177
Y16.073 Z-6.181
Y15.951 Z-6.185
Y15.829 Z-6.189
Y14.609 Z-6.232
Y14.487 Z-6.236
Y14.365 Z-6.24
Y14.243 Z-6.244
Y14.121 Z-6.249
Y13.999 Z-6.253
Y13.877 Z-6.257
Y13.755 Z-6.262
Y13.633 Z-6.266
Y13.511 Z-6.27
Y13.389 Z-6.274
Y13.267 Z-6.279
Y13.145 Z-6.283
Y13.023 Z-6.287
Y12.901 Z-6.291
Y12.778 Z-6.296
Y12.656 Z-6.3
Y12.534 Z-6.304
Y12.29 Z-6.313
Y11.924 Z-6.325
Y11.558 Z-6.338
Y11.192 Z-6.351
Y10.826 Z-6.364
Y10.46 Z-6.377
Y10.094 Z-6.389
Y9.484 Z-6.411
Y8.874 Z-6.432
Y8.02 Z-6.462
Y6.556 Z-6.513
Y1.31 Z-6.696
Y1.188 Z-6.7
Y1.066 Z-6.705
Y0.944 Z-6.709
Y0.822 Z-6.713
Y0.7 Z-6.717
Y0.578 Z-6.722
Y0.456 Z-6.726
Y0.334 Z-6.73
Y0.212 Z-6.734
Y0.09 Z-6.739
Y-0.032 Z-6.743
Y-0.154 Z-6.747
Y-0.276 Z-6.751
Y-0.398 Z-6.756
Y-0.52 Z-6.76
Y-0.642 Z-6.764
Y-0.764 Z-6.768
Y-0.886 Z-6.773
Y-1.008 Z-6.777
Y-1.13 Z-6.781
Y-1.252 Z-6.786
Y-1.374 Z-6.79
Y-1.496 Z-6.794
Y-1.618 Z-6.798
Y-1.74 Z-6.803
Y-2.106 Z-6.815
Y-2.228 Z-6.819
Y-2.35 Z-6.824
Y-2.472 Z-6.828
Y-2.594 Z-6.832
Y-2.716 Z-6.836
Y-2.838 Z-6.84
Y-2.96 Z-6.844
Y-3.082 Z-6.848
Y-3.204 Z-6.852
Y-3.326 Z-6.856
Y-3.448 Z-6.859
Y-3.57 Z-6.863
Y-3.692 Z-6.867
Y-3.814 Z-6.871
Y-3.936 Z-6.874
Y-4.058 Z-6.878
Y-4.18 Z-6.882
Y-4.302 Z-6.885
Y-4.424 Z-6.889
Y-4.546 Z-6.892
Y-4.668 Z-6.895
Y-4.79 Z-6.899
Y-4.912 Z-6.902
Y-5.034 Z-6.905
Y-5.156 Z-6.909
Y-5.278 Z-6.912
Y-5.4 Z-6.915
Y-5.522 Z-6.918
Y-5.644 Z-6.921
Y-5.767 Z-6.924
Y-5.889 Z-6.927
Y-6.011 Z-6.93
Y-6.133 Z-6.933
Y-6.255 Z-6.936
Y-6.377 Z-6.938
Y-6.499 Z-6.941
Y-6.621 Z-6.944
Y-6.743 Z-6.946
Y-6.865 Z-6.949
Y-6.987 Z-6.951
Y-7.231 Z-6.956
Y-7.475 Z-6.961
Y-7.719 Z-6.965
Y-7.963 Z-6.969
Y-8.207 Z-6.973
Y-8.451 Z-6.976
Y-8.695 Z-6.98
Y-8.939 Z-6.983
Y-9.183 Z-6.986
Y-9.427 Z-6.988
Y-9.671 Z-6.991
Y-9.915 Z-6.993
Y-10.159 Z-6.995
Y-10.403 Z-6.996
Y-10.647 Z-6.998
Y-10.891 Z-6.999
Y-11.135
Y-11.379 Z-7
Y-11.619
Y-17.914
X11.999 Y-18.052
X11.991 Y-18.19
X11.982 Y-18.329
X11.969 Y-18.467
X11.944 Y-18.605
X11.916 Y-18.744
X11.887 Y-18.882
X11.876 Y-18.921
X11.845 Y-19.02
X11.798 Y-19.159
X11.75 Y-19.297
X11.738 Y-19.328
X11.69 Y-19.435
X11.6 Y-19.617
X11.552 Y-19.712
X11.513 Y-19.781
X11.468 Y-19.85
X11.376 Y-19.989
X11.324 Y-20.065
X11.28 Y-20.127
X11.186 Y-20.239
X11.042 Y-20.404
X10.98 Y-20.47
X10.91 Y-20.536
X10.903 Y-20.542
X10.746 Y-20.68
X10.634 Y-20.774
X10.573 Y-20.819
X10.495 Y-20.871
X10.357 Y-20.963
X10.288 Y-21.008
X10.219 Y-21.048
X10.127 Y-21.095
X9.943 Y-21.186
X9.839 Y-21.234
X9.805 Y-21.247
X9.667 Y-21.296
X9.529 Y-21.342
X9.438 Y-21.372
X9.391 Y-21.385
X9.253 Y-21.415
X9.115 Y-21.442
X8.976 Y-21.467
X8.838 Y-21.481
X8.7 Y-21.49
X8.562 Y-21.499
X8.424 Y-21.5
X-8.424
X-8.562 Y-21.499
X-8.7 Y-21.49
X-8.838 Y-21.481
X-8.976 Y-21.467
X-9.115 Y-21.442
X-9.253 Y-21.415
X-9.391 Y-21.385
X-9.438 Y-21.372
X-9.529 Y-21.342
X-9.667 Y-21.296
X-9.805 Y-21.247
X-9.839 Y-21.234
X-9.943 Y-21.186
X-10.127 Y-21.095
X-10.219 Y-21.048
X-10.288 Y-21.008
X-10.357 Y-20.963
X-10.495 Y-20.871
X-10.573 Y-20.819
X-10.634 Y-20.774
X-10.746 Y-20.68
X-10.903 Y-20.542
X-10.91 Y-20.536
X-10.98 Y-20.47
X-11.042 Y-20.404
X-11.186 Y-20.239
X-11.28 Y-20.127
X-11.324 Y-20.065
X-11.376 Y-19.989
X-11.468 Y-19.85
X-11.513 Y-19.781
X-11.552 Y-19.712
X-11.6 Y-19.617
X-11.69 Y-19.435
X-11.738 Y-19.328
X-11.75 Y-19.297
X-11.798 Y-19.159
X-11.845 Y-19.02
X-11.876 Y-18.921
X-11.887 Y-18.882
X-11.916 Y-18.744
X-11.944 Y-18.605
X-11.969 Y-18.467
X-11.982 Y-18.329
X-11.991 Y-18.19
X-11.999 Y-18.052
X-12 Y-17.914
Y17.914
X-11.999 Y18.052
X-11.991 Y18.19
X-11.982 Y18.329
X-11.969 Y18.467
X-11.944 Y18.605
X-11.916 Y18.744
X-11.887 Y18.882
X-11.876 Y18.921
X-11.845 Y19.02
X-11.798 Y19.159
X-11.75 Y19.297
X-11.738 Y19.328
X-11.69 Y19.435
X-11.6 Y19.617
X-11.552 Y19.712
X-11.513 Y19.781
X-11.468 Y19.85
X-11.376 Y19.989
X-11.324 Y20.065
X-11.28 Y20.127
X-11.186 Y20.239
X-11.042 Y20.404
X-10.98 Y20.47
X-10.91 Y20.536
X-10.903 Y20.542
X-10.746 Y20.68
X-10.634 Y20.774
X-10.573 Y20.819
X-10.495 Y20.871
X-10.357 Y20.963
X-10.288 Y21.008
X-10.219 Y21.048
X-10.127 Y21.095
X-9.943 Y21.186
X-9.839 Y21.234
X-9.805 Y21.247
X-9.667 Y21.296
X-9.529 Y21.342
X-9.438 Y21.372
X-9.391 Y21.385
X-9.253 Y21.414
X-9.115 Y21.442
X-8.976 Y21.467
X-8.838 Y21.481
X-8.7 Y21.49
X-8.562 Y21.499
X-8.424 Y21.5
X6.528
X8.424
X8.562 Y21.499
X8.7 Y21.49
X8.838 Y21.481
X8.976 Y21.467
X9.115 Y21.442
X9.253 Y21.414
X9.391 Y21.385
X9.438 Y21.372
X9.529 Y21.342
X9.667 Y21.296
X9.805 Y21.247
X9.839 Y21.234
X9.943 Y21.186
X10.127 Y21.095
X10.219 Y21.048
X10.288 Y21.008
X10.357 Y20.963
X10.495 Y20.871
X10.573 Y20.819
X10.634 Y20.774
X10.746 Y20.68
X10.903 Y20.542
X10.91 Y20.536
X10.98 Y20.47
X11.042 Y20.404
X11.186 Y20.239
X11.28 Y20.127
X11.324 Y20.065
X11.376 Y19.989
X11.468 Y19.85
X11.513 Y19.781
X11.552 Y19.712
X11.6 Y19.617
X11.69 Y19.435
X11.738 Y19.328
X11.75 Y19.297
X11.798 Y19.159
X11.845 Y19.02
X11.876 Y18.921
X11.887 Y18.882
X11.916 Y18.744
X11.944 Y18.605
X11.969 Y18.467
X11.982 Y18.329
X11.991 Y18.19
X11.999 Y18.052
X12 Y17.914
Y-11.619
Y-11.863
Y-12.107 Z-7.001
Y-12.351
Y-12.595 Z-7.002
Y-12.839 Z-7.004
Y-13.083 Z-7.005
Y-13.327 Z-7.007
Y-13.571 Z-7.009
Y-13.815 Z-7.012
Y-14.059 Z-7.014
Y-14.303 Z-7.017
Y-14.547 Z-7.02
Y-14.791 Z-7.024
Y-15.035 Z-7.027
Y-15.279 Z-7.031
Y-15.523 Z-7.035
Y-15.767 Z-7.04
Y-16.011 Z-7.044
Y-16.255 Z-7.049
Y-16.377 Z-7.051
Y-16.499 Z-7.054
Y-16.621 Z-7.057
Y-16.743 Z-7.059
Y-16.865 Z-7.062
Y-16.987 Z-7.065
Y-17.109 Z-7.067
Y-17.231 Z-7.07
Y-17.353 Z-7.073
Y-17.475 Z-7.076
Y-17.597 Z-7.079
Y-17.719 Z-7.082
Y-17.841 Z-7.085
Y-17.963 Z-7.088
X11.998 Y-18.085 Z-7.091
X11.99 Y-18.207 Z-7.095
X11.982 Y-18.329 Z-7.098
X11.971 Y-18.45 Z-7.101
X11.951 Y-18.571 Z-7.105
X11.927 Y-18.69 Z-7.108
X11.903 Y-18.81 Z-7.112
X11.874 Y-18.929 Z-7.115
X11.837 Y-19.045 Z-7.119
X11.798 Y-19.16 Z-7.122
X11.758 Y-19.276 Z-7.126
X11.712 Y-19.389 Z-7.129
X11.659 Y-19.498 Z-7.133
X11.605 Y-19.608 Z-7.137
X11.55 Y-19.717 Z-7.141
X11.487 Y-19.821 Z-7.145
X11.42 Y-19.923 Z-7.148
X11.352 Y-20.024 Z-7.152
X11.282 Y-20.124 Z-7.156
X11.204 Y-20.218 Z-7.16
X11.124 Y-20.31 Z-7.164
X11.043 Y-20.402 Z-7.168
X10.959 Y-20.49 Z-7.172
X10.869 Y-20.572 Z-7.177
X10.777 Y-20.653 Z-7.181
X10.685 Y-20.733 Z-7.185
X10.589 Y-20.808 Z-7.189
X10.488 Y-20.876 Z-7.193
X10.386 Y-20.944 Z-7.198
X10.284 Y-21.011 Z-7.202
X10.178 Y-21.07 Z-7.206
X10.068 Y-21.124 Z-7.21
X9.959 Y-21.178 Z-7.215
X9.848 Y-21.23 Z-7.219
X9.734 Y-21.273 Z-7.223
X9.619 Y-21.312 Z-7.227
X9.503 Y-21.351 Z-7.232
X9.386 Y-21.386 Z-7.236
X9.267 Y-21.412 Z-7.24
X9.147 Y-21.435 Z-7.244
X9.028 Y-21.459 Z-7.249
X8.907 Y-21.476 Z-7.253
X8.785 Y-21.485 Z-7.257
X8.663 Y-21.493 Z-7.261
X8.541 Y-21.499 Z-7.266
X8.419 Y-21.5 Z-7.27
X8.297 Z-7.274
X8.175 Z-7.279
X8.053 Z-7.283
X7.931 Z-7.287
X7.809 Z-7.291
X7.687 Z-7.296
X7.565 Z-7.3
X7.443 Z-7.304
X7.199 Z-7.313
X6.833 Z-7.325
X6.467 Z-7.338
X6.101 Z-7.351
X5.735 Z-7.364
X5.369 Z-7.377
X5.003 Z-7.389
X4.393 Z-7.411
X3.783 Z-7.432
X2.929 Z-7.462
X1.465 Z-7.513
X-3.781 Z-7.696
X-3.903 Z-7.7
X-4.025 Z-7.705
X-4.147 Z-7.709
X-4.269 Z-7.713
X-4.391 Z-7.717
X-4.513 Z-7.722
X-4.635 Z-7.726
X-4.757 Z-7.73
X-4.879 Z-7.734
X-5.001 Z-7.739
X-5.123 Z-7.743
X-5.245 Z-7.747
X-5.367 Z-7.751
X-5.489 Z-7.756
X-5.611 Z-7.76
X-5.733 Z-7.764
X-5.855 Z-7.768
X-5.977 Z-7.773
X-6.099 Z-7.777
X-6.221 Z-7.781
X-6.343 Z-7.785
X-6.465 Z-7.79
X-6.587 Z-7.794
X-6.709 Z-7.798
X-6.831 Z-7.803
X-7.197 Z-7.815
X-7.319 Z-7.819
X-7.441 Z-7.824
X-7.563 Z-7.828
X-7.685 Z-7.832
X-7.807 Z-7.836
X-7.929 Z-7.84
X-8.051 Z-7.844
X-8.173 Z-7.848
X-8.295 Z-7.852
X-8.417 Z-7.856
X-8.539 Y-21.499 Z-7.859
X-8.661 Y-21.493 Z-7.863
X-8.783 Y-21.485 Z-7.867
X-8.905 Y-21.476 Z-7.871
X-9.026 Y-21.459 Z-7.874
X-9.145 Y-21.436 Z-7.878
X-9.265 Y-21.412 Z-7.882
X-9.384 Y-21.386 Z-7.885
X-9.501 Y-21.352 Z-7.889
X-9.617 Y-21.313 Z-7.892
X-9.732 Y-21.273 Z-7.895
X-9.847 Y-21.231 Z-7.899
X-9.957 Y-21.179 Z-7.902
X-10.067 Y-21.125 Z-7.905
X-10.176 Y-21.071 Z-7.909
X-10.283 Y-21.012 Z-7.912
X-10.385 Y-20.945 Z-7.915
X-10.486 Y-20.877 Z-7.918
X-10.587 Y-20.809 Z-7.921
X-10.684 Y-20.734 Z-7.924
X-10.776 Y-20.654 Z-7.927
X-10.867 Y-20.573 Z-7.93
X-10.958 Y-20.492 Z-7.933
X-11.042 Y-20.403 Z-7.936
X-11.122 Y-20.312 Z-7.938
X-11.203 Y-20.22 Z-7.941
X-11.28 Y-20.126 Z-7.944
X-11.351 Y-20.026 Z-7.946
X-11.418 Y-19.924 Z-7.949
X-11.486 Y-19.823 Z-7.951
X-11.549 Y-19.718 Z-7.954
X-11.604 Y-19.61 Z-7.956
X-11.711 Y-19.39 Z-7.96
X-11.758 Y-19.278 Z-7.963
X-11.797 Y-19.162 Z-7.965
X-11.836 Y-19.047 Z-7.967
X-11.874 Y-18.931 Z-7.969
X-11.903 Y-18.812 Z-7.971
X-11.926 Y-18.692 Z-7.973
X-11.95 Y-18.573 Z-7.975
X-11.971 Y-18.452 Z-7.976
X-11.982 Y-18.331 Z-7.978
X-11.99 Y-18.209 Z-7.98
X-12 Y-17.965 Z-7.983
Y-17.721 Z-7.986
Y-17.477 Z-7.988
Y-17.233 Z-7.991
Y-16.989 Z-7.993
Y-16.745 Z-7.995
Y-16.501 Z-7.996
Y-16.257 Z-7.998
Y-16.013 Z-7.999
Y-15.769
Y-15.525 Z-8
Y-15.285
Y17.914
X-11.999 Y18.052
X-11.991 Y18.19
X-11.982 Y18.329
X-11.969 Y18.467
X-11.944 Y18.605
X-11.916 Y18.744
X-11.887 Y18.882
X-11.876 Y18.921
X-11.845 Y19.02
X-11.798 Y19.159
X-11.75 Y19.297
X-11.738 Y19.328
X-11.69 Y19.435
X-11.6 Y19.617
X-11.552 Y19.712
X-11.513 Y19.781
X-11.468 Y19.85
X-11.376 Y19.989
X-11.324 Y20.065
X-11.28 Y20.127
X-11.186 Y20.239
X-11.042 Y20.404
X-10.98 Y20.47
X-10.91 Y20.536
X-10.903 Y20.542
X-10.746 Y20.68
X-10.634 Y20.774
X-10.573 Y20.819
X-10.495 Y20.871
X-10.357 Y20.963
X-10.288 Y21.008
X-10.219 Y21.048
X-10.127 Y21.095
X-9.943 Y21.186
X-9.839 Y21.234
X-9.805 Y21.247
X-9.667 Y21.296
X-9.529 Y21.342
X-9.438 Y21.372
X-9.391 Y21.385
X-9.253 Y21.414
X-9.115 Y21.442
X-8.976 Y21.467
X-8.838 Y21.481
X-8.7 Y21.49
X-8.562 Y21.499
X-8.424 Y21.5
X8.424
X8.562 Y21.499
X8.7 Y21.49
X8.838 Y21.481
X8.976 Y21.467
X9.115 Y21.442
X9.253 Y21.414
X9.391 Y21.385
X9.438 Y21.372
X9.529 Y21.342
X9.667 Y21.296
X9.805 Y21.247
X9.839 Y21.234
X9.943 Y21.186
X10.127 Y21.095
X10.219 Y21.048
X10.288 Y21.008
X10.357 Y20.963
X10.495 Y20.871
X10.573 Y20.819
X10.634 Y20.774
X10.746 Y20.68
X10.903 Y20.542
X10.91 Y20.536
X10.98 Y20.47
X11.042 Y20.404
X11.186 Y20.239
X11.28 Y20.127
X11.324 Y20.065
X11.376 Y19.989
X11.468 Y19.85
X11.513 Y19.781
X11.552 Y19.712
X11.6 Y19.617
X11.69 Y19.435
X11.738 Y19.328
X11.75 Y19.297
X11.798 Y19.159
X11.845 Y19.02
X11.876 Y18.921
X11.887 Y18.882
X11.916 Y18.744
X11.944 Y18.605
X11.969 Y18.467
X11.982 Y18.329
X11.991 Y18.19
X11.999 Y18.052
X12 Y17.914
Y-11.619
Y-17.914
X11.999 Y-18.052
X11.991 Y-18.19
X11.982 Y-18.329
X11.969 Y-18.467
X11.944 Y-18.605
X11.916 Y-18.744
X11.887 Y-18.882
X11.876 Y-18.921
X11.845 Y-19.02
X11.798 Y-19.159
X11.75 Y-19.297
X11.738 Y-19.328
X11.69 Y-19.435
X11.6 Y-19.617
X11.552 Y-19.712
X11.513 Y-19.781
X11.468 Y-19.85
X11.376 Y-19.989
X11.324 Y-20.065
X11.28 Y-20.127
X11.186 Y-20.239
X11.042 Y-20.404
X10.98 Y-20.47
X10.91 Y-20.536
X10.903 Y-20.542
X10.746 Y-20.68
X10.634 Y-20.774
X10.573 Y-20.819
X10.495 Y-20.871
X10.357 Y-20.963
X10.288 Y-21.008
X10.219 Y-21.048
X10.127 Y-21.095
X9.943 Y-21.186
X9.839 Y-21.234
X9.805 Y-21.247
X9.667 Y-21.296
X9.529 Y-21.342
X9.438 Y-21.372
X9.391 Y-21.385
X9.253 Y-21.415
X9.115 Y-21.442
X8.976 Y-21.467
X8.838 Y-21.481
X8.7 Y-21.49
X8.562 Y-21.499
X8.424 Y-21.5
X-8.424
X-8.562 Y-21.499
X-8.7 Y-21.49
X-8.838 Y-21.481
X-8.976 Y-21.467
X-9.115 Y-21.442
X-9.253 Y-21.415
X-9.391 Y-21.385
X-9.438 Y-21.372
X-9.529 Y-21.342
X-9.667 Y-21.296
X-9.805 Y-21.247
X-9.839 Y-21.234
X-9.943 Y-21.186
X-10.127 Y-21.095
X-10.219 Y-21.048
X-10.288 Y-21.008
X-10.357 Y-20.963
X-10.495 Y-20.871
X-10.573 Y-20.819
X-10.634 Y-20.774
X-10.746 Y-20.68
X-10.903 Y-20.542
X-10.91 Y-20.536
X-10.98 Y-20.47
X-11.042 Y-20.404
X-11.186 Y-20.239
X-11.28 Y-20.127
X-11.324 Y-20.065
X-11.376 Y-19.989
X-11.468 Y-19.85
X-11.513 Y-19.781
X-11.552 Y-19.712
X-11.6 Y-19.617
X-11.69 Y-19.435
X-11.738 Y-19.328
X-11.75 Y-19.297
X-11.798 Y-19.159
X-11.845 Y-19.02
X-11.876 Y-18.921
X-11.887 Y-18.882
X-11.916 Y-18.744
X-11.944 Y-18.605
X-11.969 Y-18.467
X-11.982 Y-18.329
X-11.991 Y-18.19
X-11.999 Y-18.052
X-12 Y-17.914
Y-15.285
Y-15.041
Y-14.797 Z-8.001
Y-14.553
Y-14.309 Z-8.002
Y-14.065 Z-8.004
Y-13.821 Z-8.005
Y-13.577 Z-8.007
Y-13.333 Z-8.009
Y-13.089 Z-8.012
Y-12.845 Z-8.014
Y-12.601 Z-8.017
Y-12.357 Z-8.02
Y-12.113 Z-8.024
Y-11.869 Z-8.027
Y-11.624 Z-8.031
Y-11.38 Z-8.035
Y-11.136 Z-8.04
Y-10.892 Z-8.044
Y-10.648 Z-8.049
Y-10.526 Z-8.051
Y-10.404 Z-8.054
Y-10.282 Z-8.057
Y-10.16 Z-8.059
Y-10.038 Z-8.062
Y-9.916 Z-8.065
Y-9.794 Z-8.067
Y-9.672 Z-8.07
Y-9.55 Z-8.073
Y-9.428 Z-8.076
Y-9.306 Z-8.079
Y-9.184 Z-8.082
Y-9.062 Z-8.085
Y-8.94 Z-8.088
Y-8.818 Z-8.091
Y-8.696 Z-8.095
Y-8.574 Z-8.098
Y-8.452 Z-8.101
Y-8.33 Z-8.105
Y-8.208 Z-8.108
Y-8.086 Z-8.112
Y-7.964 Z-8.115
Y-7.842 Z-8.119
Y-7.72 Z-8.122
Y-7.598 Z-8.126
Y-7.476 Z-8.129
Y-7.354 Z-8.133
Y-7.232 Z-8.137
Y-7.11 Z-8.141
Y-6.988 Z-8.145
Y-6.866 Z-8.148
Y-6.744 Z-8.152
Y-6.622 Z-8.156
Y-6.5 Z-8.16
Y-6.378 Z-8.164
Y-6.256 Z-8.168
Y-6.134 Z-8.172
Y-6.012 Z-8.177
Y-5.89 Z-8.181
Y-5.768 Z-8.185
Y-5.646 Z-8.189
Y-4.426 Z-8.232
Y-4.304 Z-8.236
Y-4.182 Z-8.24
Y-4.06 Z-8.244
Y-3.938 Z-8.249
Y-3.816 Z-8.253
Y-3.694 Z-8.257
Y-3.572 Z-8.262
Y-3.45 Z-8.266
Y-3.328 Z-8.27
Y-3.206 Z-8.274
Y-3.084 Z-8.279
Y-2.962 Z-8.283
Y-2.84 Z-8.287
Y-2.718 Z-8.291
Y-2.596 Z-8.296
Y-2.474 Z-8.3
Y-2.352 Z-8.304
Y-2.108 Z-8.313
Y-1.742 Z-8.325
Y-1.376 Z-8.338
Y-1.01 Z-8.351
Y-0.644 Z-8.364
Y-0.278 Z-8.377
Y0.088 Z-8.389
Y0.698 Z-8.411
Y1.308 Z-8.432
Y2.162 Z-8.462
Y3.626 Z-8.513
Y8.873 Z-8.696
Y8.995 Z-8.7
Y9.117 Z-8.705
Y9.239 Z-8.709
Y9.361 Z-8.713
Y9.483 Z-8.717
Y9.605 Z-8.722
Y9.727 Z-8.726
Y9.849 Z-8.73
Y9.971 Z-8.734
Y10.093 Z-8.739
Y10.215 Z-8.743
Y10.337 Z-8.747
Y10.459 Z-8.751
Y10.581 Z-8.756
Y10.703 Z-8.76
Y10.825 Z-8.764
Y10.947 Z-8.768
Y11.069 Z-8.773
Y11.191 Z-8.777
Y11.313 Z-8.781
Y11.435 Z-8.786
Y11.557 Z-8.79
Y11.679 Z-8.794
Y11.801 Z-8.798
Y11.923 Z-8.803
Y12.289 Z-8.815
Y12.411 Z-8.819
Y12.533 Z-8.824
Y12.655 Z-8.828
Y12.777 Z-8.832
Y12.899 Z-8.836
Y13.021 Z-8.84
Y13.143 Z-8.844
Y13.265 Z-8.848
Y13.387 Z-8.852
Y13.509 Z-8.856
Y13.631 Z-8.859
Y13.753 Z-8.863
Y13.875 Z-8.867
Y13.997 Z-8.871
Y14.119 Z-8.874
Y14.241 Z-8.878
Y14.363 Z-8.882
Y14.485 Z-8.885
Y14.607 Z-8.889
Y14.729 Z-8.892
Y14.851 Z-8.895
Y14.973 Z-8.899
Y15.095 Z-8.902
Y15.217 Z-8.905
Y15.339 Z-8.909
Y15.461 Z-8.912
Y15.583 Z-8.915
Y15.705 Z-8.918
Y15.827 Z-8.921
Y15.949 Z-8.924
Y16.071 Z-8.927
Y16.193 Z-8.93
Y16.315 Z-8.933
Y16.437 Z-8.936
Y16.559 Z-8.938
Y16.681 Z-8.941
Y16.803 Z-8.944
Y16.925 Z-8.946
Y17.047 Z-8.949
Y17.169 Z-8.951
Y17.413 Z-8.956
Y17.657 Z-8.961
Y17.901 Z-8.965
X-11.994 Y18.145 Z-8.969
X-11.977 Y18.388 Z-8.973
X-11.962 Y18.509 Z-8.975
X-11.939 Y18.629 Z-8.976
X-11.89 Y18.868 Z-8.98
X-11.857 Y18.986 Z-8.981
X-11.818 Y19.101 Z-8.983
X-11.779 Y19.217 Z-8.984
X-11.737 Y19.331 Z-8.986
X-11.686 Y19.443 Z-8.987
X-11.632 Y19.552 Z-8.988
X-11.578 Y19.661 Z-8.99
X-11.52 Y19.769 Z-8.991
X-11.454 Y19.871 Z-8.992
X-11.386 Y19.973 Z-8.993
X-11.318 Y20.074 Z-8.994
X-11.245 Y20.171 Z-8.995
X-11.084 Y20.355 Z-8.996
X-11.003 Y20.446 Z-8.997
X-10.916 Y20.531 Z-8.998
X-10.732 Y20.692 Z-8.999
X-10.639 Y20.771
X-10.54 Y20.842
X-10.337 Y20.977 Z-9
X-10.234 Y21.04
X-10.128 Y21.095
X-10.127
X-9.943 Y21.186
X-9.839 Y21.234
X-9.805 Y21.247
X-9.667 Y21.296
X-9.529 Y21.342
X-9.438 Y21.372
X-9.391 Y21.385
X-9.253 Y21.414
X-9.115 Y21.442
X-8.976 Y21.467
X-8.838 Y21.481
X-8.7 Y21.49
X-8.562 Y21.499
X-8.424 Y21.5
X8.424
X8.562 Y21.499
X8.7 Y21.49
X8.838 Y21.481
X8.976 Y21.467
X9.115 Y21.442
X9.253 Y21.414
X9.391 Y21.385
X9.438 Y21.372
X9.529 Y21.342
X9.667 Y21.296
X9.805 Y21.247
X9.839 Y21.234
X9.943 Y21.186
X10.127 Y21.095
X10.219 Y21.048
X10.288 Y21.008
X10.357 Y20.963
X10.495 Y20.871
X10.573 Y20.819
X10.634 Y20.774
X10.746 Y20.68
X10.903 Y20.542
X10.91 Y20.536
X10.98 Y20.47
X11.042 Y20.404
X11.186 Y20.239
X11.28 Y20.127
X11.324 Y20.065
X11.376 Y19.989
X11.468 Y19.85
X11.513 Y19.781
X11.552 Y19.712
X11.6 Y19.617
X11.69 Y19.435
X11.738 Y19.328
X11.75 Y19.297
X11.798 Y19.159
X11.845 Y19.02
X11.876 Y18.921
X11.887 Y18.882
X11.916 Y18.744
X11.944 Y18.605
X11.969 Y18.467
X11.982 Y18.329
X11.991 Y18.19
X11.999 Y18.052
X12 Y17.914
Y-17.914
X11.999 Y-18.052
X11.991 Y-18.19
X11.982 Y-18.329
X11.969 Y-18.467
X11.944 Y-18.605
X11.916 Y-18.744
X11.887 Y-18.882
X11.876 Y-18.921
X11.845 Y-19.02
X11.798 Y-19.159
X11.75 Y-19.297
X11.738 Y-19.328
X11.69 Y-19.435
X11.6 Y-19.617
X11.552 Y-19.712
X11.513 Y-19.781
X11.468 Y-19.85
X11.376 Y-19.989
X11.324 Y-20.065
X11.28 Y-20.127
X11.186 Y-20.239
X11.042 Y-20.404
X10.98 Y-20.47
X10.91 Y-20.536
X10.903 Y-20.542
X10.746 Y-20.68
X10.634 Y-20.774
X10.573 Y-20.819
X10.495 Y-20.871
X10.357 Y-20.963
X10.288 Y-21.008
X10.219 Y-21.048
X10.127 Y-21.095
X9.943 Y-21.186
X9.839 Y-21.234
X9.805 Y-21.247
X9.667 Y-21.296
X9.529 Y-21.342
X9.438 Y-21.372
X9.391 Y-21.385
X9.253 Y-21.415
X9.115 Y-21.442
X8.976 Y-21.467
X8.838 Y-21.481
X8.7 Y-21.49
X8.562 Y-21.499
X8.424 Y-21.5
X-8.424
X-8.562 Y-21.499
X-8.7 Y-21.49
X-8.838 Y-21.481
X-8.976 Y-21.467
X-9.115 Y-21.442
X-9.253 Y-21.415
X-9.391 Y-21.385
X-9.438 Y-21.372
X-9.529 Y-21.342
X-9.667 Y-21.296
X-9.805 Y-21.247
X-9.839 Y-21.234
X-9.943 Y-21.186
X-10.127 Y-21.095
X-10.219 Y-21.048
X-10.288 Y-21.008
X-10.357 Y-20.963
X-10.495 Y-20.871
X-10.573 Y-20.819
X-10.634 Y-20.774
X-10.746 Y-20.68
X-10.903 Y-20.542
X-10.91 Y-20.536
X-10.98 Y-20.47
X-11.042 Y-20.404
X-11.186 Y-20.239
X-11.28 Y-20.127
X-11.324 Y-20.065
X-11.376 Y-19.989
X-11.468 Y-19.85
X-11.513 Y-19.781
X-11.552 Y-19.712
X-11.6 Y-19.617
X-11.69 Y-19.435
X-11.738 Y-19.328
X-11.75 Y-19.297
X-11.798 Y-19.159
X-11.845 Y-19.02
X-11.876 Y-18.921
X-11.887 Y-18.882
X-11.916 Y-18.744
X-11.944 Y-18.605
X-11.969 Y-18.467
X-11.982 Y-18.329
X-11.991 Y-18.19
X-11.999 Y-18.052
X-12 Y-17.914
Y17.914
X-11.999 Y18.052
X-11.991 Y18.19
X-11.982 Y18.329
X-11.969 Y18.467
X-11.944 Y18.605
X-11.916 Y18.744
X-11.887 Y18.882
X-11.876 Y18.921
X-11.845 Y19.02
X-11.798 Y19.159
X-11.75 Y19.297
X-11.738 Y19.328
X-11.69 Y19.435
X-11.6 Y19.617
X-11.552 Y19.712
X-11.513 Y19.781
X-11.468 Y19.85
X-11.376 Y19.989
X-11.324 Y20.065
X-11.28 Y20.127
X-11.186 Y20.239
X-11.042 Y20.404
X-10.98 Y20.47
X-10.91 Y20.536
X-10.903 Y20.542
X-10.746 Y20.68
X-10.634 Y20.774
X-10.573 Y20.819
X-10.495 Y20.871
X-10.357 Y20.963
X-10.288 Y21.008
X-10.219 Y21.048
X-10.128 Y21.095
X-9.909 Y21.203
X-9.796 Y21.251
X-9.681 Y21.291 Z-9.001
X-9.45 Y21.368
X-9.332 Y21.399 Z-9.002
X-9.212 Y21.423
X-9.092 Y21.446 Z-9.003
X-8.972 Y21.468 Z-9.004
X-8.851 Y21.48
X-8.729 Y21.488 Z-9.005
X-8.486 Y21.5 Z-9.007
X-8.242 Z-9.009
X-7.998 Z-9.012
X-7.753 Z-9.014
X-7.509 Z-9.017
X-7.265 Z-9.02
X-7.021 Z-9.024
X-6.777 Z-9.027
X-6.533 Z-9.031
X-6.289 Z-9.035
X-6.045 Z-9.04
X-5.801 Z-9.044
X-5.557 Z-9.049
X-5.435 Z-9.051
X-5.313 Z-9.054
X-5.191 Z-9.057
X-5.069 Z-9.059
X-4.947 Z-9.062
X-4.825 Z-9.065
X-4.703 Z-9.067
X-4.581 Z-9.07
X-4.459 Z-9.073
X-4.337 Z-9.076
X-4.215 Z-9.079
X-4.093 Z-9.082
X-3.971 Z-9.085
X-3.849 Z-9.088
X-3.727 Z-9.091
X-3.605 Z-9.095
X-3.483 Z-9.098
X-3.361 Z-9.101
X-3.239 Z-9.105
X-3.117 Z-9.108
X-2.995 Z-9.112
X-2.873 Z-9.115
X-2.751 Z-9.119
X-2.629 Z-9.122
X-2.507 Z-9.126
X-2.385 Z-9.129
X-2.263 Z-9.133
X-2.141 Z-9.137
X-2.019 Z-9.141
X-1.897 Z-9.145
X-1.775 Z-9.148
X-1.653 Z-9.152
X-1.531 Z-9.156
X-1.409 Z-9.16
X-1.287 Z-9.164
X-1.165 Z-9.168
X-1.043 Z-9.172
X-0.921 Z-9.177
X-0.799 Z-9.181
X-0.677 Z-9.185
X-0.555 Z-9.189
X0.665 Z-9.232
X0.787 Z-9.236
X0.909 Z-9.24
X1.031 Z-9.244
X1.153 Z-9.249
X1.275 Z-9.253
X1.397 Z-9.257
X1.519 Z-9.262
X1.641 Z-9.266
X1.763 Z-9.27
X1.885 Z-9.274
X2.007 Z-9.279
X2.129 Z-9.283
X2.251 Z-9.287
X2.373 Z-9.291
X2.495 Z-9.296
X2.617 Z-9.3
X2.739 Z-9.304
X2.983 Z-9.313
X3.349 Z-9.325
X3.715 Z-9.338
X4.081 Z-9.351
X4.447 Z-9.364
X4.813 Z-9.377
X5.179 Z-9.389
X5.789 Z-9.411
X6.399 Z-9.432
X7.253 Z-9.462
X8.473 Z-9.504
X8.595 Y21.497 Z-9.509
X8.839 Y21.481 Z-9.517
X8.96 Y21.47 Z-9.521
X9.081 Y21.449 Z-9.526
X9.2 Y21.425 Z-9.53
X9.32 Y21.401 Z-9.534
X9.438 Y21.372 Z-9.538
X9.554 Y21.334 Z-9.543
X9.67 Y21.295 Z-9.547
X9.785 Y21.255 Z-9.551
X9.898 Y21.208 Z-9.555
X10.007 Y21.154 Z-9.56
X10.117 Y21.1 Z-9.564
X10.225 Y21.045 Z-9.568
X10.33 Y20.982 Z-9.572
X10.533 Y20.846 Z-9.581
X10.632 Y20.776 Z-9.585
X10.726 Y20.697 Z-9.59
X10.818 Y20.617 Z-9.594
X10.909 Y20.537 Z-9.598
X10.997 Y20.452 Z-9.602
X11.079 Y20.361 Z-9.607
X11.159 Y20.27 Z-9.611
X11.239 Y20.177 Z-9.615
X11.314 Y20.081 Z-9.619
X11.382 Y19.979 Z-9.624
X11.449 Y19.878 Z-9.628
X11.516 Y19.776 Z-9.632
X11.575 Y19.669 Z-9.636
X11.629 Y19.559 Z-9.641
X11.683 Y19.45 Z-9.645
X11.734 Y19.339 Z-9.649
X11.776 Y19.225 Z-9.653
X11.815 Y19.109 Z-9.658
X11.854 Y18.994 Z-9.662
X11.888 Y18.876 Z-9.666
X11.914 Y18.757 Z-9.67
X11.937 Y18.637 Z-9.675
X11.961 Y18.518 Z-9.679
X11.977 Y18.397 Z-9.683
X11.985 Y18.275 Z-9.687
X11.993 Y18.153 Z-9.692
X12 Y18.031 Z-9.696
Y17.909 Z-9.7
Y17.787 Z-9.705
Y17.665 Z-9.709
Y17.543 Z-9.713
Y17.421 Z-9.717
Y17.299 Z-9.722
Y17.177 Z-9.726
Y17.055 Z-9.73
Y16.933 Z-9.734
Y16.811 Z-9.739
Y16.689 Z-9.743
Y16.567 Z-9.747
Y16.445 Z-9.751
Y16.323 Z-9.756
Y16.201 Z-9.76
Y16.079 Z-9.764
Y15.957 Z-9.768
Y15.835 Z-9.773
Y15.713 Z-9.777
Y15.591 Z-9.781
Y15.469 Z-9.785
Y15.347 Z-9.79
Y15.225 Z-9.794
Y15.103 Z-9.798
Y14.981 Z-9.802
Y14.615 Z-9.815
Y14.493 Z-9.819
Y14.371 Z-9.824
Y14.249 Z-9.828
Y14.127 Z-9.832
Y14.005 Z-9.836
Y13.883 Z-9.84
Y13.761 Z-9.844
Y13.639 Z-9.848
Y13.517 Z-9.852
Y13.395 Z-9.856
Y13.273 Z-9.859
Y13.151 Z-9.863
Y13.029 Z-9.867
Y12.907 Z-9.871
Y12.785 Z-9.874
Y12.663 Z-9.878
Y12.541 Z-9.881
Y12.419 Z-9.885
Y12.297 Z-9.889
Y12.175 Z-9.892
Y12.053 Z-9.895
Y11.931 Z-9.899
Y11.809 Z-9.902
Y11.687 Z-9.905
Y11.565 Z-9.909
Y11.443 Z-9.912
Y11.321 Z-9.915
Y11.199 Z-9.918
Y11.077 Z-9.921
Y10.955 Z-9.924
Y10.833 Z-9.927
Y10.711 Z-9.93
Y10.589 Z-9.933
Y10.467 Z-9.935
Y10.345 Z-9.938
Y10.223 Z-9.941
Y10.101 Z-9.944
Y9.979 Z-9.946
Y9.857 Z-9.949
Y9.735 Z-9.951
Y9.491 Z-9.956
Y9.247 Z-9.96
Y9.003 Z-9.965
Y8.759 Z-9.969
Y8.515 Z-9.973
Y8.271 Z-9.976
Y8.027 Z-9.98
Y7.783 Z-9.983
Y7.539 Z-9.986
Y7.295 Z-9.988
Y7.051 Z-9.991
Y6.807 Z-9.993
Y6.563 Z-9.995
Y6.319 Z-9.996
Y6.075 Z-9.998
Y5.831 Z-9.999
Y5.587
Y5.343 Z-10
Y5.101
Y-17.914
X11.999 Y-18.052
X11.991 Y-18.19
X11.982 Y-18.329
X11.969 Y-18.467
X11.944 Y-18.605
X11.916 Y-18.744
X11.887 Y-18.882
X11.876 Y-18.921
X11.845 Y-19.02
X11.798 Y-19.159
X11.75 Y-19.297
X11.738 Y-19.328
X11.69 Y-19.435
X11.6 Y-19.617
X11.552 Y-19.712
X11.513 Y-19.781
X11.468 Y-19.85
X11.376 Y-19.989
X11.324 Y-20.065
X11.28 Y-20.127
X11.186 Y-20.239
X11.042 Y-20.404
X10.98 Y-20.47
X10.91 Y-20.536
X10.903 Y-20.542
X10.746 Y-20.68
X10.634 Y-20.774
X10.573 Y-20.819
X10.495 Y-20.871
X10.357 Y-20.963
X10.288 Y-21.008
X10.219 Y-21.048
X10.127 Y-21.095
X9.943 Y-21.186
X9.839 Y-21.234
X9.805 Y-21.247
X9.667 Y-21.296
X9.529 Y-21.342
X9.438 Y-21.372
X9.391 Y-21.385
X9.253 Y-21.415
X9.115 Y-21.442
X8.976 Y-21.467
X8.838 Y-21.481
X8.7 Y-21.49
X8.562 Y-21.499
X8.424 Y-21.5
X-8.424
X-8.562 Y-21.499
X-8.7 Y-21.49
X-8.838 Y-21.481
X-8.976 Y-21.467
X-9.115 Y-21.442
X-9.253 Y-21.415
X-9.391 Y-21.385
X-9.438 Y-21.372
X-9.529 Y-21.342
X-9.667 Y-21.296
X-9.805 Y-21.247
X-9.839 Y-21.234
X-9.943 Y-21.186
X-10.127 Y-21.095
X-10.219 Y-21.048
X-10.288 Y-21.008
X-10.357 Y-20.963
X-10.495 Y-20.871
X-10.573 Y-20.819
X-10.634 Y-20.774
X-10.746 Y-20.68
X-10.903 Y-20.542
X-10.91 Y-20.536
X-10.98 Y-20.47
X-11.042 Y-20.404
X-11.186 Y-20.239
X-11.28 Y-20.127
X-11.324 Y-20.065
X-11.376 Y-19.989
X-11.468 Y-19.85
X-11.513 Y-19.781
X-11.552 Y-19.712
X-11.6 Y-19.617
X-11.69 Y-19.435
X-11.738 Y-19.328
X-11.75 Y-19.297
X-11.798 Y-19.159
X-11.845 Y-19.02
X-11.876 Y-18.921
X-11.887 Y-18.882
X-11.916 Y-18.744
X-11.944 Y-18.605
X-11.969 Y-18.467
X-11.982 Y-18.329
X-11.991 Y-18.19
X-11.999 Y-18.052
X-12 Y-17.914
Y17.914
X-11.999 Y18.052
X-11.991 Y18.19
X-11.982 Y18.329
X-11.969 Y18.467
X-11.944 Y18.605
X-11.916 Y18.744
X-11.887 Y18.882
X-11.876 Y18.921
X-11.845 Y19.02
X-11.798 Y19.159
X-11.75 Y19.297
X-11.738 Y19.328
X-11.69 Y19.435
X-11.6 Y19.617
X-11.552 Y19.712
X-11.513 Y19.781
X-11.468 Y19.85
X-11.376 Y19.989
X-11.324 Y20.065
X-11.28 Y20.127
X-11.186 Y20.239
X-11.042 Y20.404
X-10.98 Y20.47
X-10.91 Y20.536
X-10.903 Y20.542
X-10.746 Y20.68
X-10.634 Y20.774
X-10.573 Y20.819
X-10.495 Y20.871
X-10.357 Y20.963
X-10.288 Y21.008
X-10.219 Y21.048
X-10.128 Y21.095
X-10.127
X-9.943 Y21.186
X-9.839 Y21.234
X-9.805 Y21.247
X-9.667 Y21.296
X-9.529 Y21.342
X-9.438 Y21.372
X-9.391 Y21.385
X-9.253 Y21.414
X-9.115 Y21.442
X-8.976 Y21.467
X-8.838 Y21.481
X-8.7 Y21.49
X-8.562 Y21.499
X-8.424 Y21.5
X8.424
X8.562 Y21.499
X8.7 Y21.49
X8.838 Y21.481
X8.976 Y21.467
X9.115 Y21.442
X9.253 Y21.414
X9.391 Y21.385
X9.438 Y21.372
X9.529 Y21.342
X9.667 Y21.296
X9.805 Y21.247
X9.839 Y21.234
X9.943 Y21.186
X10.127 Y21.095
X10.219 Y21.048
X10.288 Y21.008
X10.357 Y20.963
X10.495 Y20.871
X10.573 Y20.819
X10.634 Y20.774
X10.746 Y20.68
X10.903 Y20.542
X10.91 Y20.536
X10.98 Y20.47
X11.042 Y20.404
X11.186 Y20.239
X11.28 Y20.127
X11.324 Y20.065
X11.376 Y19.989
X11.468 Y19.85
X11.513 Y19.781
X11.552 Y19.712
X11.6 Y19.617
X11.69 Y19.435
X11.738 Y19.328
X11.75 Y19.297
X11.798 Y19.159
X11.845 Y19.02
X11.876 Y18.921
X11.887 Y18.882
X11.916 Y18.744
X11.944 Y18.605
X11.969 Y18.467
X11.982 Y18.329
X11.991 Y18.19
X11.999 Y18.052
X12 Y17.914
Y5.101
Y4.857
Y4.613 Z-10.001
Y4.369
Y4.125 Z-10.002
Y3.881 Z-10.004
Y3.637 Z-10.005
Y3.393 Z-10.007
Y3.149 Z-10.009
Y2.905 Z-10.012
Y2.661 Z-10.014
Y2.417 Z-10.017
Y2.173 Z-10.02
Y1.929 Z-10.024
Y1.685 Z-10.027
Y1.441 Z-10.031
Y1.197 Z-10.035
Y0.953 Z-10.04
Y0.709 Z-10.044
Y0.465 Z-10.049
Y0.343 Z-10.051
Y0.221 Z-10.054
Y0.099 Z-10.057
Y-0.023 Z-10.059
Y-0.145 Z-10.062
Y-0.267 Z-10.065
Y-0.389 Z-10.067
Y-0.511 Z-10.07
Y-0.633 Z-10.073
Y-0.755 Z-10.076
Y-0.877 Z-10.079
Y-0.999 Z-10.082
Y-1.121 Z-10.085
Y-1.243 Z-10.088
Y-1.365 Z-10.091
Y-1.487 Z-10.095
Y-1.609 Z-10.098
Y-1.731 Z-10.101
Y-1.853 Z-10.105
Y-1.975 Z-10.108
Y-2.097 Z-10.112
Y-2.219 Z-10.115
Y-2.341 Z-10.119
Y-2.463 Z-10.122
Y-2.585 Z-10.126
Y-2.707 Z-10.129
Y-2.829 Z-10.133
Y-2.951 Z-10.137
Y-3.073 Z-10.141
Y-3.195 Z-10.145
Y-3.317 Z-10.148
Y-3.439 Z-10.152
Y-3.561 Z-10.156
Y-3.683 Z-10.16
Y-3.805 Z-10.164
Y-3.927 Z-10.168
Y-4.049 Z-10.172
Y-4.171 Z-10.177
Y-4.293 Z-10.181
Y-4.415 Z-10.185
Y-4.537 Z-10.189
Y-5.758 Z-10.232
Y-5.88 Z-10.236
Y-6.002 Z-10.24
Y-6.124 Z-10.244
Y-6.246 Z-10.249
Y-6.368 Z-10.253
Y-6.49 Z-10.257
Y-6.612 Z-10.262
Y-6.734 Z-10.266
Y-6.856 Z-10.27
Y-6.978 Z-10.274
Y-7.1 Z-10.279
Y-7.222 Z-10.283
Y-7.344 Z-10.287
Y-7.466 Z-10.291
Y-7.588 Z-10.296
Y-7.71 Z-10.3
Y-7.832 Z-10.304
Y-8.076 Z-10.313
Y-8.442 Z-10.325
Y-8.808 Z-10.338
Y-9.174 Z-10.351
Y-9.54 Z-10.364
Y-9.906 Z-10.377
Y-10.272 Z-10.389
Y-10.882 Z-10.411
Y-11.492 Z-10.432
Y-12.346 Z-10.462
Y-13.81 Z-10.513
Y-17.958 Z-10.658
X11.998 Y-18.08 Z-10.662
X11.99 Y-18.202 Z-10.666
X11.982 Y-18.324 Z-10.67
X11.972 Y-18.445 Z-10.675
X11.952 Y-18.566 Z-10.679
X11.904 Y-18.805 Z-10.688
X11.876 Y-18.924 Z-10.692
X11.839 Y-19.04 Z-10.696
X11.799 Y-19.155 Z-10.7
X11.76 Y-19.271 Z-10.705
X11.714 Y-19.384 Z-10.709
X11.661 Y-19.494 Z-10.713
X11.607 Y-19.603 Z-10.717
X11.552 Y-19.712 Z-10.722
X11.49 Y-19.817 Z-10.726
X11.422 Y-19.919 Z-10.73
X11.355 Y-20.02 Z-10.734
X11.285 Y-20.12 Z-10.739
X11.208 Y-20.214 Z-10.743
X11.127 Y-20.306 Z-10.747
X11.047 Y-20.398 Z-10.751
X10.963 Y-20.487 Z-10.756
X10.873 Y-20.569 Z-10.76
X10.781 Y-20.649 Z-10.764
X10.689 Y-20.73 Z-10.768
X10.593 Y-20.805 Z-10.773
X10.492 Y-20.873 Z-10.777
X10.391 Y-20.941 Z-10.781
X10.289 Y-21.008 Z-10.785
X10.182 Y-21.068 Z-10.79
X10.073 Y-21.122 Z-10.794
X9.964 Y-21.176 Z-10.798
X9.853 Y-21.228 Z-10.803
X9.739 Y-21.271 Z-10.807
X9.624 Y-21.31 Z-10.811
X9.508 Y-21.349 Z-10.815
X9.391 Y-21.385 Z-10.819
X9.272 Y-21.411 Z-10.824
X9.152 Y-21.434 Z-10.828
X9.033 Y-21.458 Z-10.832
X8.912 Y-21.475 Z-10.836
X8.79 Y-21.484 Z-10.84
X8.668 Y-21.492 Z-10.844
X8.547 Y-21.499 Z-10.848
X8.425 Y-21.5 Z-10.852
X8.303 Z-10.856
X8.181 Z-10.859
X8.059 Z-10.863
X7.937 Z-10.867
X7.815 Z-10.871
X7.693 Z-10.874
X7.571 Z-10.878
X7.449 Z-10.881
X7.327 Z-10.885
X7.205 Z-10.889
X7.083 Z-10.892
X6.961 Z-10.895
X6.839 Z-10.899
X6.717 Z-10.902
X6.595 Z-10.905
X6.473 Z-10.909
X6.35 Z-10.912
X6.228 Z-10.915
X6.106 Z-10.918
X5.984 Z-10.921
X5.862 Z-10.924
X5.74 Z-10.927
X5.618 Z-10.93
X5.496 Z-10.933
X5.374 Z-10.935
X5.252 Z-10.938
X5.13 Z-10.941
X5.008 Z-10.944
X4.886 Z-10.946
X4.764 Z-10.949
X4.642 Z-10.951
X4.398 Z-10.956
X4.154 Z-10.96
X3.91 Z-10.965
X3.666 Z-10.969
X3.422 Z-10.973
X3.178 Z-10.976
X2.934 Z-10.98
X2.69 Z-10.983
X2.446 Z-10.986
X2.202 Z-10.988
X1.958 Z-10.991
X1.714 Z-10.993
X1.47 Z-10.995
X1.226 Z-10.996
X0.982 Z-10.998
X0.738 Z-10.999
X0.494
X0.25 Z-11
X0.009
X-8.424
X-8.562 Y-21.499
X-8.7 Y-21.49
X-8.838 Y-21.481
X-8.976 Y-21.467
X-9.115 Y-21.442
X-9.253 Y-21.415
X-9.391 Y-21.385
X-9.438 Y-21.372
X-9.529 Y-21.342
X-9.667 Y-21.296
X-9.805 Y-21.247
X-9.839 Y-21.234
X-9.943 Y-21.186
X-10.127 Y-21.095
X-10.219 Y-21.048
X-10.288 Y-21.008
X-10.357 Y-20.963
X-10.495 Y-20.871
X-10.573 Y-20.819
X-10.634 Y-20.774
X-10.746 Y-20.68
X-10.903 Y-20.542
X-10.91 Y-20.536
X-10.98 Y-20.47
X-11.042 Y-20.404
X-11.186 Y-20.239
X-11.28 Y-20.127
X-11.324 Y-20.065
X-11.376 Y-19.989
X-11.468 Y-19.85
X-11.513 Y-19.781
X-11.552 Y-19.712
X-11.6 Y-19.617
X-11.69 Y-19.435
X-11.738 Y-19.328
X-11.75 Y-19.297
X-11.798 Y-19.159
X-11.845 Y-19.02
X-11.876 Y-18.921
X-11.887 Y-18.882
X-11.916 Y-18.744
X-11.944 Y-18.605
X-11.969 Y-18.467
X-11.982 Y-18.329
X-11.991 Y-18.19
X-11.999 Y-18.052
X-12 Y-17.914
Y17.914
X-11.999 Y18.052
X-11.991 Y18.19
X-11.982 Y18.329
X-11.969 Y18.467
X-11.944 Y18.605
X-11.916 Y18.744
X-11.887 Y18.882
X-11.876 Y18.921
X-11.845 Y19.02
X-11.798 Y19.159
X-11.75 Y19.297
X-11.738 Y19.328
X-11.69 Y19.435
X-11.6 Y19.617
X-11.552 Y19.712
X-11.513 Y19.781
X-11.468 Y19.85
X-11.376 Y19.989
X-11.324 Y20.065
X-11.28 Y20.127
X-11.186 Y20.239
X-11.042 Y20.404
X-10.98 Y20.47
X-10.91 Y20.536
X-10.903 Y20.542
X-10.746 Y20.68
X-10.634 Y20.774
X-10.573 Y20.819
X-10.495 Y20.871
X-10.357 Y20.963
X-10.288 Y21.008
X-10.219 Y21.048
X-10.127 Y21.095
X-9.943 Y21.186
X-9.839 Y21.234
X-9.805 Y21.247
X-9.667 Y21.296
X-9.529 Y21.342
X-9.438 Y21.372
X-9.391 Y21.385
X-9.253 Y21.414
X-9.115 Y21.442
X-8.976 Y21.467
X-8.838 Y21.481
X-8.7 Y21.49
X-8.562 Y21.499
X-8.424 Y21.5
X8.424
X8.562 Y21.499
X8.7 Y21.49
X8.838 Y21.481
X8.976 Y21.467
X9.115 Y21.442
X9.253 Y21.414
X9.391 Y21.385
X9.438 Y21.372
X9.529 Y21.342
X9.667 Y21.296
X9.805 Y21.247
X9.839 Y21.234
X9.943 Y21.186
X10.127 Y21.095
X10.219 Y21.048
X10.288 Y21.008
X10.357 Y20.963
X10.495 Y20.871
X10.573 Y20.819
X10.634 Y20.774
X10.746 Y20.68
X10.903 Y20.542
X10.91 Y20.536
X10.98 Y20.47
X11.042 Y20.404
X11.186 Y20.239
X11.28 Y20.127
X11.324 Y20.065
X11.376 Y19.989
X11.468 Y19.85
X11.513 Y19.781
X11.552 Y19.712
X11.6 Y19.617
X11.69 Y19.435
X11.738 Y19.328
X11.75 Y19.297
X11.798 Y19.159
X11.845 Y19.02
X11.876 Y18.921
X11.887 Y18.882
X11.916 Y18.744
X11.944 Y18.605
X11.969 Y18.467
X11.982 Y18.329
X11.991 Y18.19
X11.999 Y18.052
X12 Y17.914
Y-17.914
X11.999 Y-18.052
X11.991 Y-18.19
X11.982 Y-18.329
X11.969 Y-18.467
X11.944 Y-18.605
X11.916 Y-18.744
X11.887 Y-18.882
X11.876 Y-18.921
X11.845 Y-19.02
X11.798 Y-19.159
X11.75 Y-19.297
X11.738 Y-19.328
X11.69 Y-19.435
X11.6 Y-19.617
X11.552 Y-19.712
X11.513 Y-19.781
X11.468 Y-19.85
X11.376 Y-19.989
X11.324 Y-20.065
X11.28 Y-20.127
X11.186 Y-20.239
X11.042 Y-20.404
X10.98 Y-20.47
X10.91 Y-20.536
X10.903 Y-20.542
X10.746 Y-20.68
X10.634 Y-20.774
X10.573 Y-20.819
X10.495 Y-20.871
X10.357 Y-20.963
X10.288 Y-21.008
X10.219 Y-21.048
X10.127 Y-21.095
X9.943 Y-21.186
X9.839 Y-21.234
X9.805 Y-21.247
X9.667 Y-21.296
X9.529 Y-21.342
X9.438 Y-21.372
X9.391 Y-21.385
X9.253 Y-21.415
X9.115 Y-21.442
X8.976 Y-21.467
X8.838 Y-21.481
X8.7 Y-21.49
X8.562 Y-21.499
X8.424 Y-21.5
X0.009
X-0.235
X-0.479 Z-11.001
X-0.723
X-0.967 Z-11.002
X-1.211 Z-11.004
X-1.455 Z-11.005
X-1.699 Z-11.007
X-1.943 Z-11.009
X-2.187 Z-11.012
X-2.431 Z-11.014
X-2.675 Z-11.017
X-2.919 Z-11.02
X-3.163 Z-11.024
X-3.407 Z-11.027
X-3.651 Z-11.031
X-3.895 Z-11.035
X-4.139 Z-11.04
X-4.383 Z-11.044
X-4.627 Z-11.049
X-4.749 Z-11.051
X-4.871 Z-11.054
X-4.993 Z-11.057
X-5.115 Z-11.059
X-5.237 Z-11.062
X-5.359 Z-11.065
X-5.481 Z-11.067
X-5.603 Z-11.07
X-5.725 Z-11.073
X-5.847 Z-11.076
X-5.969 Z-11.079
X-6.092 Z-11.082
X-6.214 Z-11.085
X-6.336 Z-11.088
X-6.458 Z-11.091
X-6.58 Z-11.095
X-6.702 Z-11.098
X-6.824 Z-11.101
X-6.946 Z-11.105
X-7.068 Z-11.108
X-7.19 Z-11.112
X-7.312 Z-11.115
X-7.434 Z-11.119
X-7.556 Z-11.122
X-7.678 Z-11.126
X-7.8 Z-11.129
X-7.922 Z-11.133
X-8.044 Z-11.137
X-8.166 Z-11.141
X-8.288 Z-11.145
X-8.41 Z-11.148
X-8.532 Z-11.152
X-8.653 Y-21.493 Z-11.156
X-8.775 Y-21.485 Z-11.16
X-8.897 Y-21.477 Z-11.164
X-9.018 Y-21.461 Z-11.168
X-9.138 Y-21.437 Z-11.172
X-9.257 Y-21.414 Z-11.177
X-9.377 Y-21.388 Z-11.181
X-9.494 Y-21.354 Z-11.185
X-9.609 Y-21.315 Z-11.189
X-9.725 Y-21.276 Z-11.193
X-9.839 Y-21.234 Z-11.198
X-9.95 Y-21.183 Z-11.202
X-10.06 Y-21.129 Z-11.206
X-10.169 Y-21.075 Z-11.21
X-10.276 Y-21.016 Z-11.215
X-10.378 Y-20.949 Z-11.219
X-10.48 Y-20.882 Z-11.223
X-10.581 Y-20.813 Z-11.227
X-10.678 Y-20.739 Z-11.232
X-10.77 Y-20.659 Z-11.236
X-10.861 Y-20.579 Z-11.24
X-10.952 Y-20.497 Z-11.244
X-11.037 Y-20.409 Z-11.249
X-11.117 Y-20.317 Z-11.253
X-11.198 Y-20.226 Z-11.257
X-11.276 Y-20.132 Z-11.261
X-11.346 Y-20.032 Z-11.266
X-11.414 Y-19.931 Z-11.27
X-11.482 Y-19.83 Z-11.274
X-11.545 Y-19.725 Z-11.279
X-11.6 Y-19.617 Z-11.283
X-11.654 Y-19.507 Z-11.287
X-11.708 Y-19.398 Z-11.291
X-11.755 Y-19.285 Z-11.296
X-11.795 Y-19.17 Z-11.3
X-11.834 Y-19.054 Z-11.304
X-11.872 Y-18.938 Z-11.308
X-11.901 Y-18.82 Z-11.313
X-11.925 Y-18.7 Z-11.317
X-11.949 Y-18.58 Z-11.321
X-11.97 Y-18.46 Z-11.325
X-11.981 Y-18.339 Z-11.33
X-11.997 Y-18.095 Z-11.338
X-12 Y-17.973 Z-11.342
Y-17.607 Z-11.355
Y-17.241 Z-11.368
Y-16.875 Z-11.381
Y-16.509 Z-11.394
Y-15.899 Z-11.415
Y-15.289 Z-11.436
Y-14.435 Z-11.466
Y-12.483 Z-11.534
Y-11.141 Z-11.581
Y-10.531 Z-11.602
Y-9.921 Z-11.624
Y-9.555 Z-11.636
Y-9.189 Z-11.649
Y-8.823 Z-11.662
Y-8.457 Z-11.675
Y-8.091 Z-11.687
Y-7.725 Z-11.7
Y-7.603 Z-11.705
Y-7.481 Z-11.709
Y-7.359 Z-11.713
Y-7.237 Z-11.717
Y-7.115 Z-11.722
Y-6.993 Z-11.726
Y-6.871 Z-11.73
Y-6.749 Z-11.734
Y-6.627 Z-11.739
Y-6.505 Z-11.743
Y-6.383 Z-11.747
Y-6.261 Z-11.751
Y-6.139 Z-11.756
Y-6.016 Z-11.76
Y-5.894 Z-11.764
Y-5.772 Z-11.768
Y-5.65 Z-11.773
Y-5.528 Z-11.777
Y-5.406 Z-11.781
Y-5.284 Z-11.785
Y-5.162 Z-11.79
Y-5.04 Z-11.794
Y-4.918 Z-11.798
Y-4.796 Z-11.803
Y-4.43 Z-11.815
Y-4.308 Z-11.819
Y-4.186 Z-11.824
Y-4.064 Z-11.828
Y-3.942 Z-11.832
Y-3.82 Z-11.836
Y-3.698 Z-11.84
Y-3.576 Z-11.844
Y-3.454 Z-11.848
Y-3.332 Z-11.852
Y-3.21 Z-11.856
Y-3.088 Z-11.859
Y-2.966 Z-11.863
Y-2.844 Z-11.867
Y-2.722 Z-11.871
Y-2.6 Z-11.874
Y-2.478 Z-11.878
Y-2.356 Z-11.881
Y-2.234 Z-11.885
Y-2.112 Z-11.889
Y-1.99 Z-11.892
Y-1.868 Z-11.895
Y-1.746 Z-11.899
Y-1.624 Z-11.902
Y-1.502 Z-11.905
Y-1.38 Z-11.909
Y-1.258 Z-11.912
Y-1.136 Z-11.915
Y-1.014 Z-11.918
Y-0.892 Z-11.921
Y-0.77 Z-11.924
Y-0.648 Z-11.927
Y-0.526 Z-11.93
Y-0.404 Z-11.933
Y-0.282 Z-11.935
Y-0.16 Z-11.938
Y-0.038 Z-11.941
Y0.084 Z-11.944
Y0.206 Z-11.946
Y0.328 Z-11.949
Y0.45 Z-11.951
Y0.694 Z-11.956
Y0.938 Z-11.96
Y1.182 Z-11.965
Y1.426 Z-11.969
Y1.67 Z-11.973
Y1.914 Z-11.976
Y2.158 Z-11.98
Y2.402 Z-11.983
Y2.646 Z-11.986
Y2.89 Z-11.988
Y3.134 Z-11.991
Y3.378 Z-11.993
Y3.622 Z-11.995
Y3.866 Z-11.996
Y4.11 Z-11.998
Y4.354 Z-11.999
Y4.598
Y4.842 Z-12
Y5.083
Y17.914
X-11.999 Y18.052
X-11.991 Y18.19
X-11.982 Y18.329
X-11.969 Y18.467
X-11.944 Y18.605
X-11.916 Y18.744
X-11.887 Y18.882
X-11.876 Y18.921
X-11.845 Y19.02
X-11.798 Y19.159
X-11.75 Y19.297
X-11.738 Y19.328
X-11.69 Y19.435
X-11.6 Y19.617
X-11.552 Y19.712
X-11.513 Y19.781
X-11.468 Y19.85
X-11.376 Y19.989
X-11.324 Y20.065
X-11.28 Y20.127
X-11.186 Y20.239
X-11.042 Y20.404
X-10.98 Y20.47
X-10.91 Y20.536
X-10.903 Y20.542
X-10.746 Y20.68
X-10.634 Y20.774
X-10.573 Y20.819
X-10.495 Y20.871
X-10.357 Y20.963
X-10.288 Y21.008
X-10.219 Y21.048
X-10.127 Y21.095
X-9.943 Y21.186
X-9.839 Y21.234
X-9.805 Y21.247
X-9.667 Y21.296
X-9.529 Y21.342
X-9.438 Y21.372
X-9.391 Y21.385
X-9.253 Y21.414
X-9.115 Y21.442
X-8.976 Y21.467
X-8.838 Y21.481
X-8.7 Y21.49
X-8.562 Y21.499
X-8.424 Y21.5
X8.424
X8.562 Y21.499
X8.7 Y21.49
X8.838 Y21.481
X8.976 Y21.467
X9.115 Y21.442
X9.253 Y21.414
X9.391 Y21.385
X9.438 Y21.372
X9.529 Y21.342
X9.667 Y21.296
X9.805 Y21.247
X9.839 Y21.234
X9.943 Y21.186
X10.127 Y21.095
X10.219 Y21.048
X10.288 Y21.008
X10.357 Y20.963
X10.495 Y20.871
X10.573 Y20.819
X10.634 Y20.774
X10.746 Y20.68
X10.903 Y20.542
X10.91 Y20.536
X10.98 Y20.47
X11.042 Y20.404
X11.186 Y20.239
X11.28 Y20.127
X11.324 Y20.065
X11.376 Y19.989
X11.468 Y19.85
X11.513 Y19.781
X11.552 Y19.712
X11.6 Y19.617
X11.69 Y19.435
X11.738 Y19.328
X11.75 Y19.297
X11.798 Y19.159
X11.845 Y19.02
X11.876 Y18.921
X11.887 Y18.882
X11.916 Y18.744
X11.944 Y18.605
X11.969 Y18.467
X11.982 Y18.329
X11.991 Y18.19
X11.999 Y18.052
X12 Y17.914
Y-17.914
X11.999 Y-18.052
X11.991 Y-18.19
X11.982 Y-18.329
X11.969 Y-18.467
X11.944 Y-18.605
X11.916 Y-18.744
X11.887 Y-18.882
X11.876 Y-18.921
X11.845 Y-19.02
X11.798 Y-19.159
X11.75 Y-19.297
X11.738 Y-19.328
X11.69 Y-19.435
X11.6 Y-19.617
X11.552 Y-19.712
X11.513 Y-19.781
X11.468 Y-19.85
X11.376 Y-19.989
X11.324 Y-20.065
X11.28 Y-20.127
X11.186 Y-20.239
X11.042 Y-20.404
X10.98 Y-20.47
X10.91 Y-20.536
X10.903 Y-20.542
X10.746 Y-20.68
X10.634 Y-20.774
X10.573 Y-20.819
X10.495 Y-20.871
X10.357 Y-20.963
X10.288 Y-21.008
X10.219 Y-21.048
X10.127 Y-21.095
X9.943 Y-21.186
X9.839 Y-21.234
X9.805 Y-21.247
X9.667 Y-21.296
X9.529 Y-21.342
X9.438 Y-21.372
X9.391 Y-21.385
X9.253 Y-21.415
X9.115 Y-21.442
X8.976 Y-21.467
X8.838 Y-21.481
X8.7 Y-21.49
X8.562 Y-21.499
X8.424 Y-21.5
X-8.424
X-8.562 Y-21.499
X-8.7 Y-21.49
X-8.838 Y-21.481
X-8.976 Y-21.467
X-9.115 Y-21.442
X-9.253 Y-21.415
X-9.391 Y-21.385
X-9.438 Y-21.372
X-9.529 Y-21.342
X-9.667 Y-21.296
X-9.805 Y-21.247
X-9.839 Y-21.234
X-9.943 Y-21.186
X-10.127 Y-21.095
X-10.219 Y-21.048
X-10.288 Y-21.008
X-10.357 Y-20.963
X-10.495 Y-20.871
X-10.573 Y-20.819
X-10.634 Y-20.774
X-10.746 Y-20.68
X-10.903 Y-20.542
X-10.91 Y-20.536
X-10.98 Y-20.47
X-11.042 Y-20.404
X-11.186 Y-20.239
X-11.28 Y-20.127
X-11.324 Y-20.065
X-11.376 Y-19.989
X-11.468 Y-19.85
X-11.513 Y-19.781
X-11.552 Y-19.712
X-11.6 Y-19.617
X-11.69 Y-19.435
X-11.738 Y-19.328
X-11.75 Y-19.297
X-11.798 Y-19.159
X-11.845 Y-19.02
X-11.876 Y-18.921
X-11.887 Y-18.882
X-11.916 Y-18.744
X-11.944 Y-18.605
X-11.969 Y-18.467
X-11.982 Y-18.329
X-11.991 Y-18.19
X-11.999 Y-18.052
X-12 Y-17.914
Y5.083
G3 X-12.3 Y5.383 I-0.3
G18 G3 X-12.6 Z-11.7 K0.3
G0 Z2
G17
M9
G28 G91 Z0
G28 X0 Y0
M30
%
