%
(4)
(T1  D=2 CR=0 TAPER=118deg - ZMIN=-10 - drill)
G90 G94
G17
G21
G28 G91 Z0
G90

(Screw Hole1)
M9
T1 M6
S8000 M3
G54
M9
G0 X0 Y10
Z2
Z3.5
Z0.5
G1 Z-3.5 F33
G0 Z3.5
Z-1.5
G1 Z-5.5 F33
G0 Z3.5
Z-3.5
G1 Z-7.5 F33
G0 Z3.5
Z-5.5
G1 Z-9.5 F33
G0 Z3.5
Z-7.5
G1 Z-10 F33
G0 Z3.5
Y-10
Z0.5
G1 Z-3.5 F33
G0 Z3.5
Z-1.5
G1 Z-5.5 F33
G0 Z3.5
Z-3.5
G1 Z-7.5 F33
G0 Z3.5
Z-5.5
G1 Z-9.5 F33
G0 Z3.5
Z-7.5
G1 Z-10 F33
G0 Z3.5
Z2
M9
G28 G91 Z0
G28 X0 Y0
M30
%
