%
(5)
(T2  D=3 CR=0 - ZMIN=-1 - flat end mill)
G90 G94
G17
G21
G28 G91 Z0
G90

(Screw CounterSink)
M9
T2 M6
(Part of a 10 Pack Carbide)
S5000 M3
G54
M9
G0 X-0.719 Y-9.917
Z2
Z1.298
G1 Z-0.7 F1000
X-0.726 Y-9.919 Z-0.767
X-0.747 Y-9.926 Z-0.83
X-0.781 Y-9.937 Z-0.887
X-0.826 Y-9.951 Z-0.935
X-0.88 Y-9.969 Z-0.97
X-0.941 Y-9.988 Z-0.992
X-1.004 Y-10.008 Z-1
X-1.943 Y-10.308
G3 X-2.138 Y-10.685 I0.091 J-0.286
G1 X-2.104 Y-10.791
X-2.103 Y-10.794
X-2.012 Y-11.003
X-2.011 Y-11.005
X-1.897 Y-11.206
X-1.896 Y-11.207
X-1.764 Y-11.394
X-1.762 Y-11.396
X-1.61 Y-11.569
X-1.608 Y-11.571
X-1.442 Y-11.725
X-1.44 Y-11.727
X-1.255 Y-11.865
X-1.254 Y-11.866
X-1.058 Y-11.984
X-1.056 Y-11.985
X-0.847 Y-12.082
X-0.845 Y-12.083
X-0.629 Y-12.158
X-0.627 Y-12.159
X-0.403 Y-12.212
X-0.175 Y-12.241
X-0.172
X0.056 Y-12.247
X0.058
X0.287 Y-12.23
X0.289 Y-12.229
X0.515 Y-12.188
X0.517
X0.738 Y-12.123
X0.74
X0.953 Y-12.036
X0.955 Y-12.035
X1.157 Y-11.927
X1.159 Y-11.926
X1.349 Y-11.798
X1.351 Y-11.796
X1.525 Y-11.651
X1.527 Y-11.65
X1.688 Y-11.484
X1.69 Y-11.482
X1.832 Y-11.303
X1.833 Y-11.301
X1.956 Y-11.107
X1.957 Y-11.105
X2.059 Y-10.902
X2.06 Y-10.899
X2.141 Y-10.685
X2.142 Y-10.683
X2.2 Y-10.461
X2.201 Y-10.459
X2.236 Y-10.232
Y-10.23
X2.248 Y-10.001
Y-9.999
X2.236 Y-9.77
Y-9.768
X2.201 Y-9.541
X2.2 Y-9.539
X2.142 Y-9.317
X2.141 Y-9.315
X2.06 Y-9.101
X2.059 Y-9.099
X1.957 Y-8.894
X1.956 Y-8.891
X1.834 Y-8.7
X1.832 Y-8.697
X1.69 Y-8.518
X1.688 Y-8.516
X1.527 Y-8.35
X1.525 Y-8.349
X1.35 Y-8.203
X1.349 Y-8.201
X1.157 Y-8.073
X1.155 Y-8.072
X0.954 Y-7.964
X0.952
X0.739 Y-7.877
X0.737 Y-7.876
X0.517 Y-7.812
X0.515
X0.289 Y-7.771
X0.287 Y-7.77
X0.058 Y-7.753
X0.056
X-0.172 Y-7.759
X-0.175
X-0.403 Y-7.788
X-0.628 Y-7.842
X-0.63
X-0.845 Y-7.917
X-0.847 Y-7.918
X-1.056 Y-8.016
X-1.058 Y-8.017
X-1.254 Y-8.134
X-1.255 Y-8.135
X-1.44 Y-8.274
X-1.442 Y-8.276
X-1.608 Y-8.429
X-1.61 Y-8.432
X-1.763 Y-8.605
X-1.895 Y-8.792
X-1.897 Y-8.794
X-2.01 Y-8.994
X-2.011 Y-8.996
X-2.103 Y-9.207
X-2.104 Y-9.209
X-2.174 Y-9.427
Y-9.429
X-2.221 Y-9.654
Y-9.656
X-2.245 Y-9.882
Y-9.885
Y-10.116
X-2.221 Y-10.345
Y-10.347
X-2.174 Y-10.571
Y-10.573
X-2.138 Y-10.685
G3 X-1.761 Y-10.88 I0.286 J0.091
G1 X-1.697 Y-10.859 Z-0.992
X-1.637 Y-10.84 Z-0.97
X-1.583 Y-10.823 Z-0.935
X-1.537 Y-10.808 Z-0.887
X-1.503 Y-10.797 Z-0.83
X-1.482 Y-10.791 Z-0.767
X-1.475 Y-10.788 Z-0.7
G0 Z2
X-0.351 Y9.366
Z1.299
G1 Z-0.7 F1000
Y9.358 Z-0.767
X-0.353 Y9.336 Z-0.83
X-0.356 Y9.301 Z-0.887
X-0.359 Y9.253 Z-0.935
X-0.364 Y9.197 Z-0.97
X-0.369 Y9.133 Z-0.992
X-0.374 Y9.067 Z-1
X-0.45 Y8.081
G3 X-0.175 Y7.759 I0.299 J-0.023
G1 X-0.172
X0.056 Y7.753
X0.058
X0.288 Y7.771
X0.289
X0.515 Y7.812
X0.517
X0.737 Y7.876
X0.739 Y7.877
X0.953 Y7.964
X0.955 Y7.965
X1.157 Y8.072
X1.158 Y8.073
X1.349 Y8.202
X1.35 Y8.203
X1.527 Y8.35
X1.528 Y8.351
X1.687 Y8.515
X1.689 Y8.516
X1.831 Y8.696
X1.833 Y8.699
X1.956 Y8.892
X1.957 Y8.894
X2.059 Y9.098
X2.06 Y9.1
X2.141 Y9.315
X2.142 Y9.317
X2.2 Y9.539
X2.201 Y9.541
X2.236 Y9.767
Y9.77
X2.248 Y9.998
Y10.001
X2.236 Y10.229
Y10.232
X2.201 Y10.458
X2.2 Y10.46
X2.142 Y10.683
X2.141 Y10.685
X2.06 Y10.899
Y10.901
X1.957 Y11.106
X1.956 Y11.108
X1.833 Y11.301
X1.832 Y11.303
X1.69 Y11.483
X1.688 Y11.485
X1.528 Y11.649
X1.526 Y11.65
X1.35 Y11.797
X1.349 Y11.798
X1.158 Y11.927
X1.156 Y11.928
X0.954 Y12.036
X0.952 Y12.037
X0.739 Y12.123
X0.737 Y12.124
X0.517 Y12.188
X0.515
X0.289 Y12.229
X0.287 Y12.23
X0.058 Y12.247
X0.056
X-0.172 Y12.241
X-0.175
X-0.402 Y12.212
X-0.404 Y12.211
X-0.627 Y12.159
X-0.629 Y12.158
X-0.845 Y12.083
X-0.847 Y12.082
X-1.055 Y11.985
X-1.057 Y11.984
X-1.254 Y11.865
X-1.256 Y11.864
X-1.439 Y11.727
X-1.441 Y11.726
X-1.609 Y11.57
X-1.611 Y11.568
X-1.762 Y11.396
X-1.763 Y11.394
X-1.896 Y11.208
X-1.897 Y11.205
X-2.01 Y11.006
X-2.011 Y11.004
X-2.103 Y10.794
X-2.104 Y10.792
X-2.174 Y10.573
Y10.571
X-2.221 Y10.346
Y10.344
X-2.245 Y10.117
Y10.115
Y9.886
Y9.884
X-2.221 Y9.655
Y9.653
X-2.174 Y9.429
Y9.427
X-2.138 Y9.315
X-2.104 Y9.208
X-2.103 Y9.206
X-2.011 Y8.996
X-2.01 Y8.994
X-1.898 Y8.795
X-1.897 Y8.793
X-1.763 Y8.606
X-1.762 Y8.604
X-1.611 Y8.432
X-1.609 Y8.43
X-1.441 Y8.274
X-1.439 Y8.273
X-1.256 Y8.136
X-1.254 Y8.135
X-1.057 Y8.016
X-1.056 Y8.015
X-0.849 Y7.918
X-0.847
X-0.629 Y7.842
X-0.627 Y7.841
X-0.403 Y7.788
X-0.175 Y7.759
G3 X0.148 Y8.035 I0.023 J0.299
G1 X0.153 Y8.101 Z-0.992
X0.158 Y8.164 Z-0.97
X0.162 Y8.221 Z-0.935
X0.166 Y8.269 Z-0.887
X0.169 Y8.304 Z-0.83
X0.17 Y8.326 Z-0.767
X0.171 Y8.334 Z-0.7
G0 Z2
M9
G28 G91 Z0
G28 X0 Y0
M30
%
