(1-DRILL)
(T3  D=5. CR=0. TAPER=118DEG - ZMIN=-11. - DRILL)
G0 G90 G94 G17
G21
G53 Z0.

(DRILL1)
M5
M9
T3
M3 S5820
G54
M9
G0 X115. Y110.
Z2.
Z5.
Z2.
G1 Z-2. F582.
G0 Z5.
Z0.
G1 Z-4. F582.
G0 Z5.
Z-2.
G1 Z-6. F582.
G0 Z5.
Z-4.
G1 Z-8. F582.
G0 Z5.
Z-6.
G1 Z-10. F582.
G0 Z5.
Z-8.
G1 Z-11. F582.
G0 Z5.
X75.
Z2.
G1 Z-2. F582.
G0 Z5.
Z0.
G1 Z-4. F582.
G0 Z5.
Z-2.
G1 Z-6. F582.
G0 Z5.
Z-4.
G1 Z-8. F582.
G0 Z5.
Z-6.
G1 Z-10. F582.
G0 Z5.
Z-8.
G1 Z-11. F582.
G0 Z5.
Y70.
Z2.
G1 Z-2. F582.
G0 Z5.
Z0.
G1 Z-4. F582.
G0 Z5.
Z-2.
G1 Z-6. F582.
G0 Z5.
Z-4.
G1 Z-8. F582.
G0 Z5.
Z-6.
G1 Z-10. F582.
G0 Z5.
Z-8.
G1 Z-11. F582.
G0 Z5.
X115.
Z2.
G1 Z-2. F582.
G0 Z5.
Z0.
G1 Z-4. F582.
G0 Z5.
Z-2.
G1 Z-6. F582.
G0 Z5.
Z-4.
G1 Z-8. F582.
G0 Z5.
Z-6.
G1 Z-10. F582.
G0 Z5.
Z-8.
G1 Z-11. F582.
G0 Z5.
Y30.
Z2.
G1 Z-2. F582.
G0 Z5.
Z0.
G1 Z-4. F582.
G0 Z5.
Z-2.
G1 Z-6. F582.
G0 Z5.
Z-4.
G1 Z-8. F582.
G0 Z5.
Z-6.
G1 Z-10. F582.
G0 Z5.
Z-8.
G1 Z-11. F582.
G0 Z5.
X75.
Z2.
G1 Z-2. F582.
G0 Z5.
Z0.
G1 Z-4. F582.
G0 Z5.
Z-2.
G1 Z-6. F582.
G0 Z5.
Z-4.
G1 Z-8. F582.
G0 Z5.
Z-6.
G1 Z-10. F582.
G0 Z5.
Z-8.
G1 Z-11. F582.
G0 Z5.
Z2.

M9
G53 Z0.
M30
