(2-SLOT1)
(T2  D=3. CR=0. - ZMIN=-12. - FLAT END MILL)
G0 G90 G94 G17
G21
G53 Z0.

(CONTOUR - SLOTS1)
M5
M9
T2
(PART OF A 10 PACK CARBIDE)
M3 S18000
G54
M9
G0 X27.552 Y174.862
Z2.
Z-2.014
G1 Z-7. F500.
G3 X27.295 Y174.522 I0.04 J-0.297
G1 X27.301 Y174.481
X27.302 Y174.479
X27.363 Y174.226
X27.364 Y174.224
X27.449 Y173.979
X27.557 Y173.741
X27.558 Y173.739
X27.687 Y173.516
X27.688 Y173.514
X27.839 Y173.301
X27.841 Y173.3
X28.01 Y173.105
X28.012 Y173.103
X28.2 Y172.923
X28.202 Y172.922
X28.406 Y172.761
X28.407
X28.624 Y172.621
X28.627 Y172.62
X28.858 Y172.5
X28.86 Y172.499
X29.1 Y172.403
X29.102
X29.351 Y172.33
X29.353 Y172.329
X29.608 Y172.28
X29.61
X29.869 Y172.255
X30.131
X30.39 Y172.28
X30.392
X30.647 Y172.329
X30.649 Y172.33
X30.898 Y172.403
X30.9
X31.14 Y172.499
X31.142 Y172.5
X31.373 Y172.62
X31.376 Y172.621
X31.593 Y172.76
X31.595 Y172.762
X31.799 Y172.922
X31.801 Y172.924
X31.989 Y173.103
X31.991 Y173.106
X32.159 Y173.3
X32.161 Y173.302
X32.312 Y173.514
X32.313 Y173.516
X32.442 Y173.739
X32.443 Y173.741
X32.551 Y173.978
X32.552 Y173.98
X32.636 Y174.224
X32.637 Y174.226
X32.699 Y174.48
X32.736 Y174.738
Y174.74
X32.745 Y174.924
X32.75 Y175.062
Y204.938
X32.745 Y205.076
X32.736 Y205.26
Y205.262
X32.699 Y205.52
X32.637 Y205.774
X32.636 Y205.776
X32.552 Y206.02
X32.551 Y206.022
X32.443 Y206.259
X32.442 Y206.261
X32.313 Y206.484
X32.312 Y206.486
X32.161 Y206.698
X32.159 Y206.7
X31.991 Y206.894
X31.989 Y206.897
X31.801 Y207.076
X31.799 Y207.078
X31.595 Y207.238
X31.593 Y207.24
X31.376 Y207.379
X31.373 Y207.38
X31.142 Y207.5
X31.14 Y207.501
X30.9 Y207.597
X30.898
X30.649 Y207.67
X30.647 Y207.671
X30.392 Y207.72
X30.39
X30.131 Y207.745
X29.869
X29.61 Y207.72
X29.608
X29.353 Y207.671
X29.351 Y207.67
X29.102 Y207.597
X29.1
X28.86 Y207.501
X28.858 Y207.5
X28.627 Y207.38
X28.624 Y207.379
X28.407 Y207.239
X28.406
X28.202 Y207.078
X28.2 Y207.077
X28.012 Y206.897
X28.01 Y206.895
X27.841 Y206.7
X27.839 Y206.699
X27.688 Y206.486
X27.687 Y206.484
X27.558 Y206.261
X27.557 Y206.259
X27.449 Y206.021
X27.364 Y205.776
X27.363 Y205.774
X27.302 Y205.521
X27.301 Y205.519
X27.264 Y205.262
Y205.26
X27.255 Y205.076
X27.25 Y204.938
Y175.062
X27.255 Y174.924
X27.264 Y174.74
Y174.738
X27.295 Y174.522
G3 X27.635 Y174.268 I0.297 J0.043
G2 X27.97 Y173.903 I0.043 J-0.297
G3 X28.1 Y173.583 I0.292 J-0.068
X29.292 Y173.427 I0.761 J1.186
X29.302 Y173.43 I-0.431 J1.342 F167.
X29.989 Y173.924 Z-7.03 I-0.441 J1.338
X27.733 Y175.613 Z-7.185 I-1.128 J0.844
X29.989 Y173.924 Z-7.339 I1.128 J-0.844
X27.733 Y175.613 Z-7.494 I-1.128 J0.844
X29.989 Y173.924 Z-7.648 I1.128 J-0.844
X27.733 Y175.613 Z-7.803 I-1.128 J0.844
X29.989 Y173.924 Z-7.957 I1.128 J-0.844
X27.733 Y175.613 Z-8.112 I-1.128 J0.844
X29.989 Y173.924 Z-8.266 I1.128 J-0.844
X27.733 Y175.613 Z-8.421 I-1.128 J0.844
X29.989 Y173.924 Z-8.575 I1.128 J-0.844
X27.733 Y175.613 Z-8.73 I-1.128 J0.844
X29.989 Y173.924 Z-8.884 I1.128 J-0.844
X28.671 Y176.165 Z-9. I-1.128 J0.844
X28.661 Y176.163 I0.19 J-1.396
G1 X28.507 Y176.141 F500.
G3 X27.295 Y174.522 I0.204 J-1.415
G1 X27.301 Y174.481
X27.302 Y174.479
X27.363 Y174.226
X27.364 Y174.224
X27.449 Y173.979
X27.557 Y173.741
X27.558 Y173.739
X27.687 Y173.516
X27.688 Y173.514
X27.839 Y173.301
X27.841 Y173.3
X28.01 Y173.105
X28.012 Y173.103
X28.2 Y172.923
X28.202 Y172.922
X28.406 Y172.761
X28.407
X28.624 Y172.621
X28.627 Y172.62
X28.858 Y172.5
X28.86 Y172.499
X29.1 Y172.403
X29.102
X29.351 Y172.33
X29.353 Y172.329
X29.608 Y172.28
X29.61
X29.869 Y172.255
X30.131
X30.39 Y172.28
X30.392
X30.647 Y172.329
X30.649 Y172.33
X30.898 Y172.403
X30.9
X31.14 Y172.499
X31.142 Y172.5
X31.373 Y172.62
X31.376 Y172.621
X31.593 Y172.76
X31.595 Y172.762
X31.799 Y172.922
X31.801 Y172.924
X31.989 Y173.103
X31.991 Y173.106
X32.159 Y173.3
X32.161 Y173.302
X32.312 Y173.514
X32.313 Y173.516
X32.442 Y173.739
X32.443 Y173.741
X32.551 Y173.978
X32.552 Y173.98
X32.636 Y174.224
X32.637 Y174.226
X32.699 Y174.48
X32.736 Y174.738
Y174.74
X32.745 Y174.924
X32.75 Y175.062
Y204.938
X32.745 Y205.076
X32.736 Y205.26
Y205.262
X32.699 Y205.52
X32.637 Y205.774
X32.636 Y205.776
X32.552 Y206.02
X32.551 Y206.022
X32.443 Y206.259
X32.442 Y206.261
X32.313 Y206.484
X32.312 Y206.486
X32.161 Y206.698
X32.159 Y206.7
X31.991 Y206.894
X31.989 Y206.897
X31.801 Y207.076
X31.799 Y207.078
X31.595 Y207.238
X31.593 Y207.24
X31.376 Y207.379
X31.373 Y207.38
X31.142 Y207.5
X31.14 Y207.501
X30.9 Y207.597
X30.898
X30.649 Y207.67
X30.647 Y207.671
X30.392 Y207.72
X30.39
X30.131 Y207.745
X29.869
X29.61 Y207.72
X29.608
X29.353 Y207.671
X29.351 Y207.67
X29.102 Y207.597
X29.1
X28.86 Y207.501
X28.858 Y207.5
X28.627 Y207.38
X28.624 Y207.379
X28.407 Y207.239
X28.406
X28.202 Y207.078
X28.2 Y207.077
X28.012 Y206.897
X28.01 Y206.895
X27.841 Y206.7
X27.839 Y206.699
X27.688 Y206.486
X27.687 Y206.484
X27.558 Y206.261
X27.557 Y206.259
X27.449 Y206.021
X27.364 Y205.776
X27.363 Y205.774
X27.302 Y205.521
X27.301 Y205.519
X27.264 Y205.262
Y205.26
X27.255 Y205.076
X27.25 Y204.938
Y175.062
X27.255 Y174.924
X27.264 Y174.74
Y174.738
X27.295 Y174.522
G3 X27.635 Y174.268 I0.297 J0.043
G2 X27.97 Y173.903 I0.043 J-0.297
G3 X28.1 Y173.583 I0.292 J-0.068
X29.292 Y173.427 I0.761 J1.186
X29.302 Y173.43 I-0.431 J1.342 F167.
X29.989 Y173.924 Z-9.03 I-0.441 J1.338
X27.733 Y175.613 Z-9.185 I-1.128 J0.844
X29.989 Y173.924 Z-9.339 I1.128 J-0.844
X27.733 Y175.613 Z-9.494 I-1.128 J0.844
X29.989 Y173.924 Z-9.648 I1.128 J-0.844
X27.733 Y175.613 Z-9.803 I-1.128 J0.844
X29.989 Y173.924 Z-9.957 I1.128 J-0.844
X27.733 Y175.613 Z-10.112 I-1.128 J0.844
X29.989 Y173.924 Z-10.266 I1.128 J-0.844
X27.733 Y175.613 Z-10.421 I-1.128 J0.844
X29.989 Y173.924 Z-10.575 I1.128 J-0.844
X27.733 Y175.613 Z-10.73 I-1.128 J0.844
X29.989 Y173.924 Z-10.884 I1.128 J-0.844
X28.671 Y176.165 Z-11. I-1.128 J0.844
X28.661 Y176.163 I0.19 J-1.396
G1 X28.507 Y176.141 F500.
G3 X27.295 Y174.522 I0.204 J-1.415
G1 X27.301 Y174.481
X27.302 Y174.479
X27.363 Y174.226
X27.364 Y174.224
X27.449 Y173.979
X27.557 Y173.741
X27.558 Y173.739
X27.687 Y173.516
X27.688 Y173.514
X27.839 Y173.301
X27.841 Y173.3
X28.01 Y173.105
X28.012 Y173.103
X28.2 Y172.923
X28.202 Y172.922
X28.406 Y172.761
X28.407
X28.624 Y172.621
X28.627 Y172.62
X28.858 Y172.5
X28.86 Y172.499
X29.1 Y172.403
X29.102
X29.351 Y172.33
X29.353 Y172.329
X29.608 Y172.28
X29.61
X29.869 Y172.255
X30.131
X30.39 Y172.28
X30.392
X30.647 Y172.329
X30.649 Y172.33
X30.898 Y172.403
X30.9
X31.14 Y172.499
X31.142 Y172.5
X31.373 Y172.62
X31.376 Y172.621
X31.593 Y172.76
X31.595 Y172.762
X31.799 Y172.922
X31.801 Y172.924
X31.989 Y173.103
X31.991 Y173.106
X32.159 Y173.3
X32.161 Y173.302
X32.312 Y173.514
X32.313 Y173.516
X32.442 Y173.739
X32.443 Y173.741
X32.551 Y173.978
X32.552 Y173.98
X32.636 Y174.224
X32.637 Y174.226
X32.699 Y174.48
X32.736 Y174.738
Y174.74
X32.745 Y174.924
X32.75 Y175.062
Y204.938
X32.745 Y205.076
X32.736 Y205.26
Y205.262
X32.699 Y205.52
X32.637 Y205.774
X32.636 Y205.776
X32.552 Y206.02
X32.551 Y206.022
X32.443 Y206.259
X32.442 Y206.261
X32.313 Y206.484
X32.312 Y206.486
X32.161 Y206.698
X32.159 Y206.7
X31.991 Y206.894
X31.989 Y206.897
X31.801 Y207.076
X31.799 Y207.078
X31.595 Y207.238
X31.593 Y207.24
X31.376 Y207.379
X31.373 Y207.38
X31.142 Y207.5
X31.14 Y207.501
X30.9 Y207.597
X30.898
X30.649 Y207.67
X30.647 Y207.671
X30.392 Y207.72
X30.39
X30.131 Y207.745
X29.869
X29.61 Y207.72
X29.608
X29.353 Y207.671
X29.351 Y207.67
X29.102 Y207.597
X29.1
X28.86 Y207.501
X28.858 Y207.5
X28.627 Y207.38
X28.624 Y207.379
X28.407 Y207.239
X28.406
X28.202 Y207.078
X28.2 Y207.077
X28.012 Y206.897
X28.01 Y206.895
X27.841 Y206.7
X27.839 Y206.699
X27.688 Y206.486
X27.687 Y206.484
X27.558 Y206.261
X27.557 Y206.259
X27.449 Y206.021
X27.364 Y205.776
X27.363 Y205.774
X27.302 Y205.521
X27.301 Y205.519
X27.264 Y205.262
Y205.26
X27.255 Y205.076
X27.25 Y204.938
Y175.062
X27.255 Y174.924
X27.264 Y174.74
Y174.738
X27.295 Y174.522
X27.301 Y174.481
X27.302 Y174.477
X27.32 Y174.403
X27.356 Y174.255
X27.362 Y174.229
X27.363 Y174.225
X27.383 Y174.167
X27.423 Y174.052 Z-11.001
X27.448 Y173.98
X27.45 Y173.976
X27.467 Y173.938
X27.518 Y173.827
X27.557 Y173.741 Z-11.002
X27.563 Y173.731
X27.571 Y173.718
X27.632 Y173.612
X27.687 Y173.516 Z-11.003
X27.689 Y173.513
X27.693 Y173.507
X27.764 Y173.407 Z-11.004
X27.839 Y173.302
X27.842 Y173.299
X27.874 Y173.261 Z-11.005
X27.914 Y173.215
X28.009 Y173.106 Z-11.006
X28.012 Y173.103
X28.036 Y173.079 Z-11.007
X28.081 Y173.037
X28.199 Y172.924 Z-11.008
X28.202 Y172.922
X28.262 Y172.874 Z-11.009
X28.382 Y172.78 Z-11.011
X28.406 Y172.761
X28.457 Y172.728 Z-11.012
X28.56 Y172.662 Z-11.013
X28.624 Y172.621 Z-11.014
X28.627 Y172.619
X28.665 Y172.6
X28.773 Y172.544 Z-11.016
X28.858 Y172.5 Z-11.017
X28.861 Y172.499
X28.882 Y172.49
X28.996 Y172.445 Z-11.019
X29.098 Y172.404 Z-11.02
X29.102 Y172.403
X29.109 Y172.4
X29.351 Y172.33 Z-11.024
X29.354 Y172.329
X29.403 Y172.319
X29.463 Y172.308 Z-11.025
X29.605 Y172.28 Z-11.028
X29.609
X29.643 Y172.276
X29.704 Y172.271 Z-11.029
X29.867 Y172.255 Z-11.032
X29.871
X29.947 Z-11.033
X30.069 Z-11.035
X30.13 Z-11.036
X30.134
X30.191 Y172.261 Z-11.037
X30.312 Y172.272 Z-11.04
X30.388 Y172.279 Z-11.041
X30.392 Y172.28
X30.433 Y172.288 Z-11.042
X30.553 Y172.311 Z-11.044
X30.647 Y172.329 Z-11.046
X30.65 Y172.33
X30.672 Y172.336
X30.789 Y172.371 Z-11.049
X30.895 Y172.402 Z-11.051
X30.899 Y172.403
X30.906 Y172.406
X31.019 Y172.451 Z-11.054
X31.14 Y172.499 Z-11.057
X31.143 Y172.501
X31.187 Y172.524 Z-11.058
X31.242 Y172.552 Z-11.059
X31.374 Y172.62 Z-11.062
X31.377 Y172.622 Z-11.063
X31.454 Y172.671 Z-11.065
X31.592 Y172.76 Z-11.068
X31.595 Y172.762
X31.655 Y172.809 Z-11.07
X31.751 Y172.884 Z-11.073
X31.799 Y172.922 Z-11.075
X31.802 Y172.925
X31.843 Y172.964 Z-11.076
X31.931 Y173.048 Z-11.079
X31.986 Y173.101 Z-11.081
X31.989 Y173.104
X32.017 Y173.135 Z-11.082
X32.097 Y173.228 Z-11.085
X32.159 Y173.3 Z-11.088
X32.161 Y173.303
X32.175 Y173.321
X32.245 Y173.421 Z-11.091
X32.312 Y173.514 Z-11.095
X32.314 Y173.517
X32.316 Y173.52
X32.377 Y173.626 Z-11.098
X32.441 Y173.738 Z-11.102
X32.443 Y173.742
X32.464 Y173.787 Z-11.103
X32.489 Y173.842 Z-11.105
X32.551 Y173.977 Z-11.109
X32.552 Y173.981
X32.582 Y174.068 Z-11.112
X32.636 Y174.222 Z-11.116
X32.637 Y174.226
X32.655 Y174.3 Z-11.119
X32.698 Y174.478 Z-11.124
X32.699 Y174.482
X32.707 Y174.538 Z-11.126
X32.733 Y174.719 Z-11.131
X32.736 Y174.738 Z-11.132
Y174.742
X32.738 Y174.78 Z-11.133
X32.744 Y174.902 Z-11.137
X32.749 Y175.024 Z-11.141
X32.75 Y175.146 Z-11.145
Y175.268 Z-11.148
Y175.39 Z-11.152
Y175.512 Z-11.156
Y175.634 Z-11.16
Y175.756 Z-11.164
Y175.878 Z-11.168
Y176. Z-11.172
Y176.122 Z-11.177
Y176.244 Z-11.181
Y176.366 Z-11.185
Y176.488 Z-11.189
Y177.708 Z-11.232
Y177.83 Z-11.236
Y177.952 Z-11.24
Y178.074 Z-11.244
Y178.196 Z-11.249
Y178.318 Z-11.253
Y178.44 Z-11.257
Y178.562 Z-11.262
Y178.684 Z-11.266
Y178.806 Z-11.27
Y178.928 Z-11.274
Y179.05 Z-11.279
Y179.172 Z-11.283
Y179.294 Z-11.287
Y179.416 Z-11.291
Y179.538 Z-11.296
Y179.66 Z-11.3
Y179.782 Z-11.304
Y180.026 Z-11.313
Y180.392 Z-11.325
Y180.758 Z-11.338
Y181.124 Z-11.351
Y181.49 Z-11.364
Y181.856 Z-11.377
Y182.222 Z-11.389
Y182.832 Z-11.411
Y183.442 Z-11.432
Y184.297 Z-11.462
Y185.761 Z-11.513
Y191.007 Z-11.696
Y191.129 Z-11.7
Y191.251 Z-11.705
Y191.373 Z-11.709
Y191.495 Z-11.713
Y191.617 Z-11.717
Y191.739 Z-11.722
Y191.861 Z-11.726
Y191.983 Z-11.73
Y192.105 Z-11.734
Y192.227 Z-11.739
Y192.349 Z-11.743
Y192.471 Z-11.747
Y192.593 Z-11.751
Y192.715 Z-11.756
Y192.837 Z-11.76
Y192.959 Z-11.764
Y193.081 Z-11.768
Y193.203 Z-11.773
Y193.325 Z-11.777
Y193.447 Z-11.781
Y193.569 Z-11.786
Y193.691 Z-11.79
Y193.813 Z-11.794
Y193.935 Z-11.798
Y194.057 Z-11.803
Y194.423 Z-11.815
Y194.545 Z-11.819
Y194.667 Z-11.824
Y194.789 Z-11.828
Y194.911 Z-11.832
Y195.033 Z-11.836
Y195.155 Z-11.84
Y195.277 Z-11.844
Y195.399 Z-11.848
Y195.521 Z-11.852
Y195.643 Z-11.856
Y195.765 Z-11.859
Y195.887 Z-11.863
Y196.009 Z-11.867
Y196.131 Z-11.871
Y196.253 Z-11.874
Y196.375 Z-11.878
Y196.497 Z-11.882
Y196.619 Z-11.885
Y196.741 Z-11.889
Y196.863 Z-11.892
Y196.985 Z-11.895
Y197.107 Z-11.899
Y197.229 Z-11.902
Y197.351 Z-11.905
Y197.473 Z-11.909
Y197.595 Z-11.912
Y197.717 Z-11.915
Y197.839 Z-11.918
Y197.961 Z-11.921
Y198.083 Z-11.924
Y198.205 Z-11.927
Y198.327 Z-11.93
Y198.449 Z-11.933
Y198.571 Z-11.936
Y198.693 Z-11.938
Y198.815 Z-11.941
Y198.937 Z-11.944
Y199.059 Z-11.946
Y199.181 Z-11.949
Y199.303 Z-11.951
Y199.547 Z-11.956
Y199.791 Z-11.961
Y200.035 Z-11.965
Y200.279 Z-11.969
Y200.523 Z-11.973
Y200.767 Z-11.976
Y201.011 Z-11.98
Y201.255 Z-11.983
Y201.499 Z-11.986
Y201.743 Z-11.988
Y201.987 Z-11.991
Y202.231 Z-11.993
Y202.475 Z-11.995
Y202.719 Z-11.996
Y202.964 Z-11.998
Y203.208 Z-11.999
Y203.452
Y203.696 Z-12.
Y203.816
Y203.928
Y203.936
Y204.938
X32.745 Y205.076
X32.736 Y205.26
Y205.262
X32.699 Y205.52
X32.637 Y205.774
X32.636 Y205.776
X32.552 Y206.02
X32.551 Y206.022
X32.443 Y206.259
X32.442 Y206.261
X32.313 Y206.484
X32.312 Y206.486
X32.161 Y206.698
X32.159 Y206.7
X31.991 Y206.894
X31.989 Y206.897
X31.801 Y207.076
X31.799 Y207.078
X31.595 Y207.238
X31.593 Y207.24
X31.376 Y207.379
X31.373 Y207.38
X31.142 Y207.5
X31.14 Y207.501
X30.9 Y207.597
X30.898
X30.649 Y207.67
X30.647 Y207.671
X30.392 Y207.72
X30.39
X30.131 Y207.745
X29.869
X29.61 Y207.72
X29.608
X29.353 Y207.671
X29.351 Y207.67
X29.102 Y207.597
X29.1
X28.86 Y207.501
X28.858 Y207.5
X28.627 Y207.38
X28.624 Y207.379
X28.407 Y207.239
X28.406
X28.202 Y207.078
X28.2 Y207.077
X28.012 Y206.897
X28.01 Y206.895
X27.841 Y206.7
X27.839 Y206.699
X27.688 Y206.486
X27.687 Y206.484
X27.558 Y206.261
X27.557 Y206.259
X27.449 Y206.021
X27.364 Y205.776
X27.363 Y205.774
X27.302 Y205.521
X27.301 Y205.519
X27.264 Y205.262
Y205.26
X27.255 Y205.076
X27.25 Y204.938
Y175.062
X27.255 Y174.924
X27.264 Y174.74
Y174.738
X27.295 Y174.522
X27.301 Y174.481
X27.302 Y174.479
X27.363 Y174.226
X27.364 Y174.224
X27.449 Y173.979
X27.557 Y173.741
X27.558 Y173.739
X27.687 Y173.516
X27.688 Y173.514
X27.839 Y173.301
X27.841 Y173.3
X28.01 Y173.105
X28.012 Y173.103
X28.2 Y172.923
X28.202 Y172.922
X28.406 Y172.761
X28.407
X28.624 Y172.621
X28.627 Y172.62
X28.858 Y172.5
X28.86 Y172.499
X29.1 Y172.403
X29.102
X29.351 Y172.33
X29.353 Y172.329
X29.608 Y172.28
X29.61
X29.869 Y172.255
X30.131
X30.39 Y172.28
X30.392
X30.647 Y172.329
X30.649 Y172.33
X30.898 Y172.403
X30.9
X31.14 Y172.499
X31.142 Y172.5
X31.373 Y172.62
X31.376 Y172.621
X31.593 Y172.76
X31.595 Y172.762
X31.799 Y172.922
X31.801 Y172.924
X31.989 Y173.103
X31.991 Y173.106
X32.159 Y173.3
X32.161 Y173.302
X32.312 Y173.514
X32.313 Y173.516
X32.442 Y173.739
X32.443 Y173.741
X32.551 Y173.978
X32.552 Y173.98
X32.636 Y174.224
X32.637 Y174.226
X32.699 Y174.48
X32.736 Y174.738
Y174.74
X32.745 Y174.924
X32.75 Y175.062
Y203.936
G3 X32.447 Y204.236 I-0.3 J0.
G0 Z1.
X157.553
Z-2.015
G1 Z-7. F500.
G3 X157.25 Y203.936 I-0.003 J-0.3
G1 Y175.062
X157.255 Y174.924
X157.264 Y174.74
Y174.738
X157.301 Y174.48
X157.31 Y174.442
X157.363 Y174.226
X157.364 Y174.224
X157.448 Y173.98
X157.449 Y173.978
X157.557 Y173.741
X157.558 Y173.739
X157.687 Y173.516
X157.688 Y173.514
X157.839 Y173.302
X157.841 Y173.3
X158.009 Y173.106
X158.011 Y173.103
X158.199 Y172.924
X158.201 Y172.922
X158.405 Y172.762
X158.407 Y172.76
X158.624 Y172.621
X158.627 Y172.62
X158.858 Y172.5
X158.86 Y172.499
X159.1 Y172.403
X159.102
X159.351 Y172.33
X159.353 Y172.329
X159.608 Y172.28
X159.61
X159.869 Y172.255
X160.131
X160.39 Y172.28
X160.392
X160.647 Y172.329
X160.649 Y172.33
X160.898 Y172.403
X160.9
X161.14 Y172.499
X161.142 Y172.5
X161.373 Y172.62
X161.376 Y172.621
X161.593 Y172.761
X161.594
X161.798 Y172.922
X161.8 Y172.923
X161.988 Y173.103
X161.99 Y173.105
X162.159 Y173.3
X162.161 Y173.301
X162.312 Y173.514
X162.313 Y173.516
X162.442 Y173.739
X162.443 Y173.741
X162.551 Y173.979
X162.636 Y174.224
X162.637 Y174.226
X162.698 Y174.479
X162.699 Y174.481
X162.736 Y174.738
Y174.74
X162.745 Y174.924
X162.75 Y175.062
Y204.938
X162.745 Y205.076
X162.736 Y205.26
Y205.262
X162.699 Y205.519
X162.698 Y205.521
X162.637 Y205.774
X162.636 Y205.776
X162.551 Y206.021
X162.443 Y206.259
X162.442 Y206.261
X162.313 Y206.484
X162.312 Y206.486
X162.161 Y206.699
X162.159 Y206.7
X161.99 Y206.895
X161.988 Y206.897
X161.8 Y207.077
X161.798 Y207.078
X161.594 Y207.239
X161.593
X161.376 Y207.379
X161.373 Y207.38
X161.142 Y207.5
X161.14 Y207.501
X160.9 Y207.597
X160.898
X160.649 Y207.67
X160.647 Y207.671
X160.392 Y207.72
X160.39
X160.131 Y207.745
X159.869
X159.61 Y207.72
X159.608
X159.353 Y207.671
X159.351 Y207.67
X159.102 Y207.597
X159.1
X158.86 Y207.501
X158.858 Y207.5
X158.627 Y207.38
X158.624 Y207.379
X158.407 Y207.24
X158.405 Y207.238
X158.201 Y207.078
X158.199 Y207.076
X158.011 Y206.897
X158.009 Y206.894
X157.841 Y206.7
X157.839 Y206.698
X157.688 Y206.486
X157.687 Y206.484
X157.558 Y206.261
X157.557 Y206.259
X157.449 Y206.022
X157.448 Y206.02
X157.364 Y205.776
X157.363 Y205.774
X157.301 Y205.52
X157.264 Y205.262
Y205.26
X157.255 Y205.076
X157.25 Y204.938
Y203.936
G3 X157.55 Y203.636 I0.3 J0.
G2 X157.824 Y203.213 I0. J-0.3
G3 X157.901 Y202.864 I0.274 J-0.122
X159.67 Y202.786 I0.934 J1.076
X159.678 Y202.792 I-0.835 J1.155 F167.
X157.992 Y205.089 Z-7.156 I-0.843 J1.149
X159.678 Y202.792 Z-7.313 I0.843 J-1.149
X157.992 Y205.089 Z-7.469 I-0.843 J1.149
X159.678 Y202.792 Z-7.625 I0.843 J-1.149
X157.992 Y205.089 Z-7.782 I-0.843 J1.149
X159.678 Y202.792 Z-7.938 I0.843 J-1.149
X157.992 Y205.089 Z-8.094 I-0.843 J1.149
X159.678 Y202.792 Z-8.25 I0.843 J-1.149
X157.992 Y205.089 Z-8.407 I-0.843 J1.149
X159.678 Y202.792 Z-8.563 I0.843 J-1.149
X157.992 Y205.089 Z-8.719 I-0.843 J1.149
X159.678 Y202.792 Z-8.875 I0.843 J-1.149
X158.845 Y205.366 Z-9. I-0.843 J1.149
X158.835 I-0.01 J-1.425
G1 X158.68 F500.
G3 X157.25 Y203.936 I0. J-1.43
G1 Y175.062
X157.255 Y174.924
X157.264 Y174.74
Y174.738
X157.301 Y174.48
X157.31 Y174.442
X157.363 Y174.226
X157.364 Y174.224
X157.448 Y173.98
X157.449 Y173.978
X157.557 Y173.741
X157.558 Y173.739
X157.687 Y173.516
X157.688 Y173.514
X157.839 Y173.302
X157.841 Y173.3
X158.009 Y173.106
X158.011 Y173.103
X158.199 Y172.924
X158.201 Y172.922
X158.405 Y172.762
X158.407 Y172.76
X158.624 Y172.621
X158.627 Y172.62
X158.858 Y172.5
X158.86 Y172.499
X159.1 Y172.403
X159.102
X159.351 Y172.33
X159.353 Y172.329
X159.608 Y172.28
X159.61
X159.869 Y172.255
X160.131
X160.39 Y172.28
X160.392
X160.647 Y172.329
X160.649 Y172.33
X160.898 Y172.403
X160.9
X161.14 Y172.499
X161.142 Y172.5
X161.373 Y172.62
X161.376 Y172.621
X161.593 Y172.761
X161.594
X161.798 Y172.922
X161.8 Y172.923
X161.988 Y173.103
X161.99 Y173.105
X162.159 Y173.3
X162.161 Y173.301
X162.312 Y173.514
X162.313 Y173.516
X162.442 Y173.739
X162.443 Y173.741
X162.551 Y173.979
X162.636 Y174.224
X162.637 Y174.226
X162.698 Y174.479
X162.699 Y174.481
X162.736 Y174.738
Y174.74
X162.745 Y174.924
X162.75 Y175.062
Y204.938
X162.745 Y205.076
X162.736 Y205.26
Y205.262
X162.699 Y205.519
X162.698 Y205.521
X162.637 Y205.774
X162.636 Y205.776
X162.551 Y206.021
X162.443 Y206.259
X162.442 Y206.261
X162.313 Y206.484
X162.312 Y206.486
X162.161 Y206.699
X162.159 Y206.7
X161.99 Y206.895
X161.988 Y206.897
X161.8 Y207.077
X161.798 Y207.078
X161.594 Y207.239
X161.593
X161.376 Y207.379
X161.373 Y207.38
X161.142 Y207.5
X161.14 Y207.501
X160.9 Y207.597
X160.898
X160.649 Y207.67
X160.647 Y207.671
X160.392 Y207.72
X160.39
X160.131 Y207.745
X159.869
X159.61 Y207.72
X159.608
X159.353 Y207.671
X159.351 Y207.67
X159.102 Y207.597
X159.1
X158.86 Y207.501
X158.858 Y207.5
X158.627 Y207.38
X158.624 Y207.379
X158.407 Y207.24
X158.405 Y207.238
X158.201 Y207.078
X158.199 Y207.076
X158.011 Y206.897
X158.009 Y206.894
X157.841 Y206.7
X157.839 Y206.698
X157.688 Y206.486
X157.687 Y206.484
X157.558 Y206.261
X157.557 Y206.259
X157.449 Y206.022
X157.448 Y206.02
X157.364 Y205.776
X157.363 Y205.774
X157.301 Y205.52
X157.264 Y205.262
Y205.26
X157.255 Y205.076
X157.25 Y204.938
Y203.936
G3 X157.55 Y203.636 I0.3 J0.
G2 X157.824 Y203.213 I0. J-0.3
G3 X157.901 Y202.864 I0.274 J-0.122
X159.67 Y202.786 I0.934 J1.076
X159.678 Y202.792 I-0.835 J1.155 F167.
X157.992 Y205.089 Z-9.156 I-0.843 J1.149
X159.678 Y202.792 Z-9.313 I0.843 J-1.149
X157.992 Y205.089 Z-9.469 I-0.843 J1.149
X159.678 Y202.792 Z-9.625 I0.843 J-1.149
X157.992 Y205.089 Z-9.782 I-0.843 J1.149
X159.678 Y202.792 Z-9.938 I0.843 J-1.149
X157.992 Y205.089 Z-10.094 I-0.843 J1.149
X159.678 Y202.792 Z-10.25 I0.843 J-1.149
X157.992 Y205.089 Z-10.407 I-0.843 J1.149
X159.678 Y202.792 Z-10.563 I0.843 J-1.149
X157.992 Y205.089 Z-10.719 I-0.843 J1.149
X159.678 Y202.792 Z-10.875 I0.843 J-1.149
X158.845 Y205.366 Z-11. I-0.843 J1.149
X158.835 I-0.01 J-1.425
G1 X158.68 F500.
G3 X157.25 Y203.936 I0. J-1.43
G1 Y175.062
X157.255 Y174.924
X157.264 Y174.74
Y174.738
X157.301 Y174.48
X157.31 Y174.442
X157.363 Y174.226
X157.364 Y174.224
X157.448 Y173.98
X157.449 Y173.978
X157.557 Y173.741
X157.558 Y173.739
X157.687 Y173.516
X157.688 Y173.514
X157.839 Y173.302
X157.841 Y173.3
X158.009 Y173.106
X158.011 Y173.103
X158.199 Y172.924
X158.201 Y172.922
X158.405 Y172.762
X158.407 Y172.76
X158.624 Y172.621
X158.627 Y172.62
X158.858 Y172.5
X158.86 Y172.499
X159.1 Y172.403
X159.102
X159.351 Y172.33
X159.353 Y172.329
X159.608 Y172.28
X159.61
X159.869 Y172.255
X160.131
X160.39 Y172.28
X160.392
X160.647 Y172.329
X160.649 Y172.33
X160.898 Y172.403
X160.9
X161.14 Y172.499
X161.142 Y172.5
X161.373 Y172.62
X161.376 Y172.621
X161.593 Y172.761
X161.594
X161.798 Y172.922
X161.8 Y172.923
X161.988 Y173.103
X161.99 Y173.105
X162.159 Y173.3
X162.161 Y173.301
X162.312 Y173.514
X162.313 Y173.516
X162.442 Y173.739
X162.443 Y173.741
X162.551 Y173.979
X162.636 Y174.224
X162.637 Y174.226
X162.698 Y174.479
X162.699 Y174.481
X162.736 Y174.738
Y174.74
X162.745 Y174.924
X162.75 Y175.062
Y204.938
X162.745 Y205.076
X162.736 Y205.26
Y205.262
X162.699 Y205.519
X162.698 Y205.521
X162.637 Y205.774
X162.636 Y205.776
X162.551 Y206.021
X162.443 Y206.259
X162.442 Y206.261
X162.313 Y206.484
X162.312 Y206.486
X162.161 Y206.699
X162.159 Y206.7
X161.99 Y206.895
X161.988 Y206.897
X161.8 Y207.077
X161.798 Y207.078
X161.594 Y207.239
X161.593
X161.376 Y207.379
X161.373 Y207.38
X161.142 Y207.5
X161.14 Y207.501
X160.9 Y207.597
X160.898
X160.649 Y207.67
X160.647 Y207.671
X160.392 Y207.72
X160.39
X160.131 Y207.745
X159.869
X159.61 Y207.72
X159.608
X159.353 Y207.671
X159.351 Y207.67
X159.102 Y207.597
X159.1
X158.86 Y207.501
X158.858 Y207.5
X158.627 Y207.38
X158.624 Y207.379
X158.407 Y207.24
X158.405 Y207.238
X158.201 Y207.078
X158.199 Y207.076
X158.011 Y206.897
X158.009 Y206.894
X157.841 Y206.7
X157.839 Y206.698
X157.688 Y206.486
X157.687 Y206.484
X157.558 Y206.261
X157.557 Y206.259
X157.449 Y206.022
X157.448 Y206.02
X157.364 Y205.776
X157.363 Y205.774
X157.301 Y205.52
X157.264 Y205.262
Y205.26
X157.255 Y205.076
X157.25 Y204.938
Y203.936
Y203.875
Y203.814
Y203.692
Y203.448 Z-11.001
Y203.204
Y202.96 Z-11.002
Y202.716 Z-11.004
Y202.472 Z-11.005
Y202.228 Z-11.007
Y201.984 Z-11.009
Y201.74 Z-11.012
Y201.496 Z-11.014
Y201.252 Z-11.017
Y201.008 Z-11.02
Y200.764 Z-11.024
Y200.52 Z-11.027
Y200.275 Z-11.031
Y200.031 Z-11.035
Y199.787 Z-11.04
Y199.543 Z-11.044
Y199.299 Z-11.049
Y199.177 Z-11.051
Y199.055 Z-11.054
Y198.933 Z-11.057
Y198.811 Z-11.059
Y198.689 Z-11.062
Y198.567 Z-11.065
Y198.445 Z-11.067
Y198.323 Z-11.07
Y198.201 Z-11.073
Y198.079 Z-11.076
Y197.957 Z-11.079
Y197.835 Z-11.082
Y197.713 Z-11.085
Y197.591 Z-11.088
Y197.469 Z-11.091
Y197.347 Z-11.095
Y197.225 Z-11.098
Y197.103 Z-11.101
Y196.981 Z-11.105
Y196.859 Z-11.108
Y196.737 Z-11.112
Y196.615 Z-11.115
Y196.493 Z-11.119
Y196.371 Z-11.122
Y196.249 Z-11.126
Y196.127 Z-11.129
Y196.005 Z-11.133
Y195.883 Z-11.137
Y195.761 Z-11.141
Y195.639 Z-11.145
Y195.517 Z-11.148
Y195.395 Z-11.152
Y195.273 Z-11.156
Y195.151 Z-11.16
Y195.029 Z-11.164
Y194.907 Z-11.168
Y194.785 Z-11.172
Y194.663 Z-11.177
Y194.541 Z-11.181
Y194.419 Z-11.185
Y194.297 Z-11.189
Y193.077 Z-11.232
Y192.955 Z-11.236
Y192.833 Z-11.24
Y192.711 Z-11.244
Y192.589 Z-11.249
Y192.467 Z-11.253
Y192.345 Z-11.257
Y192.223 Z-11.262
Y192.101 Z-11.266
Y191.979 Z-11.27
Y191.857 Z-11.274
Y191.735 Z-11.279
Y191.613 Z-11.283
Y191.491 Z-11.287
Y191.369 Z-11.291
Y191.247 Z-11.296
Y191.125 Z-11.3
Y191.003 Z-11.304
Y190.759 Z-11.313
Y190.393 Z-11.325
Y190.027 Z-11.338
Y189.661 Z-11.351
Y189.295 Z-11.364
Y188.929 Z-11.377
Y188.563 Z-11.389
Y187.953 Z-11.411
Y187.343 Z-11.432
Y186.489 Z-11.462
Y185.025 Z-11.513
Y179.778 Z-11.696
Y179.656 Z-11.7
Y179.534 Z-11.705
Y179.412 Z-11.709
Y179.29 Z-11.713
Y179.168 Z-11.717
Y179.046 Z-11.722
Y178.924 Z-11.726
Y178.802 Z-11.73
Y178.68 Z-11.734
Y178.558 Z-11.739
Y178.436 Z-11.743
Y178.314 Z-11.747
Y178.192 Z-11.751
Y178.07 Z-11.756
Y177.948 Z-11.76
Y177.826 Z-11.764
Y177.704 Z-11.768
Y177.582 Z-11.773
Y177.46 Z-11.777
Y177.338 Z-11.781
Y177.216 Z-11.786
Y177.094 Z-11.79
Y176.972 Z-11.794
Y176.85 Z-11.798
Y176.728 Z-11.803
Y176.362 Z-11.815
Y176.24 Z-11.819
Y176.118 Z-11.824
Y175.996 Z-11.828
Y175.874 Z-11.832
Y175.752 Z-11.836
Y175.63 Z-11.84
Y175.508 Z-11.844
Y175.386 Z-11.848
Y175.264 Z-11.852
Y175.142 Z-11.856
X157.251 Y175.02 Z-11.859
X157.257 Y174.898 Z-11.863
X157.264 Y174.742 Z-11.868
Y174.738
X157.276 Y174.655 Z-11.871
X157.301 Y174.482 Z-11.876
X157.302 Y174.478
X157.317 Y174.415 Z-11.878
X157.346 Y174.296 Z-11.882
X157.363 Y174.226 Z-11.884
X157.364 Y174.222
X157.379 Y174.179 Z-11.885
X157.419 Y174.064 Z-11.889
X157.448 Y173.981 Z-11.891
X157.449 Y173.977
X157.462 Y173.95 Z-11.892
X157.512 Y173.839 Z-11.895
X157.557 Y173.742 Z-11.898
X157.559 Y173.738
X157.564 Y173.728 Z-11.899
X157.625 Y173.623 Z-11.902
X157.686 Y173.517 Z-11.905
X157.688 Y173.514
X157.721 Y173.467 Z-11.907
X157.757 Y173.417 Z-11.909
X157.839 Y173.303 Z-11.912
X157.841 Y173.3
X157.906 Y173.225 Z-11.915
X158.011 Y173.104 Z-11.919
X158.016 Y173.098
X158.072 Y173.046 Z-11.921
X158.193 Y172.93 Z-11.925
X158.198 Y172.925
X158.201 Y172.922
X158.252 Y172.882 Z-11.927
X158.348 Y172.807 Z-11.93
X158.405 Y172.762 Z-11.932
X158.408 Y172.76
X158.447 Y172.735 Z-11.933
X158.549 Y172.669 Z-11.936
X158.623 Y172.622 Z-11.937
X158.626 Y172.62 Z-11.938
X158.654 Y172.606
X158.762 Y172.55 Z-11.941
X158.857 Y172.501 Z-11.943
X158.86 Y172.499
X158.871 Y172.495 Z-11.944
X158.984 Y172.45 Z-11.946
X159.101 Y172.403 Z-11.949
X159.105 Y172.402
X159.156 Y172.387 Z-11.95
X159.214 Y172.37 Z-11.951
X159.35 Y172.33 Z-11.954
X159.353 Y172.329
X159.451 Y172.31 Z-11.956
X159.608 Y172.28 Z-11.959
X159.612 Y172.279
X159.692 Y172.272 Z-11.961
X159.843 Y172.257 Z-11.963
X159.866 Y172.255 Z-11.964
X159.87
X159.935 Z-11.965
X160.057 Z-11.967
X160.129 Z-11.968
X160.133
X160.179 Y172.259 Z-11.969
X160.3 Y172.271 Z-11.971
X160.391 Y172.28 Z-11.972
X160.399 Y172.281
X160.421 Y172.285 Z-11.973
X160.541 Y172.309 Z-11.975
X160.646 Y172.329 Z-11.976
X160.649 Y172.33
X160.66 Y172.333
X160.898 Y172.403 Z-11.98
X160.902 Y172.404
X160.951 Y172.424 Z-11.981
X161.008 Y172.446
X161.139 Y172.499 Z-11.983
X161.142 Y172.5
X161.176 Y172.518 Z-11.984
X161.23 Y172.546
X161.373 Y172.619 Z-11.986
X161.376 Y172.621
X161.443 Y172.664 Z-11.987
X161.572 Y172.747 Z-11.989
X161.594 Y172.761
X161.645 Y172.801 Z-11.99
X161.741 Y172.877 Z-11.991
X161.798 Y172.922 Z-11.992
X161.801 Y172.924
X161.834 Y172.956
X161.922 Y173.04 Z-11.993
X161.989 Y173.103 Z-11.994
X161.991 Y173.106
X162.009 Y173.126
X162.088 Y173.218 Z-11.995
X162.158 Y173.299 Z-11.996
X162.161 Y173.302
X162.167 Y173.311
X162.238 Y173.41
X162.311 Y173.513 Z-11.997
X162.313 Y173.516
X162.34 Y173.562
X162.37 Y173.615 Z-11.998
X162.443 Y173.741
X162.459 Y173.775
X162.484 Y173.831 Z-11.999
X162.551 Y173.977
X162.552 Y173.98
X162.578 Y174.056
X162.628 Y174.2 Z-12.
X162.637 Y174.225
X162.638 Y174.229
X162.652 Y174.288
X162.68 Y174.405
X162.698 Y174.478
X162.699 Y174.481
X162.705 Y174.522
X162.736 Y174.738
Y174.74
X162.745 Y174.924
X162.75 Y175.062
Y204.938
X162.745 Y205.076
X162.736 Y205.26
Y205.262
X162.699 Y205.519
X162.698 Y205.521
X162.637 Y205.774
X162.636 Y205.776
X162.551 Y206.021
X162.443 Y206.259
X162.442 Y206.261
X162.313 Y206.484
X162.312 Y206.486
X162.161 Y206.699
X162.159 Y206.7
X161.99 Y206.895
X161.988 Y206.897
X161.8 Y207.077
X161.798 Y207.078
X161.594 Y207.239
X161.593
X161.376 Y207.379
X161.373 Y207.38
X161.142 Y207.5
X161.14 Y207.501
X160.9 Y207.597
X160.898
X160.649 Y207.67
X160.647 Y207.671
X160.392 Y207.72
X160.39
X160.131 Y207.745
X159.869
X159.61 Y207.72
X159.608
X159.353 Y207.671
X159.351 Y207.67
X159.102 Y207.597
X159.1
X158.86 Y207.501
X158.858 Y207.5
X158.627 Y207.38
X158.624 Y207.379
X158.407 Y207.24
X158.405 Y207.238
X158.201 Y207.078
X158.199 Y207.076
X158.011 Y206.897
X158.009 Y206.894
X157.841 Y206.7
X157.839 Y206.698
X157.688 Y206.486
X157.687 Y206.484
X157.558 Y206.261
X157.557 Y206.259
X157.449 Y206.022
X157.448 Y206.02
X157.364 Y205.776
X157.363 Y205.774
X157.301 Y205.52
X157.264 Y205.262
Y205.26
X157.255 Y205.076
X157.25 Y204.938
Y175.062
X157.255 Y174.924
X157.264 Y174.74
Y174.738
X157.301 Y174.48
X157.31 Y174.442
X157.363 Y174.226
X157.364 Y174.224
X157.448 Y173.98
X157.449 Y173.978
X157.557 Y173.741
X157.558 Y173.739
X157.687 Y173.516
X157.688 Y173.514
X157.839 Y173.302
X157.841 Y173.3
X158.009 Y173.106
X158.011 Y173.103
X158.199 Y172.924
X158.201 Y172.922
X158.405 Y172.762
X158.407 Y172.76
X158.624 Y172.621
X158.627 Y172.62
X158.858 Y172.5
X158.86 Y172.499
X159.1 Y172.403
X159.102
X159.351 Y172.33
X159.353 Y172.329
X159.608 Y172.28
X159.61
X159.869 Y172.255
X160.131
X160.39 Y172.28
X160.392
X160.647 Y172.329
X160.649 Y172.33
X160.898 Y172.403
X160.9
X161.14 Y172.499
X161.142 Y172.5
X161.373 Y172.62
X161.376 Y172.621
X161.593 Y172.761
X161.594
X161.798 Y172.922
X161.8 Y172.923
X161.988 Y173.103
X161.99 Y173.105
X162.159 Y173.3
X162.161 Y173.301
X162.312 Y173.514
X162.313 Y173.516
X162.442 Y173.739
X162.443 Y173.741
X162.551 Y173.979
X162.636 Y174.224
X162.637 Y174.226
X162.698 Y174.479
X162.699 Y174.481
X162.705 Y174.522
G3 X162.448 Y174.862 I-0.297 J0.043
G0 Z2.

M9
G53 Z0.
M30
