(3-FLATTERN)
(T1  D=6. CR=0. - ZMIN=-4.998 - FLAT END MILL)
G0 G90 G94 G17
G21
G53 Z0.

(FLATTERN2)
M5
M9
T1
M3 S18000
G54
M9
G0 X153.23 Y32.819
Z2.502
G1 Z2. F500.
G3 X157.77 Y36.266 Z1.687 I2.27 J1.724 F167.
X153.23 Y32.819 Z1.375 I-2.27 J-1.724
X157.77 Y36.266 Z1.062 I2.27 J1.724
X153.23 Y32.819 Z0.749 I-2.27 J-1.724
X157.77 Y36.266 Z0.437 I2.27 J1.724
X153.23 Y32.819 Z0.124 I-2.27 J-1.724
X157.77 Y36.266 Z-0.189 I2.27 J1.724
X153.23 Y32.819 Z-0.501 I-2.27 J-1.724
X157.77 Y36.266 Z-0.814 I2.27 J1.724
X153.23 Y32.819 Z-1.127 I-2.27 J-1.724
X157.77 Y36.266 Z-1.439 I2.27 J1.724
X153.23 Y32.819 Z-1.752 I-2.27 J-1.724
X158.35 Y34.542 Z-2. I2.27 J1.724
X152.65 I-2.85 J0.
X157.271 Y32.309 I2.85 J0.
X158.35 Y34.542 I-1.771 J2.233
G1 X158.353 Y34.753 F500.
X158.491 Y35.582
X158.542 Y35.707
X158.579 Y35.837
X158.603 Y35.97
X158.615 Y36.104
X158.617 Y36.25
X158.606 Y36.406
X158.581 Y36.572
X158.54 Y36.746
X158.481 Y36.926
X158.405 Y37.111
X158.309 Y37.3
X158.192 Y37.489
X158.055 Y37.676
X157.896 Y37.859
X157.716 Y38.036
X157.516 Y38.204
X157.295 Y38.36
X157.055 Y38.502
X156.797 Y38.629
X156.523 Y38.737
X156.235 Y38.824
X155.934 Y38.89
X155.622 Y38.932
X155.303 Y38.949
X154.979 Y38.94
X154.651 Y38.905
X154.323 Y38.843
X153.998 Y38.754
X153.678 Y38.638
X153.365 Y38.495
X153.063 Y38.327
X152.773 Y38.133
X152.497 Y37.915
X152.239 Y37.675
X152. Y37.413
X151.781 Y37.132
X151.585 Y36.833
X151.414 Y36.519
X151.267 Y36.191
X151.147 Y35.851
X151.055 Y35.502
X150.991 Y35.146
X150.955 Y34.785
X150.949 Y34.422
X150.971 Y34.059
X151.023 Y33.699
X151.104 Y33.344
X151.213 Y32.996
X151.349 Y32.658
X151.513 Y32.332
X151.702 Y32.019
X151.916 Y31.723
X152.153 Y31.445
X152.411 Y31.186
X152.69 Y30.949
X152.987 Y30.736
X153.3 Y30.546
X153.627 Y30.382
X153.967 Y30.245
X154.316 Y30.136
X154.673 Y30.055
X155.036 Y30.003
X155.401 Y29.98
X155.768 Y29.987
X156.132 Y30.023
X156.493 Y30.088
X156.847 Y30.182
X157.192 Y30.304
X157.527 Y30.454
X157.849 Y30.63
X158.155 Y30.831
X158.444 Y31.056
X158.715 Y31.303
X158.964 Y31.571
X159.191 Y31.859
X159.395 Y32.164
X159.752 Y32.806
X160.049 Y33.457
X160.24 Y33.985
X160.37 Y34.46
X160.454 Y34.905
X160.5 Y35.336
X160.511 Y35.753
X160.489 Y36.158
X160.436 Y36.553
X160.351 Y36.94
X160.236 Y37.317
X160.091 Y37.685
X159.916 Y38.042
X159.712 Y38.386
X159.479 Y38.715
X159.217 Y39.027
X158.928 Y39.321
X158.613 Y39.594
X158.272 Y39.844
X157.907 Y40.069
X157.52 Y40.266
X157.112 Y40.435
X156.687 Y40.571
X156.247 Y40.675
X155.794 Y40.744
X155.332 Y40.776
X154.865 Y40.771
X154.394 Y40.729
X153.924 Y40.648
X153.459 Y40.529
X153.001 Y40.371
X152.555 Y40.176
X152.122 Y39.944
X151.707 Y39.677
X151.313 Y39.376
X150.943 Y39.042
X150.598 Y38.678
X150.283 Y38.286
X149.999 Y37.868
X149.749 Y37.427
X149.535 Y36.966
X149.357 Y36.489
X149.218 Y35.997
X149.119 Y35.495
X149.06 Y34.985
X149.043 Y34.471
X149.066 Y33.957
X149.131 Y33.446
X149.237 Y32.941
X149.384 Y32.446
X149.569 Y31.963
X149.793 Y31.497
X150.054 Y31.05
X150.35 Y30.625
X150.68 Y30.224
X151.041 Y29.852
X151.43 Y29.509
X151.846 Y29.199
X152.286 Y28.923
X152.746 Y28.683
X153.225 Y28.481
X153.718 Y28.318
X154.223 Y28.194
X154.736 Y28.112
X155.254 Y28.071
X155.774 Y28.072
X156.292 Y28.115
X156.805 Y28.199
X157.31 Y28.324
X157.803 Y28.489
X158.281 Y28.693
X158.741 Y28.935
X159.181 Y29.213
X159.597 Y29.526
X160.04 Y29.919
X160.481 Y30.378
X160.895 Y30.884
X161.275 Y31.434
X161.607 Y32.008
X161.886 Y32.594
X162.112 Y33.186
X162.284 Y33.779
X162.406 Y34.371
X162.479 Y34.96
X162.504 Y35.546
X162.482 Y36.126
X162.414 Y36.696
X162.302 Y37.257
X162.145 Y37.804
X161.945 Y38.336
X161.703 Y38.851
X161.42 Y39.345
X161.097 Y39.817
X160.736 Y40.263
X160.337 Y40.682
X159.903 Y41.07
X159.436 Y41.424
X158.938 Y41.743
X158.411 Y42.023
X157.86 Y42.261
X157.285 Y42.456
X156.693 Y42.606
X156.085 Y42.709
X155.467 Y42.763
X154.841 Y42.767
X154.214 Y42.72
X153.588 Y42.623
X152.968 Y42.475
X152.358 Y42.276
X151.762 Y42.027
X151.186 Y41.73
X150.632 Y41.386
X150.105 Y40.997
X149.609 Y40.565
X149.147 Y40.093
X148.724 Y39.583
X148.341 Y39.039
X148.002 Y38.464
X147.709 Y37.862
X147.465 Y37.237
X147.272 Y36.593
X147.131 Y35.934
X147.042 Y35.265
X147.008 Y34.59
X147.028 Y33.913
X147.102 Y33.239
X147.231 Y32.573
X147.412 Y31.918
X147.646 Y31.279
X147.931 Y30.661
X148.264 Y30.068
X148.644 Y29.502
X149.069 Y28.969
X149.535 Y28.471
X150.04 Y28.012
X150.58 Y27.595
X151.152 Y27.223
X151.753 Y26.898
X152.377 Y26.621
X153.022 Y26.396
X153.683 Y26.223
X154.356 Y26.104
X155.037 Y26.039
X155.72 Y26.029
X156.402 Y26.074
X157.079 Y26.174
X157.745 Y26.327
X158.397 Y26.534
X159.03 Y26.792
X159.657 Y27.108
X160.276 Y27.486
X160.881 Y27.925
X161.466 Y28.426
X162.018 Y28.982
X162.53 Y29.587
X162.992 Y30.233
X163.4 Y30.913
X163.751 Y31.618
X164.041 Y32.344
X164.27 Y33.085
X164.437 Y33.835
X164.543 Y34.59
X164.588 Y35.345
X164.572 Y36.096
X164.496 Y36.84
X164.361 Y37.572
X164.168 Y38.289
X163.919 Y38.988
X163.615 Y39.664
X163.257 Y40.314
X162.847 Y40.934
X162.387 Y41.521
X161.88 Y42.072
X161.327 Y42.583
X160.732 Y43.05
X160.099 Y43.47
X159.429 Y43.839
X158.728 Y44.156
X158. Y44.418
X157.248 Y44.621
X156.478 Y44.764
X155.695 Y44.845
X154.903 Y44.863
X154.108 Y44.817
X153.315 Y44.707
X152.529 Y44.533
X151.756 Y44.295
X151.002 Y43.995
X150.27 Y43.633
X149.567 Y43.212
X148.897 Y42.734
X148.266 Y42.202
X147.677 Y41.619
X147.136 Y40.989
X146.645 Y40.315
X146.209 Y39.602
X145.83 Y38.855
X145.512 Y38.078
X145.257 Y37.277
X145.067 Y36.457
X144.943 Y35.626
X144.886 Y34.786
X144.896 Y33.946
X144.973 Y33.108
X145.117 Y32.279
X145.326 Y31.465
X145.599 Y30.669
X145.934 Y29.898
X146.33 Y29.156
X146.783 Y28.447
X147.29 Y27.777
X147.85 Y27.149
X148.457 Y26.567
X149.109 Y26.035
X149.8 Y25.557
X150.527 Y25.134
X151.286 Y24.771
X152.07 Y24.468
X152.877 Y24.229
X153.699 Y24.054
X154.533 Y23.944
X155.373 Y23.901
X156.214 Y23.924
X157.05 Y24.014
X157.876 Y24.169
X158.688 Y24.39
X159.48 Y24.673
X160.248 Y25.016
X160.987 Y25.417
X161.694 Y25.872
X162.367 Y26.377
X163.001 Y26.929
X163.595 Y27.525
X164.144 Y28.162
X164.645 Y28.837
X165.097 Y29.546
X165.498 Y30.286
X165.846 Y31.051
X166.139 Y31.84
X166.376 Y32.647
X166.555 Y33.468
X166.674 Y34.301
X166.732 Y35.14
X166.728 Y35.981
X166.662 Y36.819
X166.534 Y37.651
X166.346 Y38.47
X166.098 Y39.274
X165.791 Y40.057
X165.429 Y40.816
X165.011 Y41.546
X164.542 Y42.244
X164.023 Y42.905
X163.456 Y43.527
X162.846 Y44.106
X162.194 Y44.637
X161.505 Y45.12
X160.783 Y45.551
X160.032 Y45.929
X159.256 Y46.253
X158.459 Y46.522
X157.645 Y46.734
X156.819 Y46.888
X155.983 Y46.982
X155.143 Y47.017
X154.302 Y46.992
X153.465 Y46.909
X152.636 Y46.769
X151.818 Y46.573
X151.015 Y46.321
X150.233 Y46.014
X149.473 Y45.653
X148.74 Y45.241
X148.036 Y44.78
X147.365 Y44.274
X146.729 Y43.724
X146.131 Y43.132
X145.577 Y42.5
X145.066 Y41.832
X144.601 Y41.131
X144.183 Y40.401
X143.813 Y39.646
X143.496 Y38.867
X143.232 Y38.068
X143.023 Y37.254
X142.867 Y36.427
X142.766 Y35.592
X142.719 Y34.753
X142.729 Y33.912
X142.796 Y33.073
X142.918 Y32.241
X143.095 Y31.419
X143.324 Y30.61
X143.605 Y29.817
X143.939 Y29.046
X144.325 Y28.298
X144.759 Y27.578
X145.238 Y26.887
X145.762 Y26.229
X146.327 Y25.606
X146.932 Y25.022
X147.576 Y24.481
X148.254 Y23.983
X148.962 Y23.53
X149.698 Y23.123
X150.46 Y22.766
X151.243 Y22.46
X152.046 Y22.208
X152.863 Y22.009
X153.691 Y21.863
X154.527 Y21.77
X155.367 Y21.732
X156.208 Y21.752
X157.045 Y21.827
X157.876 Y21.957
X158.697 Y22.14
X159.505 Y22.375
X160.295 Y22.661
X161.066 Y22.999
X161.813 Y23.385
X162.534 Y23.817
X163.228 Y24.293
X163.892 Y24.809
X164.523 Y25.364
X165.119 Y25.958
X165.676 Y26.588
X166.195 Y27.25
X166.672 Y27.942
X167.109 Y28.661
X167.502 Y29.405
X167.85 Y30.17
X168.15 Y30.956
X168.401 Y31.759
X168.604 Y32.575
X168.758 Y33.402
X168.862 Y34.236
X168.914 Y35.075
Y35.916
X168.861 Y36.756
X168.757 Y37.59
X168.602 Y38.417
X168.397 Y39.233
X168.143 Y40.034
X167.839 Y40.819
X167.487 Y41.582
X167.088 Y42.322
X166.644 Y43.037
X166.159 Y43.724
X165.633 Y44.38
X165.066 Y45.001
X164.462 Y45.586
X163.822 Y46.132
X163.15 Y46.638
X162.449 Y47.103
X161.722 Y47.525
X160.971 Y47.903
X160.197 Y48.234
X159.406 Y48.517
X158.598 Y48.752
X157.778 Y48.939
X156.948 Y49.077
X156.112 Y49.166
X155.272 Y49.204
X154.431 Y49.191
X153.592 Y49.128
X152.759 Y49.017
X151.933 Y48.858
X151.118 Y48.652
X150.316 Y48.399
X149.531 Y48.097
X148.765 Y47.75
X148.02 Y47.359
X147.299 Y46.926
X146.604 Y46.453
X145.936 Y45.942
X145.299 Y45.392
X144.696 Y44.806
X144.129 Y44.185
X143.597 Y43.534
X143.103 Y42.853
X142.647 Y42.146
X142.232 Y41.415
X141.86 Y40.661
X141.533 Y39.886
X141.251 Y39.094
X141.014 Y38.287
X140.822 Y37.468
X140.676 Y36.64
X140.576 Y35.805
X140.525 Y34.965
X140.523 Y34.124
X140.568 Y33.284
X140.661 Y32.448
X140.799 Y31.619
X140.982 Y30.798
X141.212 Y29.989
X141.488 Y29.195
X141.81 Y28.418
X142.174 Y27.66
X142.58 Y26.923
X143.026 Y26.21
X143.511 Y25.523
X144.033 Y24.864
X144.593 Y24.236
X145.188 Y23.642
X145.815 Y23.081
X146.472 Y22.557
X147.157 Y22.069
X147.868 Y21.619
X148.603 Y21.211
X149.361 Y20.846
X150.138 Y20.525
X150.932 Y20.247
X151.74 Y20.014
X152.56 Y19.825
X153.388 Y19.682
X154.224 Y19.586
X155.064 Y19.539
X155.905
X156.744 Y19.587
X157.58 Y19.68
X158.41 Y19.819
X159.23 Y20.002
X160.039 Y20.233
X160.834 Y20.508
X161.612 Y20.827
X162.372 Y21.187
X163.111 Y21.588
X163.829 Y22.026
X164.523 Y22.502
X165.19 Y23.014
X165.828 Y23.562
X166.436 Y24.143
X167.013 Y24.755
X167.557 Y25.396
X168.067 Y26.064
X168.543 Y26.758
X168.983 Y27.475
X169.383 Y28.215
X169.744 Y28.974
X170.064 Y29.752
X170.344 Y30.545
X170.583 Y31.351
X170.781 Y32.169
X170.936 Y32.995
X171.045 Y33.829
X171.11 Y34.668
X171.13 Y35.508
X171.106 Y36.349
X171.038 Y37.187
X170.927 Y38.021
X170.772 Y38.847
X170.573 Y39.665
X170.33 Y40.47
X170.044 Y41.26
X169.716 Y42.035
X169.349 Y42.792
X168.943 Y43.528
X168.499 Y44.243
X168.018 Y44.932
X167.499 Y45.594
X166.946 Y46.228
X166.36 Y46.831
X165.743 Y47.402
X165.097 Y47.941
X164.425 Y48.446
X163.727 Y48.915
X163.004 Y49.346
X162.26 Y49.738
X161.496 Y50.09
X160.716 Y50.403
X159.92 Y50.675
X159.111 Y50.906
X158.292 Y51.096
X157.464 Y51.242
X156.629 Y51.344
X155.79 Y51.403
X154.949 Y51.418
X154.109 Y51.392
X153.27 Y51.323
X152.437 Y51.213
X151.61 Y51.06
X150.792 Y50.863
X149.985 Y50.626
X149.192 Y50.347
X148.413 Y50.029
X147.651 Y49.673
X146.908 Y49.28
X146.185 Y48.85
X145.485 Y48.384
X144.809 Y47.883
X144.16 Y47.348
X143.539 Y46.782
X142.946 Y46.185
X142.383 Y45.56
X141.851 Y44.909
X141.352 Y44.232
X140.888 Y43.53
X140.46 Y42.806
X140.069 Y42.062
X139.715 Y41.299
X139.399 Y40.52
X139.12 Y39.726
X138.881 Y38.92
X138.682 Y38.103
X138.524 Y37.277
X138.408 Y36.444
X138.333 Y35.606
X138.299 Y34.766
X138.306 Y33.925
X138.354 Y33.085
X138.442 Y32.249
X138.572 Y31.418
X138.743 Y30.595
X138.954 Y29.781
X139.206 Y28.978
X139.496 Y28.189
X139.824 Y27.414
X140.188 Y26.656
X140.59 Y25.917
X141.027 Y25.199
X141.5 Y24.504
X142.006 Y23.832
X142.545 Y23.186
X143.115 Y22.567
X143.713 Y21.977
X144.339 Y21.415
X144.992 Y20.885
X145.671 Y20.388
X146.373 Y19.926
X147.097 Y19.498
X147.842 Y19.106
X148.604 Y18.751
X149.382 Y18.433
X150.175 Y18.152
X150.981 Y17.912
X151.798 Y17.711
X152.623 Y17.551
X153.456 Y17.431
X154.293 Y17.352
X155.133 Y17.314
X155.974 Y17.316
X156.814 Y17.359
X157.651 Y17.443
X158.482 Y17.568
X159.307 Y17.733
X160.123 Y17.938
X160.927 Y18.182
X161.72 Y18.464
X162.498 Y18.783
X163.26 Y19.138
X164.005 Y19.529
X164.73 Y19.955
X165.434 Y20.415
X166.116 Y20.907
X166.774 Y21.431
X167.408 Y21.984
X168.016 Y22.565
X168.596 Y23.174
X169.147 Y23.809
X169.669 Y24.469
X170.159 Y25.152
X170.618 Y25.857
X171.043 Y26.582
X171.436 Y27.326
X171.794 Y28.087
X172.118 Y28.863
X172.406 Y29.654
X172.656 Y30.456
X172.869 Y31.27
X173.045 Y32.092
X173.182 Y32.922
X173.281 Y33.757
X173.342 Y34.596
X173.364 Y35.437
X173.347 Y36.278
X173.291 Y37.117
X173.195 Y37.952
X173.061 Y38.783
X172.888 Y39.606
X172.678 Y40.42
X172.43 Y41.224
X172.146 Y42.015
X171.825 Y42.792
X171.468 Y43.554
X171.076 Y44.298
X170.649 Y45.023
X170.19 Y45.727
X169.698 Y46.409
X169.175 Y47.068
X168.623 Y47.702
X168.041 Y48.31
X167.432 Y48.89
X166.797 Y49.44
X166.136 Y49.961
X165.453 Y50.451
X164.747 Y50.909
X164.022 Y51.335
X163.278 Y51.727
X162.517 Y52.084
X161.74 Y52.406
X160.949 Y52.692
X160.146 Y52.942
X159.332 Y53.154
X158.51 Y53.33
X157.68 Y53.468
X156.845 Y53.569
X156.006 Y53.632
X155.166 Y53.657
X154.325 Y53.643
X153.485 Y53.592
X152.649 Y53.503
X151.818 Y53.377
X150.993 Y53.214
X150.176 Y53.014
X149.368 Y52.779
X148.573 Y52.507
X147.79 Y52.199
X147.021 Y51.858
X146.269 Y51.482
X145.534 Y51.074
X144.817 Y50.633
X144.121 Y50.161
X143.446 Y49.66
X142.794 Y49.129
X142.166 Y48.569
X141.564 Y47.982
X140.988 Y47.369
X140.439 Y46.732
X139.919 Y46.071
X139.428 Y45.388
X138.968 Y44.684
X138.538 Y43.961
X138.141 Y43.22
X137.777 Y42.462
X137.447 Y41.688
X137.15 Y40.901
X136.888 Y40.102
X136.661 Y39.292
X136.47 Y38.474
X136.313 Y37.647
X136.193 Y36.815
X136.11 Y35.978
X136.064 Y35.138
X136.054 Y34.297
X136.081 Y33.457
X136.144 Y32.618
X136.243 Y31.783
X136.378 Y30.953
X136.548 Y30.129
X136.755 Y29.314
X136.997 Y28.509
X137.274 Y27.714
X137.585 Y26.933
X137.929 Y26.166
X138.307 Y25.414
X138.716 Y24.679
X139.156 Y23.963
X139.627 Y23.266
X140.128 Y22.591
X140.658 Y21.938
X141.216 Y21.309
X141.801 Y20.704
X142.411 Y20.125
X143.045 Y19.573
X143.703 Y19.048
X144.382 Y18.553
X145.082 Y18.087
X145.802 Y17.652
X146.54 Y17.249
X147.296 Y16.879
X148.066 Y16.541
X148.85 Y16.237
X149.646 Y15.967
X150.453 Y15.731
X151.27 Y15.53
X152.095 Y15.364
X152.926 Y15.236
X153.762 Y15.143
X154.601 Y15.086
X155.441 Y15.066
X156.282 Y15.081
X157.122 Y15.133
X157.958 Y15.22
X158.79 Y15.343
X159.616 Y15.502
X160.434 Y15.696
X161.243 Y15.926
X162.042 Y16.189
X162.829 Y16.486
X163.603 Y16.816
X164.362 Y17.177
X165.106 Y17.57
X165.832 Y17.993
X166.54 Y18.447
X167.229 Y18.93
X167.896 Y19.442
X168.542 Y19.98
X169.165 Y20.545
X169.765 Y21.135
X170.34 Y21.748
X170.89 Y22.385
X171.413 Y23.043
X171.909 Y23.722
X172.376 Y24.422
X172.814 Y25.14
X173.222 Y25.875
X173.601 Y26.626
X173.948 Y27.392
X174.264 Y28.171
X174.549 Y28.963
X174.801 Y29.765
X175.019 Y30.577
X175.204 Y31.398
X175.354 Y32.225
X175.47 Y33.058
X175.553 Y33.895
X175.6 Y34.735
X175.614 Y35.576
X175.593 Y36.416
X175.538 Y37.256
X175.448 Y38.092
X175.323 Y38.923
X175.163 Y39.749
X174.97 Y40.568
X174.743 Y41.377
X174.483 Y42.177
X174.19 Y42.966
X173.865 Y43.741
X173.509 Y44.503
X173.122 Y45.25
X172.703 Y45.979
X172.254 Y46.69
X171.777 Y47.383
X171.271 Y48.055
X170.738 Y48.705
X170.179 Y49.333
X169.594 Y49.938
X168.986 Y50.519
X168.354 Y51.074
X167.699 Y51.601
X167.023 Y52.102
X166.327 Y52.574
X165.613 Y53.017
X164.881 Y53.431
X164.132 Y53.815
X163.369 Y54.169
X162.592 Y54.491
X161.803 Y54.781
X161.003 Y55.039
X160.192 Y55.263
X159.373 Y55.454
X158.547 Y55.612
X157.715 Y55.737
X156.879 Y55.828
X156.04 Y55.886
X155.2 Y55.91
X154.359 Y55.901
X153.519 Y55.857
X152.681 Y55.779
X151.848 Y55.667
X151.019 Y55.522
X150.197 Y55.345
X149.383 Y55.135
X148.578 Y54.892
X147.782 Y54.619
X146.999 Y54.314
X146.228 Y53.978
X145.471 Y53.611
X144.73 Y53.214
X144.005 Y52.788
X143.297 Y52.333
X142.607 Y51.852
X141.937 Y51.343
X141.288 Y50.809
X140.66 Y50.25
X140.054 Y49.666
X139.472 Y49.059
X138.915 Y48.429
X138.383 Y47.778
X137.877 Y47.106
X137.398 Y46.415
X136.946 Y45.706
X136.522 Y44.979
X136.126 Y44.237
X135.76 Y43.48
X135.423 Y42.71
X135.118 Y41.926
X134.844 Y41.131
X134.601 Y40.326
X134.389 Y39.512
X134.209 Y38.69
X134.061 Y37.862
X133.946 Y37.029
X133.862 Y36.193
X133.811 Y35.353
X133.794 Y34.512
X133.809 Y33.671
X133.857 Y32.832
X133.938 Y31.995
X134.051 Y31.161
X134.197 Y30.333
X134.374 Y29.511
X134.583 Y28.696
X134.823 Y27.89
X135.094 Y27.094
X135.397 Y26.309
X135.73 Y25.537
X136.092 Y24.778
X136.484 Y24.034
X136.904 Y23.306
X137.352 Y22.594
X137.828 Y21.9
X138.329 Y21.225
X138.856 Y20.57
X139.409 Y19.936
X139.986 Y19.324
X140.586 Y18.735
X141.209 Y18.17
X141.853 Y17.629
X142.517 Y17.113
X143.201 Y16.623
X143.903 Y16.16
X144.622 Y15.725
X145.358 Y15.317
X146.109 Y14.939
X146.875 Y14.591
X147.653 Y14.272
X148.443 Y13.984
X149.244 Y13.727
X150.054 Y13.5
X150.872 Y13.305
X151.697 Y13.141
X152.527 Y13.009
X153.362 Y12.91
X154.201 Y12.844
X155.041 Y12.81
X155.882 Y12.809
X156.723 Y12.84
X157.561 Y12.903
X158.397 Y12.999
X159.228 Y13.126
X160.054 Y13.285
X160.873 Y13.475
X161.684 Y13.697
X162.486 Y13.95
X163.278 Y14.233
X164.059 Y14.546
X164.827 Y14.889
X165.582 Y15.259
X166.322 Y15.658
X167.047 Y16.085
X167.756 Y16.538
X168.447 Y17.017
X169.119 Y17.522
X169.772 Y18.052
X170.405 Y18.606
X171.017 Y19.183
X171.607 Y19.782
X172.175 Y20.402
X172.719 Y21.043
X173.24 Y21.704
X173.736 Y22.383
X174.207 Y23.079
X174.652 Y23.793
X175.069 Y24.523
X175.46 Y25.268
X175.822 Y26.027
X176.157 Y26.799
X176.464 Y27.582
X176.741 Y28.376
X176.989 Y29.179
X177.208 Y29.991
X177.396 Y30.811
X177.554 Y31.637
X177.68 Y32.468
X177.776 Y33.304
X177.84 Y34.143
X177.874 Y34.983
X177.877 Y35.824
X177.849 Y36.664
X177.789 Y37.503
X177.699 Y38.339
X177.578 Y39.172
X177.426 Y39.999
X177.242 Y40.82
X177.028 Y41.633
X176.784 Y42.438
X176.511 Y43.233
X176.208 Y44.018
X175.877 Y44.791
X175.517 Y45.551
X175.13 Y46.297
X174.714 Y47.029
X174.272 Y47.744
X173.803 Y48.442
X173.308 Y49.122
X172.788 Y49.783
X172.245 Y50.425
X171.678 Y51.046
X171.088 Y51.646
X170.477 Y52.224
X169.845 Y52.778
X169.193 Y53.31
X168.522 Y53.816
X167.832 Y54.297
X167.124 Y54.752
X166.401 Y55.18
X165.662 Y55.582
X164.909 Y55.956
X164.143 Y56.303
X163.365 Y56.622
X162.575 Y56.912
X161.776 Y57.173
X160.967 Y57.404
X160.15 Y57.605
X159.327 Y57.776
X158.498 Y57.917
X157.664 Y58.027
X156.827 Y58.108
X155.987 Y58.158
X155.147 Y58.178
X154.306 Y58.167
X153.466 Y58.127
X152.628 Y58.055
X151.793 Y57.953
X150.963 Y57.82
X150.137 Y57.657
X149.319 Y57.465
X148.507 Y57.244
X147.704 Y56.994
X146.911 Y56.715
X146.128 Y56.409
X145.356 Y56.074
X144.597 Y55.712
X143.852 Y55.322
X143.121 Y54.906
X142.406 Y54.464
X141.707 Y53.996
X141.024 Y53.504
X140.36 Y52.989
X139.715 Y52.45
X139.088 Y51.888
X138.483 Y51.305
X137.898 Y50.7
X137.335 Y50.075
X136.796 Y49.43
X136.279 Y48.766
X135.787 Y48.084
X135.319 Y47.386
X134.876 Y46.671
X134.458 Y45.941
X134.067 Y45.197
X133.701 Y44.439
X133.363 Y43.669
X133.052 Y42.888
X132.77 Y42.096
X132.516 Y41.294
X132.29 Y40.484
X132.093 Y39.666
X131.925 Y38.842
X131.786 Y38.013
X131.676 Y37.179
X131.595 Y36.342
X131.544 Y35.502
X131.522 Y34.662
X131.531 Y33.821
X131.569 Y32.98
X131.637 Y32.142
X131.735 Y31.307
X131.861 Y30.476
X132.017 Y29.649
X132.202 Y28.829
X132.414 Y28.015
X132.656 Y27.209
X132.925 Y26.412
X133.222 Y25.626
X133.547 Y24.85
X133.9 Y24.087
X134.279 Y23.336
X134.684 Y22.599
X135.115 Y21.877
X135.571 Y21.17
X136.051 Y20.479
X136.554 Y19.806
X137.081 Y19.15
X137.631 Y18.514
X138.203 Y17.897
X138.796 Y17.301
X139.411 Y16.727
X140.045 Y16.174
X140.697 Y15.644
X141.368 Y15.137
X142.057 Y14.654
X142.761 Y14.194
X143.481 Y13.76
X144.216 Y13.351
X144.965 Y12.968
X145.727 Y12.612
X146.501 Y12.284
X147.286 Y11.983
X148.082 Y11.709
X148.886 Y11.464
X149.698 Y11.246
X150.518 Y11.057
X151.343 Y10.896
X152.174 Y10.765
X153.009 Y10.662
X153.846 Y10.589
X154.686 Y10.546
X155.527 Y10.532
X156.368 Y10.548
X157.208 Y10.594
X158.046 Y10.668
X158.88 Y10.771
X159.711 Y10.903
X160.536 Y11.063
X161.356 Y11.252
X162.168 Y11.469
X162.973 Y11.715
X163.768 Y11.988
X164.553 Y12.289
X165.328 Y12.617
X166.091 Y12.971
X166.841 Y13.351
X167.578 Y13.755
X168.302 Y14.185
X169.01 Y14.639
X169.702 Y15.116
X170.378 Y15.617
X171.036 Y16.14
X171.675 Y16.686
X172.296 Y17.254
X172.898 Y17.842
X173.479 Y18.449
X174.04 Y19.076
X174.579 Y19.721
X175.097 Y20.384
X175.593 Y21.063
X176.065 Y21.759
X176.514 Y22.47
X176.939 Y23.196
X177.338 Y23.936
X177.713 Y24.689
X178.062 Y25.455
X178.385 Y26.231
X178.682 Y27.018
X178.953 Y27.814
X179.198 Y28.618
X179.415 Y29.431
X179.606 Y30.25
X179.768 Y31.075
X179.902 Y31.905
X180.008 Y32.74
X180.085 Y33.577
X180.135 Y34.417
X180.156 Y35.257
X180.149 Y36.098
X180.114 Y36.939
X180.051 Y37.777
X179.96 Y38.613
X179.84 Y39.446
X179.693 Y40.274
X179.517 Y41.096
X179.314 Y41.912
X179.082 Y42.721
X178.824 Y43.521
X178.539 Y44.312
X178.227 Y45.093
X177.89 Y45.864
X177.527 Y46.622
X177.139 Y47.368
X176.725 Y48.101
X176.288 Y48.819
X175.825 Y49.522
X175.339 Y50.208
X174.83 Y50.877
X174.299 Y51.529
X173.746 Y52.163
X173.172 Y52.778
X172.578 Y53.373
X171.965 Y53.949
X171.332 Y54.503
X170.682 Y55.036
X170.014 Y55.547
X169.328 Y56.034
X168.627 Y56.498
X167.91 Y56.938
X167.179 Y57.354
X166.435 Y57.745
X165.678 Y58.112
X164.909 Y58.453
X164.13 Y58.769
X163.34 Y59.058
X162.541 Y59.321
X161.734 Y59.558
X160.919 Y59.766
X160.098 Y59.948
X159.271 Y60.101
X158.44 Y60.227
X157.605 Y60.326
X156.767 Y60.397
X155.927 Y60.441
X155.086 Y60.457
X154.245 Y60.446
X153.405 Y60.407
X152.567 Y60.34
X151.731 Y60.245
X150.899 Y60.123
X150.072 Y59.972
X149.249 Y59.795
X148.434 Y59.591
X147.625 Y59.36
X146.824 Y59.104
X146.032 Y58.821
X145.249 Y58.513
X144.477 Y58.18
X143.716 Y57.821
X142.968 Y57.438
X142.233 Y57.029
X141.511 Y56.597
X140.804 Y56.142
X140.112 Y55.664
X139.436 Y55.163
X138.777 Y54.641
X138.134 Y54.099
X137.51 Y53.535
X136.904 Y52.952
X136.317 Y52.35
X135.75 Y51.729
X135.204 Y51.089
X134.679 Y50.432
X134.176 Y49.758
X133.695 Y49.068
X133.237 Y48.363
X132.801 Y47.644
X132.388 Y46.911
X132. Y46.165
X131.635 Y45.407
X131.295 Y44.638
X130.979 Y43.859
X130.69 Y43.069
X130.427 Y42.27
X130.19 Y41.463
X129.979 Y40.649
X129.794 Y39.829
X129.635 Y39.003
X129.503 Y38.172
X129.397 Y37.338
X129.318 Y36.501
X129.266 Y35.661
X129.241 Y34.821
X129.243 Y33.98
X129.273 Y33.139
X129.33 Y32.3
X129.414 Y31.463
X129.525 Y30.63
X129.663 Y29.8
X129.826 Y28.975
X130.016 Y28.156
X130.232 Y27.343
X130.474 Y26.537
X130.741 Y25.74
X131.034 Y24.952
X131.352 Y24.173
X131.696 Y23.405
X132.064 Y22.649
X132.456 Y21.905
X132.872 Y21.175
X133.311 Y20.457
X133.772 Y19.754
X134.256 Y19.066
X134.761 Y18.393
X135.287 Y17.737
X135.834 Y17.099
X136.401 Y16.478
X136.989 Y15.876
X137.595 Y15.293
X138.22 Y14.731
X138.863 Y14.188
X139.523 Y13.666
X140.199 Y13.166
X140.89 Y12.687
X141.596 Y12.23
X142.316 Y11.796
X143.05 Y11.385
X143.797 Y10.998
X144.556 Y10.636
X145.326 Y10.298
X146.107 Y9.986
X146.897 Y9.698
X147.696 Y9.436
X148.503 Y9.2
X149.317 Y8.989
X150.138 Y8.804
X150.964 Y8.645
X151.794 Y8.512
X152.628 Y8.406
X153.466 Y8.327
X154.305 Y8.275
X155.146 Y8.251
X155.987 Y8.253
X156.827 Y8.283
X157.666 Y8.339
X158.503 Y8.421
X159.337 Y8.53
X160.167 Y8.664
X160.993 Y8.825
X161.813 Y9.012
X162.627 Y9.225
X163.433 Y9.463
X164.231 Y9.728
X165.021 Y10.018
X165.801 Y10.332
X166.571 Y10.671
X167.329 Y11.033
X168.077 Y11.419
X168.812 Y11.828
X169.534 Y12.259
X170.242 Y12.713
X170.936 Y13.188
X171.615 Y13.684
X172.277 Y14.202
X172.923 Y14.741
X173.552 Y15.299
X174.164 Y15.876
X174.757 Y16.472
X175.332 Y17.086
X175.888 Y17.717
X176.424 Y18.365
X176.941 Y19.029
X177.437 Y19.708
X177.911 Y20.402
X178.365 Y21.111
X178.796 Y21.833
X179.204 Y22.568
X179.589 Y23.316
X179.951 Y24.075
X180.289 Y24.845
X180.604 Y25.625
X180.895 Y26.414
X181.162 Y27.211
X181.405 Y28.016
X181.623 Y28.829
X181.816 Y29.647
X181.984 Y30.471
X182.125 Y31.3
X182.241 Y32.133
X182.33 Y32.97
X182.394 Y33.808
X182.432 Y34.648
X182.444 Y35.489
X182.43 Y36.33
X182.391 Y37.17
X182.326 Y38.009
X182.236 Y38.845
X182.12 Y39.678
X181.978 Y40.507
X181.81 Y41.331
X181.616 Y42.149
X181.396 Y42.961
X181.152 Y43.766
X180.883 Y44.563
X180.59 Y45.351
X180.272 Y46.13
X179.931 Y46.898
X179.567 Y47.656
X179.179 Y48.403
X178.769 Y49.137
X178.336 Y49.858
X177.881 Y50.565
X177.403 Y51.257
X176.904 Y51.934
X176.385 Y52.595
X175.845 Y53.24
X175.286 Y53.869
X174.708 Y54.479
X174.111 Y55.072
X173.497 Y55.647
X172.866 Y56.202
X172.217 Y56.738
X171.553 Y57.253
X170.872 Y57.748
X170.177 Y58.22
X169.467 Y58.671
X168.743 Y59.1
X168.007 Y59.507
X167.259 Y59.891
X166.499 Y60.252
X165.729 Y60.59
X164.949 Y60.905
X164.16 Y61.196
X163.363 Y61.462
X162.557 Y61.704
X161.745 Y61.921
X160.926 Y62.112
X160.101 Y62.278
X159.272 Y62.419
X158.439 Y62.535
X157.603 Y62.626
X156.765 Y62.691
X155.925 Y62.731
X155.084 Y62.746
X154.243 Y62.736
X153.403 Y62.701
X152.564 Y62.64
X151.727 Y62.552
X150.894 Y62.44
X150.064 Y62.302
X149.239 Y62.138
X148.419 Y61.951
X147.606 Y61.738
X146.799 Y61.502
X145.999 Y61.242
X145.207 Y60.958
X144.424 Y60.65
X143.651 Y60.32
X142.888 Y59.966
X142.137 Y59.589
X141.397 Y59.189
X140.669 Y58.767
X139.955 Y58.323
X139.254 Y57.858
X138.567 Y57.373
X137.895 Y56.867
X137.238 Y56.342
X136.597 Y55.798
X135.973 Y55.234
X135.365 Y54.653
X134.775 Y54.054
X134.203 Y53.437
X133.65 Y52.803
X133.117 Y52.153
X132.604 Y51.487
X132.11 Y50.806
X131.637 Y50.111
X131.185 Y49.402
X130.753 Y48.68
X130.343 Y47.945
X129.955 Y47.199
X129.589 Y46.442
X129.245 Y45.675
X128.924 Y44.897
X128.628 Y44.11
X128.355 Y43.315
X128.051 Y42.315
X128.023 Y42.192
X128.006 Y42.066
X128. Y41.94
Y29.191
X128.042 Y28.351
X128.115 Y27.513
X128.25 Y26.683
X128.435 Y25.863
X128.662 Y25.053
X128.924 Y24.254
X129.218 Y23.466
X129.541 Y22.69
X129.892 Y21.925
X130.268 Y21.173
X130.667 Y20.433
X131.09 Y19.706
X131.535 Y18.992
X132.001 Y18.292
X132.488 Y17.606
X132.994 Y16.935
X133.521 Y16.279
X134.067 Y15.639
X134.631 Y15.016
X135.214 Y14.41
X135.815 Y13.821
X136.433 Y13.251
X137.068 Y12.699
X137.719 Y12.166
X138.385 Y11.653
X139.065 Y11.159
X139.76 Y10.686
X140.469 Y10.232
X141.19 Y9.8
X141.924 Y9.389
X142.669 Y9.
X143.426 Y8.633
X144.193 Y8.288
X144.971 Y7.967
X145.757 Y7.67
X146.552 Y7.395
X147.355 Y7.144
X147.806 Y7.023
X147.932 Y7.006
X148.06 Y7.
X160.821
X161.661 Y7.042
X162.499 Y7.116
X163.329 Y7.251
X164.15 Y7.436
X164.96 Y7.661
X165.76 Y7.921
X166.549 Y8.213
X167.326 Y8.533
X168.093 Y8.879
X168.847 Y9.25
X169.59 Y9.645
X170.32 Y10.062
X171.038 Y10.501
X171.742 Y10.961
X172.432 Y11.441
X173.108 Y11.941
X173.769 Y12.461
X174.416 Y12.999
X175.046 Y13.556
X175.66 Y14.13
X176.258 Y14.722
X176.838 Y15.331
X177.401 Y15.956
X177.946 Y16.596
X178.472 Y17.252
X178.98 Y17.923
X179.469 Y18.607
X179.937 Y19.305
X180.386 Y20.017
X180.814 Y20.74
X181.222 Y21.476
X181.609 Y22.223
X181.975 Y22.98
X182.319 Y23.747
X182.641 Y24.524
X182.908 Y25.225
X182.959 Y25.387
X182.99 Y25.554
X183. Y25.724
Y42.951
X182.958 Y43.791
X182.914 Y44.209
X182.791 Y45.036
X182.6 Y45.855
X182.357 Y46.66
X182.072 Y47.451
X181.75 Y48.228
X181.397 Y48.991
X181.016 Y49.741
X180.609 Y50.477
X180.178 Y51.199
X179.724 Y51.907
X179.249 Y52.601
X178.754 Y53.281
X178.238 Y53.945
X177.704 Y54.595
X177.151 Y55.228
X176.579 Y55.845
X175.991 Y56.446
X175.385 Y57.029
X174.763 Y57.595
X174.125 Y58.143
X173.471 Y58.673
X172.803 Y59.183
X172.12 Y59.674
X171.424 Y60.146
X170.715 Y60.598
X169.993 Y61.03
X169.26 Y61.441
X168.515 Y61.832
X167.759 Y62.201
X166.993 Y62.548
X166.218 Y62.874
X165.434 Y63.178
X164.641 Y63.459
X163.841 Y63.718
X163.034 Y63.954
X162.22 Y64.168
X161.401 Y64.358
X160.577 Y64.525
X159.749 Y64.67
X158.916 Y64.791
X158.081 Y64.888
X157.243 Y64.962
X156.404 Y65.013
X155.563 Y65.04
X154.722 Y65.043
X153.881 Y65.023
X153.042 Y64.98
X152.203 Y64.912
X151.367 Y64.822
X150.534 Y64.708
X149.704 Y64.571
X148.879 Y64.411
X148.058 Y64.228
X147.242 Y64.022
X146.433 Y63.794
X145.63 Y63.543
X144.835 Y63.27
X144.047 Y62.975
X143.268 Y62.658
X142.498 Y62.32
X141.738 Y61.961
X140.988 Y61.58
X140.249 Y61.179
X139.521 Y60.757
X138.805 Y60.316
X138.102 Y59.855
X137.411 Y59.375
X136.734 Y58.876
X136.071 Y58.358
X135.423 Y57.822
X134.79 Y57.269
X134.172 Y56.698
X133.57 Y56.11
X132.985 Y55.506
X132.417 Y54.886
X131.866 Y54.251
X131.333 Y53.601
X130.817 Y52.936
X130.32 Y52.258
X129.842 Y51.566
X129.383 Y50.861
X128.944 Y50.144
X128.525 Y49.415
X128.168 Y48.752
X128.075 Y48.541
X128.019 Y48.318
X128. Y48.088
Y41.94
G3 X128.054 Y41.712 I0.6 J0.021
G1 X128.093 Y41.627 Z-1.993
X128.131 Y41.543 Z-1.971
X128.167 Y41.464 Z-1.935
X128.2 Y41.391 Z-1.885
X128.23 Y41.326 Z-1.824
X128.255 Y41.271 Z-1.753
X128.275 Y41.226 Z-1.672
X128.29 Y41.193 Z-1.585
X128.299 Y41.173 Z-1.494
X128.302 Y41.166 Z-1.4
G0 Z2.502
X160.537 Y7.745
Z-0.8
G1 Z-1.4 F500.
X160.539 Y7.738 Z-1.494
X160.543 Y7.716 Z-1.585
X160.549 Y7.681 Z-1.672
X160.558 Y7.632 Z-1.753
X160.568 Y7.572 Z-1.824
X160.581 Y7.501 Z-1.885
X160.595 Y7.422 Z-1.935
X160.611 Y7.337 Z-1.971
X160.627 Y7.247 Z-1.993
X160.643 Y7.154 Z-2.
G3 X160.821 Y7. I0.185 J0.033
G1 X166.935
X167.684 Y7.037
X168.254 Y7.112
X168.938 Y7.258
X169.743 Y7.5
X170.527 Y7.804
X171.291 Y8.157
X172.035 Y8.549
X172.761 Y8.974
X173.469 Y9.427
X174.161 Y9.905
X174.837 Y10.406
X175.496 Y10.927
X176.141 Y11.468
X176.769 Y12.027
X177.381 Y12.603
X177.978 Y13.196
X178.558 Y13.805
X179.122 Y14.429
X179.668 Y15.068
X180.198 Y15.722
X180.71 Y16.389
X181.204 Y17.069
X181.68 Y17.763
X182.137 Y18.469
X182.575 Y19.187
X182.814 Y19.602
X182.916 Y19.822
X182.979 Y20.057
X183. Y20.299
Y25.724
G3 X182.946 Y25.952 I-0.6 J-0.021
X181.944 Y26.092 I-0.546 J-0.249
G1 X166.5 Y7.989
G3 X166.935 Y7. I0.456 J-0.389
G1 X171.521
X171.951 Y7.022
X172.389 Y7.079
X172.91 Y7.19
X173.505 Y7.369
X174.217 Y7.646
X174.973 Y8.013
X175.702 Y8.433
X176.405 Y8.894
X177.086 Y9.388
X177.745 Y9.91
X178.386 Y10.455
X179.007 Y11.022
X179.611 Y11.607
X180.198 Y12.209
X180.768 Y12.828
X181.321 Y13.461
X181.857 Y14.109
X182.376 Y14.771
X182.723 Y15.237
X182.875 Y15.494
X182.968 Y15.777
X183. Y16.073
Y20.299
G3 X182.946 Y20.527 I-0.6 J-0.021
X181.945 Y20.669 I-0.546 J-0.249
G1 X171.086 Y7.99
G3 X171.521 Y7. I0.456 J-0.39
G1 X175.151
X175.652 Y7.025
X176.033 Y7.075
X176.467 Y7.168
X176.969 Y7.318
X177.558 Y7.548
X178.245 Y7.881
X178.97 Y8.308
X179.662 Y8.785
X180.325 Y9.302
X180.963 Y9.85
X181.577 Y10.425
X182.171 Y11.021
X182.624 Y11.507
X182.784 Y11.715
X182.903 Y11.949
X182.975 Y12.201
X183. Y12.462
Y16.073
G3 X182.946 Y16.301 I-0.6 J-0.021
X181.944 Y16.442 I-0.546 J-0.249
G1 X174.716 Y7.99
G3 X175.151 Y7. I0.456 J-0.39
G1 X178.59
X179.013 Y7.021
X179.359 Y7.067
X179.748 Y7.15
X180.197 Y7.284
X180.716 Y7.486
X181.299 Y7.769
X181.984 Y8.172
X182.34 Y8.422
X182.577 Y8.633
X182.761 Y8.893
X182.882 Y9.187
G3 X182.044 Y9.873 I-0.583 J0.143
G1 X178.356 Y8.143
G3 X178.59 Y7. I0.255 J-0.543
G1 X179.928 Y7.007
X180.362 Y7.022
X180.692 Y7.082
X181.11 Y7.213
X181.265 Y7.281
X181.498 Y7.405
X181.647 Y7.497
X181.838 Y7.635
X182.029 Y7.799
X182.221 Y7.989
X182.412 Y8.226
X182.51 Y8.36
X182.724 Y8.742
X182.8 Y8.933
X182.918 Y9.316
X182.983 Y9.698
X183. Y10.653
Y12.462
G3 X182.946 Y12.69 I-0.6 J-0.021
G1 X182.907 Y12.775 Z-1.993
X182.869 Y12.859 Z-1.971
X182.833 Y12.938 Z-1.935
X182.8 Y13.011 Z-1.885
X182.77 Y13.076 Z-1.824
X182.745 Y13.132 Z-1.753
X182.725 Y13.176 Z-1.672
X182.71 Y13.209 Z-1.585
X182.701 Y13.229 Z-1.494
X182.698 Y13.236 Z-1.4
G0 Z2.502
X128.745 Y29.475
Z-0.8
G1 Z-1.4 F500.
X128.738 Y29.474 Z-1.494
X128.716 Y29.47 Z-1.585
X128.681 Y29.464 Z-1.672
X128.632 Y29.455 Z-1.753
X128.572 Y29.444 Z-1.824
X128.501 Y29.431 Z-1.885
X128.422 Y29.417 Z-1.935
X128.337 Y29.402 Z-1.971
X128.247 Y29.386 Z-1.993
X128.154 Y29.369 Z-2.
G3 X128. Y29.191 I0.033 J-0.185
G1 Y23.076
X128.035 Y22.38
X128.109 Y21.817
X128.253 Y21.144
X128.492 Y20.345
X128.797 Y19.561
X129.152 Y18.799
X129.548 Y18.056
X129.976 Y17.333
X130.433 Y16.627
X130.916 Y15.938
X131.421 Y15.266
X131.948 Y14.61
X132.494 Y13.971
X133.059 Y13.348
X133.642 Y12.742
X134.242 Y12.152
X134.859 Y11.58
X135.49 Y11.025
X136.137 Y10.488
X136.799 Y9.968
X137.475 Y9.468
X138.164 Y8.986
X138.866 Y8.523
X139.58 Y8.079
X140.307 Y7.655
X141.233 Y7.154
X141.437 Y7.069
X141.652 Y7.017
X141.872 Y7.
X148.06
G3 X148.412 Y8.069 I-0.021 J0.6
G1 X128.973 Y23.524
G3 X128.054 Y23.303 I-0.373 J-0.47
X128. Y23.076 I0.546 J-0.249
G1 Y18.68
X128.027 Y18.145
X128.084 Y17.712
X128.193 Y17.2
X128.368 Y16.616
X128.639 Y15.92
X129.006 Y15.163
X129.428 Y14.435
X129.891 Y13.734
X130.389 Y13.056
X130.915 Y12.399
X131.465 Y11.763
X132.037 Y11.146
X132.628 Y10.548
X133.236 Y9.967
X133.861 Y9.404
X134.501 Y8.859
X135.156 Y8.332
X135.825 Y7.822
X136.635 Y7.243
X136.88 Y7.11
X137.147 Y7.028
X137.424 Y7.
X141.872
G3 X142.236 Y8.06 I-0.021 J0.6
G1 X128.984 Y19.12
G3 X128.054 Y18.908 I-0.384 J-0.461
X128. Y18.68 I0.546 J-0.249
G1 Y14.858
X128.018 Y14.498
X128.068 Y14.12
X128.159 Y13.694
X128.307 Y13.198
X128.533 Y12.618
X128.857 Y11.95
X129.284 Y11.225
X129.763 Y10.534
X130.283 Y9.873
X130.834 Y9.238
X131.413 Y8.627
X132.013 Y8.039
X132.634 Y7.471
X132.788 Y7.338
X132.99 Y7.194
X133.214 Y7.087
X133.453 Y7.022
X133.701 Y7.
X137.424
G3 X137.784 Y8.063 I-0.021 J0.6
G1 X128.981 Y15.3
G3 X128.054 Y15.086 I-0.381 J-0.463
X128. Y14.858 I0.546 J-0.249
G1 Y11.609
X128.023 Y11.157
X128.067 Y10.816
X128.149 Y10.433
X128.281 Y9.992
X128.479 Y9.483
X128.756 Y8.914
X129.148 Y8.248
X129.67 Y7.512
X129.891 Y7.296
X130.154 Y7.134
X130.446 Y7.034
X130.753 Y7.
X133.701
G3 X133.929 Y7.054 I-0.021 J0.6
X134.05 Y8.072 I-0.249 J0.546
G1 X128.97 Y12.06
G3 X128.054 Y11.837 I-0.37 J-0.472
X128. Y11.609 I0.546 J-0.249
G1 X127.995 Y10.08
X127.982 Y9.698
X127.958 Y9.507
X127.889 Y9.211
X127.86 Y9.079
X127.832 Y8.858
X127.82 Y8.605
X127.828 Y8.361
X127.842 Y8.241
X127.905 Y7.957
X128.025 Y7.692
X128.198 Y7.458
X128.415 Y7.264
X128.667 Y7.12
X128.944 Y7.03
X129.233 Y7.
G3 X129.744 Y7.878 I-0.021 J0.6
G1 X128.993 Y9.311
G3 X128.001 Y9.416 I-0.532 J-0.278
X127.889 Y9.211 I0.461 J-0.384
G1 X127.801 Y8.933
X127.721 Y8.742
X127.576 Y8.465
X127.505 Y8.36
X127.435 Y8.245
X127.367 Y8.004
X127.368 Y7.753
X127.44 Y7.513
X127.576 Y7.303
X127.766 Y7.139
X127.994 Y7.036
X128.243 Y7.
G3 X128.929 Y7.396 I-0.029 J0.844
X127.669 Y8.529 I-0.729 J0.457
X127.505 Y8.36 I0.531 J-0.677
G1 X127.376 Y8.169
X127.194 Y7.944
X127.15 Y7.865
X127.121 Y7.787
X127.1 Y7.691
X127.095 Y7.596
X127.106 Y7.5
X127.132 Y7.405
X127.194 Y7.283
X127.247 Y7.213
X127.316 Y7.145
X127.385 Y7.094
X127.466 Y7.051
X127.576 Y7.015
X127.672 Y7.001
X130.753 Y7.
G3 X130.98 Y7.054 I-0.021 J0.6
G1 X131.066 Y7.093 Z-1.993
X131.149 Y7.131 Z-1.971
X131.228 Y7.167 Z-1.935
X131.301 Y7.2 Z-1.885
X131.367 Y7.23 Z-1.824
X131.422 Y7.255 Z-1.753
X131.467 Y7.275 Z-1.672
X131.5 Y7.29 Z-1.585
X131.52 Y7.299 Z-1.494
X131.526 Y7.302 Z-1.4
G0 Z2.502
X182.255 Y42.667
Z-0.8
G1 Z-1.4 F500.
X182.262 Y42.669 Z-1.494
X182.284 Y42.672 Z-1.585
X182.319 Y42.679 Z-1.672
X182.368 Y42.687 Z-1.753
X182.428 Y42.698 Z-1.824
X182.499 Y42.711 Z-1.885
X182.578 Y42.725 Z-1.935
X182.663 Y42.74 Z-1.971
X182.753 Y42.757 Z-1.993
X182.846 Y42.773 Z-2.
G3 X183. Y42.951 I-0.033 J0.185
G1 Y48.493
X182.974 Y49.02
X182.907 Y49.527
X182.777 Y50.135
X182.559 Y50.861
X182.254 Y51.645
X181.894 Y52.405
X181.489 Y53.142
X181.05 Y53.859
X180.58 Y54.557
X180.085 Y55.237
X179.566 Y55.899
X179.027 Y56.544
X178.468 Y57.172
X177.89 Y57.783
X177.295 Y58.378
X176.684 Y58.955
X176.057 Y59.516
X175.415 Y60.059
X174.759 Y60.585
X174.089 Y61.094
X173.406 Y61.584
X172.71 Y62.056
X172.002 Y62.51
X171.282 Y62.945
X170.551 Y63.361
X169.809 Y63.758
X169.057 Y64.134
X168.296 Y64.491
X167.525 Y64.827
X166.746 Y65.143
X165.958 Y65.439
X165.163 Y65.714
X164.362 Y65.967
X163.553 Y66.2
X162.74 Y66.412
X161.92 Y66.603
X161.097 Y66.772
X160.269 Y66.92
X159.437 Y67.047
X158.603 Y67.151
X157.766 Y67.233
X156.927 Y67.294
X156.087 Y67.332
X155.246 Y67.349
X154.405 Y67.343
X153.564 Y67.316
X152.725 Y67.267
X151.887 Y67.197
X151.051 Y67.104
X150.218 Y66.991
X149.388 Y66.855
X148.561 Y66.699
X147.739 Y66.521
X146.922 Y66.322
X146.111 Y66.102
X145.305 Y65.86
X144.506 Y65.598
X143.714 Y65.315
X142.93 Y65.012
X142.153 Y64.688
X141.385 Y64.345
X140.627 Y63.982
X139.878 Y63.6
X139.138 Y63.199
X138.41 Y62.779
X137.692 Y62.34
X136.986 Y61.884
X136.292 Y61.409
X135.61 Y60.916
X134.942 Y60.406
X134.287 Y59.879
X133.645 Y59.335
X133.018 Y58.774
X132.405 Y58.198
X131.808 Y57.606
X131.225 Y57.
X130.659 Y56.378
X130.108 Y55.743
X129.574 Y55.093
X129.056 Y54.43
X128.555 Y53.755
X128.254 Y53.326
X128.115 Y53.077
X128.029 Y52.805
X128. Y52.521
Y48.088
G3 X128.054 Y47.86 I0.6 J0.021
G1 X128.093 Y47.775 Z-1.993
X128.131 Y47.691 Z-1.971
X128.167 Y47.612 Z-1.935
X128.2 Y47.539 Z-1.885
X128.23 Y47.474 Z-1.824
X128.255 Y47.418 Z-1.753
X128.275 Y47.374 Z-1.672
X128.29 Y47.341 Z-1.585
X128.299 Y47.321 Z-1.494
X128.302 Y47.314 Z-1.4
G0 Z2.502
X182.255 Y48.209
Z-0.8
G1 Z-1.4 F500.
X182.262 Y48.211 Z-1.494
X182.284 Y48.215 Z-1.585
X182.319 Y48.221 Z-1.672
X182.368 Y48.23 Z-1.753
X182.428 Y48.24 Z-1.824
X182.499 Y48.253 Z-1.885
X182.578 Y48.267 Z-1.935
X182.663 Y48.283 Z-1.971
X182.753 Y48.299 Z-1.993
X182.846 Y48.315 Z-2.
G3 X183. Y48.493 I-0.033 J0.185
G1 Y52.507
X182.972 Y53.068
X182.918 Y53.482
X182.814 Y53.966
X182.648 Y54.521
X182.391 Y55.18
X182.024 Y55.936
X181.599 Y56.662
X181.13 Y57.36
X180.625 Y58.032
X180.091 Y58.682
X179.532 Y59.311
X178.952 Y59.92
X178.353 Y60.51
X177.737 Y61.082
X177.104 Y61.636
X176.456 Y62.172
X175.794 Y62.691
X175.119 Y63.193
X174.431 Y63.677
X173.732 Y64.143
X173.021 Y64.592
X172.299 Y65.024
X171.566 Y65.437
X170.824 Y65.832
X170.071 Y66.208
X169.31 Y66.566
X168.541 Y66.905
X167.763 Y67.225
X166.978 Y67.526
X166.185 Y67.808
X165.386 Y68.07
X164.581 Y68.312
X163.77 Y68.535
X162.954 Y68.738
X162.133 Y68.921
X161.308 Y69.084
X160.479 Y69.226
X159.647 Y69.349
X158.812 Y69.451
X157.975 Y69.534
X157.137 Y69.595
X156.297 Y69.637
X155.456 Y69.658
X154.615
X153.774 Y69.638
X152.934 Y69.598
X152.095 Y69.537
X151.258 Y69.456
X150.423 Y69.354
X149.591 Y69.233
X148.762 Y69.091
X147.937 Y68.93
X147.115 Y68.749
X146.299 Y68.547
X145.487 Y68.327
X144.681 Y68.086
X143.882 Y67.827
X143.088 Y67.548
X142.302 Y67.25
X141.522 Y66.933
X140.751 Y66.598
X139.989 Y66.243
X139.235 Y65.871
X138.49 Y65.48
X137.754 Y65.072
X137.029 Y64.647
X136.314 Y64.204
X135.61 Y63.744
X134.917 Y63.267
X134.236 Y62.774
X133.567 Y62.265
X132.91 Y61.739
X132.266 Y61.198
X131.635 Y60.642
X131.018 Y60.071
X130.414 Y59.485
X129.825 Y58.885
X129.251 Y58.271
X128.691 Y57.643
X128.333 Y57.222
X128.191 Y57.021
X128.086 Y56.798
X128.022 Y56.56
X128. Y56.315
Y52.521
G3 X128.054 Y52.293 I0.6 J0.021
G1 X128.093 Y52.208 Z-1.993
X128.131 Y52.125 Z-1.971
X128.167 Y52.046 Z-1.935
X128.2 Y51.973 Z-1.885
X128.23 Y51.907 Z-1.824
X128.255 Y51.852 Z-1.753
X128.275 Y51.807 Z-1.672
X128.29 Y51.774 Z-1.585
X128.299 Y51.754 Z-1.494
X128.302 Y51.747 Z-1.4
G0 Z2.502
X182.255 Y52.223
Z-0.8
G1 Z-1.4 F500.
X182.262 Y52.224 Z-1.494
X182.284 Y52.228 Z-1.585
X182.319 Y52.234 Z-1.672
X182.368 Y52.243 Z-1.753
X182.428 Y52.254 Z-1.824
X182.499 Y52.266 Z-1.885
X182.578 Y52.281 Z-1.935
X182.663 Y52.296 Z-1.971
X182.753 Y52.312 Z-1.993
X182.846 Y52.329 Z-2.
G3 X183. Y52.507 I-0.033 J0.185
G1 Y56.138
X182.976 Y56.622
X182.928 Y56.99
X182.839 Y57.402
X182.696 Y57.882
X182.477 Y58.442
X182.169 Y59.077
X181.742 Y59.802
X181.261 Y60.492
X180.737 Y61.15
X180.181 Y61.781
X179.597 Y62.386
X178.991 Y62.969
X178.366 Y63.531
X177.723 Y64.074
X177.065 Y64.597
X176.392 Y65.102
X175.707 Y65.59
X175.01 Y66.06
X174.301 Y66.513
X173.582 Y66.949
X172.852 Y67.367
X172.113 Y67.768
X171.364 Y68.151
X170.607 Y68.517
X169.841 Y68.865
X169.068 Y69.195
X168.287 Y69.507
X167.499 Y69.8
X166.704 Y70.076
X165.904 Y70.333
X165.097 Y70.572
X164.286 Y70.793
X163.469 Y70.995
X162.649 Y71.178
X161.824 Y71.343
X160.996 Y71.489
X160.164 Y71.616
X159.33 Y71.724
X158.494 Y71.813
X157.656 Y71.883
X156.816 Y71.933
X155.976 Y71.965
X155.135 Y71.977
X154.294 Y71.97
X153.453 Y71.943
X152.614 Y71.898
X151.775 Y71.834
X150.938 Y71.75
X150.103 Y71.648
X149.271 Y71.527
X148.442 Y71.387
X147.616 Y71.229
X146.794 Y71.052
X145.976 Y70.857
X145.162 Y70.643
X144.354 Y70.41
X143.552 Y70.159
X142.755 Y69.89
X141.964 Y69.603
X141.181 Y69.297
X140.404 Y68.975
X139.635 Y68.635
X138.874 Y68.277
X138.121 Y67.903
X137.376 Y67.512
X136.64 Y67.104
X135.914 Y66.68
X135.198 Y66.24
X134.491 Y65.783
X133.795 Y65.311
X133.11 Y64.824
X132.436 Y64.32
X131.774 Y63.802
X131.123 Y63.269
X130.485 Y62.721
X129.86 Y62.159
X129.247 Y61.583
X128.647 Y60.994
X128.397 Y60.737
X128.228 Y60.526
X128.103 Y60.287
X128.026 Y60.029
X128. Y59.76
Y56.315
G3 X128.054 Y56.087 I0.6 J0.021
G1 X128.093 Y56.002 Z-1.993
X128.131 Y55.918 Z-1.971
X128.167 Y55.839 Z-1.935
X128.2 Y55.766 Z-1.885
X128.23 Y55.701 Z-1.824
X128.255 Y55.645 Z-1.753
X128.275 Y55.601 Z-1.672
X128.29 Y55.568 Z-1.585
X128.299 Y55.548 Z-1.494
X128.302 Y55.541 Z-1.4
G0 Z2.502
X182.255 Y55.854
Z-0.8
G1 Z-1.4 F500.
X182.262 Y55.855 Z-1.494
X182.284 Y55.859 Z-1.585
X182.319 Y55.865 Z-1.672
X182.368 Y55.874 Z-1.753
X182.428 Y55.885 Z-1.824
X182.499 Y55.898 Z-1.885
X182.578 Y55.912 Z-1.935
X182.663 Y55.927 Z-1.971
X182.753 Y55.943 Z-1.993
X182.846 Y55.96 Z-2.
G3 X183. Y56.138 I-0.033 J0.185
G1 Y59.578
X182.985 Y59.884
X182.941 Y60.219
X182.86 Y60.595
X182.731 Y61.028
X182.538 Y61.523
X182.268 Y62.08
X181.886 Y62.728
X181.402 Y63.417
X180.87 Y64.068
X180.3 Y64.686
X179.701 Y65.276
X179.078 Y65.841
X178.434 Y66.382
X177.773 Y66.902
X177.097 Y67.402
X176.407 Y67.884
X175.705 Y68.347
X174.992 Y68.792
X174.268 Y69.22
X173.534 Y69.63
X172.79 Y70.024
X172.038 Y70.4
X171.278 Y70.759
X170.51 Y71.101
X169.734 Y71.426
X168.951 Y71.735
X168.162 Y72.026
X167.367 Y72.3
X166.566 Y72.556
X165.76 Y72.796
X164.949 Y73.018
X164.133 Y73.222
X163.313 Y73.41
X162.49 Y73.579
X161.663 Y73.731
X160.832 Y73.865
X159.999 Y73.981
X159.164 Y74.079
X158.327 Y74.159
X157.488 Y74.22
X156.648 Y74.264
X155.808 Y74.29
X154.967 Y74.297
X154.126 Y74.287
X153.285 Y74.259
X152.445 Y74.213
X151.607 Y74.149
X150.77 Y74.067
X149.935 Y73.968
X149.102 Y73.85
X148.272 Y73.716
X147.445 Y73.563
X146.621 Y73.393
X145.801 Y73.205
X144.986 Y73.
X144.175 Y72.777
X143.369 Y72.536
X142.568 Y72.279
X141.773 Y72.004
X140.984 Y71.713
X140.202 Y71.405
X139.426 Y71.081
X138.657 Y70.74
X137.896 Y70.383
X137.142 Y70.01
X136.396 Y69.621
X135.659 Y69.217
X134.93 Y68.797
X134.21 Y68.362
X133.5 Y67.911
X132.8 Y67.446
X132.11 Y66.965
X131.43 Y66.47
X130.761 Y65.96
X130.103 Y65.437
X129.456 Y64.899
X128.821 Y64.348
X128.461 Y64.022
X128.266 Y63.805
X128.12 Y63.552
X128.03 Y63.275
X128. Y62.984
Y59.76
G3 X128.054 Y59.532 I0.6 J0.021
G1 X128.093 Y59.447 Z-1.993
X128.131 Y59.364 Z-1.971
X128.167 Y59.285 Z-1.935
X128.2 Y59.212 Z-1.885
X128.23 Y59.146 Z-1.824
X128.255 Y59.091 Z-1.753
X128.275 Y59.046 Z-1.672
X128.29 Y59.013 Z-1.585
X128.299 Y58.993 Z-1.494
X128.302 Y58.986 Z-1.4
G0 Z2.502
X182.255 Y59.294
Z-0.8
G1 Z-1.4 F500.
X182.262 Y59.295 Z-1.494
X182.284 Y59.299 Z-1.585
X182.319 Y59.305 Z-1.672
X182.368 Y59.314 Z-1.753
X182.428 Y59.325 Z-1.824
X182.499 Y59.338 Z-1.885
X182.578 Y59.352 Z-1.935
X182.663 Y59.367 Z-1.971
X182.753 Y59.383 Z-1.993
X182.846 Y59.4 Z-2.
G3 X183. Y59.578 I-0.033 J0.185
G1 Y62.636
X182.983 Y62.97
X182.943 Y63.276
X182.867 Y63.632
X182.748 Y64.03
X182.57 Y64.488
X182.324 Y64.993
X181.98 Y65.578
X181.508 Y66.25
X180.971 Y66.897
X180.392 Y67.507
X179.781 Y68.085
X179.145 Y68.635
X178.488 Y69.159
X177.812 Y69.661
X177.122 Y70.141
X176.418 Y70.602
X175.703 Y71.043
X174.976 Y71.466
X174.239 Y71.872
X173.493 Y72.26
X172.739 Y72.632
X171.976 Y72.987
X171.207 Y73.326
X170.43 Y73.648
X169.646 Y73.954
X168.857 Y74.243
X168.061 Y74.517
X167.261 Y74.774
X166.455 Y75.014
X165.644 Y75.239
X164.829 Y75.446
X164.01 Y75.638
X163.188 Y75.812
X162.362 Y75.97
X161.532 Y76.11
X160.7 Y76.234
X159.866 Y76.34
X159.03 Y76.43
X158.192 Y76.502
X157.353 Y76.557
X156.513 Y76.596
X155.672 Y76.617
X154.831 Y76.622
X153.99 Y76.609
X153.15 Y76.58
X152.31 Y76.534
X151.471 Y76.471
X150.634 Y76.392
X149.799 Y76.295
X148.965 Y76.182
X148.134 Y76.052
X147.306 Y75.906
X146.481 Y75.742
X145.66 Y75.561
X144.842 Y75.364
X144.029 Y75.151
X143.22 Y74.921
X142.416 Y74.675
X141.617 Y74.412
X140.823 Y74.134
X140.035 Y73.84
X139.253 Y73.53
X138.478 Y73.204
X137.709 Y72.864
X136.947 Y72.508
X136.192 Y72.137
X135.445 Y71.751
X134.706 Y71.35
X133.975 Y70.934
X133.252 Y70.504
X132.538 Y70.059
X131.834 Y69.6
X131.139 Y69.126
X130.453 Y68.639
X129.778 Y68.138
X129.113 Y67.624
X128.522 Y67.147
X128.302 Y66.926
X128.137 Y66.661
X128.035 Y66.367
X128. Y66.057
Y62.984
G3 X128.054 Y62.757 I0.6 J0.021
G1 X128.093 Y62.671 Z-1.993
X128.131 Y62.588 Z-1.971
X128.167 Y62.509 Z-1.935
X128.2 Y62.436 Z-1.885
X128.23 Y62.37 Z-1.824
X128.255 Y62.315 Z-1.753
X128.275 Y62.27 Z-1.672
X128.29 Y62.237 Z-1.585
X128.299 Y62.217 Z-1.494
X128.302 Y62.211 Z-1.4
G0 Z2.502
X182.255 Y62.352
Z-0.8
G1 Z-1.4 F500.
X182.262 Y62.353 Z-1.494
X182.284 Y62.357 Z-1.585
X182.319 Y62.363 Z-1.672
X182.368 Y62.372 Z-1.753
X182.428 Y62.383 Z-1.824
X182.499 Y62.395 Z-1.885
X182.578 Y62.409 Z-1.935
X182.663 Y62.425 Z-1.971
X182.753 Y62.441 Z-1.993
X182.846 Y62.458 Z-2.
G3 X183. Y62.636 I-0.033 J0.185
G1 Y65.502
X182.979 Y65.921
X182.941 Y66.208
X182.868 Y66.551
X182.757 Y66.924
X182.588 Y67.356
X182.36 Y67.826
X182.041 Y68.369
X181.607 Y68.986
X181.07 Y69.633
X180.487 Y70.239
X179.869 Y70.809
X179.223 Y71.348
X178.555 Y71.859
X177.869 Y72.345
X177.167 Y72.809
X176.452 Y73.252
X175.726 Y73.675
X174.989 Y74.08
X174.242 Y74.467
X173.487 Y74.837
X172.724 Y75.191
X171.953 Y75.528
X171.176 Y75.85
X170.393 Y76.155
X169.603 Y76.445
X168.808 Y76.719
X168.008 Y76.978
X167.203 Y77.221
X166.393 Y77.448
X165.579 Y77.66
X164.761 Y77.856
X163.94 Y78.036
X163.115 Y78.199
X162.287 Y78.347
X161.456 Y78.478
X160.623 Y78.594
X159.788 Y78.693
X158.951 Y78.776
X158.113 Y78.843
X157.273 Y78.894
X156.433 Y78.929
X155.592 Y78.948
X154.751 Y78.95
X153.91 Y78.937
X153.07 Y78.908
X152.23 Y78.863
X151.391 Y78.802
X150.554 Y78.726
X149.718 Y78.633
X148.884 Y78.525
X148.052 Y78.4
X147.223 Y78.259
X146.397 Y78.103
X145.574 Y77.93
X144.754 Y77.742
X143.938 Y77.537
X143.126 Y77.318
X142.319 Y77.083
X141.516 Y76.832
X140.718 Y76.567
X139.925 Y76.286
X139.138 Y75.99
X138.356 Y75.68
X137.581 Y75.355
X136.812 Y75.015
X136.049 Y74.661
X135.293 Y74.292
X134.544 Y73.91
X133.802 Y73.513
X133.068 Y73.102
X132.343 Y72.677
X131.625 Y72.238
X130.916 Y71.786
X130.216 Y71.32
X129.525 Y70.84
X128.844 Y70.348
X128.542 Y70.114
X128.314 Y69.891
X128.143 Y69.623
X128.036 Y69.324
X128. Y69.008
Y66.057
G3 X128.054 Y65.829 I0.6 J0.021
G1 X128.093 Y65.744 Z-1.993
X128.131 Y65.661 Z-1.971
X128.167 Y65.581 Z-1.935
X128.2 Y65.508 Z-1.885
X128.23 Y65.443 Z-1.824
X128.255 Y65.388 Z-1.753
X128.275 Y65.343 Z-1.672
X128.29 Y65.31 Z-1.585
X128.299 Y65.29 Z-1.494
X128.302 Y65.283 Z-1.4
G0 Z2.502
X182.255 Y65.218
Z-0.8
G1 Z-1.4 F500.
X182.262 Y65.22 Z-1.494
X182.284 Y65.224 Z-1.585
X182.319 Y65.23 Z-1.672
X182.368 Y65.239 Z-1.753
X182.428 Y65.249 Z-1.824
X182.499 Y65.262 Z-1.885
X182.578 Y65.276 Z-1.935
X182.663 Y65.291 Z-1.971
X182.753 Y65.308 Z-1.993
X182.846 Y65.324 Z-2.
G3 X183. Y65.502 I-0.033 J0.185
G1 Y68.369
X182.98 Y68.76
X182.944 Y69.042
X182.872 Y69.377
X182.766 Y69.729
X182.604 Y70.145
X182.389 Y70.588
X182.088 Y71.1
X181.682 Y71.678
X181.145 Y72.326
X180.557 Y72.928
X179.933 Y73.491
X179.279 Y74.02
X178.602 Y74.519
X177.907 Y74.992
X177.195 Y75.441
X176.471 Y75.868
X175.736 Y76.276
X174.99 Y76.665
X174.235 Y77.036
X173.472 Y77.39
X172.702 Y77.728
X171.925 Y78.05
X171.142 Y78.356
X170.353 Y78.647
X169.558 Y78.922
X168.759 Y79.183
X167.954 Y79.428
X167.145 Y79.659
X166.332 Y79.874
X165.516 Y80.074
X164.695 Y80.259
X163.872 Y80.429
X163.045 Y80.583
X162.215 Y80.722
X161.383 Y80.845
X160.549 Y80.953
X159.713 Y81.046
X158.876 Y81.124
X158.037 Y81.186
X157.198 Y81.233
X156.357 Y81.265
X155.516 Y81.281
X154.675 Y81.283
X153.835 Y81.269
X152.994 Y81.24
X152.154 Y81.196
X151.315 Y81.137
X150.478 Y81.063
X149.641 Y80.974
X148.807 Y80.869
X147.974 Y80.75
X147.144 Y80.615
X146.317 Y80.464
X145.492 Y80.299
X144.671 Y80.118
X143.853 Y79.923
X143.038 Y79.713
X142.228 Y79.488
X141.422 Y79.248
X140.62 Y78.994
X139.823 Y78.726
X139.031 Y78.443
X138.244 Y78.146
X137.463 Y77.835
X136.687 Y77.51
X135.917 Y77.172
X135.154 Y76.819
X134.397 Y76.453
X133.646 Y76.074
X132.903 Y75.681
X132.166 Y75.274
X131.438 Y74.854
X130.717 Y74.421
X130.004 Y73.974
X129.3 Y73.515
X128.538 Y72.985
X128.312 Y72.763
X128.142 Y72.496
X128.036 Y72.197
X128. Y71.882
Y69.008
G3 X128.054 Y68.78 I0.6 J0.021
G1 X128.093 Y68.694 Z-1.993
X128.131 Y68.611 Z-1.971
X128.167 Y68.532 Z-1.935
X128.2 Y68.459 Z-1.885
X128.23 Y68.394 Z-1.824
X128.255 Y68.338 Z-1.753
X128.275 Y68.293 Z-1.672
X128.29 Y68.26 Z-1.585
X128.299 Y68.24 Z-1.494
X128.302 Y68.234 Z-1.4
G0 Z2.502
X182.255 Y68.085
Z-0.8
G1 Z-1.4 F500.
X182.262 Y68.086 Z-1.494
X182.284 Y68.09 Z-1.585
X182.319 Y68.097 Z-1.672
X182.368 Y68.105 Z-1.753
X182.428 Y68.116 Z-1.824
X182.499 Y68.129 Z-1.885
X182.578 Y68.143 Z-1.935
X182.663 Y68.158 Z-1.971
X182.753 Y68.174 Z-1.993
X182.846 Y68.191 Z-2.
G3 X183. Y68.369 I-0.033 J0.185
G1 Y71.236
X182.986 Y71.524
X182.949 Y71.801
X182.88 Y72.127
X182.778 Y72.466
X182.621 Y72.868
X182.416 Y73.291
X182.128 Y73.78
X181.743 Y74.328
X181.241 Y74.933
X180.654 Y75.535
X180.026 Y76.095
X179.367 Y76.618
X178.684 Y77.109
X177.982 Y77.572
X177.265 Y78.01
X176.534 Y78.426
X175.791 Y78.822
X175.039 Y79.198
X174.278 Y79.556
X173.51 Y79.897
X172.734 Y80.223
X171.952 Y80.532
X171.164 Y80.826
X170.371 Y81.105
X169.572 Y81.369
X168.769 Y81.618
X167.961 Y81.853
X167.15 Y82.073
X166.334 Y82.279
X165.515 Y82.469
X164.693 Y82.645
X163.867 Y82.807
X163.039 Y82.953
X162.209 Y83.085
X161.376 Y83.203
X160.541 Y83.305
X159.705 Y83.394
X158.867 Y83.467
X158.028 Y83.526
X157.188 Y83.571
X156.348 Y83.601
X155.507 Y83.617
X154.666 Y83.619
X153.825 Y83.605
X152.985 Y83.578
X152.145 Y83.536
X151.305 Y83.48
X150.467 Y83.409
X149.631 Y83.324
X148.796 Y83.225
X147.962 Y83.111
X147.131 Y82.982
X146.303 Y82.838
X145.477 Y82.681
X144.653 Y82.508
X143.833 Y82.322
X143.017 Y82.121
X142.203 Y81.907
X141.394 Y81.678
X140.589 Y81.436
X139.788 Y81.18
X138.991 Y80.91
X138.199 Y80.626
X137.413 Y80.329
X136.631 Y80.019
X135.855 Y79.696
X135.084 Y79.359
X134.319 Y79.009
X133.56 Y78.646
X132.808 Y78.271
X132.062 Y77.882
X131.323 Y77.48
X130.592 Y77.066
X129.867 Y76.638
X129.151 Y76.198
X128.623 Y75.845
X128.41 Y75.671
X128.236 Y75.458
X128.107 Y75.216
X128.027 Y74.954
X128. Y74.68
Y71.882
G3 X128.054 Y71.654 I0.6 J0.021
G1 X128.093 Y71.569 Z-1.993
X128.131 Y71.486 Z-1.971
X128.167 Y71.406 Z-1.935
X128.2 Y71.333 Z-1.885
X128.23 Y71.268 Z-1.824
X128.255 Y71.213 Z-1.753
X128.275 Y71.168 Z-1.672
X128.29 Y71.135 Z-1.585
X128.299 Y71.115 Z-1.494
X128.302 Y71.108 Z-1.4
G0 Z2.502
X182.255 Y70.952
Z-0.8
G1 Z-1.4 F500.
X182.262 Y70.953 Z-1.494
X182.284 Y70.957 Z-1.585
X182.319 Y70.963 Z-1.672
X182.368 Y70.972 Z-1.753
X182.428 Y70.983 Z-1.824
X182.499 Y70.995 Z-1.885
X182.578 Y71.009 Z-1.935
X182.663 Y71.025 Z-1.971
X182.753 Y71.041 Z-1.993
X182.846 Y71.058 Z-2.
G3 X183. Y71.236 I-0.033 J0.185
G1 Y73.911
X182.984 Y74.232
X182.948 Y74.509
X182.881 Y74.82
X182.781 Y75.153
X182.63 Y75.541
X182.431 Y75.952
X182.155 Y76.42
X181.786 Y76.945
X181.31 Y77.519
X180.723 Y78.121
X180.093 Y78.677
X179.43 Y79.195
X178.742 Y79.68
X178.035 Y80.135
X177.312 Y80.563
X176.575 Y80.969
X175.827 Y81.353
X175.069 Y81.718
X174.303 Y82.065
X173.53 Y82.395
X172.749 Y82.709
X171.963 Y83.007
X171.171 Y83.289
X170.373 Y83.557
X169.572 Y83.811
X168.765 Y84.05
X167.955 Y84.275
X167.141 Y84.485
X166.323 Y84.681
X165.502 Y84.864
X164.678 Y85.031
X163.851 Y85.185
X163.022 Y85.325
X162.19 Y85.451
X161.356 Y85.562
X160.521 Y85.66
X159.684 Y85.744
X158.846 Y85.814
X158.007 Y85.87
X157.167 Y85.913
X156.327 Y85.941
X155.486 Y85.956
X154.645 Y85.957
X153.804 Y85.945
X152.963 Y85.918
X152.123 Y85.878
X151.284 Y85.824
X150.446 Y85.756
X149.609 Y85.675
X148.773 Y85.58
X147.939 Y85.47
X147.107 Y85.347
X146.278 Y85.21
X145.45 Y85.059
X144.626 Y84.894
X143.804 Y84.716
X142.985 Y84.524
X142.169 Y84.319
X141.357 Y84.1
X140.549 Y83.868
X139.744 Y83.623
X138.944 Y83.364
X138.148 Y83.093
X137.357 Y82.809
X136.57 Y82.512
X135.788 Y82.202
X135.011 Y81.879
X134.24 Y81.544
X133.474 Y81.197
X132.714 Y80.836
X131.96 Y80.464
X131.212 Y80.079
X130.471 Y79.682
X129.737 Y79.272
X129.012 Y78.846
X128.629 Y78.594
X128.415 Y78.42
X128.239 Y78.207
X128.108 Y77.964
X128.027 Y77.7
X128. Y77.425
Y74.68
G3 X128.054 Y74.453 I0.6 J0.021
G1 X128.093 Y74.367 Z-1.993
X128.131 Y74.284 Z-1.971
X128.167 Y74.205 Z-1.935
X128.2 Y74.132 Z-1.885
X128.23 Y74.067 Z-1.824
X128.255 Y74.011 Z-1.753
X128.275 Y73.966 Z-1.672
X128.29 Y73.933 Z-1.585
X128.299 Y73.913 Z-1.494
X128.302 Y73.907 Z-1.4
G0 Z2.502
X182.255 Y73.627
Z-0.8
G1 Z-1.4 F500.
X182.262 Y73.629 Z-1.494
X182.284 Y73.632 Z-1.585
X182.319 Y73.639 Z-1.672
X182.368 Y73.647 Z-1.753
X182.428 Y73.658 Z-1.824
X182.499 Y73.671 Z-1.885
X182.578 Y73.685 Z-1.935
X182.663 Y73.7 Z-1.971
X182.753 Y73.717 Z-1.993
X182.846 Y73.733 Z-2.
G3 X183. Y73.911 I-0.033 J0.185
G1 Y76.587
X182.985 Y76.888
X182.949 Y77.164
X182.885 Y77.463
X182.786 Y77.793
X182.639 Y78.169
X182.444 Y78.571
X182.178 Y79.024
X181.821 Y79.531
X181.365 Y80.081
X180.778 Y80.683
X180.146 Y81.237
X179.48 Y81.751
X178.788 Y82.229
X178.076 Y82.677
X177.348 Y83.098
X176.606 Y83.494
X175.853 Y83.869
X175.091 Y84.224
X174.32 Y84.561
X173.542 Y84.881
X172.758 Y85.184
X171.968 Y85.472
X171.172 Y85.744
X170.372 Y86.002
X169.567 Y86.246
X168.758 Y86.476
X167.945 Y86.691
X167.128 Y86.893
X166.309 Y87.081
X165.486 Y87.255
X164.66 Y87.416
X163.832 Y87.563
X163.002 Y87.696
X162.17 Y87.816
X161.335 Y87.923
X160.5 Y88.016
X159.662 Y88.096
X158.824 Y88.163
X157.985 Y88.217
X157.145 Y88.257
X156.304 Y88.284
X155.463 Y88.298
X154.622 Y88.299
X153.781 Y88.286
X152.941 Y88.261
X152.101 Y88.222
X151.261 Y88.17
X150.423 Y88.105
X149.585 Y88.027
X148.749 Y87.936
X147.915 Y87.831
X147.082 Y87.713
X146.252 Y87.581
X145.423 Y87.436
X144.597 Y87.278
X143.774 Y87.107
X142.953 Y86.923
X142.135 Y86.726
X141.321 Y86.517
X140.51 Y86.294
X139.703 Y86.059
X138.899 Y85.811
X138.099 Y85.551
X137.304 Y85.278
X136.512 Y84.993
X135.726 Y84.696
X134.944 Y84.387
X134.167 Y84.065
X133.395 Y83.731
X132.628 Y83.386
X131.867 Y83.028
X131.111 Y82.659
X130.362 Y82.277
X129.619 Y81.883
X128.889 Y81.466
X128.625 Y81.291
X128.412 Y81.116
X128.237 Y80.904
X128.107 Y80.662
X128.027 Y80.398
X128. Y80.125
Y77.425
G3 X128.054 Y77.197 I0.6 J0.021
G1 X128.093 Y77.112 Z-1.993
X128.131 Y77.028 Z-1.971
X128.167 Y76.949 Z-1.935
X128.2 Y76.876 Z-1.885
X128.23 Y76.811 Z-1.824
X128.255 Y76.755 Z-1.753
X128.275 Y76.711 Z-1.672
X128.29 Y76.678 Z-1.585
X128.299 Y76.658 Z-1.494
X128.302 Y76.651 Z-1.4
G0 Z2.502
X182.255 Y76.303
Z-0.8
G1 Z-1.4 F500.
X182.262 Y76.304 Z-1.494
X182.284 Y76.308 Z-1.585
X182.319 Y76.314 Z-1.672
X182.368 Y76.323 Z-1.753
X182.428 Y76.334 Z-1.824
X182.499 Y76.346 Z-1.885
X182.578 Y76.361 Z-1.935
X182.663 Y76.376 Z-1.971
X182.753 Y76.392 Z-1.993
X182.846 Y76.409 Z-2.
G3 X183. Y76.587 I-0.033 J0.185
G1 Y79.262
X182.988 Y79.503
X182.952 Y79.779
X182.89 Y80.068
X182.792 Y80.395
X182.649 Y80.762
X182.458 Y81.156
X182.198 Y81.597
X181.851 Y82.091
X181.411 Y82.621
X180.828 Y83.219
X180.194 Y83.772
X179.526 Y84.282
X178.831 Y84.756
X178.115 Y85.197
X177.383 Y85.611
X176.637 Y86.
X175.881 Y86.367
X175.114 Y86.713
X174.34 Y87.041
X173.558 Y87.352
X172.77 Y87.646
X171.977 Y87.925
X171.178 Y88.188
X170.375 Y88.437
X169.568 Y88.673
X168.756 Y88.894
X167.941 Y89.101
X167.123 Y89.295
X166.302 Y89.476
X165.477 Y89.643
X164.651 Y89.797
X163.821 Y89.938
X162.99 Y90.066
X162.157 Y90.181
X161.322 Y90.283
X160.486 Y90.372
X159.649 Y90.449
X158.81 Y90.513
X157.971 Y90.564
X157.13 Y90.603
X156.29 Y90.629
X155.449 Y90.642
X154.608 Y90.643
X153.767 Y90.631
X152.926 Y90.606
X152.086 Y90.569
X151.247 Y90.519
X150.408 Y90.457
X149.57 Y90.381
X148.734 Y90.294
X147.899 Y90.193
X147.066 Y90.08
X146.234 Y89.953
X145.405 Y89.814
X144.578 Y89.663
X143.753 Y89.499
X142.93 Y89.322
X142.111 Y89.133
X141.294 Y88.932
X140.481 Y88.718
X139.671 Y88.493
X138.864 Y88.255
X138.061 Y88.005
X137.262 Y87.743
X136.467 Y87.469
X135.676 Y87.183
X134.889 Y86.886
X134.107 Y86.577
X133.329 Y86.256
X132.557 Y85.924
X131.789 Y85.58
X131.027 Y85.225
X130.27 Y84.858
X129.521 Y84.476
X128.791 Y84.067
X128.62 Y83.952
X128.408 Y83.778
X128.235 Y83.566
X128.106 Y83.324
X128.027 Y83.062
X128. Y82.79
Y80.125
G3 X128.054 Y79.897 I0.6 J0.021
G1 X128.093 Y79.811 Z-1.993
X128.131 Y79.728 Z-1.971
X128.167 Y79.649 Z-1.935
X128.2 Y79.576 Z-1.885
X128.23 Y79.511 Z-1.824
X128.255 Y79.455 Z-1.753
X128.275 Y79.41 Z-1.672
X128.29 Y79.378 Z-1.585
X128.299 Y79.358 Z-1.494
X128.302 Y79.351 Z-1.4
G0 Z2.502
X182.255 Y78.978
Z-0.8
G1 Z-1.4 F500.
X182.262 Y78.98 Z-1.494
X182.284 Y78.984 Z-1.585
X182.319 Y78.99 Z-1.672
X182.368 Y78.999 Z-1.753
X182.428 Y79.009 Z-1.824
X182.499 Y79.022 Z-1.885
X182.578 Y79.036 Z-1.935
X182.663 Y79.051 Z-1.971
X182.753 Y79.068 Z-1.993
X182.846 Y79.084 Z-2.
G3 X183. Y79.262 I-0.033 J0.185
G1 Y81.747
X182.983 Y82.096
X182.946 Y82.371
X182.887 Y82.651
X182.789 Y82.975
X182.65 Y83.332
X182.461 Y83.722
X182.209 Y84.151
X181.87 Y84.634
X181.443 Y85.148
X180.879 Y85.726
X180.245 Y86.279
X179.575 Y86.787
X178.878 Y87.258
X178.16 Y87.695
X177.424 Y88.103
X176.676 Y88.486
X175.915 Y88.846
X175.146 Y89.185
X174.368 Y89.505
X173.584 Y89.808
X172.793 Y90.095
X171.997 Y90.365
X171.196 Y90.621
X170.39 Y90.862
X169.58 Y91.09
X168.767 Y91.304
X167.95 Y91.504
X167.13 Y91.691
X166.307 Y91.865
X165.482 Y92.026
X164.654 Y92.175
X163.824 Y92.31
X162.992 Y92.433
X162.159 Y92.544
X161.323 Y92.642
X160.487 Y92.728
X159.649 Y92.802
X158.81 Y92.864
X157.971 Y92.913
X157.13 Y92.95
X156.29 Y92.975
X155.449 Y92.988
X154.608 Y92.989
X153.767 Y92.977
X152.926 Y92.954
X152.086 Y92.918
X151.246 Y92.87
X150.408 Y92.811
X149.57 Y92.738
X148.733 Y92.654
X147.897 Y92.558
X147.063 Y92.449
X146.231 Y92.328
X145.401 Y92.195
X144.573 Y92.049
X143.746 Y91.892
X142.923 Y91.722
X142.102 Y91.541
X141.283 Y91.347
X140.467 Y91.142
X139.655 Y90.925
X138.846 Y90.696
X138.04 Y90.456
X137.237 Y90.205
X136.438 Y89.941
X135.643 Y89.667
X134.853 Y89.381
X134.066 Y89.084
X133.283 Y88.775
X132.505 Y88.456
X131.732 Y88.125
X130.964 Y87.783
X130.201 Y87.428
X129.447 Y87.057
X128.775 Y86.687
X128.627 Y86.588
X128.413 Y86.414
X128.238 Y86.202
X128.107 Y85.959
X128.027 Y85.695
X128. Y85.421
Y82.79
G3 X128.054 Y82.562 I0.6 J0.021
G1 X128.093 Y82.476 Z-1.993
X128.131 Y82.393 Z-1.971
X128.167 Y82.314 Z-1.935
X128.2 Y82.241 Z-1.885
X128.23 Y82.176 Z-1.824
X128.255 Y82.12 Z-1.753
X128.275 Y82.075 Z-1.672
X128.29 Y82.042 Z-1.585
X128.299 Y82.022 Z-1.494
X128.302 Y82.016 Z-1.4
G0 Z2.502
X182.255 Y81.463
Z-0.8
G1 Z-1.4 F500.
X182.262 Y81.464 Z-1.494
X182.284 Y81.468 Z-1.585
X182.319 Y81.474 Z-1.672
X182.368 Y81.483 Z-1.753
X182.428 Y81.494 Z-1.824
X182.499 Y81.506 Z-1.885
X182.578 Y81.521 Z-1.935
X182.663 Y81.536 Z-1.971
X182.753 Y81.552 Z-1.993
X182.846 Y81.569 Z-2.
G3 X183. Y81.747 I-0.033 J0.185
G1 Y84.422
X182.989 Y84.649
X182.953 Y84.92
X182.894 Y85.195
X182.797 Y85.52
X182.661 Y85.869
X182.473 Y86.256
X182.226 Y86.677
X181.892 Y87.151
X181.475 Y87.654
X180.926 Y88.217
X180.292 Y88.77
X179.621 Y89.277
X178.922 Y89.744
X178.201 Y90.178
X177.463 Y90.581
X176.712 Y90.959
X175.949 Y91.313
X175.177 Y91.646
X174.396 Y91.959
X173.609 Y92.255
X172.816 Y92.534
X172.017 Y92.798
X171.214 Y93.047
X170.406 Y93.281
X169.595 Y93.502
X168.78 Y93.709
X167.961 Y93.903
X167.14 Y94.084
X166.316 Y94.252
X165.489 Y94.407
X164.661 Y94.551
X163.83 Y94.682
X162.997 Y94.8
X162.163 Y94.907
X161.328 Y95.002
X160.491 Y95.085
X159.653 Y95.156
X158.814 Y95.216
X157.974 Y95.263
X157.134 Y95.299
X156.293 Y95.323
X155.452 Y95.336
X154.611 Y95.337
X153.77 Y95.326
X152.93 Y95.304
X152.089 Y95.269
X151.25 Y95.224
X150.411 Y95.166
X149.572 Y95.097
X148.735 Y95.016
X147.899 Y94.924
X147.065 Y94.819
X146.232 Y94.703
X145.401 Y94.575
X144.571 Y94.435
X143.744 Y94.284
X142.919 Y94.121
X142.096 Y93.946
X141.276 Y93.76
X140.459 Y93.563
X139.644 Y93.354
X138.832 Y93.134
X138.024 Y92.903
X137.218 Y92.661
X136.416 Y92.407
X135.618 Y92.143
X134.823 Y91.868
X134.033 Y91.582
X133.246 Y91.285
X132.463 Y90.977
X131.685 Y90.658
X130.911 Y90.328
X130.144 Y89.985
X129.385 Y89.622
X128.76 Y89.281
X128.632 Y89.197
X128.417 Y89.023
X128.24 Y88.81
X128.108 Y88.567
X128.027 Y88.302
X128. Y88.026
Y85.421
G3 X128.054 Y85.193 I0.6 J0.021
G1 X128.093 Y85.108 Z-1.993
X128.131 Y85.024 Z-1.971
X128.167 Y84.945 Z-1.935
X128.2 Y84.872 Z-1.885
X128.23 Y84.807 Z-1.824
X128.255 Y84.751 Z-1.753
X128.275 Y84.707 Z-1.672
X128.29 Y84.674 Z-1.585
X128.299 Y84.654 Z-1.494
X128.302 Y84.647 Z-1.4
G0 Z2.502
X182.255 Y84.138
Z-0.8
G1 Z-1.4 F500.
X182.262 Y84.14 Z-1.494
X182.284 Y84.144 Z-1.585
X182.319 Y84.15 Z-1.672
X182.368 Y84.159 Z-1.753
X182.428 Y84.169 Z-1.824
X182.499 Y84.182 Z-1.885
X182.578 Y84.196 Z-1.935
X182.663 Y84.211 Z-1.971
X182.753 Y84.228 Z-1.993
X182.846 Y84.244 Z-2.
G3 X183. Y84.422 I-0.033 J0.185
G1 Y86.907
X182.986 Y87.191
X182.951 Y87.455
X182.893 Y87.729
X182.795 Y88.053
X182.663 Y88.394
X182.476 Y88.778
X182.234 Y89.19
X181.906 Y89.657
X181.496 Y90.15
X180.961 Y90.699
X180.327 Y91.252
X179.655 Y91.758
X178.954 Y92.223
X178.231 Y92.653
X177.491 Y93.052
X176.737 Y93.424
X175.972 Y93.773
X175.197 Y94.1
X174.414 Y94.407
X173.625 Y94.697
X172.829 Y94.97
X172.028 Y95.227
X171.223 Y95.469
X170.413 Y95.697
X169.6 Y95.912
X168.784 Y96.113
X167.964 Y96.3
X167.141 Y96.476
X166.316 Y96.638
X165.489 Y96.789
X164.659 Y96.927
X163.828 Y97.054
X162.995 Y97.169
X162.16 Y97.272
X161.324 Y97.364
X160.487 Y97.444
X159.649 Y97.512
X158.81 Y97.57
X157.97 Y97.616
X157.13 Y97.65
X156.289 Y97.674
X155.448 Y97.686
X154.607 Y97.687
X153.766 Y97.676
X152.925 Y97.655
X152.085 Y97.622
X151.245 Y97.578
X150.406 Y97.523
X149.568 Y97.456
X148.73 Y97.378
X147.894 Y97.289
X147.059 Y97.188
X146.225 Y97.077
X145.393 Y96.953
X144.563 Y96.819
X143.735 Y96.673
X142.909 Y96.516
X142.085 Y96.348
X141.263 Y96.169
X140.444 Y95.978
X139.627 Y95.777
X138.813 Y95.565
X138.002 Y95.343
X137.195 Y95.109
X136.39 Y94.865
X135.588 Y94.61
X134.79 Y94.344
X133.996 Y94.068
X133.205 Y93.782
X132.418 Y93.485
X131.636 Y93.177
X130.858 Y92.857
X130.086 Y92.523
X129.324 Y92.168
X128.739 Y91.85
X128.635 Y91.782
X128.419 Y91.609
X128.241 Y91.395
X128.109 Y91.151
X128.028 Y90.886
X128. Y90.61
Y88.026
G3 X128.054 Y87.798 I0.6 J0.021
G1 X128.093 Y87.713 Z-1.993
X128.131 Y87.63 Z-1.971
X128.167 Y87.551 Z-1.935
X128.2 Y87.478 Z-1.885
X128.23 Y87.412 Z-1.824
X128.255 Y87.357 Z-1.753
X128.275 Y87.312 Z-1.672
X128.29 Y87.279 Z-1.585
X128.299 Y87.259 Z-1.494
X128.302 Y87.252 Z-1.4
G0 Z2.502
X182.255 Y86.623
Z-0.8
G1 Z-1.4 F500.
X182.262 Y86.624 Z-1.494
X182.284 Y86.628 Z-1.585
X182.319 Y86.634 Z-1.672
X182.368 Y86.643 Z-1.753
X182.428 Y86.654 Z-1.824
X182.499 Y86.666 Z-1.885
X182.578 Y86.681 Z-1.935
X182.663 Y86.696 Z-1.971
X182.753 Y86.712 Z-1.993
X182.846 Y86.729 Z-2.
G3 X183. Y86.907 I-0.033 J0.185
G1 Y89.391
X182.984 Y89.711
X182.95 Y89.969
X182.892 Y90.242
X182.795 Y90.566
X182.665 Y90.9
X182.479 Y91.283
X182.241 Y91.688
X181.918 Y92.148
X181.515 Y92.633
X180.99 Y93.171
X180.356 Y93.724
X179.683 Y94.228
X178.981 Y94.691
X178.256 Y95.118
X177.514 Y95.513
X176.758 Y95.881
X175.99 Y96.225
X175.213 Y96.547
X174.428 Y96.849
X173.637 Y97.133
X172.839 Y97.4
X172.037 Y97.651
X171.229 Y97.887
X170.418 Y98.109
X169.604 Y98.318
X168.786 Y98.513
X167.965 Y98.696
X167.141 Y98.866
X166.315 Y99.023
X165.487 Y99.169
X164.656 Y99.303
X163.824 Y99.426
X162.991 Y99.537
X162.156 Y99.637
X161.319 Y99.726
X160.482 Y99.803
X159.644 Y99.87
X158.804 Y99.925
X157.965 Y99.97
X157.124 Y100.003
X156.284 Y100.026
X155.443 Y100.037
X154.602 Y100.038
X153.761 Y100.028
X152.92 Y100.008
X152.08 Y99.976
X151.24 Y99.934
X150.4 Y99.88
X149.562 Y99.816
X148.724 Y99.741
X147.887 Y99.655
X147.052 Y99.558
X146.218 Y99.45
X145.385 Y99.331
X144.555 Y99.202
X143.725 Y99.061
X142.898 Y98.91
X142.073 Y98.747
X141.25 Y98.575
X140.429 Y98.391
X139.611 Y98.197
X138.795 Y97.992
X137.982 Y97.777
X137.172 Y97.552
X136.365 Y97.316
X135.56 Y97.07
X134.759 Y96.814
X133.962 Y96.547
X133.168 Y96.27
X132.377 Y95.983
X131.591 Y95.685
X130.809 Y95.374
X130.034 Y95.049
X129.269 Y94.699
X128.712 Y94.397
X128.637 Y94.348
X128.42 Y94.174
X128.242 Y93.961
X128.109 Y93.716
X128.028 Y93.451
X128. Y93.174
Y90.61
G3 X128.054 Y90.382 I0.6 J0.021
G1 X128.093 Y90.296 Z-1.993
X128.131 Y90.213 Z-1.971
X128.167 Y90.134 Z-1.935
X128.2 Y90.061 Z-1.885
X128.23 Y89.996 Z-1.824
X128.255 Y89.94 Z-1.753
X128.275 Y89.895 Z-1.672
X128.29 Y89.863 Z-1.585
X128.299 Y89.843 Z-1.494
X128.302 Y89.836 Z-1.4
G0 Z2.502
X182.255 Y89.107
Z-0.8
G1 Z-1.4 F500.
X182.262 Y89.109 Z-1.494
X182.284 Y89.112 Z-1.585
X182.319 Y89.119 Z-1.672
X182.368 Y89.127 Z-1.753
X182.428 Y89.138 Z-1.824
X182.499 Y89.151 Z-1.885
X182.578 Y89.165 Z-1.935
X182.663 Y89.18 Z-1.971
X182.753 Y89.197 Z-1.993
X182.846 Y89.213 Z-2.
G3 X183. Y89.391 I-0.033 J0.185
G1 Y91.876
X182.983 Y92.213
X182.95 Y92.467
X182.892 Y92.739
X182.795 Y93.063
X182.667 Y93.392
X182.482 Y93.772
X182.247 Y94.171
X181.928 Y94.626
X181.531 Y95.104
X181.015 Y95.633
X180.381 Y96.186
X179.707 Y96.689
X179.004 Y97.15
X178.278 Y97.574
X177.534 Y97.966
X176.776 Y98.33
X176.006 Y98.669
X175.227 Y98.986
X174.44 Y99.283
X173.647 Y99.562
X172.847 Y99.824
X172.043 Y100.07
X171.235 Y100.301
X170.422 Y100.517
X169.606 Y100.721
X168.787 Y100.911
X167.965 Y101.088
X167.14 Y101.254
X166.313 Y101.407
X165.484 Y101.549
X164.653 Y101.679
X163.821 Y101.798
X162.987 Y101.906
X162.151 Y102.002
X161.315 Y102.088
X160.477 Y102.163
X159.639 Y102.228
X158.799 Y102.282
X157.959 Y102.325
X157.119 Y102.357
X156.278 Y102.379
X155.437 Y102.391
X154.596 Y102.392
X153.755 Y102.382
X152.915 Y102.362
X152.074 Y102.331
X151.234 Y102.29
X150.395 Y102.239
X149.556 Y102.177
X148.718 Y102.104
X147.881 Y102.021
X147.045 Y101.928
X146.211 Y101.824
X145.378 Y101.709
X144.546 Y101.584
X143.716 Y101.448
X142.888 Y101.302
X142.062 Y101.145
X141.237 Y100.978
X140.415 Y100.801
X139.595 Y100.614
X138.778 Y100.416
X137.963 Y100.208
X137.151 Y99.99
X136.341 Y99.762
X135.535 Y99.525
X134.731 Y99.277
X133.93 Y99.019
X133.133 Y98.751
X132.34 Y98.473
X131.55 Y98.184
X130.765 Y97.882
X129.987 Y97.563
X129.22 Y97.217
X128.637 Y96.896
X128.42 Y96.722
X128.242 Y96.509
X128.109 Y96.265
X128.028 Y95.999
X128. Y95.723
Y93.174
G3 X128.054 Y92.946 I0.6 J0.021
G1 X128.093 Y92.861 Z-1.993
X128.131 Y92.778 Z-1.971
X128.167 Y92.699 Z-1.935
X128.2 Y92.626 Z-1.885
X128.23 Y92.56 Z-1.824
X128.255 Y92.505 Z-1.753
X128.275 Y92.46 Z-1.672
X128.29 Y92.427 Z-1.585
X128.299 Y92.407 Z-1.494
X128.302 Y92.401 Z-1.4
G0 Z2.502
X182.255 Y91.592
Z-0.8
G1 Z-1.4 F500.
X182.262 Y91.593 Z-1.494
X182.284 Y91.597 Z-1.585
X182.319 Y91.603 Z-1.672
X182.368 Y91.612 Z-1.753
X182.428 Y91.623 Z-1.824
X182.499 Y91.635 Z-1.885
X182.578 Y91.649 Z-1.935
X182.663 Y91.665 Z-1.971
X182.753 Y91.681 Z-1.993
X182.846 Y91.698 Z-2.
G3 X183. Y91.876 I-0.033 J0.185
G1 Y94.36
X182.983 Y94.701
X182.95 Y94.95
X182.892 Y95.223
X182.795 Y95.545
X182.669 Y95.87
X182.485 Y96.249
X182.253 Y96.643
X181.937 Y97.092
X181.545 Y97.565
X181.037 Y98.086
X180.403 Y98.638
X179.729 Y99.141
X179.024 Y99.6
X178.296 Y100.021
X177.551 Y100.411
X176.791 Y100.771
X176.02 Y101.106
X175.239 Y101.419
X174.451 Y101.712
X173.656 Y101.986
X172.855 Y102.243
X172.049 Y102.484
X171.239 Y102.71
X170.425 Y102.922
X169.608 Y103.121
X168.788 Y103.306
X167.965 Y103.479
X167.139 Y103.64
X166.312 Y103.789
X165.482 Y103.927
X164.65 Y104.054
X163.817 Y104.169
X162.983 Y104.274
X162.147 Y104.368
X161.31 Y104.452
X160.473 Y104.525
X159.634 Y104.587
X158.795 Y104.639
X157.955 Y104.681
X157.114 Y104.713
X156.273 Y104.734
X155.433 Y104.745
X154.592 Y104.746
X153.751 Y104.737
X152.91 Y104.718
X152.069 Y104.688
X151.229 Y104.649
X150.39 Y104.599
X149.551 Y104.539
X148.713 Y104.469
X147.876 Y104.389
X147.039 Y104.298
X146.204 Y104.198
X145.371 Y104.087
X144.539 Y103.966
X143.708 Y103.835
X142.879 Y103.694
X142.052 Y103.542
X141.226 Y103.381
X140.403 Y103.209
X139.582 Y103.028
X138.763 Y102.837
X137.946 Y102.636
X137.132 Y102.425
X136.32 Y102.204
X135.511 Y101.974
X134.705 Y101.734
X133.902 Y101.485
X133.102 Y101.225
X132.306 Y100.955
X131.513 Y100.674
X130.725 Y100.379
X129.945 Y100.067
X129.176 Y99.725
X128.636 Y99.43
X128.419 Y99.256
X128.241 Y99.043
X128.109 Y98.799
X128.028 Y98.533
X128. Y98.257
Y95.723
G3 X128.054 Y95.495 I0.6 J0.021
G1 X128.093 Y95.409 Z-1.993
X128.131 Y95.326 Z-1.971
X128.167 Y95.247 Z-1.935
X128.2 Y95.174 Z-1.885
X128.23 Y95.109 Z-1.824
X128.255 Y95.053 Z-1.753
X128.275 Y95.008 Z-1.672
X128.29 Y94.976 Z-1.585
X128.299 Y94.956 Z-1.494
X128.302 Y94.949 Z-1.4
G0 Z2.502
X182.255 Y94.076
Z-0.8
G1 Z-1.4 F500.
X182.262 Y94.077 Z-1.494
X182.284 Y94.081 Z-1.585
X182.319 Y94.088 Z-1.672
X182.368 Y94.096 Z-1.753
X182.428 Y94.107 Z-1.824
X182.499 Y94.12 Z-1.885
X182.578 Y94.134 Z-1.935
X182.663 Y94.149 Z-1.971
X182.753 Y94.165 Z-1.993
X182.846 Y94.182 Z-2.
G3 X183. Y94.36 I-0.033 J0.185
G1 Y96.844
X182.983 Y97.176
X182.951 Y97.421
X182.893 Y97.694
X182.797 Y98.015
X182.671 Y98.337
X182.488 Y98.714
X182.259 Y99.104
X181.946 Y99.549
X181.558 Y100.016
X181.057 Y100.531
X180.423 Y101.083
X179.748 Y101.585
X179.042 Y102.042
X178.313 Y102.462
X177.566 Y102.848
X176.805 Y103.206
X176.032 Y103.537
X175.25 Y103.846
X174.46 Y104.135
X173.663 Y104.405
X172.861 Y104.657
X172.054 Y104.894
X171.243 Y105.116
X170.428 Y105.323
X169.61 Y105.518
X168.789 Y105.699
X167.965 Y105.868
X167.139 Y106.025
X166.31 Y106.171
X165.48 Y106.305
X164.648 Y106.428
X163.815 Y106.541
X162.98 Y106.643
X162.144 Y106.734
X161.307 Y106.815
X160.469 Y106.886
X159.63 Y106.947
X158.79 Y106.998
X157.11 Y107.069
X155.428 Y107.101
X153.746 Y107.093
X152.065 Y107.046
X150.385 Y106.96
X148.708 Y106.834
X147.034 Y106.669
X145.365 Y106.465
X144.532 Y106.348
X142.871 Y106.084
X141.216 Y105.782
X139.569 Y105.44
X137.931 Y105.06
X136.301 Y104.643
X134.682 Y104.187
X133.877 Y103.945
X133.074 Y103.693
X132.275 Y103.431
X131.48 Y103.157
X130.69 Y102.869
X129.907 Y102.562
X129.158 Y102.233
X128.639 Y101.951
X128.421 Y101.777
X128.243 Y101.564
X128.11 Y101.32
X128.028 Y101.053
X128. Y100.777
Y98.257
G3 X128.054 Y98.029 I0.6 J0.021
G1 X128.093 Y97.944 Z-1.993
X128.131 Y97.86 Z-1.971
X128.167 Y97.781 Z-1.935
X128.2 Y97.708 Z-1.885
X128.23 Y97.643 Z-1.824
X128.255 Y97.587 Z-1.753
X128.275 Y97.542 Z-1.672
X128.29 Y97.51 Z-1.585
X128.299 Y97.49 Z-1.494
X128.302 Y97.483 Z-1.4
G0 Z2.502
X182.255 Y96.561
Z-0.8
G1 Z-1.4 F500.
X182.262 Y96.562 Z-1.494
X182.284 Y96.566 Z-1.585
X182.319 Y96.572 Z-1.672
X182.368 Y96.581 Z-1.753
X182.428 Y96.592 Z-1.824
X182.499 Y96.604 Z-1.885
X182.578 Y96.618 Z-1.935
X182.663 Y96.634 Z-1.971
X182.753 Y96.65 Z-1.993
X182.846 Y96.666 Z-2.
G3 X183. Y96.844 I-0.033 J0.185
G1 Y99.329
X182.984 Y99.64
X182.953 Y99.882
X182.894 Y100.155
X182.799 Y100.474
X182.674 Y100.794
X182.492 Y101.17
X182.265 Y101.556
X181.954 Y101.998
X181.57 Y102.46
X181.074 Y102.968
X180.441 Y103.521
X179.765 Y104.022
X179.058 Y104.478
X178.328 Y104.895
X177.58 Y105.279
X176.817 Y105.634
X176.043 Y105.963
X175.26 Y106.268
X174.469 Y106.553
X173.671 Y106.819
X172.867 Y107.068
X172.059 Y107.3
X171.247 Y107.518
X170.431 Y107.722
X169.612 Y107.912
X168.79 Y108.09
X167.965 Y108.255
X167.138 Y108.408
X166.309 Y108.551
X165.479 Y108.682
X164.646 Y108.802
X163.812 Y108.912
X162.977 Y109.011
X162.141 Y109.1
X161.304 Y109.18
X159.627 Y109.308
X157.947 Y109.397
X156.266 Y109.447
X154.584 Y109.459
X152.902 Y109.433
X151.221 Y109.369
X149.542 Y109.266
X147.866 Y109.125
X146.194 Y108.947
X144.526 Y108.73
X142.864 Y108.474
X141.207 Y108.181
X139.558 Y107.85
X137.917 Y107.482
X136.284 Y107.077
X134.662 Y106.635
X133.854 Y106.4
X133.049 Y106.156
X132.248 Y105.9
X131.451 Y105.633
X130.659 Y105.351
X129.874 Y105.049
X129.151 Y104.734
X128.642 Y104.46
X128.424 Y104.287
X128.244 Y104.073
X128.11 Y103.828
X128.028 Y103.561
X128. Y103.283
Y100.777
G3 X128.054 Y100.549 I0.6 J0.021
G1 X128.093 Y100.463 Z-1.993
X128.131 Y100.38 Z-1.971
X128.167 Y100.301 Z-1.935
X128.2 Y100.228 Z-1.885
X128.23 Y100.163 Z-1.824
X128.255 Y100.107 Z-1.753
X128.275 Y100.062 Z-1.672
X128.29 Y100.029 Z-1.585
X128.299 Y100.009 Z-1.494
X128.302 Y100.003 Z-1.4
G0 Z2.502
X182.255 Y99.045
Z-0.8
G1 Z-1.4 F500.
X182.262 Y99.046 Z-1.494
X182.284 Y99.05 Z-1.585
X182.319 Y99.057 Z-1.672
X182.368 Y99.065 Z-1.753
X182.428 Y99.076 Z-1.824
X182.499 Y99.089 Z-1.885
X182.578 Y99.103 Z-1.935
X182.663 Y99.118 Z-1.971
X182.753 Y99.134 Z-1.993
X182.846 Y99.151 Z-2.
G3 X183. Y99.329 I-0.033 J0.185
G1 Y101.813
X182.986 Y102.094
X182.955 Y102.334
X182.896 Y102.607
X182.801 Y102.924
X182.677 Y103.242
X182.495 Y103.617
X182.27 Y103.999
X181.962 Y104.438
X181.582 Y104.896
X181.09 Y105.4
X180.457 Y105.952
X179.781 Y106.452
X179.074 Y106.907
X178.343 Y107.323
X177.594 Y107.704
X176.83 Y108.056
X176.054 Y108.382
X175.27 Y108.685
X174.477 Y108.966
X173.678 Y109.229
X172.874 Y109.474
X172.065 Y109.703
X171.251 Y109.917
X170.434 Y110.117
X169.614 Y110.304
X168.792 Y110.478
X167.966 Y110.64
X167.139 Y110.79
X166.31 Y110.93
X165.478 Y111.058
X164.646 Y111.175
X163.811 Y111.283
X162.976 Y111.38
X161.302 Y111.544
X159.625 Y111.669
X157.945 Y111.757
X156.264 Y111.806
X154.582 Y111.818
X152.9 Y111.792
X151.219 Y111.73
X149.54 Y111.631
X147.864 Y111.495
X146.191 Y111.321
X144.522 Y111.111
X142.858 Y110.864
X141.201 Y110.58
X139.549 Y110.259
X137.906 Y109.902
X136.27 Y109.509
X134.644 Y109.08
X133.835 Y108.851
X133.028 Y108.613
X132.225 Y108.364
X131.425 Y108.103
X130.631 Y107.826
X129.845 Y107.528
X129.143 Y107.223
X128.645 Y106.958
X128.426 Y106.784
X128.245 Y106.57
X128.111 Y106.325
X128.028 Y106.057
X128. Y105.779
Y103.283
G3 X128.054 Y103.055 I0.6 J0.021
G1 X128.093 Y102.97 Z-1.993
X128.131 Y102.887 Z-1.971
X128.167 Y102.807 Z-1.935
X128.2 Y102.734 Z-1.885
X128.23 Y102.669 Z-1.824
X128.255 Y102.614 Z-1.753
X128.275 Y102.569 Z-1.672
X128.29 Y102.536 Z-1.585
X128.299 Y102.516 Z-1.494
X128.302 Y102.509 Z-1.4
G0 Z2.502
X182.255 Y101.529
Z-0.8
G1 Z-1.4 F500.
X182.262 Y101.531 Z-1.494
X182.284 Y101.535 Z-1.585
X182.319 Y101.541 Z-1.672
X182.368 Y101.55 Z-1.753
X182.428 Y101.56 Z-1.824
X182.499 Y101.573 Z-1.885
X182.578 Y101.587 Z-1.935
X182.663 Y101.603 Z-1.971
X182.753 Y101.619 Z-1.993
X182.846 Y101.635 Z-2.
G3 X183. Y101.813 I-0.033 J0.185
G1 Y104.298
X182.988 Y104.54
X182.957 Y104.777
X182.898 Y105.05
X182.804 Y105.366
X182.68 Y105.683
X182.499 Y106.056
X182.276 Y106.436
X181.969 Y106.872
X181.592 Y107.327
X181.105 Y107.825
X180.479 Y108.372
X179.803 Y108.872
X179.095 Y109.326
X178.363 Y109.741
X177.613 Y110.121
X176.848 Y110.471
X176.072 Y110.795
X175.286 Y111.095
X174.493 Y111.373
X173.693 Y111.633
X172.887 Y111.875
X172.077 Y112.101
X171.263 Y112.312
X170.446 Y112.509
X169.625 Y112.693
X168.801 Y112.864
X167.976 Y113.023
X167.148 Y113.17
X166.318 Y113.306
X165.486 Y113.432
X164.653 Y113.547
X163.819 Y113.652
X162.146 Y113.833
X160.47 Y113.974
X158.792 Y114.078
X157.111 Y114.145
X155.429 Y114.176
X153.747 Y114.17
X152.066 Y114.128
X150.386 Y114.05
X148.708 Y113.936
X147.032 Y113.786
X145.361 Y113.6
X143.693 Y113.379
X142.031 Y113.121
X140.375 Y112.827
X138.725 Y112.499
X137.083 Y112.135
X136.265 Y111.94
X134.636 Y111.523
X133.825 Y111.3
X133.016 Y111.068
X132.211 Y110.825
X131.41 Y110.569
X130.614 Y110.297
X129.827 Y110.002
X129.139 Y109.706
X128.648 Y109.446
X128.427 Y109.272
X128.246 Y109.058
X128.111 Y108.812
X128.028 Y108.544
X128. Y108.265
Y105.779
G3 X128.054 Y105.551 I0.6 J0.021
G1 X128.093 Y105.466 Z-1.993
X128.131 Y105.382 Z-1.971
X128.167 Y105.303 Z-1.935
X128.2 Y105.23 Z-1.885
X128.23 Y105.165 Z-1.824
X128.255 Y105.109 Z-1.753
X128.275 Y105.064 Z-1.672
X128.29 Y105.032 Z-1.585
X128.299 Y105.012 Z-1.494
X128.302 Y105.005 Z-1.4
G0 Z2.502
X182.255 Y104.014
Z-0.8
G1 Z-1.4 F500.
X182.262 Y104.015 Z-1.494
X182.284 Y104.019 Z-1.585
X182.319 Y104.025 Z-1.672
X182.368 Y104.034 Z-1.753
X182.428 Y104.045 Z-1.824
X182.499 Y104.058 Z-1.885
X182.578 Y104.072 Z-1.935
X182.663 Y104.087 Z-1.971
X182.753 Y104.103 Z-1.993
X182.846 Y104.12 Z-2.
G3 X183. Y104.298 I-0.033 J0.185
G1 Y106.782
X182.99 Y106.977
X182.959 Y107.214
X182.901 Y107.486
X182.807 Y107.799
X182.684 Y108.116
X182.503 Y108.488
X182.281 Y108.865
X181.977 Y109.299
X181.601 Y109.751
X181.118 Y110.246
X180.498 Y110.788
X179.822 Y111.288
X179.113 Y111.741
X178.381 Y112.155
X177.63 Y112.534
X176.865 Y112.882
X176.087 Y113.203
X175.301 Y113.501
X174.507 Y113.777
X173.706 Y114.034
X172.9 Y114.274
X172.089 Y114.497
X171.274 Y114.705
X170.456 Y114.899
X169.634 Y115.08
X168.81 Y115.248
X167.984 Y115.404
X167.155 Y115.549
X166.325 Y115.683
X165.493 Y115.806
X164.66 Y115.919
X162.989 Y116.115
X161.315 Y116.273
X159.637 Y116.394
X157.957 Y116.477
X156.276 Y116.525
X154.594 Y116.538
X152.912 Y116.515
X151.231 Y116.457
X149.552 Y116.364
X147.875 Y116.236
X146.201 Y116.074
X144.53 Y115.876
X142.864 Y115.644
X141.204 Y115.376
X139.549 Y115.074
X137.901 Y114.738
X136.26 Y114.367
X134.628 Y113.962
X133.816 Y113.745
X133.006 Y113.518
X132.199 Y113.281
X131.396 Y113.03
X130.599 Y112.762
X129.81 Y112.47
X129.135 Y112.18
X128.747 Y111.976
X128.496 Y111.806
X128.287 Y111.587
X128.13 Y111.327
X128.033 Y111.039
X128. Y110.738
Y108.265
G3 X128.054 Y108.037 I0.6 J0.021
G1 X128.093 Y107.952 Z-1.993
X128.131 Y107.868 Z-1.971
X128.167 Y107.789 Z-1.935
X128.2 Y107.716 Z-1.885
X128.23 Y107.651 Z-1.824
X128.255 Y107.595 Z-1.753
X128.275 Y107.551 Z-1.672
X128.29 Y107.518 Z-1.585
X128.299 Y107.498 Z-1.494
X128.302 Y107.491 Z-1.4
G0 Z2.502
X182.255 Y106.498
Z-0.8
G1 Z-1.4 F500.
X182.262 Y106.5 Z-1.494
X182.284 Y106.503 Z-1.585
X182.319 Y106.51 Z-1.672
X182.368 Y106.519 Z-1.753
X182.428 Y106.529 Z-1.824
X182.499 Y106.542 Z-1.885
X182.578 Y106.556 Z-1.935
X182.663 Y106.571 Z-1.971
X182.753 Y106.588 Z-1.993
X182.846 Y106.604 Z-2.
G3 X183. Y106.782 I-0.033 J0.185
G1 Y109.076
X182.983 Y109.418
X182.952 Y109.652
X182.894 Y109.925
X182.801 Y110.234
X182.678 Y110.549
X182.498 Y110.92
X182.278 Y111.295
X181.976 Y111.725
X181.602 Y112.175
X181.124 Y112.665
X180.509 Y113.202
X179.833 Y113.702
X179.124 Y114.155
X178.391 Y114.568
X177.64 Y114.945
X176.873 Y115.291
X176.095 Y115.611
X175.308 Y115.906
X174.513 Y116.18
X173.711 Y116.435
X172.904 Y116.671
X172.093 Y116.892
X171.277 Y117.097
X170.458 Y117.288
X169.636 Y117.466
X168.812 Y117.632
X167.985 Y117.786
X167.156 Y117.928
X166.325 Y118.06
X165.493 Y118.181
X163.824 Y118.393
X162.151 Y118.566
X160.475 Y118.703
X158.796 Y118.803
X157.115 Y118.867
X155.434 Y118.897
X153.752 Y118.892
X152.07 Y118.853
X150.39 Y118.78
X148.711 Y118.673
X147.035 Y118.532
X145.362 Y118.358
X143.693 Y118.149
X142.029 Y117.906
X140.37 Y117.629
X138.717 Y117.319
X137.07 Y116.975
X136.25 Y116.79
X134.615 Y116.395
X133.801 Y116.184
X132.989 Y115.963
X132.181 Y115.73
X131.377 Y115.483
X130.579 Y115.219
X129.789 Y114.929
X129.128 Y114.644
X128.745 Y114.441
X128.494 Y114.271
X128.286 Y114.051
X128.129 Y113.792
X128.033 Y113.505
X128. Y113.204
Y110.738
G3 X128.054 Y110.51 I0.6 J0.021
G1 X128.093 Y110.424 Z-1.993
X128.131 Y110.341 Z-1.971
X128.167 Y110.262 Z-1.935
X128.2 Y110.189 Z-1.885
X128.23 Y110.124 Z-1.824
X128.255 Y110.068 Z-1.753
X128.275 Y110.023 Z-1.672
X128.29 Y109.991 Z-1.585
X128.299 Y109.971 Z-1.494
X128.302 Y109.964 Z-1.4
G0 Z2.502
X182.255 Y108.792
Z-0.8
G1 Z-1.4 F500.
X182.262 Y108.793 Z-1.494
X182.284 Y108.797 Z-1.585
X182.319 Y108.803 Z-1.672
X182.368 Y108.812 Z-1.753
X182.428 Y108.823 Z-1.824
X182.499 Y108.835 Z-1.885
X182.578 Y108.849 Z-1.935
X182.663 Y108.865 Z-1.971
X182.753 Y108.881 Z-1.993
X182.846 Y108.898 Z-2.
G3 X183. Y109.076 I-0.033 J0.185
G1 Y111.56
X182.986 Y111.84
X182.955 Y112.073
X182.897 Y112.346
X182.805 Y112.654
X182.682 Y112.969
X182.502 Y113.34
X182.282 Y113.713
X181.982 Y114.141
X181.609 Y114.59
X181.134 Y115.077
X180.523 Y115.61
X179.847 Y116.11
X179.138 Y116.563
X178.405 Y116.975
X177.652 Y117.351
X176.886 Y117.696
X176.107 Y118.013
X175.319 Y118.307
X174.523 Y118.579
X173.721 Y118.831
X172.913 Y119.065
X172.101 Y119.283
X171.285 Y119.486
X170.465 Y119.675
X169.643 Y119.851
X168.818 Y120.014
X167.99 Y120.166
X167.161 Y120.306
X166.33 Y120.435
X165.498 Y120.554
X163.829 Y120.763
X162.155 Y120.933
X160.479 Y121.067
X158.799 Y121.166
X157.119 Y121.23
X155.437 Y121.259
X153.755 Y121.255
X152.073 Y121.218
X150.393 Y121.147
X148.714 Y121.043
X147.038 Y120.906
X145.364 Y120.736
X143.695 Y120.534
X142.029 Y120.298
X140.369 Y120.029
X138.714 Y119.727
X137.066 Y119.392
X136.244 Y119.212
X134.607 Y118.827
X133.792 Y118.621
X132.979 Y118.404
X132.17 Y118.175
X131.365 Y117.933
X130.565 Y117.672
X129.775 Y117.383
X129.123 Y117.103
X128.745 Y116.903
X128.494 Y116.733
X128.286 Y116.513
X128.13 Y116.254
X128.033 Y115.967
X128. Y115.666
Y113.204
G3 X128.054 Y112.976 I0.6 J0.021
G1 X128.093 Y112.89 Z-1.993
X128.131 Y112.807 Z-1.971
X128.167 Y112.728 Z-1.935
X128.2 Y112.655 Z-1.885
X128.23 Y112.59 Z-1.824
X128.255 Y112.534 Z-1.753
X128.275 Y112.489 Z-1.672
X128.29 Y112.457 Z-1.585
X128.299 Y112.437 Z-1.494
X128.302 Y112.43 Z-1.4
G0 Z2.502
X182.255 Y111.276
Z-0.8
G1 Z-1.4 F500.
X182.262 Y111.277 Z-1.494
X182.284 Y111.281 Z-1.585
X182.319 Y111.288 Z-1.672
X182.368 Y111.296 Z-1.753
X182.428 Y111.307 Z-1.824
X182.499 Y111.32 Z-1.885
X182.578 Y111.334 Z-1.935
X182.663 Y111.349 Z-1.971
X182.753 Y111.365 Z-1.993
X182.846 Y111.382 Z-2.
G3 X183. Y111.56 I-0.033 J0.185
G1 Y114.044
X182.989 Y114.258
X182.959 Y114.491
X182.9 Y114.764
X182.809 Y115.07
X182.686 Y115.385
X182.507 Y115.755
X182.288 Y116.127
X181.988 Y116.553
X181.617 Y117.
X181.144 Y117.485
X180.537 Y118.014
X179.861 Y118.515
X179.152 Y118.967
X178.418 Y119.378
X177.665 Y119.753
X176.898 Y120.097
X176.118 Y120.413
X175.33 Y120.705
X174.533 Y120.974
X173.73 Y121.225
X172.922 Y121.457
X172.109 Y121.673
X171.292 Y121.874
X170.472 Y122.06
X169.65 Y122.234
X168.824 Y122.395
X167.996 Y122.544
X167.167 Y122.683
X166.336 Y122.81
X164.669 Y123.035
X162.997 Y123.221
X161.322 Y123.371
X159.644 Y123.485
X157.964 Y123.565
X156.282 Y123.611
X154.6 Y123.624
X152.918 Y123.605
X151.237 Y123.553
X149.557 Y123.468
X147.88 Y123.351
X146.204 Y123.202
X144.532 Y123.021
X142.864 Y122.808
X141.2 Y122.562
X139.541 Y122.284
X137.887 Y121.975
X136.241 Y121.632
X134.601 Y121.256
X133.785 Y121.054
X132.971 Y120.842
X132.161 Y120.618
X131.354 Y120.378
X130.554 Y120.12
X129.763 Y119.834
X129.12 Y119.558
X128.747 Y119.361
X128.495 Y119.191
X128.286 Y118.971
X128.13 Y118.711
X128.033 Y118.424
X128. Y118.122
Y115.666
G3 X128.054 Y115.438 I0.6 J0.021
G1 X128.093 Y115.352 Z-1.993
X128.131 Y115.269 Z-1.971
X128.167 Y115.19 Z-1.935
X128.2 Y115.117 Z-1.885
X128.23 Y115.052 Z-1.824
X128.255 Y114.996 Z-1.753
X128.275 Y114.951 Z-1.672
X128.29 Y114.918 Z-1.585
X128.299 Y114.898 Z-1.494
X128.302 Y114.892 Z-1.4
G0 Z2.502
X182.255 Y113.761
Z-0.8
G1 Z-1.4 F500.
X182.262 Y113.762 Z-1.494
X182.284 Y113.766 Z-1.585
X182.319 Y113.772 Z-1.672
X182.368 Y113.781 Z-1.753
X182.428 Y113.792 Z-1.824
X182.499 Y113.804 Z-1.885
X182.578 Y113.818 Z-1.935
X182.663 Y113.834 Z-1.971
X182.753 Y113.85 Z-1.993
X182.846 Y113.866 Z-2.
G3 X183. Y114.044 I-0.033 J0.185
G1 Y116.338
X182.983 Y116.681
X182.952 Y116.913
X182.894 Y117.186
X182.803 Y117.488
X182.681 Y117.804
X182.502 Y118.171
X182.284 Y118.542
X181.986 Y118.966
X181.617 Y119.411
X181.147 Y119.893
X180.544 Y120.418
X179.868 Y120.919
X179.159 Y121.371
X178.424 Y121.781
X177.671 Y122.155
X176.903 Y122.497
X176.123 Y122.812
X175.334 Y123.102
X174.537 Y123.37
X173.733 Y123.618
X172.924 Y123.849
X172.111 Y124.062
X171.294 Y124.261
X170.473 Y124.446
X169.65 Y124.617
X168.824 Y124.776
X167.996 Y124.924
X167.166 Y125.06
X166.335 Y125.186
X164.667 Y125.407
X162.995 Y125.591
X161.32 Y125.738
X159.642 Y125.851
X157.962 Y125.929
X156.28 Y125.975
X154.598 Y125.988
X152.916 Y125.97
X151.235 Y125.919
X149.555 Y125.837
X147.877 Y125.723
X146.201 Y125.578
X144.529 Y125.402
X142.859 Y125.194
X141.194 Y124.955
X139.534 Y124.685
X137.88 Y124.383
X136.231 Y124.049
X134.59 Y123.681
X133.773 Y123.483
X132.958 Y123.275
X132.146 Y123.054
X131.339 Y122.818
X130.538 Y122.562
X129.747 Y122.277
X129.115 Y122.007
X128.747 Y121.813
X128.496 Y121.643
X128.287 Y121.423
X128.13 Y121.163
X128.033 Y120.876
X128. Y120.574
Y118.122
G3 X128.054 Y117.895 I0.6 J0.021
G1 X128.093 Y117.809 Z-1.993
X128.131 Y117.726 Z-1.971
X128.167 Y117.647 Z-1.935
X128.2 Y117.574 Z-1.885
X128.23 Y117.508 Z-1.824
X128.255 Y117.453 Z-1.753
X128.275 Y117.408 Z-1.672
X128.29 Y117.375 Z-1.585
X128.299 Y117.355 Z-1.494
X128.302 Y117.349 Z-1.4
G0 Z2.502
X182.255 Y116.054
Z-0.8
G1 Z-1.4 F500.
X182.262 Y116.055 Z-1.494
X182.284 Y116.059 Z-1.585
X182.319 Y116.065 Z-1.672
X182.368 Y116.074 Z-1.753
X182.428 Y116.085 Z-1.824
X182.499 Y116.098 Z-1.885
X182.578 Y116.112 Z-1.935
X182.663 Y116.127 Z-1.971
X182.753 Y116.143 Z-1.993
X182.846 Y116.16 Z-2.
G3 X183. Y116.338 I-0.033 J0.185
G1 Y118.822
X182.987 Y119.088
X182.956 Y119.32
X182.898 Y119.593
X182.808 Y119.895
X182.685 Y120.21
X182.506 Y120.577
X182.289 Y120.947
X181.992 Y121.37
X181.623 Y121.814
X181.155 Y122.294
X180.555 Y122.817
X179.879 Y123.318
X179.169 Y123.769
X178.435 Y124.179
X177.681 Y124.552
X176.913 Y124.893
X176.132 Y125.206
X175.342 Y125.495
X174.545 Y125.762
X173.741 Y126.008
X172.931 Y126.237
X172.117 Y126.449
X171.3 Y126.646
X170.479 Y126.829
X169.655 Y126.998
X168.829 Y127.156
X168.001 Y127.301
X167.171 Y127.436
X166.339 Y127.56
X164.671 Y127.779
X162.999 Y127.96
X161.323 Y128.105
X159.645 Y128.216
X157.965 Y128.294
X156.283 Y128.339
X154.601 Y128.353
X152.919 Y128.335
X151.238 Y128.286
X149.558 Y128.207
X147.88 Y128.096
X146.204 Y127.955
X144.53 Y127.784
X142.861 Y127.581
X141.195 Y127.349
X139.534 Y127.085
X137.878 Y126.791
X136.228 Y126.464
X134.584 Y126.105
X133.766 Y125.911
X132.95 Y125.706
X132.138 Y125.488
X131.33 Y125.255
X130.528 Y125.002
X129.736 Y124.719
X129.113 Y124.453
X128.749 Y124.261
X128.497 Y124.091
X128.287 Y123.871
X128.13 Y123.611
X128.033 Y123.324
X128. Y123.022
Y120.574
G3 X128.054 Y120.346 I0.6 J0.021
G1 X128.093 Y120.261 Z-1.993
X128.131 Y120.178 Z-1.971
X128.167 Y120.099 Z-1.935
X128.2 Y120.026 Z-1.885
X128.23 Y119.96 Z-1.824
X128.255 Y119.905 Z-1.753
X128.275 Y119.86 Z-1.672
X128.29 Y119.827 Z-1.585
X128.299 Y119.807 Z-1.494
X128.302 Y119.8 Z-1.4
G0 Z2.502
X182.255 Y118.538
Z-0.8
G1 Z-1.4 F500.
X182.262 Y118.54 Z-1.494
X182.284 Y118.543 Z-1.585
X182.319 Y118.55 Z-1.672
X182.368 Y118.559 Z-1.753
X182.428 Y118.569 Z-1.824
X182.499 Y118.582 Z-1.885
X182.578 Y118.596 Z-1.935
X182.663 Y118.611 Z-1.971
X182.753 Y118.628 Z-1.993
X182.846 Y118.644 Z-2.
G3 X183. Y118.822 I-0.033 J0.185
G1 Y121.307
X182.991 Y121.493
X182.96 Y121.725
X182.902 Y121.997
X182.812 Y122.298
X182.689 Y122.614
X182.511 Y122.98
X182.294 Y123.35
X181.997 Y123.771
X181.63 Y124.214
X181.164 Y124.692
X180.566 Y125.213
X179.89 Y125.713
X179.18 Y126.165
X178.446 Y126.574
X177.692 Y126.946
X176.922 Y127.286
X176.142 Y127.599
X175.351 Y127.886
X174.553 Y128.151
X173.749 Y128.396
X172.939 Y128.623
X172.125 Y128.834
X171.307 Y129.029
X170.485 Y129.21
X169.661 Y129.378
X168.835 Y129.534
X168.006 Y129.678
X167.176 Y129.811
X166.344 Y129.934
X164.676 Y130.15
X163.003 Y130.329
X161.327 Y130.472
X159.649 Y130.582
X157.969 Y130.659
X156.287 Y130.704
X154.606 Y130.718
X152.924 Y130.701
X151.242 Y130.654
X149.562 Y130.577
X147.884 Y130.47
X146.207 Y130.332
X144.533 Y130.165
X142.863 Y129.968
X141.196 Y129.742
X139.534 Y129.485
X137.877 Y129.197
X136.225 Y128.878
X134.581 Y128.526
X133.762 Y128.336
X132.945 Y128.134
X132.132 Y127.92
X131.323 Y127.689
X130.52 Y127.438
X129.728 Y127.157
X129.112 Y126.895
X128.616 Y126.634
X128.376 Y126.442
X128.184 Y126.202
X128.049 Y125.926
X127.978 Y125.627
X127.974 Y125.32
X128. Y124.747
Y123.022
G3 X128.054 Y122.794 I0.6 J0.021
G1 X128.093 Y122.708 Z-1.993
X128.131 Y122.625 Z-1.971
X128.167 Y122.546 Z-1.935
X128.2 Y122.473 Z-1.885
X128.23 Y122.408 Z-1.824
X128.255 Y122.352 Z-1.753
X128.275 Y122.307 Z-1.672
X128.29 Y122.275 Z-1.585
X128.299 Y122.255 Z-1.494
X128.302 Y122.248 Z-1.4
G0 Z2.502
X182.255 Y121.023
Z-0.8
G1 Z-1.4 F500.
X182.262 Y121.024 Z-1.494
X182.284 Y121.028 Z-1.585
X182.319 Y121.034 Z-1.672
X182.368 Y121.043 Z-1.753
X182.428 Y121.054 Z-1.824
X182.499 Y121.066 Z-1.885
X182.578 Y121.081 Z-1.935
X182.663 Y121.096 Z-1.971
X182.753 Y121.112 Z-1.993
X182.846 Y121.129 Z-2.
G3 X183. Y121.307 I-0.033 J0.185
G1 Y123.6
X182.985 Y123.905
X182.955 Y124.135
X182.896 Y124.408
X182.807 Y124.706
X182.684 Y125.022
X182.507 Y125.386
X182.29 Y125.755
X181.996 Y126.174
X181.629 Y126.616
X181.165 Y127.091
X180.571 Y127.61
X179.895 Y128.11
X179.185 Y128.561
X178.45 Y128.969
X177.695 Y129.341
X176.926 Y129.68
X176.145 Y129.991
X175.354 Y130.277
X174.555 Y130.541
X173.75 Y130.785
X172.94 Y131.01
X172.125 Y131.219
X171.307 Y131.413
X170.485 Y131.592
X169.661 Y131.759
X168.834 Y131.913
X168.005 Y132.055
X167.175 Y132.187
X166.343 Y132.309
X164.674 Y132.522
X163.001 Y132.698
X161.325 Y132.84
X159.647 Y132.948
X157.967 Y133.025
X156.285 Y133.07
X154.603 Y133.084
X152.921 Y133.068
X151.24 Y133.023
X149.56 Y132.948
X147.881 Y132.843
X146.204 Y132.709
X144.53 Y132.546
X142.859 Y132.354
X141.192 Y132.133
X139.529 Y131.882
X137.87 Y131.601
X136.218 Y131.29
X134.571 Y130.944
X133.752 Y130.757
X132.934 Y130.558
X132.12 Y130.347
X131.311 Y130.119
X130.508 Y129.869
X129.715 Y129.589
X129.076 Y129.32
X128.613 Y129.08
X128.227 Y128.838
X127.894 Y128.59
X127.752 Y128.465
X127.557 Y128.255
X127.409 Y128.009
X127.314 Y127.739
X127.276 Y127.455
X127.296 Y127.169
X127.375 Y126.893
X127.508 Y126.639
G3 X127.678 Y126.479 I0.488 J0.349
G1 X127.758 Y126.429 Z-1.993
X127.836 Y126.381 Z-1.971
X127.909 Y126.335 Z-1.935
X127.978 Y126.292 Z-1.885
X128.038 Y126.254 Z-1.824
X128.09 Y126.222 Z-1.753
X128.132 Y126.196 Z-1.672
X128.162 Y126.177 Z-1.585
X128.181 Y126.165 Z-1.494
X128.187 Y126.161 Z-1.4
G0 Z2.502
X182.255 Y123.316
Z-0.8
G1 Z-1.4 F500.
X182.262 Y123.317 Z-1.494
X182.284 Y123.321 Z-1.585
X182.319 Y123.328 Z-1.672
X182.368 Y123.336 Z-1.753
X182.428 Y123.347 Z-1.824
X182.499 Y123.36 Z-1.885
X182.578 Y123.374 Z-1.935
X182.663 Y123.389 Z-1.971
X182.753 Y123.405 Z-1.993
X182.846 Y123.422 Z-2.
G3 X183. Y123.6 I-0.033 J0.185
G1 Y126.084
X182.989 Y126.301
X182.959 Y126.532
X182.901 Y126.805
X182.811 Y127.103
X182.688 Y127.418
X182.512 Y127.783
X182.295 Y128.151
X182. Y128.57
X181.635 Y129.011
X181.172 Y129.485
X180.58 Y130.001
X179.904 Y130.502
X179.194 Y130.952
X178.458 Y131.36
X177.704 Y131.731
X176.934 Y132.07
X176.152 Y132.38
X175.361 Y132.665
X174.562 Y132.927
X173.756 Y133.17
X172.946 Y133.394
X172.131 Y133.602
X171.312 Y133.794
X170.49 Y133.972
X169.666 Y134.137
X168.839 Y134.29
X168.01 Y134.431
X167.179 Y134.562
X165.513 Y134.792
X163.842 Y134.985
X162.167 Y135.142
X160.49 Y135.266
X158.81 Y135.357
X157.129 Y135.417
X155.448 Y135.447
X153.766
X152.084 Y135.417
X150.403 Y135.359
X148.723 Y135.272
X147.045 Y135.156
X145.369 Y135.011
X143.696 Y134.838
X142.026 Y134.636
X140.36 Y134.406
X138.698 Y134.146
X137.042 Y133.857
X136.215 Y133.7
X134.568 Y133.361
X133.747 Y133.177
X132.929 Y132.981
X132.115 Y132.772
X131.304 Y132.547
X130.501 Y132.3
X129.707 Y132.022
X128.929 Y131.702
X128.269 Y131.376
X127.76 Y131.072
X127.362 Y130.788
X127.047 Y130.523
X126.759 Y130.238
X126.532 Y129.974
X126.323 Y129.688
X126.16 Y129.422
X126.1 Y129.304
X125.997 Y129.031
X125.955 Y128.743
X125.975 Y128.452
X126.057 Y128.173
X126.196 Y127.917
X126.387 Y127.697
X126.621 Y127.523
G3 X126.839 Y127.436 I0.326 J0.504
G1 X126.931 Y127.419 Z-1.993
X127.021 Y127.403 Z-1.971
X127.106 Y127.387 Z-1.935
X127.185 Y127.372 Z-1.885
X127.256 Y127.36 Z-1.824
X127.316 Y127.348 Z-1.753
X127.364 Y127.34 Z-1.672
X127.4 Y127.333 Z-1.585
X127.421 Y127.329 Z-1.494
X127.429 Y127.328 Z-1.4
G0 Z2.502
X182.255 Y125.801
Z-0.8
G1 Z-1.4 F500.
X182.262 Y125.802 Z-1.494
X182.284 Y125.806 Z-1.585
X182.319 Y125.812 Z-1.672
X182.368 Y125.821 Z-1.753
X182.428 Y125.832 Z-1.824
X182.499 Y125.844 Z-1.885
X182.578 Y125.858 Z-1.935
X182.663 Y125.874 Z-1.971
X182.753 Y125.89 Z-1.993
X182.846 Y125.906 Z-2.
G3 X183. Y126.084 I-0.033 J0.185
G1 Y128.378
X182.984 Y128.706
X182.953 Y128.936
X182.895 Y129.209
X182.807 Y129.505
X182.684 Y129.82
X182.508 Y130.183
X182.291 Y130.55
X181.998 Y130.967
X181.633 Y131.407
X181.173 Y131.879
X180.583 Y132.394
X179.907 Y132.894
X179.197 Y133.344
X178.461 Y133.752
X177.706 Y134.122
X176.936 Y134.46
X176.154 Y134.769
X175.362 Y135.053
X174.563 Y135.314
X173.757 Y135.555
X172.946 Y135.778
X172.131 Y135.985
X171.312 Y136.176
X170.49 Y136.352
X169.665 Y136.516
X168.837 Y136.668
X168.008 Y136.808
X167.177 Y136.937
X165.511 Y137.165
X163.84 Y137.356
X162.165 Y137.511
X160.487 Y137.633
X158.808 Y137.724
X157.127 Y137.784
X155.445 Y137.814
X153.763
X152.081 Y137.786
X150.4 Y137.729
X148.72 Y137.644
X147.042 Y137.531
X145.366 Y137.39
X143.693 Y137.221
X142.022 Y137.024
X140.355 Y136.799
X138.693 Y136.545
X137.035 Y136.262
X136.208 Y136.108
X134.559 Y135.775
X133.738 Y135.594
X132.919 Y135.401
X132.104 Y135.194
X131.293 Y134.971
X130.489 Y134.726
X129.692 Y134.456
X128.908 Y134.152
X128.142 Y133.806
X127.4 Y133.409
X126.784 Y133.013
X126.25 Y132.605
X125.797 Y132.199
X125.44 Y131.822
X125.169 Y131.485
X124.934 Y131.14
X124.758 Y130.831
X124.605 Y130.504
X124.495 Y130.208
X124.406 Y129.895
X124.348 Y129.606
X124.339 Y129.522
X124.336 Y129.22
X124.397 Y128.923
X124.519 Y128.647
X124.697 Y128.402
X124.923 Y128.201
X125.186 Y128.051
X125.475 Y127.961
G3 X125.709 Y127.969 I0.097 J0.592
G1 X125.8 Y127.99 Z-1.993
X125.889 Y128.011 Z-1.971
X125.974 Y128.031 Z-1.935
X126.052 Y128.049 Z-1.885
X126.122 Y128.066 Z-1.824
X126.181 Y128.08 Z-1.753
X126.229 Y128.091 Z-1.672
X126.264 Y128.099 Z-1.585
X126.286 Y128.104 Z-1.494
X126.293 Y128.106 Z-1.4
G0 Z2.502
X182.255 Y128.094
Z-0.8
G1 Z-1.4 F500.
X182.262 Y128.095 Z-1.494
X182.284 Y128.099 Z-1.585
X182.319 Y128.105 Z-1.672
X182.368 Y128.114 Z-1.753
X182.428 Y128.125 Z-1.824
X182.499 Y128.137 Z-1.885
X182.578 Y128.152 Z-1.935
X182.663 Y128.167 Z-1.971
X182.753 Y128.183 Z-1.993
X182.846 Y128.2 Z-2.
G3 X183. Y128.378 I-0.033 J0.185
G1 Y130.862
X182.988 Y131.097
X182.958 Y131.327
X182.9 Y131.6
X182.811 Y131.896
X182.688 Y132.211
X182.512 Y132.574
X182.296 Y132.941
X182.003 Y133.358
X181.639 Y133.797
X181.179 Y134.268
X180.591 Y134.782
X179.915 Y135.282
X179.204 Y135.732
X178.469 Y136.139
X177.713 Y136.509
X176.943 Y136.846
X176.16 Y137.155
X175.368 Y137.438
X174.569 Y137.698
X173.763 Y137.938
X172.951 Y138.16
X172.136 Y138.365
X171.317 Y138.555
X170.494 Y138.731
X169.669 Y138.893
X168.842 Y139.044
X168.012 Y139.183
X167.181 Y139.311
X165.514 Y139.537
X163.843 Y139.726
X162.168 Y139.88
X160.49 Y140.001
X158.811 Y140.091
X157.13 Y140.151
X155.448 Y140.181
X153.766 Y140.182
X152.084 Y140.155
X150.403 Y140.1
X148.723 Y140.018
X147.045 Y139.907
X145.369 Y139.77
X143.695 Y139.605
X142.024 Y139.413
X140.356 Y139.192
X138.693 Y138.944
X137.034 Y138.666
X136.206 Y138.516
X134.557 Y138.188
X133.735 Y138.01
X132.916 Y137.819
X132.1 Y137.615
X131.288 Y137.395
X130.482 Y137.156
X129.683 Y136.893
X128.893 Y136.604
X128.116 Y136.282
X127.356 Y135.921
X126.619 Y135.518
X125.908 Y135.067
X125.253 Y134.583
X124.686 Y134.089
X124.201 Y133.593
X123.797 Y133.107
X123.457 Y132.623
X123.173 Y132.142
X122.964 Y131.712
X122.807 Y131.311
X122.693 Y130.931
X122.618 Y130.58
X122.572 Y130.235
X122.556 Y129.909
X122.565 Y129.598
X122.599 Y129.291
X122.629 Y129.135
X122.725 Y128.829
X122.889 Y128.552
X123.112 Y128.321
X123.382 Y128.146
X123.684 Y128.037
X124.003 Y128.
X124.957 Y127.996
X125.475 Y127.961
G3 X125.706 Y127.998 I0.022 J0.6
G1 X125.794 Y128.031 Z-1.993
X125.879 Y128.063 Z-1.971
X125.961 Y128.093 Z-1.935
X126.036 Y128.121 Z-1.885
X126.103 Y128.146 Z-1.824
X126.161 Y128.168 Z-1.753
X126.207 Y128.185 Z-1.672
X126.24 Y128.197 Z-1.585
X126.261 Y128.205 Z-1.494
X126.268 Y128.208 Z-1.4
G0 Z2.502
X182.255 Y130.578
Z-0.8
G1 Z-1.4 F500.
X182.262 Y130.58 Z-1.494
