(4-EDGE1)
(T2  D=3. CR=0. - ZMIN=-12. - FLAT END MILL)
G0 G90 G94 G17
G21
G53 Z0.

(CONTOUR - EDGE1)
M5
M9
T2
(PART OF A 10 PACK CARBIDE)
M3 S18000
G54
M9
G0 X126.65 Y9.043
Z2.
G1 Z0.4 F500.
Y9.041 Z0.367
Y9.036 Z0.335
Y9.027 Z0.303
G3 Y9.015 Z0.272 I1.425 J0.022
X126.651 Y8.999 Z0.243 I1.425 J0.034
X126.652 Y8.98 Z0.216 I1.424 J0.049
X126.653 Y8.959 Z0.191 I1.423 J0.068
X126.655 Y8.935 Z0.169 I1.422 J0.09
X126.657 Y8.908 Z0.149 I1.42 J0.114
X126.66 Y8.88 Z0.133 I1.418 J0.14
X126.664 Y8.85 Z0.119 I1.415 J0.168
X126.669 Y8.819 Z0.109 I1.411 J0.198
X126.674 Y8.788 Z0.103 I1.406 J0.229
X126.68 Y8.756 Z0.1 I1.401 J0.261
X129.47 Y9.341 Z-0.056 I1.395 J0.293
X126.68 Y8.756 Z-0.213 I-1.395 J-0.293
X129.47 Y9.341 Z-0.369 I1.395 J0.293
X126.68 Y8.756 Z-0.525 I-1.395 J-0.293
X129.47 Y9.341 Z-0.682 I1.395 J0.293
X126.68 Y8.756 Z-0.838 I-1.395 J-0.293
X129.47 Y9.341 Z-0.994 I1.395 J0.293
X126.68 Y8.756 Z-1.151 I-1.395 J-0.293
X129.47 Y9.341 Z-1.307 I1.395 J0.293
X126.68 Y8.756 Z-1.463 I-1.395 J-0.293
X129.47 Y9.341 Z-1.62 I1.395 J0.293
X126.68 Y8.756 Z-1.776 I-1.395 J-0.293
X129.47 Y9.341 Z-1.932 I1.395 J0.293
X128.085 Y10.473 Z-2. I-1.395 J-0.293
X128.075 I-0.01 J-1.425
G1 X126.8
G3 X126.5 Y10.173 I0. J-0.3
G1 Y10.119
Y9.981
X126.497 Y9.912
X126.492 Y9.843
X126.476 Y9.732
X126.471 Y9.704
X126.455 Y9.635
X126.436 Y9.566
X126.413 Y9.497
X126.386 Y9.428
X126.337 Y9.321
X126.321 Y9.289
X126.281 Y9.22
X126.237 Y9.151
X126.199 Y9.099
X126.129 Y9.012
X126.061 Y8.939
X125.991 Y8.874
X125.922 Y8.817
X125.865 Y8.774
X125.807 Y8.736
X125.784 Y8.721
X125.715 Y8.681
X125.646 Y8.646
X125.532 Y8.597
X125.507 Y8.588
X125.438 Y8.565
X125.369 Y8.546
X125.3 Y8.53
X125.231 Y8.518
X125.161 Y8.509
X125.092 Y8.503
X124.954 Y8.5
X65.046
X64.908 Y8.503
X64.839 Y8.509
X64.769 Y8.518
X64.7 Y8.53
X64.631 Y8.546
X64.562 Y8.565
X64.493 Y8.588
X64.468 Y8.597
X64.354 Y8.646
X64.285 Y8.681
X64.216 Y8.721
X64.193 Y8.736
X64.135 Y8.774
X64.078 Y8.817
X64.009 Y8.874
X63.939 Y8.939
X63.871 Y9.012
X63.801 Y9.099
X63.763 Y9.151
X63.719 Y9.22
X63.679 Y9.289
X63.663 Y9.321
X63.614 Y9.428
X63.587 Y9.497
X63.564 Y9.566
X63.545 Y9.635
X63.529 Y9.704
X63.524 Y9.732
X63.508 Y9.843
X63.503 Y9.912
X63.5 Y9.981
Y10.119
Y10.173
G19 G3 Y10.473 Z-1.7 J0. K0.3
G0 Z3.
X126.65 Y9.043
Z2.972
G1 Z-1.6 F500.
Y9.041 Z-1.633
Y9.036 Z-1.665
Y9.027 Z-1.697
G17 G3 Y9.015 Z-1.728 I1.425 J0.022
X126.651 Y8.999 Z-1.757 I1.425 J0.034
X126.652 Y8.98 Z-1.784 I1.424 J0.049
X126.653 Y8.959 Z-1.809 I1.423 J0.068
X126.655 Y8.935 Z-1.831 I1.422 J0.09
X126.657 Y8.908 Z-1.851 I1.42 J0.114
X126.66 Y8.88 Z-1.867 I1.418 J0.14
X126.664 Y8.85 Z-1.881 I1.415 J0.168
X126.669 Y8.819 Z-1.891 I1.411 J0.198
X126.674 Y8.788 Z-1.897 I1.406 J0.229
X126.68 Y8.756 Z-1.9 I1.401 J0.261
X129.47 Y9.341 Z-2.056 I1.395 J0.293
X126.68 Y8.756 Z-2.213 I-1.395 J-0.293
X129.47 Y9.341 Z-2.369 I1.395 J0.293
X126.68 Y8.756 Z-2.525 I-1.395 J-0.293
X129.47 Y9.341 Z-2.682 I1.395 J0.293
X126.68 Y8.756 Z-2.838 I-1.395 J-0.293
X129.47 Y9.341 Z-2.994 I1.395 J0.293
X126.68 Y8.756 Z-3.151 I-1.395 J-0.293
X129.47 Y9.341 Z-3.307 I1.395 J0.293
X126.68 Y8.756 Z-3.463 I-1.395 J-0.293
X129.47 Y9.341 Z-3.62 I1.395 J0.293
X126.68 Y8.756 Z-3.776 I-1.395 J-0.293
X129.47 Y9.341 Z-3.932 I1.395 J0.293
X128.085 Y10.473 Z-4. I-1.395 J-0.293
X128.075 I-0.01 J-1.425
G1 X126.8
G3 X126.5 Y10.173 I0. J-0.3
G1 Y10.119
Y9.981
X126.497 Y9.912
X126.492 Y9.843
X126.476 Y9.732
X126.471 Y9.704
X126.455 Y9.635
X126.436 Y9.566
X126.413 Y9.497
X126.386 Y9.428
X126.337 Y9.321
X126.321 Y9.289
X126.281 Y9.22
X126.237 Y9.151
X126.199 Y9.099
X126.129 Y9.012
X126.061 Y8.939
X125.991 Y8.874
X125.922 Y8.817
X125.865 Y8.774
X125.807 Y8.736
X125.784 Y8.721
X125.715 Y8.681
X125.646 Y8.646
X125.532 Y8.597
X125.507 Y8.588
X125.438 Y8.565
X125.369 Y8.546
X125.3 Y8.53
X125.231 Y8.518
X125.161 Y8.509
X125.092 Y8.503
X124.954 Y8.5
X65.046
X64.908 Y8.503
X64.839 Y8.509
X64.769 Y8.518
X64.7 Y8.53
X64.631 Y8.546
X64.562 Y8.565
X64.493 Y8.588
X64.468 Y8.597
X64.354 Y8.646
X64.285 Y8.681
X64.216 Y8.721
X64.193 Y8.736
X64.135 Y8.774
X64.078 Y8.817
X64.009 Y8.874
X63.939 Y8.939
X63.871 Y9.012
X63.801 Y9.099
X63.763 Y9.151
X63.719 Y9.22
X63.679 Y9.289
X63.663 Y9.321
X63.614 Y9.428
X63.587 Y9.497
X63.564 Y9.566
X63.545 Y9.635
X63.529 Y9.704
X63.524 Y9.732
X63.508 Y9.843
X63.503 Y9.912
X63.5 Y9.981
Y10.119
Y10.173
G19 G3 Y10.473 Z-3.7 J0. K0.3
G0 Z3.
X126.666 Y10.567
Z2.995
G1 Z-2.6 F500.
Y10.565 Z-2.632
X126.665 Y10.56 Z-2.663
X126.664 Y10.552 Z-2.694
G17 G3 X126.663 Y10.541 Z-2.723 I1.411 J-0.165
X126.661 Y10.526 Z-2.751 I1.412 J-0.154
X126.66 Y10.509 Z-2.778 I1.414 J-0.14
X126.658 Y10.489 Z-2.802 I1.415 J-0.122
X126.657 Y10.467 Z-2.825 I1.417 J-0.102
X126.655 Y10.442 Z-2.844 I1.418 J-0.08
Y10.415 Z-2.861 I1.42 J-0.055
X126.654 Y10.387 Z-2.875 I1.42 J-0.028
X126.655 Y10.361 Z-2.885 I1.421 J0.
Y10.334 Z-2.893 I1.42 J0.026
X126.657 Y10.306 Z-2.898 I1.42 J0.053
X126.659 Y10.278 Z-2.9 I1.418 J0.081
X129.491 Y10.495 Z-3.056 I1.416 J0.109
X126.659 Y10.278 Z-3.212 I-1.416 J-0.109
X129.491 Y10.495 Z-3.368 I1.416 J0.109
X126.659 Y10.278 Z-3.523 I-1.416 J-0.109
X129.491 Y10.495 Z-3.679 I1.416 J0.109
X126.659 Y10.278 Z-3.835 I-1.416 J-0.109
X129.491 Y10.495 Z-3.991 I1.416 J0.109
X126.659 Y10.278 Z-4.147 I-1.416 J-0.109
X129.491 Y10.495 Z-4.303 I1.416 J0.109
X126.659 Y10.278 Z-4.459 I-1.416 J-0.109
X129.491 Y10.495 Z-4.614 I1.416 J0.109
X126.659 Y10.278 Z-4.77 I-1.416 J-0.109
X129.491 Y10.495 Z-4.926 I1.416 J0.109
X128.085 Y11.807 Z-5. I-1.416 J-0.109
X128.075 I-0.01 J-1.421
G1 X126.8
G3 X126.5 Y11.507 I0. J-0.3
G1 Y10.119
Y9.981
X126.497 Y9.912
X126.492 Y9.843
X126.476 Y9.732
X126.471 Y9.704
X126.455 Y9.635
X126.436 Y9.566
X126.413 Y9.497
X126.386 Y9.428
X126.337 Y9.321
X126.321 Y9.289
X126.281 Y9.22
X126.237 Y9.151
X126.199 Y9.099
X126.129 Y9.012
X126.061 Y8.939
X125.991 Y8.874
X125.922 Y8.817
X125.865 Y8.774
X125.807 Y8.736
X125.784 Y8.721
X125.715 Y8.681
X125.646 Y8.646
X125.532 Y8.597
X125.507 Y8.588
X125.438 Y8.565
X125.369 Y8.546
X125.3 Y8.53
X125.231 Y8.518
X125.161 Y8.509
X125.092 Y8.503
X124.954 Y8.5
X65.046
X64.908 Y8.503
X64.839 Y8.509
X64.769 Y8.518
X64.7 Y8.53
X64.631 Y8.546
X64.562 Y8.565
X64.493 Y8.588
X64.468 Y8.597
X64.354 Y8.646
X64.285 Y8.681
X64.216 Y8.721
X64.193 Y8.736
X64.135 Y8.774
X64.078 Y8.817
X64.009 Y8.874
X63.939 Y8.939
X63.871 Y9.012
X63.801 Y9.099
X63.763 Y9.151
X63.719 Y9.22
X63.679 Y9.289
X63.663 Y9.321
X63.614 Y9.428
X63.587 Y9.497
X63.564 Y9.566
X63.545 Y9.635
X63.529 Y9.704
X63.524 Y9.732
X63.508 Y9.843
X63.503 Y9.912
X63.5 Y9.981
Y10.119
Y11.507
G3 X62.979 Y11.71 I-0.3 J0.
G1 X59.456 Y7.88
G3 X59.35 Y6.08 I1.049 J-0.965
X59.356 Y6.072 I1.155 J0.835 F167.
X61.654 Y7.758 Z-5.156 I1.149 J0.843
X59.356 Y6.072 Z-5.313 I-1.149 J-0.843
X61.654 Y7.758 Z-5.469 I1.149 J0.843
X59.356 Y6.072 Z-5.625 I-1.149 J-0.843
X61.654 Y7.758 Z-5.782 I1.149 J0.843
X59.356 Y6.072 Z-5.938 I-1.149 J-0.843
X61.654 Y7.758 Z-6.094 I1.149 J0.843
X59.356 Y6.072 Z-6.25 I-1.149 J-0.843
X61.654 Y7.758 Z-6.407 I1.149 J0.843
X59.356 Y6.072 Z-6.563 I-1.149 J-0.843
X61.654 Y7.758 Z-6.719 I1.149 J0.843
X59.356 Y6.072 Z-6.875 I-1.149 J-0.843
X61.93 Y6.905 Z-7. I1.149 J0.843
Y6.915 I-1.425 J0.01
G1 Y7.07 F500.
G3 X60.5 Y8.5 I-1.43 J0.
G1 X10.119
X9.981
X9.912 Y8.503
X9.842 Y8.508
X9.773 Y8.517
X9.704 Y8.529
X9.635 Y8.545
X9.566 Y8.564
X9.468 Y8.597
X9.427 Y8.614
X9.358 Y8.644
X9.289 Y8.679
X9.193 Y8.736
X9.151 Y8.764
X9.081 Y8.814
X9.012 Y8.871
X9.009 Y8.874
X8.937 Y8.942
X8.874 Y9.009
X8.871 Y9.012
X8.814 Y9.082
X8.763 Y9.151
X8.735 Y9.193
X8.679 Y9.289
X8.644 Y9.358
X8.614 Y9.428
X8.597 Y9.469
X8.564 Y9.566
X8.545 Y9.635
X8.529 Y9.704
X8.517 Y9.774
X8.508 Y9.843
X8.503 Y9.912
X8.5 Y9.981
Y10.119
Y217.943
X8.502 Y218.082
X8.511 Y218.22
X8.52 Y218.359
X8.526 Y218.428
X8.536 Y218.497
X8.562 Y218.635
X8.597 Y218.811
X8.621 Y218.912
X8.665 Y219.05
X8.712 Y219.189
X8.735 Y219.258
X8.761 Y219.327
X8.825 Y219.465
X8.893 Y219.604
X8.964 Y219.742
X9.012 Y219.82
X9.052 Y219.881
X9.151 Y220.028
X9.195 Y220.092
X9.244 Y220.157
X9.289 Y220.21
X9.427 Y220.368
X9.486 Y220.434
X9.566 Y220.514
X9.631 Y220.572
X9.789 Y220.711
X9.842 Y220.756
X9.907 Y220.805
X9.972 Y220.849
X10.119 Y220.947
X10.179 Y220.988
X10.257 Y221.035
X10.396 Y221.107
X10.534 Y221.175
X10.672 Y221.238
X10.741 Y221.264
X10.811 Y221.288
X10.949 Y221.335
X11.088 Y221.379
X11.188 Y221.403
X11.364 Y221.438
X11.503 Y221.464
X11.572 Y221.474
X11.641 Y221.48
X11.779 Y221.489
X11.918 Y221.498
X12.056 Y221.5
X52.871
X53.009
X53.148 Y221.494
X53.286 Y221.484
X53.424 Y221.474
X53.493 Y221.465
X53.563 Y221.452
X53.812 Y221.403
X53.839 Y221.397
X53.908 Y221.38
X53.978 Y221.36
X54.116 Y221.313
X54.254 Y221.266
X54.259 Y221.264
X54.326 Y221.239
X54.393 Y221.21
X54.531 Y221.143
X54.669 Y221.074
X54.739 Y221.038
X54.808 Y220.996
X54.821 Y220.988
X54.946 Y220.904
X55.028 Y220.849
X55.085 Y220.811
X55.148 Y220.764
X55.211 Y220.711
X55.369 Y220.572
X55.434 Y220.514
X55.5 Y220.45
X55.514 Y220.434
X55.636 Y220.296
X55.638 Y220.294
X55.756 Y220.157
X55.776 Y220.131
X55.855 Y220.019
X55.948 Y219.881
X56.036 Y219.742
X56.053 Y219.711
X56.107 Y219.604
X56.191 Y219.432
X56.239 Y219.327
X56.288 Y219.189
X56.335 Y219.05
X56.379 Y218.912
X56.41 Y218.774
X56.438 Y218.635
X56.464 Y218.497
X56.468 Y218.471
X56.48 Y218.359
X56.489 Y218.22
X56.498 Y218.082
X56.5 Y217.943
Y175.881
X56.504 Y175.811
X56.507 Y175.764
X56.508 Y175.762
X56.52 Y175.701
Y175.699
X56.541 Y175.638
X56.542 Y175.636
X56.569 Y175.582
X56.57 Y175.579
X56.605 Y175.528
X56.606 Y175.525
X56.659 Y175.465
X56.745 Y175.377
X75.423 Y156.699
X75.478 Y156.648
X75.525 Y156.607
X75.526 Y156.606
X75.578 Y156.571
X75.581 Y156.57
X75.637 Y156.542
X75.639 Y156.541
X75.699 Y156.52
X75.701
X75.763 Y156.508
X75.764 Y156.507
X75.838 Y156.503
X75.976 Y156.5
X114.024
X114.162 Y156.503
X114.236 Y156.507
X114.237 Y156.508
X114.299 Y156.52
X114.301
X114.361 Y156.541
X114.363 Y156.542
X114.419 Y156.57
X114.422 Y156.571
X114.474 Y156.606
X114.475 Y156.607
X114.522 Y156.648
X114.577 Y156.699
X133.255 Y175.377
X133.341 Y175.465
X133.394 Y175.525
X133.395 Y175.528
X133.43 Y175.579
X133.431 Y175.582
X133.458 Y175.636
X133.459 Y175.638
X133.48 Y175.699
Y175.701
X133.492 Y175.762
X133.493 Y175.764
X133.496 Y175.811
X133.5 Y175.881
Y217.943
X133.502 Y218.082
X133.511 Y218.22
X133.52 Y218.359
X133.532 Y218.471
X133.536 Y218.497
X133.562 Y218.635
X133.59 Y218.774
X133.621 Y218.912
X133.665 Y219.05
X133.712 Y219.189
X133.761 Y219.327
X133.809 Y219.432
X133.893 Y219.604
X133.947 Y219.711
X133.964 Y219.742
X134.052 Y219.881
X134.145 Y220.019
X134.224 Y220.131
X134.244 Y220.157
X134.362 Y220.294
X134.364 Y220.296
X134.486 Y220.434
X134.5 Y220.45
X134.566 Y220.514
X134.631 Y220.572
X134.789 Y220.711
X134.852 Y220.764
X134.915 Y220.811
X134.972 Y220.849
X135.054 Y220.904
X135.179 Y220.988
X135.192 Y220.996
X135.261 Y221.038
X135.331 Y221.074
X135.469 Y221.143
X135.607 Y221.21
X135.674 Y221.239
X135.741 Y221.264
X135.746 Y221.266
X135.884 Y221.313
X136.022 Y221.36
X136.092 Y221.38
X136.161 Y221.397
X136.188 Y221.403
X136.437 Y221.452
X136.507 Y221.465
X136.576 Y221.474
X136.714 Y221.484
X136.852 Y221.494
X136.991 Y221.5
X137.129
X177.944
X178.082 Y221.498
X178.221 Y221.489
X178.359 Y221.48
X178.428 Y221.474
X178.497 Y221.464
X178.636 Y221.438
X178.812 Y221.403
X178.912 Y221.379
X179.051 Y221.335
X179.189 Y221.288
X179.259 Y221.264
X179.328 Y221.238
X179.466 Y221.175
X179.604 Y221.107
X179.743 Y221.035
X179.821 Y220.988
X179.881 Y220.947
X180.028 Y220.849
X180.093 Y220.805
X180.158 Y220.756
X180.211 Y220.711
X180.369 Y220.572
X180.434 Y220.514
X180.514 Y220.434
X180.573 Y220.368
X180.711 Y220.21
X180.756 Y220.157
X180.805 Y220.092
X180.849 Y220.028
X180.948 Y219.881
X180.988 Y219.82
X181.036 Y219.742
X181.107 Y219.604
X181.175 Y219.465
X181.239 Y219.327
X181.264 Y219.258
X181.288 Y219.189
X181.335 Y219.05
X181.379 Y218.912
X181.403 Y218.811
X181.438 Y218.635
X181.464 Y218.497
X181.474 Y218.428
X181.48 Y218.359
X181.489 Y218.22
X181.498 Y218.082
X181.5 Y217.943
Y10.119
Y9.981
X181.497 Y9.912
X181.492 Y9.843
X181.483 Y9.774
X181.471 Y9.704
X181.455 Y9.635
X181.436 Y9.566
X181.403 Y9.469
X181.386 Y9.428
X181.356 Y9.358
X181.321 Y9.289
X181.264 Y9.193
X181.237 Y9.151
X181.186 Y9.082
X181.129 Y9.012
X181.126 Y9.009
X181.063 Y8.942
X180.991 Y8.874
X180.988 Y8.871
X180.919 Y8.814
X180.849 Y8.764
X180.807 Y8.736
X180.711 Y8.679
X180.642 Y8.644
X180.573 Y8.614
X180.532 Y8.597
X180.434 Y8.564
X180.365 Y8.545
X180.296 Y8.529
X180.227 Y8.517
X180.158 Y8.508
X180.088 Y8.503
X180.019 Y8.5
X179.881
X63.5
X60.5
G3 X60.354 Y8.462 I0. J-0.3
G1 X59.812 Y8.16
G3 X59.35 Y6.08 I0.693 J-1.245
X59.356 Y6.072 I1.155 J0.835 F167.
X61.654 Y7.758 Z-7.156 I1.149 J0.843
X59.356 Y6.072 Z-7.313 I-1.149 J-0.843
X61.654 Y7.758 Z-7.469 I1.149 J0.843
X59.356 Y6.072 Z-7.625 I-1.149 J-0.843
X61.654 Y7.758 Z-7.782 I1.149 J0.843
X59.356 Y6.072 Z-7.938 I-1.149 J-0.843
X61.654 Y7.758 Z-8.094 I1.149 J0.843
X59.356 Y6.072 Z-8.25 I-1.149 J-0.843
X61.654 Y7.758 Z-8.407 I1.149 J0.843
X59.356 Y6.072 Z-8.563 I-1.149 J-0.843
X61.654 Y7.758 Z-8.719 I1.149 J0.843
X59.356 Y6.072 Z-8.875 I-1.149 J-0.843
X61.93 Y6.905 Z-9. I1.149 J0.843
Y6.915 I-1.425 J0.01
G1 Y7.07 F500.
G3 X60.5 Y8.5 I-1.43 J0.
G1 X10.119
X9.981
X9.912 Y8.503
X9.842 Y8.508
X9.773 Y8.517
X9.704 Y8.529
X9.635 Y8.545
X9.566 Y8.564
X9.468 Y8.597
X9.427 Y8.614
X9.358 Y8.644
X9.289 Y8.679
X9.193 Y8.736
X9.151 Y8.764
X9.081 Y8.814
X9.012 Y8.871
X9.009 Y8.874
X8.937 Y8.942
X8.874 Y9.009
X8.871 Y9.012
X8.814 Y9.082
X8.763 Y9.151
X8.735 Y9.193
X8.679 Y9.289
X8.644 Y9.358
X8.614 Y9.428
X8.597 Y9.469
X8.564 Y9.566
X8.545 Y9.635
X8.529 Y9.704
X8.517 Y9.774
X8.508 Y9.843
X8.503 Y9.912
X8.5 Y9.981
Y10.119
Y217.943
X8.502 Y218.082
X8.511 Y218.22
X8.52 Y218.359
X8.526 Y218.428
X8.536 Y218.497
X8.562 Y218.635
X8.597 Y218.811
X8.621 Y218.912
X8.665 Y219.05
X8.712 Y219.189
X8.735 Y219.258
X8.761 Y219.327
X8.825 Y219.465
X8.893 Y219.604
X8.964 Y219.742
X9.012 Y219.82
X9.052 Y219.881
X9.151 Y220.028
X9.195 Y220.092
X9.244 Y220.157
X9.289 Y220.21
X9.427 Y220.368
X9.486 Y220.434
X9.566 Y220.514
X9.631 Y220.572
X9.789 Y220.711
X9.842 Y220.756
X9.907 Y220.805
X9.972 Y220.849
X10.119 Y220.947
X10.179 Y220.988
X10.257 Y221.035
X10.396 Y221.107
X10.534 Y221.175
X10.672 Y221.238
X10.741 Y221.264
X10.811 Y221.288
X10.949 Y221.335
X11.088 Y221.379
X11.188 Y221.403
X11.364 Y221.438
X11.503 Y221.464
X11.572 Y221.474
X11.641 Y221.48
X11.779 Y221.489
X11.918 Y221.498
X12.056 Y221.5
X52.871
X53.009
X53.148 Y221.494
X53.286 Y221.484
X53.424 Y221.474
X53.493 Y221.465
X53.563 Y221.452
X53.812 Y221.403
X53.839 Y221.397
X53.908 Y221.38
X53.978 Y221.36
X54.116 Y221.313
X54.254 Y221.266
X54.259 Y221.264
X54.326 Y221.239
X54.393 Y221.21
X54.531 Y221.143
X54.669 Y221.074
X54.739 Y221.038
X54.808 Y220.996
X54.821 Y220.988
X54.946 Y220.904
X55.028 Y220.849
X55.085 Y220.811
X55.148 Y220.764
X55.211 Y220.711
X55.369 Y220.572
X55.434 Y220.514
X55.5 Y220.45
X55.514 Y220.434
X55.636 Y220.296
X55.638 Y220.294
X55.756 Y220.157
X55.776 Y220.131
X55.855 Y220.019
X55.948 Y219.881
X56.036 Y219.742
X56.053 Y219.711
X56.107 Y219.604
X56.191 Y219.432
X56.239 Y219.327
X56.288 Y219.189
X56.335 Y219.05
X56.379 Y218.912
X56.41 Y218.774
X56.438 Y218.635
X56.464 Y218.497
X56.468 Y218.471
X56.48 Y218.359
X56.489 Y218.22
X56.498 Y218.082
X56.5 Y217.943
Y175.881
X56.504 Y175.811
X56.507 Y175.764
X56.508 Y175.762
X56.52 Y175.701
Y175.699
X56.541 Y175.638
X56.542 Y175.636
X56.569 Y175.582
X56.57 Y175.579
X56.605 Y175.528
X56.606 Y175.525
X56.659 Y175.465
X56.745 Y175.377
X75.423 Y156.699
X75.478 Y156.648
X75.525 Y156.607
X75.526 Y156.606
X75.578 Y156.571
X75.581 Y156.57
X75.637 Y156.542
X75.639 Y156.541
X75.699 Y156.52
X75.701
X75.763 Y156.508
X75.764 Y156.507
X75.838 Y156.503
X75.976 Y156.5
X114.024
X114.162 Y156.503
X114.236 Y156.507
X114.237 Y156.508
X114.299 Y156.52
X114.301
X114.361 Y156.541
X114.363 Y156.542
X114.419 Y156.57
X114.422 Y156.571
X114.474 Y156.606
X114.475 Y156.607
X114.522 Y156.648
X114.577 Y156.699
X133.255 Y175.377
X133.341 Y175.465
X133.394 Y175.525
X133.395 Y175.528
X133.43 Y175.579
X133.431 Y175.582
X133.458 Y175.636
X133.459 Y175.638
X133.48 Y175.699
Y175.701
X133.492 Y175.762
X133.493 Y175.764
X133.496 Y175.811
X133.5 Y175.881
Y217.943
X133.502 Y218.082
X133.511 Y218.22
X133.52 Y218.359
X133.532 Y218.471
X133.536 Y218.497
X133.562 Y218.635
X133.59 Y218.774
X133.621 Y218.912
X133.665 Y219.05
X133.712 Y219.189
X133.761 Y219.327
X133.809 Y219.432
X133.893 Y219.604
X133.947 Y219.711
X133.964 Y219.742
X134.052 Y219.881
X134.145 Y220.019
X134.224 Y220.131
X134.244 Y220.157
X134.362 Y220.294
X134.364 Y220.296
X134.486 Y220.434
X134.5 Y220.45
X134.566 Y220.514
X134.631 Y220.572
X134.789 Y220.711
X134.852 Y220.764
X134.915 Y220.811
X134.972 Y220.849
X135.054 Y220.904
X135.179 Y220.988
X135.192 Y220.996
X135.261 Y221.038
X135.331 Y221.074
X135.469 Y221.143
X135.607 Y221.21
X135.674 Y221.239
X135.741 Y221.264
X135.746 Y221.266
X135.884 Y221.313
X136.022 Y221.36
X136.092 Y221.38
X136.161 Y221.397
X136.188 Y221.403
X136.437 Y221.452
X136.507 Y221.465
X136.576 Y221.474
X136.714 Y221.484
X136.852 Y221.494
X136.991 Y221.5
X137.129
X177.944
X178.082 Y221.498
X178.221 Y221.489
X178.359 Y221.48
X178.428 Y221.474
X178.497 Y221.464
X178.636 Y221.438
X178.812 Y221.403
X178.912 Y221.379
X179.051 Y221.335
X179.189 Y221.288
X179.259 Y221.264
X179.328 Y221.238
X179.466 Y221.175
X179.604 Y221.107
X179.743 Y221.035
X179.821 Y220.988
X179.881 Y220.947
X180.028 Y220.849
X180.093 Y220.805
X180.158 Y220.756
X180.211 Y220.711
X180.369 Y220.572
X180.434 Y220.514
X180.514 Y220.434
X180.573 Y220.368
X180.711 Y220.21
X180.756 Y220.157
X180.805 Y220.092
X180.849 Y220.028
X180.948 Y219.881
X180.988 Y219.82
X181.036 Y219.742
X181.107 Y219.604
X181.175 Y219.465
X181.239 Y219.327
X181.264 Y219.258
X181.288 Y219.189
X181.335 Y219.05
X181.379 Y218.912
X181.403 Y218.811
X181.438 Y218.635
X181.464 Y218.497
X181.474 Y218.428
X181.48 Y218.359
X181.489 Y218.22
X181.498 Y218.082
X181.5 Y217.943
Y10.119
Y9.981
X181.497 Y9.912
X181.492 Y9.843
X181.483 Y9.774
X181.471 Y9.704
X181.455 Y9.635
X181.436 Y9.566
X181.403 Y9.469
X181.386 Y9.428
X181.356 Y9.358
X181.321 Y9.289
X181.264 Y9.193
X181.237 Y9.151
X181.186 Y9.082
X181.129 Y9.012
X181.126 Y9.009
X181.063 Y8.942
X180.991 Y8.874
X180.988 Y8.871
X180.919 Y8.814
X180.849 Y8.764
X180.807 Y8.736
X180.711 Y8.679
X180.642 Y8.644
X180.573 Y8.614
X180.532 Y8.597
X180.434 Y8.564
X180.365 Y8.545
X180.296 Y8.529
X180.227 Y8.517
X180.158 Y8.508
X180.088 Y8.503
X180.019 Y8.5
X179.881
X63.5
X60.5
G3 X60.354 Y8.462 I0. J-0.3
G1 X59.812 Y8.16
G3 X59.35 Y6.08 I0.693 J-1.245
X59.356 Y6.072 I1.155 J0.835 F167.
X61.654 Y7.758 Z-9.156 I1.149 J0.843
X59.356 Y6.072 Z-9.313 I-1.149 J-0.843
X61.654 Y7.758 Z-9.469 I1.149 J0.843
X59.356 Y6.072 Z-9.625 I-1.149 J-0.843
X61.654 Y7.758 Z-9.782 I1.149 J0.843
X59.356 Y6.072 Z-9.938 I-1.149 J-0.843
X61.654 Y7.758 Z-10.094 I1.149 J0.843
X59.356 Y6.072 Z-10.25 I-1.149 J-0.843
X61.654 Y7.758 Z-10.407 I1.149 J0.843
X59.356 Y6.072 Z-10.563 I-1.149 J-0.843
X61.654 Y7.758 Z-10.719 I1.149 J0.843
X59.356 Y6.072 Z-10.875 I-1.149 J-0.843
X61.93 Y6.905 Z-11. I1.149 J0.843
Y6.915 I-1.425 J0.01
G1 Y7.07 F500.
G3 X60.5 Y8.5 I-1.43 J0.
G1 X10.119
X9.981
X9.912 Y8.503
X9.842 Y8.508
X9.773 Y8.517
X9.704 Y8.529
X9.635 Y8.545
X9.566 Y8.564
X9.468 Y8.597
X9.427 Y8.614
X9.358 Y8.644
X9.289 Y8.679
X9.193 Y8.736
X9.151 Y8.764
X9.081 Y8.814
X9.012 Y8.871
X9.009 Y8.874
X8.937 Y8.942
X8.874 Y9.009
X8.871 Y9.012
X8.814 Y9.082
X8.763 Y9.151
X8.735 Y9.193
X8.679 Y9.289
X8.644 Y9.358
X8.614 Y9.428
X8.597 Y9.469
X8.564 Y9.566
X8.545 Y9.635
X8.529 Y9.704
X8.517 Y9.774
X8.508 Y9.843
X8.503 Y9.912
X8.5 Y9.981
Y10.119
Y217.943
X8.502 Y218.082
X8.511 Y218.22
X8.52 Y218.359
X8.526 Y218.428
X8.536 Y218.497
X8.562 Y218.635
X8.597 Y218.811
X8.621 Y218.912
X8.665 Y219.05
X8.712 Y219.189
X8.735 Y219.258
X8.761 Y219.327
X8.825 Y219.465
X8.893 Y219.604
X8.964 Y219.742
X9.012 Y219.82
X9.052 Y219.881
X9.151 Y220.028
X9.195 Y220.092
X9.244 Y220.157
X9.289 Y220.21
X9.427 Y220.368
X9.486 Y220.434
X9.566 Y220.514
X9.631 Y220.572
X9.789 Y220.711
X9.842 Y220.756
X9.907 Y220.805
X9.972 Y220.849
X10.119 Y220.947
X10.179 Y220.988
X10.257 Y221.035
X10.396 Y221.107
X10.534 Y221.175
X10.672 Y221.238
X10.741 Y221.264
X10.811 Y221.288
X10.949 Y221.335
X11.088 Y221.379
X11.188 Y221.403
X11.364 Y221.438
X11.503 Y221.464
X11.572 Y221.474
X11.641 Y221.48
X11.779 Y221.489
X11.918 Y221.498
X12.056 Y221.5
X52.871
X53.009
X53.148 Y221.494
X53.286 Y221.484
X53.424 Y221.474
X53.493 Y221.465
X53.563 Y221.452
X53.812 Y221.403
X53.839 Y221.397
X53.908 Y221.38
X53.978 Y221.36
X54.116 Y221.313
X54.254 Y221.266
X54.259 Y221.264
X54.326 Y221.239
X54.393 Y221.21
X54.531 Y221.143
X54.669 Y221.074
X54.739 Y221.038
X54.808 Y220.996
X54.821 Y220.988
X54.946 Y220.904
X55.028 Y220.849
X55.085 Y220.811
X55.148 Y220.764
X55.211 Y220.711
X55.369 Y220.572
X55.434 Y220.514
X55.5 Y220.45
X55.514 Y220.434
X55.636 Y220.296
X55.638 Y220.294
X55.756 Y220.157
X55.776 Y220.131
X55.855 Y220.019
X55.948 Y219.881
X56.036 Y219.742
X56.053 Y219.711
X56.107 Y219.604
X56.191 Y219.432
X56.239 Y219.327
X56.288 Y219.189
X56.335 Y219.05
X56.379 Y218.912
X56.41 Y218.774
X56.438 Y218.635
X56.464 Y218.497
X56.468 Y218.471
X56.48 Y218.359
X56.489 Y218.22
X56.498 Y218.082
X56.5 Y217.943
Y175.881
X56.504 Y175.811
X56.507 Y175.764
X56.508 Y175.762
X56.52 Y175.701
Y175.699
X56.541 Y175.638
X56.542 Y175.636
X56.569 Y175.582
X56.57 Y175.579
X56.605 Y175.528
X56.606 Y175.525
X56.659 Y175.465
X56.745 Y175.377
X75.423 Y156.699
X75.478 Y156.648
X75.525 Y156.607
X75.526 Y156.606
X75.578 Y156.571
X75.581 Y156.57
X75.637 Y156.542
X75.639 Y156.541
X75.699 Y156.52
X75.701
X75.763 Y156.508
X75.764 Y156.507
X75.838 Y156.503
X75.976 Y156.5
X114.024
X114.162 Y156.503
X114.236 Y156.507
X114.237 Y156.508
X114.299 Y156.52
X114.301
X114.361 Y156.541
X114.363 Y156.542
X114.419 Y156.57
X114.422 Y156.571
X114.474 Y156.606
X114.475 Y156.607
X114.522 Y156.648
X114.577 Y156.699
X133.255 Y175.377
X133.341 Y175.465
X133.394 Y175.525
X133.395 Y175.528
X133.43 Y175.579
X133.431 Y175.582
X133.458 Y175.636
X133.459 Y175.638
X133.48 Y175.699
Y175.701
X133.492 Y175.762
X133.493 Y175.764
X133.496 Y175.811
X133.5 Y175.881
Y217.943
X133.502 Y218.082
X133.511 Y218.22
X133.52 Y218.359
X133.532 Y218.471
X133.536 Y218.497
X133.562 Y218.635
X133.59 Y218.774
X133.621 Y218.912
X133.665 Y219.05
X133.712 Y219.189
X133.761 Y219.327
X133.809 Y219.432
X133.893 Y219.604
X133.947 Y219.711
X133.964 Y219.742
X134.052 Y219.881
X134.145 Y220.019
X134.224 Y220.131
X134.244 Y220.157
X134.362 Y220.294
X134.364 Y220.296
X134.486 Y220.434
X134.5 Y220.45
X134.566 Y220.514
X134.631 Y220.572
X134.789 Y220.711
X134.852 Y220.764
X134.915 Y220.811
X134.972 Y220.849
X135.054 Y220.904
X135.179 Y220.988
X135.192 Y220.996
X135.261 Y221.038
X135.331 Y221.074
X135.469 Y221.143
X135.607 Y221.21
X135.674 Y221.239
X135.741 Y221.264
X135.746 Y221.266
X135.884 Y221.313
X136.022 Y221.36
X136.092 Y221.38
X136.161 Y221.397
X136.188 Y221.403
X136.437 Y221.452
X136.507 Y221.465
X136.576 Y221.474
X136.714 Y221.484
X136.852 Y221.494
X136.991 Y221.5
X137.129
X177.944
X178.082 Y221.498
X178.221 Y221.489
X178.359 Y221.48
X178.428 Y221.474
X178.497 Y221.464
X178.636 Y221.438
X178.812 Y221.403
X178.912 Y221.379
X179.051 Y221.335
X179.189 Y221.288
X179.259 Y221.264
X179.328 Y221.238
X179.466 Y221.175
X179.604 Y221.107
X179.743 Y221.035
X179.821 Y220.988
X179.881 Y220.947
X180.028 Y220.849
X180.093 Y220.805
X180.158 Y220.756
X180.211 Y220.711
X180.369 Y220.572
X180.434 Y220.514
X180.514 Y220.434
X180.573 Y220.368
X180.711 Y220.21
X180.756 Y220.157
X180.805 Y220.092
X180.849 Y220.028
X180.948 Y219.881
X180.988 Y219.82
X181.036 Y219.742
X181.107 Y219.604
X181.175 Y219.465
X181.239 Y219.327
X181.264 Y219.258
X181.288 Y219.189
X181.335 Y219.05
X181.379 Y218.912
X181.403 Y218.811
X181.438 Y218.635
X181.464 Y218.497
X181.474 Y218.428
X181.48 Y218.359
X181.489 Y218.22
X181.498 Y218.082
X181.5 Y217.943
Y10.119
Y9.981
X181.497 Y9.912
X181.492 Y9.843
X181.483 Y9.774
X181.471 Y9.704
X181.455 Y9.635
X181.436 Y9.566
X181.403 Y9.469
X181.386 Y9.428
X181.356 Y9.358
X181.321 Y9.289
X181.264 Y9.193
X181.237 Y9.151
X181.186 Y9.082
X181.129 Y9.012
X181.126 Y9.009
X181.063 Y8.942
X180.991 Y8.874
X180.988 Y8.871
X180.919 Y8.814
X180.849 Y8.764
X180.807 Y8.736
X180.711 Y8.679
X180.642 Y8.644
X180.573 Y8.614
X180.532 Y8.597
X180.434 Y8.564
X180.365 Y8.545
X180.296 Y8.529
X180.227 Y8.517
X180.158 Y8.508
X180.088 Y8.503
X180.019 Y8.5
X179.881
X63.5
X60.5
X60.439
X60.378
X60.256
X60.012 Z-11.001
X59.768
X59.524 Z-11.002
X59.28 Z-11.004
X59.036 Z-11.005
X58.792 Z-11.007
X58.548 Z-11.009
X58.304 Z-11.012
X58.06 Z-11.014
X57.816 Z-11.017
X57.572 Z-11.02
X57.328 Z-11.024
X57.084 Z-11.027
X56.84 Z-11.031
X56.596 Z-11.035
X56.352 Z-11.04
X56.108 Z-11.044
X55.864 Z-11.049
X55.742 Z-11.051
X55.62 Z-11.054
X55.498 Z-11.057
X55.376 Z-11.059
X55.254 Z-11.062
X55.132 Z-11.065
X55.01 Z-11.067
X54.888 Z-11.07
X54.766 Z-11.073
X54.644 Z-11.076
X54.522 Z-11.079
X54.4 Z-11.082
X54.278 Z-11.085
X54.156 Z-11.088
X54.034 Z-11.091
X53.912 Z-11.095
X53.79 Z-11.098
X53.668 Z-11.101
X53.546 Z-11.105
X53.424 Z-11.108
X53.302 Z-11.112
X53.18 Z-11.115
X53.058 Z-11.119
X52.936 Z-11.122
X52.814 Z-11.126
X52.692 Z-11.129
X52.57 Z-11.133
X52.448 Z-11.137
X52.326 Z-11.141
X52.204 Z-11.145
X52.082 Z-11.148
X51.96 Z-11.152
X51.838 Z-11.156
X51.716 Z-11.16
X51.594 Z-11.164
X51.472 Z-11.168
X51.35 Z-11.172
X51.228 Z-11.177
X51.105 Z-11.181
X50.983 Z-11.185
X50.861 Z-11.189
X49.641 Z-11.232
X49.519 Z-11.236
X49.397 Z-11.24
X49.275 Z-11.244
X49.153 Z-11.249
X49.031 Z-11.253
X48.909 Z-11.257
X48.787 Z-11.262
X48.665 Z-11.266
X48.543 Z-11.27
X48.421 Z-11.274
X48.299 Z-11.279
X48.177 Z-11.283
X48.055 Z-11.287
X47.933 Z-11.291
X47.811 Z-11.296
X47.689 Z-11.3
X47.567 Z-11.304
X47.323 Z-11.313
X46.957 Z-11.325
X46.591 Z-11.338
X46.225 Z-11.351
X45.859 Z-11.364
X45.493 Z-11.377
X45.127 Z-11.389
X44.517 Z-11.411
X43.907 Z-11.432
X43.053 Z-11.462
X41.589 Z-11.513
X36.343 Z-11.696
X36.221 Z-11.7
X36.099 Z-11.705
X35.977 Z-11.709
X35.855 Z-11.713
X35.733 Z-11.717
X35.611 Z-11.722
X35.489 Z-11.726
X35.367 Z-11.73
X35.245 Z-11.734
X35.123 Z-11.739
X35.001 Z-11.743
X34.879 Z-11.747
X34.757 Z-11.751
X34.635 Z-11.756
X34.513 Z-11.76
X34.391 Z-11.764
X34.269 Z-11.768
X34.147 Z-11.773
X34.025 Z-11.777
X33.903 Z-11.781
X33.781 Z-11.786
X33.659 Z-11.79
X33.537 Z-11.794
X33.415 Z-11.798
X33.293 Z-11.803
X32.927 Z-11.815
X32.805 Z-11.819
X32.683 Z-11.824
X32.56 Z-11.828
X32.438 Z-11.832
X32.316 Z-11.836
X32.194 Z-11.84
X32.072 Z-11.844
X31.95 Z-11.848
X31.828 Z-11.852
X31.706 Z-11.856
X31.584 Z-11.859
X31.462 Z-11.863
X31.34 Z-11.867
X31.218 Z-11.871
X31.096 Z-11.874
X30.974 Z-11.878
X30.852 Z-11.882
X30.73 Z-11.885
X30.608 Z-11.889
X30.486 Z-11.892
X30.364 Z-11.895
X30.242 Z-11.899
X30.12 Z-11.902
X29.998 Z-11.905
X29.876 Z-11.909
X29.754 Z-11.912
X29.632 Z-11.915
X29.51 Z-11.918
X29.388 Z-11.921
X29.266 Z-11.924
X29.144 Z-11.927
X29.022 Z-11.93
X28.9 Z-11.933
X28.778 Z-11.936
X28.656 Z-11.938
X28.534 Z-11.941
X28.412 Z-11.944
X28.29 Z-11.946
X28.168 Z-11.949
X28.046 Z-11.951
X27.802 Z-11.956
X27.558 Z-11.961
X27.314 Z-11.965
X27.07 Z-11.969
X26.826 Z-11.973
X26.582 Z-11.976
X26.338 Z-11.98
X26.094 Z-11.983
X25.85 Z-11.986
X25.606 Z-11.988
X25.362 Z-11.991
X25.118 Z-11.993
X24.874 Z-11.995
X24.63 Z-11.996
X24.386 Z-11.998
X24.142 Z-11.999
X23.898
X23.654 Z-12.
X23.534
X23.421
X23.414
X10.119
X9.981
X9.912 Y8.503
X9.842 Y8.508
X9.773 Y8.517
X9.704 Y8.529
X9.635 Y8.545
X9.566 Y8.564
X9.468 Y8.597
X9.427 Y8.614
X9.358 Y8.644
X9.289 Y8.679
X9.193 Y8.736
X9.151 Y8.764
X9.081 Y8.814
X9.012 Y8.871
X9.009 Y8.874
X8.937 Y8.942
X8.874 Y9.009
X8.871 Y9.012
X8.814 Y9.082
X8.763 Y9.151
X8.735 Y9.193
X8.679 Y9.289
X8.644 Y9.358
X8.614 Y9.428
X8.597 Y9.469
X8.564 Y9.566
X8.545 Y9.635
X8.529 Y9.704
X8.517 Y9.774
X8.508 Y9.843
X8.503 Y9.912
X8.5 Y9.981
Y10.119
Y217.943
X8.502 Y218.082
X8.511 Y218.22
X8.52 Y218.359
X8.526 Y218.428
X8.536 Y218.497
X8.562 Y218.635
X8.597 Y218.811
X8.621 Y218.912
X8.665 Y219.05
X8.712 Y219.189
X8.735 Y219.258
X8.761 Y219.327
X8.825 Y219.465
X8.893 Y219.604
X8.964 Y219.742
X9.012 Y219.82
X9.052 Y219.881
X9.151 Y220.028
X9.195 Y220.092
X9.244 Y220.157
X9.289 Y220.21
X9.427 Y220.368
X9.486 Y220.434
X9.566 Y220.514
X9.631 Y220.572
X9.789 Y220.711
X9.842 Y220.756
X9.907 Y220.805
X9.972 Y220.849
X10.119 Y220.947
X10.179 Y220.988
X10.257 Y221.035
X10.396 Y221.107
X10.534 Y221.175
X10.672 Y221.238
X10.741 Y221.264
X10.811 Y221.288
X10.949 Y221.335
X11.088 Y221.379
X11.188 Y221.403
X11.364 Y221.438
X11.503 Y221.464
X11.572 Y221.474
X11.641 Y221.48
X11.779 Y221.489
X11.918 Y221.498
X12.056 Y221.5
X52.871
X53.009
X53.148 Y221.494
X53.286 Y221.484
X53.424 Y221.474
X53.493 Y221.465
X53.563 Y221.452
X53.812 Y221.403
X53.839 Y221.397
X53.908 Y221.38
X53.978 Y221.36
X54.116 Y221.313
X54.254 Y221.266
X54.259 Y221.264
X54.326 Y221.239
X54.393 Y221.21
X54.531 Y221.143
X54.669 Y221.074
X54.739 Y221.038
X54.808 Y220.996
X54.821 Y220.988
X54.946 Y220.904
X55.028 Y220.849
X55.085 Y220.811
X55.148 Y220.764
X55.211 Y220.711
X55.369 Y220.572
X55.434 Y220.514
X55.5 Y220.45
X55.514 Y220.434
X55.636 Y220.296
X55.638 Y220.294
X55.756 Y220.157
X55.776 Y220.131
X55.855 Y220.019
X55.948 Y219.881
X56.036 Y219.742
X56.053 Y219.711
X56.107 Y219.604
X56.191 Y219.432
X56.239 Y219.327
X56.288 Y219.189
X56.335 Y219.05
X56.379 Y218.912
X56.41 Y218.774
X56.438 Y218.635
X56.464 Y218.497
X56.468 Y218.471
X56.48 Y218.359
X56.489 Y218.22
X56.498 Y218.082
X56.5 Y217.943
Y175.881
X56.504 Y175.811
X56.507 Y175.764
X56.508 Y175.762
X56.52 Y175.701
Y175.699
X56.541 Y175.638
X56.542 Y175.636
X56.569 Y175.582
X56.57 Y175.579
X56.605 Y175.528
X56.606 Y175.525
X56.659 Y175.465
X56.745 Y175.377
X75.423 Y156.699
X75.478 Y156.648
X75.525 Y156.607
X75.526 Y156.606
X75.578 Y156.571
X75.581 Y156.57
X75.637 Y156.542
X75.639 Y156.541
X75.699 Y156.52
X75.701
X75.763 Y156.508
X75.764 Y156.507
X75.838 Y156.503
X75.976 Y156.5
X114.024
X114.162 Y156.503
X114.236 Y156.507
X114.237 Y156.508
X114.299 Y156.52
X114.301
X114.361 Y156.541
X114.363 Y156.542
X114.419 Y156.57
X114.422 Y156.571
X114.474 Y156.606
X114.475 Y156.607
X114.522 Y156.648
X114.577 Y156.699
X133.255 Y175.377
X133.341 Y175.465
X133.394 Y175.525
X133.395 Y175.528
X133.43 Y175.579
X133.431 Y175.582
X133.458 Y175.636
X133.459 Y175.638
X133.48 Y175.699
Y175.701
X133.492 Y175.762
X133.493 Y175.764
X133.496 Y175.811
X133.5 Y175.881
Y217.943
X133.502 Y218.082
X133.511 Y218.22
X133.52 Y218.359
X133.532 Y218.471
X133.536 Y218.497
X133.562 Y218.635
X133.59 Y218.774
X133.621 Y218.912
X133.665 Y219.05
X133.712 Y219.189
X133.761 Y219.327
X133.809 Y219.432
X133.893 Y219.604
X133.947 Y219.711
X133.964 Y219.742
X134.052 Y219.881
X134.145 Y220.019
X134.224 Y220.131
X134.244 Y220.157
X134.362 Y220.294
X134.364 Y220.296
X134.486 Y220.434
X134.5 Y220.45
X134.566 Y220.514
X134.631 Y220.572
X134.789 Y220.711
X134.852 Y220.764
X134.915 Y220.811
X134.972 Y220.849
X135.054 Y220.904
X135.179 Y220.988
X135.192 Y220.996
X135.261 Y221.038
X135.331 Y221.074
X135.469 Y221.143
X135.607 Y221.21
X135.674 Y221.239
X135.741 Y221.264
X135.746 Y221.266
X135.884 Y221.313
X136.022 Y221.36
X136.092 Y221.38
X136.161 Y221.397
X136.188 Y221.403
X136.437 Y221.452
X136.507 Y221.465
X136.576 Y221.474
X136.714 Y221.484
X136.852 Y221.494
X136.991 Y221.5
X137.129
X177.944
X178.082 Y221.498
X178.221 Y221.489
X178.359 Y221.48
X178.428 Y221.474
X178.497 Y221.464
X178.636 Y221.438
X178.812 Y221.403
X178.912 Y221.379
X179.051 Y221.335
X179.189 Y221.288
X179.259 Y221.264
X179.328 Y221.238
X179.466 Y221.175
X179.604 Y221.107
X179.743 Y221.035
X179.821 Y220.988
X179.881 Y220.947
X180.028 Y220.849
X180.093 Y220.805
X180.158 Y220.756
X180.211 Y220.711
X180.369 Y220.572
X180.434 Y220.514
X180.514 Y220.434
X180.573 Y220.368
X180.711 Y220.21
X180.756 Y220.157
X180.805 Y220.092
X180.849 Y220.028
X180.948 Y219.881
X180.988 Y219.82
X181.036 Y219.742
X181.107 Y219.604
X181.175 Y219.465
X181.239 Y219.327
X181.264 Y219.258
X181.288 Y219.189
X181.335 Y219.05
X181.379 Y218.912
X181.403 Y218.811
X181.438 Y218.635
X181.464 Y218.497
X181.474 Y218.428
X181.48 Y218.359
X181.489 Y218.22
X181.498 Y218.082
X181.5 Y217.943
Y10.119
Y9.981
X181.497 Y9.912
X181.492 Y9.843
X181.483 Y9.774
X181.471 Y9.704
X181.455 Y9.635
X181.436 Y9.566
X181.403 Y9.469
X181.386 Y9.428
X181.356 Y9.358
X181.321 Y9.289
X181.264 Y9.193
X181.237 Y9.151
X181.186 Y9.082
X181.129 Y9.012
X181.126 Y9.009
X181.063 Y8.942
X180.991 Y8.874
X180.988 Y8.871
X180.919 Y8.814
X180.849 Y8.764
X180.807 Y8.736
X180.711 Y8.679
X180.642 Y8.644
X180.573 Y8.614
X180.532 Y8.597
X180.434 Y8.564
X180.365 Y8.545
X180.296 Y8.529
X180.227 Y8.517
X180.158 Y8.508
X180.088 Y8.503
X180.019 Y8.5
X179.881
X63.5
X23.414
G0 Z2.

M9
G53 Z0.
M30
