(5.OUTER1)
(T2  D=3. CR=0. - ZMIN=-17. - FLAT END MILL)
G0 G90 G94 G17
G21
G53 Z0.

(OUTEREDGE1)
M5
M9
T2
(PART OF A 10 PACK CARBIDE)
M3 S18000
G54
M9
G0 X-82.756 Y41.303
Z2.
Z1.299
G1 Z-2.7 F250.
X-82.749 Y41.306 Z-2.767
X-82.729 Y41.316 Z-2.83
X-82.696 Y41.331 Z-2.887
X-82.654 Y41.351 Z-2.935
X-82.602 Y41.375 Z-2.97
X-82.545 Y41.403 Z-2.992
X-82.484 Y41.431 Z-3.
X-79.613 Y42.79
G3 X-79.47 Y43.189 I-0.128 J0.271
G1 X-79.477 Y43.206
X-79.505 Y43.275
X-79.529 Y43.344
X-79.549 Y43.414
X-79.566 Y43.483
X-79.579 Y43.552
X-79.589 Y43.621
X-79.596 Y43.691
X-79.599 Y43.76
X-79.6 Y43.898
Y103.702
X-79.599 Y103.84
X-79.596 Y103.909
X-79.589 Y103.979
X-79.579 Y104.048
X-79.566 Y104.117
X-79.549 Y104.186
X-79.529 Y104.256
X-79.505 Y104.325
X-79.477 Y104.394
X-79.47 Y104.411
X-79.441 Y104.472
X-79.409 Y104.532
X-79.372 Y104.594
X-79.332 Y104.656
X-79.321 Y104.671
X-79.269 Y104.74
X-79.21 Y104.809
X-79.193 Y104.827
X-79.129 Y104.891
X-79.066 Y104.948
X-79.055 Y104.957
X-78.985 Y105.011
X-78.916 Y105.058
X-78.872 Y105.086
X-78.778 Y105.138
X-78.709 Y105.171
X-78.639 Y105.2
X-78.57 Y105.225
X-78.501 Y105.245
X-78.432 Y105.263
X-78.363 Y105.277
X-78.293 Y105.287
X-78.224 Y105.295
X-78.086 Y105.3
X-0.014
X0.124 Y105.295
X0.193 Y105.287
X0.263 Y105.277
X0.332 Y105.263
X0.401 Y105.245
X0.47 Y105.225
X0.539 Y105.2
X0.609 Y105.171
X0.678 Y105.138
X0.772 Y105.086
X0.816 Y105.058
X0.885 Y105.011
X0.955 Y104.957
X0.966 Y104.948
X1.029 Y104.891
X1.093 Y104.827
X1.11 Y104.809
X1.169 Y104.74
X1.221 Y104.671
X1.232 Y104.656
X1.272 Y104.594
X1.309 Y104.532
X1.341 Y104.472
X1.37 Y104.411
X1.377 Y104.394
X1.405 Y104.325
X1.429 Y104.256
X1.449 Y104.186
X1.466 Y104.117
X1.479 Y104.048
X1.489 Y103.979
X1.496 Y103.909
X1.499 Y103.84
X1.5 Y103.702
Y43.898
X1.499 Y43.76
X1.496 Y43.691
X1.489 Y43.621
X1.479 Y43.552
X1.466 Y43.483
X1.449 Y43.414
X1.429 Y43.344
X1.405 Y43.275
X1.377 Y43.206
X1.37 Y43.189
X1.341 Y43.128
X1.309 Y43.068
X1.272 Y43.006
X1.232 Y42.944
X1.221 Y42.929
X1.169 Y42.86
X1.11 Y42.791
X1.093 Y42.773
X1.029 Y42.709
X0.966 Y42.652
X0.955 Y42.643
X0.885 Y42.589
X0.816 Y42.542
X0.772 Y42.514
X0.678 Y42.462
X0.609 Y42.429
X0.539 Y42.4
X0.47 Y42.375
X0.401 Y42.355
X0.332 Y42.337
X0.263 Y42.323
X0.193 Y42.313
X0.124 Y42.305
X-0.014 Y42.3
X-78.086
X-78.224 Y42.305
X-78.293 Y42.313
X-78.363 Y42.323
X-78.432 Y42.337
X-78.501 Y42.355
X-78.57 Y42.375
X-78.639 Y42.4
X-78.709 Y42.429
X-78.778 Y42.462
X-78.872 Y42.514
X-78.916 Y42.542
X-78.985 Y42.589
X-79.055 Y42.643
X-79.066 Y42.652
X-79.129 Y42.709
X-79.193 Y42.773
X-79.21 Y42.791
X-79.269 Y42.86
X-79.321 Y42.929
X-79.332 Y42.944
X-79.372 Y43.006
X-79.409 Y43.068
X-79.441 Y43.128
X-79.47 Y43.189
G3 X-79.869 Y43.332 I-0.271 J-0.128
G2 X-80.298 Y43.614 I-0.128 J0.271
G3 X-80.511 Y43.913 I-0.3 J0.011
X-82.148 Y43.27 I-0.408 J-1.365
X-82.153 Y43.261 I1.228 J-0.722 F83.
X-79.686 Y41.834 Z-3.156 I1.234 J-0.713
X-82.153 Y43.261 Z-3.313 I-1.234 J0.713
X-79.686 Y41.834 Z-3.469 I1.234 J-0.713
X-82.153 Y43.261 Z-3.625 I-1.234 J0.713
X-79.686 Y41.834 Z-3.782 I1.234 J-0.713
X-82.153 Y43.261 Z-3.938 I-1.234 J0.713
X-79.686 Y41.834 Z-4.094 I1.234 J-0.713
X-82.153 Y43.261 Z-4.25 I-1.234 J0.713
X-79.686 Y41.834 Z-4.407 I1.234 J-0.713
X-82.153 Y43.261 Z-4.563 I-1.234 J0.713
X-79.686 Y41.834 Z-4.719 I1.234 J-0.713
X-82.153 Y43.261 Z-4.875 I-1.234 J0.713
X-80.357 Y41.239 Z-5. I1.234 J-0.713
X-80.347 Y41.243 I-0.563 J1.309
G1 X-80.205 Y41.305 F250.
G3 X-79.47 Y43.189 I-0.574 J1.31
G1 X-79.477 Y43.206
X-79.505 Y43.275
X-79.529 Y43.344
X-79.549 Y43.414
X-79.566 Y43.483
X-79.579 Y43.552
X-79.589 Y43.621
X-79.596 Y43.691
X-79.599 Y43.76
X-79.6 Y43.898
Y103.702
X-79.599 Y103.84
X-79.596 Y103.909
X-79.589 Y103.979
X-79.579 Y104.048
X-79.566 Y104.117
X-79.549 Y104.186
X-79.529 Y104.256
X-79.505 Y104.325
X-79.477 Y104.394
X-79.47 Y104.411
X-79.441 Y104.472
X-79.409 Y104.532
X-79.372 Y104.594
X-79.332 Y104.656
X-79.321 Y104.671
X-79.269 Y104.74
X-79.21 Y104.809
X-79.193 Y104.827
X-79.129 Y104.891
X-79.066 Y104.948
X-79.055 Y104.957
X-78.985 Y105.011
X-78.916 Y105.058
X-78.872 Y105.086
X-78.778 Y105.138
X-78.709 Y105.171
X-78.639 Y105.2
X-78.57 Y105.225
X-78.501 Y105.245
X-78.432 Y105.263
X-78.363 Y105.277
X-78.293 Y105.287
X-78.224 Y105.295
X-78.086 Y105.3
X-0.014
X0.124 Y105.295
X0.193 Y105.287
X0.263 Y105.277
X0.332 Y105.263
X0.401 Y105.245
X0.47 Y105.225
X0.539 Y105.2
X0.609 Y105.171
X0.678 Y105.138
X0.772 Y105.086
X0.816 Y105.058
X0.885 Y105.011
X0.955 Y104.957
X0.966 Y104.948
X1.029 Y104.891
X1.093 Y104.827
X1.11 Y104.809
X1.169 Y104.74
X1.221 Y104.671
X1.232 Y104.656
X1.272 Y104.594
X1.309 Y104.532
X1.341 Y104.472
X1.37 Y104.411
X1.377 Y104.394
X1.405 Y104.325
X1.429 Y104.256
X1.449 Y104.186
X1.466 Y104.117
X1.479 Y104.048
X1.489 Y103.979
X1.496 Y103.909
X1.499 Y103.84
X1.5 Y103.702
Y43.898
X1.499 Y43.76
X1.496 Y43.691
X1.489 Y43.621
X1.479 Y43.552
X1.466 Y43.483
X1.449 Y43.414
X1.429 Y43.344
X1.405 Y43.275
X1.377 Y43.206
X1.37 Y43.189
X1.341 Y43.128
X1.309 Y43.068
X1.272 Y43.006
X1.232 Y42.944
X1.221 Y42.929
X1.169 Y42.86
X1.11 Y42.791
X1.093 Y42.773
X1.029 Y42.709
X0.966 Y42.652
X0.955 Y42.643
X0.885 Y42.589
X0.816 Y42.542
X0.772 Y42.514
X0.678 Y42.462
X0.609 Y42.429
X0.539 Y42.4
X0.47 Y42.375
X0.401 Y42.355
X0.332 Y42.337
X0.263 Y42.323
X0.193 Y42.313
X0.124 Y42.305
X-0.014 Y42.3
X-78.086
X-78.224 Y42.305
X-78.293 Y42.313
X-78.363 Y42.323
X-78.432 Y42.337
X-78.501 Y42.355
X-78.57 Y42.375
X-78.639 Y42.4
X-78.709 Y42.429
X-78.778 Y42.462
X-78.872 Y42.514
X-78.916 Y42.542
X-78.985 Y42.589
X-79.055 Y42.643
X-79.066 Y42.652
X-79.129 Y42.709
X-79.193 Y42.773
X-79.21 Y42.791
X-79.269 Y42.86
X-79.321 Y42.929
X-79.332 Y42.944
X-79.372 Y43.006
X-79.409 Y43.068
X-79.441 Y43.128
X-79.47 Y43.189
G3 X-79.869 Y43.332 I-0.271 J-0.128
G2 X-80.214 Y43.811 I-0.128 J0.271
G3 X-80.229 Y44.241 I-0.216 J0.208
X-80.347 Y44.337 I-0.956 J-1.057
X-80.356 Y44.343 I-0.838 J-1.153 F83.
X-82.014 Y42.025 Z-5.156 I-0.829 J-1.159
X-80.356 Y44.343 Z-5.313 I0.829 J1.159
X-82.014 Y42.025 Z-5.469 I-0.829 J-1.159
X-80.356 Y44.343 Z-5.625 I0.829 J1.159
X-82.014 Y42.025 Z-5.782 I-0.829 J-1.159
X-80.356 Y44.343 Z-5.938 I0.829 J1.159
X-82.014 Y42.025 Z-6.094 I-0.829 J-1.159
X-80.356 Y44.343 Z-6.25 I0.829 J1.159
X-82.014 Y42.025 Z-6.407 I-0.829 J-1.159
X-80.356 Y44.343 Z-6.563 I0.829 J1.159
X-82.014 Y42.025 Z-6.719 I-0.829 J-1.159
X-80.356 Y44.343 Z-6.875 I0.829 J1.159
X-82.014 Y42.025 Z-7.032 I-0.829 J-1.159
X-80.356 Y44.343 Z-7.188 I0.829 J1.159
X-82.014 Y42.025 Z-7.344 I-0.829 J-1.159
X-80.356 Y44.343 Z-7.5 I0.829 J1.159
X-82.014 Y42.025 Z-7.657 I-0.829 J-1.159
X-80.356 Y44.343 Z-7.813 I0.829 J1.159
X-82.014 Y42.025 Z-7.969 I-0.829 J-1.159
X-81.195 Y41.759 Z-8. I0.829 J1.159
X-81.185 I0.01 J1.425
G1 X-81.03 F250.
G3 X-79.6 Y43.189 I0. J1.43
G1 Y147.585
X-79.595 Y147.724
X-79.588 Y147.793
X-79.577 Y147.862
X-79.563 Y147.932
X-79.545 Y148.001
X-79.524 Y148.07
X-79.5 Y148.139
X-79.47 Y148.211
X-79.438 Y148.278
X-79.401 Y148.347
X-79.359 Y148.416
X-79.332 Y148.456
X-79.257 Y148.554
X-79.193 Y148.627
X-79.127 Y148.693
X-79.055 Y148.757
X-78.957 Y148.831
X-78.916 Y148.858
X-78.847 Y148.901
X-78.778 Y148.938
X-78.711 Y148.97
X-78.639 Y149.
X-78.57 Y149.024
X-78.501 Y149.045
X-78.432 Y149.063
X-78.363 Y149.077
X-78.293 Y149.087
X-78.224 Y149.095
X-78.086 Y149.1
X-0.014
X0.124 Y149.095
X0.193 Y149.087
X0.263 Y149.077
X0.332 Y149.063
X0.401 Y149.045
X0.47 Y149.024
X0.539 Y149.
X0.611 Y148.97
X0.678 Y148.938
X0.747 Y148.901
X0.816 Y148.858
X0.857 Y148.831
X0.955 Y148.757
X1.027 Y148.693
X1.093 Y148.627
X1.157 Y148.554
X1.232 Y148.456
X1.259 Y148.416
X1.301 Y148.347
X1.338 Y148.278
X1.37 Y148.211
X1.4 Y148.139
X1.424 Y148.07
X1.445 Y148.001
X1.463 Y147.932
X1.477 Y147.862
X1.488 Y147.793
X1.495 Y147.724
X1.5 Y147.585
Y0.015
X1.495 Y-0.124
X1.488 Y-0.193
X1.477 Y-0.262
X1.463 Y-0.332
X1.445 Y-0.401
X1.424 Y-0.47
X1.4 Y-0.539
X1.37 Y-0.611
X1.338 Y-0.678
X1.301 Y-0.747
X1.259 Y-0.816
X1.232 Y-0.856
X1.157 Y-0.954
X1.093 Y-1.027
X1.027 Y-1.093
X0.955 Y-1.157
X0.857 Y-1.231
X0.816 Y-1.258
X0.747 Y-1.301
X0.678 Y-1.338
X0.611 Y-1.37
X0.539 Y-1.4
X0.47 Y-1.424
X0.401 Y-1.445
X0.332 Y-1.463
X0.263 Y-1.477
X0.193 Y-1.487
X0.124 Y-1.495
X-0.014 Y-1.5
X-78.086
X-78.224 Y-1.495
X-78.293 Y-1.487
X-78.363 Y-1.477
X-78.432 Y-1.463
X-78.501 Y-1.445
X-78.57 Y-1.424
X-78.639 Y-1.4
X-78.711 Y-1.37
X-78.778 Y-1.338
X-78.847 Y-1.301
X-78.916 Y-1.258
X-78.957 Y-1.231
X-79.055 Y-1.157
X-79.127 Y-1.093
X-79.193 Y-1.027
X-79.257 Y-0.954
X-79.332 Y-0.856
X-79.359 Y-0.816
X-79.401 Y-0.747
X-79.438 Y-0.678
X-79.47 Y-0.611
X-79.5 Y-0.539
X-79.524 Y-0.47
X-79.545 Y-0.401
X-79.563 Y-0.332
X-79.577 Y-0.262
X-79.588 Y-0.193
X-79.595 Y-0.124
X-79.6 Y0.015
Y43.189
G3 X-79.9 Y43.489 I-0.3 J0.
G2 X-80.174 Y43.911 I0. J0.3
G3 X-80.251 Y44.26 I-0.274 J0.122
X-80.347 Y44.337 I-0.934 J-1.076
X-80.356 Y44.343 I-0.838 J-1.153 F83.
X-82.014 Y42.025 Z-8.156 I-0.829 J-1.159
X-80.356 Y44.343 Z-8.313 I0.829 J1.159
X-82.014 Y42.025 Z-8.469 I-0.829 J-1.159
X-80.356 Y44.343 Z-8.625 I0.829 J1.159
X-82.014 Y42.025 Z-8.782 I-0.829 J-1.159
X-80.356 Y44.343 Z-8.938 I0.829 J1.159
X-82.014 Y42.025 Z-9.094 I-0.829 J-1.159
X-80.356 Y44.343 Z-9.25 I0.829 J1.159
X-82.014 Y42.025 Z-9.407 I-0.829 J-1.159
X-80.356 Y44.343 Z-9.563 I0.829 J1.159
X-82.014 Y42.025 Z-9.719 I-0.829 J-1.159
X-80.356 Y44.343 Z-9.875 I0.829 J1.159
X-82.014 Y42.025 Z-10.032 I-0.829 J-1.159
X-80.356 Y44.343 Z-10.188 I0.829 J1.159
X-82.014 Y42.025 Z-10.344 I-0.829 J-1.159
X-80.356 Y44.343 Z-10.5 I0.829 J1.159
X-82.014 Y42.025 Z-10.657 I-0.829 J-1.159
X-80.356 Y44.343 Z-10.813 I0.829 J1.159
X-82.014 Y42.025 Z-10.969 I-0.829 J-1.159
X-81.195 Y41.759 Z-11. I0.829 J1.159
X-81.185 I0.01 J1.425
G1 X-81.03 F250.
G3 X-79.6 Y43.189 I0. J1.43
G1 Y147.585
X-79.595 Y147.724
X-79.588 Y147.793
X-79.577 Y147.862
X-79.563 Y147.932
X-79.545 Y148.001
X-79.524 Y148.07
X-79.5 Y148.139
X-79.47 Y148.211
X-79.438 Y148.278
X-79.401 Y148.347
X-79.359 Y148.416
X-79.332 Y148.456
X-79.257 Y148.554
X-79.193 Y148.627
X-79.127 Y148.693
X-79.055 Y148.757
X-78.957 Y148.831
X-78.916 Y148.858
X-78.847 Y148.901
X-78.778 Y148.938
X-78.711 Y148.97
X-78.639 Y149.
X-78.57 Y149.024
X-78.501 Y149.045
X-78.432 Y149.063
X-78.363 Y149.077
X-78.293 Y149.087
X-78.224 Y149.095
X-78.086 Y149.1
X-0.014
X0.124 Y149.095
X0.193 Y149.087
X0.263 Y149.077
X0.332 Y149.063
X0.401 Y149.045
X0.47 Y149.024
X0.539 Y149.
X0.611 Y148.97
X0.678 Y148.938
X0.747 Y148.901
X0.816 Y148.858
X0.857 Y148.831
X0.955 Y148.757
X1.027 Y148.693
X1.093 Y148.627
X1.157 Y148.554
X1.232 Y148.456
X1.259 Y148.416
X1.301 Y148.347
X1.338 Y148.278
X1.37 Y148.211
X1.4 Y148.139
X1.424 Y148.07
X1.445 Y148.001
X1.463 Y147.932
X1.477 Y147.862
X1.488 Y147.793
X1.495 Y147.724
X1.5 Y147.585
Y0.015
X1.495 Y-0.124
X1.488 Y-0.193
X1.477 Y-0.262
X1.463 Y-0.332
X1.445 Y-0.401
X1.424 Y-0.47
X1.4 Y-0.539
X1.37 Y-0.611
X1.338 Y-0.678
X1.301 Y-0.747
X1.259 Y-0.816
X1.232 Y-0.856
X1.157 Y-0.954
X1.093 Y-1.027
X1.027 Y-1.093
X0.955 Y-1.157
X0.857 Y-1.231
X0.816 Y-1.258
X0.747 Y-1.301
X0.678 Y-1.338
X0.611 Y-1.37
X0.539 Y-1.4
X0.47 Y-1.424
X0.401 Y-1.445
X0.332 Y-1.463
X0.263 Y-1.477
X0.193 Y-1.487
X0.124 Y-1.495
X-0.014 Y-1.5
X-78.086
X-78.224 Y-1.495
X-78.293 Y-1.487
X-78.363 Y-1.477
X-78.432 Y-1.463
X-78.501 Y-1.445
X-78.57 Y-1.424
X-78.639 Y-1.4
X-78.711 Y-1.37
X-78.778 Y-1.338
X-78.847 Y-1.301
X-78.916 Y-1.258
X-78.957 Y-1.231
X-79.055 Y-1.157
X-79.127 Y-1.093
X-79.193 Y-1.027
X-79.257 Y-0.954
X-79.332 Y-0.856
X-79.359 Y-0.816
X-79.401 Y-0.747
X-79.438 Y-0.678
X-79.47 Y-0.611
X-79.5 Y-0.539
X-79.524 Y-0.47
X-79.545 Y-0.401
X-79.563 Y-0.332
X-79.577 Y-0.262
X-79.588 Y-0.193
X-79.595 Y-0.124
X-79.6 Y0.015
Y43.189
G3 X-79.9 Y43.489 I-0.3 J0.
G2 X-80.174 Y43.911 I0. J0.3
G3 X-80.251 Y44.26 I-0.274 J0.122
X-80.347 Y44.337 I-0.934 J-1.076
X-80.356 Y44.343 I-0.838 J-1.153 F83.
X-82.014 Y42.025 Z-11.156 I-0.829 J-1.159
X-80.356 Y44.343 Z-11.313 I0.829 J1.159
X-82.014 Y42.025 Z-11.469 I-0.829 J-1.159
X-80.356 Y44.343 Z-11.625 I0.829 J1.159
X-82.014 Y42.025 Z-11.782 I-0.829 J-1.159
X-80.356 Y44.343 Z-11.938 I0.829 J1.159
X-82.014 Y42.025 Z-12.094 I-0.829 J-1.159
X-80.356 Y44.343 Z-12.25 I0.829 J1.159
X-82.014 Y42.025 Z-12.407 I-0.829 J-1.159
X-80.356 Y44.343 Z-12.563 I0.829 J1.159
X-82.014 Y42.025 Z-12.719 I-0.829 J-1.159
X-80.356 Y44.343 Z-12.875 I0.829 J1.159
X-82.014 Y42.025 Z-13.032 I-0.829 J-1.159
X-80.356 Y44.343 Z-13.188 I0.829 J1.159
X-82.014 Y42.025 Z-13.344 I-0.829 J-1.159
X-80.356 Y44.343 Z-13.5 I0.829 J1.159
X-82.014 Y42.025 Z-13.657 I-0.829 J-1.159
X-80.356 Y44.343 Z-13.813 I0.829 J1.159
X-82.014 Y42.025 Z-13.969 I-0.829 J-1.159
X-81.195 Y41.759 Z-14. I0.829 J1.159
X-81.185 I0.01 J1.425
G1 X-81.03 F250.
G3 X-79.6 Y43.189 I0. J1.43
G1 Y147.585
X-79.595 Y147.724
X-79.588 Y147.793
X-79.577 Y147.862
X-79.563 Y147.932
X-79.545 Y148.001
X-79.524 Y148.07
X-79.5 Y148.139
X-79.47 Y148.211
X-79.438 Y148.278
X-79.401 Y148.347
X-79.359 Y148.416
X-79.332 Y148.456
X-79.257 Y148.554
X-79.193 Y148.627
X-79.127 Y148.693
X-79.055 Y148.757
X-78.957 Y148.831
X-78.916 Y148.858
X-78.847 Y148.901
X-78.778 Y148.938
X-78.711 Y148.97
X-78.639 Y149.
X-78.57 Y149.024
X-78.501 Y149.045
X-78.432 Y149.063
X-78.363 Y149.077
X-78.293 Y149.087
X-78.224 Y149.095
X-78.086 Y149.1
X-0.014
X0.124 Y149.095
X0.193 Y149.087
X0.263 Y149.077
X0.332 Y149.063
X0.401 Y149.045
X0.47 Y149.024
X0.539 Y149.
X0.611 Y148.97
X0.678 Y148.938
X0.747 Y148.901
X0.816 Y148.858
X0.857 Y148.831
X0.955 Y148.757
X1.027 Y148.693
X1.093 Y148.627
X1.157 Y148.554
X1.232 Y148.456
X1.259 Y148.416
X1.301 Y148.347
X1.338 Y148.278
X1.37 Y148.211
X1.4 Y148.139
X1.424 Y148.07
X1.445 Y148.001
X1.463 Y147.932
X1.477 Y147.862
X1.488 Y147.793
X1.495 Y147.724
X1.5 Y147.585
Y0.015
X1.495 Y-0.124
X1.488 Y-0.193
X1.477 Y-0.262
X1.463 Y-0.332
X1.445 Y-0.401
X1.424 Y-0.47
X1.4 Y-0.539
X1.37 Y-0.611
X1.338 Y-0.678
X1.301 Y-0.747
X1.259 Y-0.816
X1.232 Y-0.856
X1.157 Y-0.954
X1.093 Y-1.027
X1.027 Y-1.093
X0.955 Y-1.157
X0.857 Y-1.231
X0.816 Y-1.258
X0.747 Y-1.301
X0.678 Y-1.338
X0.611 Y-1.37
X0.539 Y-1.4
X0.47 Y-1.424
X0.401 Y-1.445
X0.332 Y-1.463
X0.263 Y-1.477
X0.193 Y-1.487
X0.124 Y-1.495
X-0.014 Y-1.5
X-78.086
X-78.224 Y-1.495
X-78.293 Y-1.487
X-78.363 Y-1.477
X-78.432 Y-1.463
X-78.501 Y-1.445
X-78.57 Y-1.424
X-78.639 Y-1.4
X-78.711 Y-1.37
X-78.778 Y-1.338
X-78.847 Y-1.301
X-78.916 Y-1.258
X-78.957 Y-1.231
X-79.055 Y-1.157
X-79.127 Y-1.093
X-79.193 Y-1.027
X-79.257 Y-0.954
X-79.332 Y-0.856
X-79.359 Y-0.816
X-79.401 Y-0.747
X-79.438 Y-0.678
X-79.47 Y-0.611
X-79.5 Y-0.539
X-79.524 Y-0.47
X-79.545 Y-0.401
X-79.563 Y-0.332
X-79.577 Y-0.262
X-79.588 Y-0.193
X-79.595 Y-0.124
X-79.6 Y0.015
Y43.189
G3 X-79.9 Y43.489 I-0.3 J0.
G2 X-80.174 Y43.911 I0. J0.3
G3 X-80.251 Y44.26 I-0.274 J0.122
X-80.347 Y44.337 I-0.934 J-1.076
X-80.356 Y44.343 I-0.838 J-1.153 F83.
X-82.014 Y42.025 Z-14.156 I-0.829 J-1.159
X-80.356 Y44.343 Z-14.313 I0.829 J1.159
X-82.014 Y42.025 Z-14.469 I-0.829 J-1.159
X-80.356 Y44.343 Z-14.625 I0.829 J1.159
X-82.014 Y42.025 Z-14.782 I-0.829 J-1.159
X-80.356 Y44.343 Z-14.938 I0.829 J1.159
X-82.014 Y42.025 Z-15.094 I-0.829 J-1.159
X-80.356 Y44.343 Z-15.25 I0.829 J1.159
X-82.014 Y42.025 Z-15.407 I-0.829 J-1.159
X-80.356 Y44.343 Z-15.563 I0.829 J1.159
X-82.014 Y42.025 Z-15.719 I-0.829 J-1.159
X-80.356 Y44.343 Z-15.875 I0.829 J1.159
X-82.014 Y42.025 Z-16.032 I-0.829 J-1.159
X-80.356 Y44.343 Z-16.188 I0.829 J1.159
X-82.014 Y42.025 Z-16.344 I-0.829 J-1.159
X-80.356 Y44.343 Z-16.5 I0.829 J1.159
X-82.014 Y42.025 Z-16.657 I-0.829 J-1.159
X-80.356 Y44.343 Z-16.813 I0.829 J1.159
X-82.014 Y42.025 Z-16.969 I-0.829 J-1.159
X-81.195 Y41.759 Z-17. I0.829 J1.159
X-81.185 I0.01 J1.425
G1 X-81.03 F250.
G3 X-79.6 Y43.189 I0. J1.43
G1 Y147.585
X-79.595 Y147.724
X-79.588 Y147.793
X-79.577 Y147.862
X-79.563 Y147.932
X-79.545 Y148.001
X-79.524 Y148.07
X-79.5 Y148.139
X-79.47 Y148.211
X-79.438 Y148.278
X-79.401 Y148.347
X-79.359 Y148.416
X-79.332 Y148.456
X-79.257 Y148.554
X-79.193 Y148.627
X-79.127 Y148.693
X-79.055 Y148.757
X-78.957 Y148.831
X-78.916 Y148.858
X-78.847 Y148.901
X-78.778 Y148.938
X-78.711 Y148.97
X-78.639 Y149.
X-78.57 Y149.024
X-78.501 Y149.045
X-78.432 Y149.063
X-78.363 Y149.077
X-78.293 Y149.087
X-78.224 Y149.095
X-78.086 Y149.1
X-0.014
X0.124 Y149.095
X0.193 Y149.087
X0.263 Y149.077
X0.332 Y149.063
X0.401 Y149.045
X0.47 Y149.024
X0.539 Y149.
X0.611 Y148.97
X0.678 Y148.938
X0.747 Y148.901
X0.816 Y148.858
X0.857 Y148.831
X0.955 Y148.757
X1.027 Y148.693
X1.093 Y148.627
X1.157 Y148.554
X1.232 Y148.456
X1.259 Y148.416
X1.301 Y148.347
X1.338 Y148.278
X1.37 Y148.211
X1.4 Y148.139
X1.424 Y148.07
X1.445 Y148.001
X1.463 Y147.932
X1.477 Y147.862
X1.488 Y147.793
X1.495 Y147.724
X1.5 Y147.585
Y0.015
X1.495 Y-0.124
X1.488 Y-0.193
X1.477 Y-0.262
X1.463 Y-0.332
X1.445 Y-0.401
X1.424 Y-0.47
X1.4 Y-0.539
X1.37 Y-0.611
X1.338 Y-0.678
X1.301 Y-0.747
X1.259 Y-0.816
X1.232 Y-0.856
X1.157 Y-0.954
X1.093 Y-1.027
X1.027 Y-1.093
X0.955 Y-1.157
X0.857 Y-1.231
X0.816 Y-1.258
X0.747 Y-1.301
X0.678 Y-1.338
X0.611 Y-1.37
X0.539 Y-1.4
X0.47 Y-1.424
X0.401 Y-1.445
X0.332 Y-1.463
X0.263 Y-1.477
X0.193 Y-1.487
X0.124 Y-1.495
X-0.014 Y-1.5
X-78.086
X-78.224 Y-1.495
X-78.293 Y-1.487
X-78.363 Y-1.477
X-78.432 Y-1.463
X-78.501 Y-1.445
X-78.57 Y-1.424
X-78.639 Y-1.4
X-78.711 Y-1.37
X-78.778 Y-1.338
X-78.847 Y-1.301
X-78.916 Y-1.258
X-78.957 Y-1.231
X-79.055 Y-1.157
X-79.127 Y-1.093
X-79.193 Y-1.027
X-79.257 Y-0.954
X-79.332 Y-0.856
X-79.359 Y-0.816
X-79.401 Y-0.747
X-79.438 Y-0.678
X-79.47 Y-0.611
X-79.5 Y-0.539
X-79.524 Y-0.47
X-79.545 Y-0.401
X-79.563 Y-0.332
X-79.577 Y-0.262
X-79.588 Y-0.193
X-79.595 Y-0.124
X-79.6 Y0.015
Y43.189
G3 X-79.924 Y43.488 I-0.3 J0.
G1 X-83.302 Y43.214
X-83.369 Y43.208 Z-16.992
X-83.432 Y43.203 Z-16.97
X-83.489 Y43.198 Z-16.935
X-83.536 Y43.195 Z-16.887
X-83.572 Y43.192 Z-16.83
X-83.594 Y43.19 Z-16.767
X-83.601 Y43.189 Z-16.7
G0 Z2.

M9
G53 Z0.
M30
