(1-DRILL)
(T3  D=3. CR=0. TAPER=118DEG - ZMIN=-11. - DRILL)
G0 G90 G94 G17
G21
G53 Z0.

(DRILL1)
M5
M9
T3
M3 S9700
G54
M9
G0 X-10. Y-9.
Z2.
Z5.
Z2.
G1 Z-1. F582.
G0 Z5.
Z1.
G1 Z-2. F582.
G0 Z5.
Z0.
G1 Z-3. F582.
G0 Z5.
Z-1.
G1 Z-4. F582.
G0 Z5.
Z-2.
G1 Z-5. F582.
G0 Z5.
Z-3.
G1 Z-6. F582.
G0 Z5.
Z-4.
G1 Z-7. F582.
G0 Z5.
Z-5.
G1 Z-8. F582.
G0 Z5.
Z-6.
G1 Z-9. F582.
G0 Z5.
Z-7.
G1 Z-10. F582.
G0 Z5.
Z-8.
G1 Z-11. F582.
G0 Z5.
X10.
Z2.
G1 Z-1. F582.
G0 Z5.
Z1.
G1 Z-2. F582.
G0 Z5.
Z0.
G1 Z-3. F582.
G0 Z5.
Z-1.
G1 Z-4. F582.
G0 Z5.
Z-2.
G1 Z-5. F582.
G0 Z5.
Z-3.
G1 Z-6. F582.
G0 Z5.
Z-4.
G1 Z-7. F582.
G0 Z5.
Z-5.
G1 Z-8. F582.
G0 Z5.
Z-6.
G1 Z-9. F582.
G0 Z5.
Z-7.
G1 Z-10. F582.
G0 Z5.
Z-8.
G1 Z-11. F582.
G0 Z5.
Z2.

M9
G53 Z0.
M30
