(2-EDGE1)
(T2  D=3. CR=0. - ZMIN=-11. - FLAT END MILL)
G0 G90 G94 G17
G21
G53 Z0.

(CONTOUR - OUTER EDGE1)
M5
M9
T2
(PART OF A 10 PACK CARBIDE)
M3 S18000
G54
M9
G0 X-16.945 Y-14.613
Z2.
G1 Z0.4 F500.
X-16.946 Y-14.611 Z0.367
X-16.948 Y-14.606 Z0.335
X-16.952 Y-14.598 Z0.303
G3 X-16.956 Y-14.586 Z0.272 I-1.309 J-0.564
X-16.963 Y-14.572 Z0.243 I-1.304 J-0.575
X-16.971 Y-14.555 Z0.216 I-1.297 J-0.59
X-16.98 Y-14.536 Z0.191 I-1.289 J-0.607
X-16.991 Y-14.514 Z0.169 I-1.28 J-0.626
X-17.003 Y-14.491 Z0.149 I-1.269 J-0.648
X-17.017 Y-14.466 Z0.133 I-1.257 J-0.671
X-17.032 Y-14.44 Z0.119 I-1.243 J-0.696
X-17.048 Y-14.413 Z0.109 I-1.229 J-0.722
X-17.065 Y-14.386 Z0.103 I-1.212 J-0.749
X-17.083 Y-14.359 Z0.1 I-1.195 J-0.776
X-19.437 Y-15.965 Z-0.056 I-1.177 J-0.803
X-17.083 Y-14.359 Z-0.213 I1.177 J0.803
X-19.437 Y-15.965 Z-0.369 I-1.177 J-0.803
X-17.083 Y-14.359 Z-0.525 I1.177 J0.803
X-19.437 Y-15.965 Z-0.682 I-1.177 J-0.803
X-17.083 Y-14.359 Z-0.838 I1.177 J0.803
X-19.437 Y-15.965 Z-0.994 I-1.177 J-0.803
X-17.083 Y-14.359 Z-1.151 I1.177 J0.803
X-19.437 Y-15.965 Z-1.307 I-1.177 J-0.803
X-17.083 Y-14.359 Z-1.463 I1.177 J0.803
X-19.437 Y-15.965 Z-1.62 I-1.177 J-0.803
X-17.083 Y-14.359 Z-1.776 I1.177 J0.803
X-19.437 Y-15.965 Z-1.932 I-1.177 J-0.803
X-17.725 Y-16.483 Z-2. I1.177 J0.803
X-17.716 Y-16.479 I-0.535 J1.321
G1 X-16.537 Y-15.992
G3 X-16.375 Y-15.6 I-0.115 J0.277
G1 X-16.397 Y-15.546
X-16.422 Y-15.477
X-16.444 Y-15.407
X-16.461 Y-15.338
X-16.476 Y-15.269
X-16.487 Y-15.2
X-16.494 Y-15.131
X-16.499 Y-15.062
X-16.5 Y-14.993
Y14.993
X-16.499 Y15.062
X-16.494 Y15.131
X-16.487 Y15.2
X-16.476 Y15.269
X-16.461 Y15.338
X-16.444 Y15.407
X-16.422 Y15.477
X-16.397 Y15.546
X-16.375 Y15.6
X-16.335 Y15.684
X-16.297 Y15.753
X-16.255 Y15.822
X-16.237 Y15.849
X-16.197 Y15.905
X-16.152 Y15.96
X-16.098 Y16.022
X-16.022 Y16.098
X-15.96 Y16.152
X-15.905 Y16.197
X-15.849 Y16.237
X-15.822 Y16.255
X-15.753 Y16.297
X-15.684 Y16.335
X-15.6 Y16.375
X-15.546 Y16.397
X-15.477 Y16.422
X-15.407 Y16.444
X-15.338 Y16.461
X-15.269 Y16.476
X-15.2 Y16.487
X-15.131 Y16.494
X-15.062 Y16.499
X-14.993 Y16.5
X14.993
X15.062 Y16.499
X15.131 Y16.494
X15.2 Y16.487
X15.269 Y16.476
X15.338 Y16.461
X15.407 Y16.444
X15.477 Y16.422
X15.546 Y16.397
X15.6 Y16.375
X15.684 Y16.335
X15.753 Y16.297
X15.822 Y16.255
X15.849 Y16.237
X15.905 Y16.197
X15.96 Y16.152
X16.022 Y16.098
X16.098 Y16.022
X16.152 Y15.96
X16.197 Y15.905
X16.237 Y15.849
X16.255 Y15.822
X16.297 Y15.753
X16.335 Y15.684
X16.375 Y15.6
X16.397 Y15.546
X16.422 Y15.477
X16.444 Y15.407
X16.461 Y15.338
X16.476 Y15.269
X16.487 Y15.2
X16.494 Y15.131
X16.499 Y15.062
X16.5 Y14.993
Y-14.993
X16.499 Y-15.062
X16.494 Y-15.131
X16.487 Y-15.2
X16.476 Y-15.269
X16.461 Y-15.338
X16.444 Y-15.407
X16.422 Y-15.477
X16.397 Y-15.546
X16.375 Y-15.6
X16.335 Y-15.684
X16.297 Y-15.753
X16.255 Y-15.822
X16.237 Y-15.849
X16.197 Y-15.905
X16.152 Y-15.96
X16.098 Y-16.022
X16.022 Y-16.098
X15.96 Y-16.152
X15.905 Y-16.197
X15.849 Y-16.237
X15.822 Y-16.255
X15.753 Y-16.297
X15.684 Y-16.335
X15.6 Y-16.375
X15.546 Y-16.397
X15.477 Y-16.422
X15.407 Y-16.444
X15.338 Y-16.461
X15.269 Y-16.476
X15.2 Y-16.487
X15.131 Y-16.494
X15.062 Y-16.499
X14.993 Y-16.5
X-14.993
X-15.062 Y-16.499
X-15.131 Y-16.494
X-15.2 Y-16.487
X-15.269 Y-16.476
X-15.338 Y-16.461
X-15.407 Y-16.444
X-15.477 Y-16.422
X-15.546 Y-16.397
X-15.6 Y-16.375
X-15.684 Y-16.335
X-15.753 Y-16.297
X-15.822 Y-16.255
X-15.849 Y-16.237
X-15.905 Y-16.197
X-15.96 Y-16.152
X-16.022 Y-16.098
X-16.098 Y-16.022
X-16.152 Y-15.96
X-16.197 Y-15.905
X-16.237 Y-15.849
X-16.255 Y-15.822
X-16.297 Y-15.753
X-16.335 Y-15.684
X-16.375 Y-15.6
G3 X-16.457 Y-15.496 I-0.271 J-0.128
G1 X-16.94 Y-15.104
G3 X-19.05 Y-15.461 I-0.898 J-1.106
X-19.056 Y-15.47 I1.213 J-0.749 F167.
X-16.62 Y-16.95 Z-2.156 I1.218 J-0.74
X-19.056 Y-15.47 Z-2.313 I-1.218 J0.74
X-16.62 Y-16.95 Z-2.469 I1.218 J-0.74
X-19.056 Y-15.47 Z-2.625 I-1.218 J0.74
X-16.62 Y-16.95 Z-2.782 I1.218 J-0.74
X-19.056 Y-15.47 Z-2.938 I-1.218 J0.74
X-16.62 Y-16.95 Z-3.094 I1.218 J-0.74
X-19.056 Y-15.47 Z-3.25 I-1.218 J0.74
X-16.62 Y-16.95 Z-3.407 I1.218 J-0.74
X-19.056 Y-15.47 Z-3.563 I-1.218 J0.74
X-16.62 Y-16.95 Z-3.719 I1.218 J-0.74
X-19.056 Y-15.47 Z-3.875 I-1.218 J0.74
X-17.303 Y-17.531 Z-4. I1.218 J-0.74
X-17.293 Y-17.527 I-0.535 J1.321
G1 X-17.15 Y-17.468 F500.
G3 X-16.375 Y-15.6 I-0.546 J1.322
G1 X-16.397 Y-15.546
X-16.422 Y-15.477
X-16.444 Y-15.407
X-16.461 Y-15.338
X-16.476 Y-15.269
X-16.487 Y-15.2
X-16.494 Y-15.131
X-16.499 Y-15.062
X-16.5 Y-14.993
Y14.993
X-16.499 Y15.062
X-16.494 Y15.131
X-16.487 Y15.2
X-16.476 Y15.269
X-16.461 Y15.338
X-16.444 Y15.407
X-16.422 Y15.477
X-16.397 Y15.546
X-16.375 Y15.6
X-16.335 Y15.684
X-16.297 Y15.753
X-16.255 Y15.822
X-16.237 Y15.849
X-16.197 Y15.905
X-16.152 Y15.96
X-16.098 Y16.022
X-16.022 Y16.098
X-15.96 Y16.152
X-15.905 Y16.197
X-15.849 Y16.237
X-15.822 Y16.255
X-15.753 Y16.297
X-15.684 Y16.335
X-15.6 Y16.375
X-15.546 Y16.397
X-15.477 Y16.422
X-15.407 Y16.444
X-15.338 Y16.461
X-15.269 Y16.476
X-15.2 Y16.487
X-15.131 Y16.494
X-15.062 Y16.499
X-14.993 Y16.5
X14.993
X15.062 Y16.499
X15.131 Y16.494
X15.2 Y16.487
X15.269 Y16.476
X15.338 Y16.461
X15.407 Y16.444
X15.477 Y16.422
X15.546 Y16.397
X15.6 Y16.375
X15.684 Y16.335
X15.753 Y16.297
X15.822 Y16.255
X15.849 Y16.237
X15.905 Y16.197
X15.96 Y16.152
X16.022 Y16.098
X16.098 Y16.022
X16.152 Y15.96
X16.197 Y15.905
X16.237 Y15.849
X16.255 Y15.822
X16.297 Y15.753
X16.335 Y15.684
X16.375 Y15.6
X16.397 Y15.546
X16.422 Y15.477
X16.444 Y15.407
X16.461 Y15.338
X16.476 Y15.269
X16.487 Y15.2
X16.494 Y15.131
X16.499 Y15.062
X16.5 Y14.993
Y-14.993
X16.499 Y-15.062
X16.494 Y-15.131
X16.487 Y-15.2
X16.476 Y-15.269
X16.461 Y-15.338
X16.444 Y-15.407
X16.422 Y-15.477
X16.397 Y-15.546
X16.375 Y-15.6
X16.335 Y-15.684
X16.297 Y-15.753
X16.255 Y-15.822
X16.237 Y-15.849
X16.197 Y-15.905
X16.152 Y-15.96
X16.098 Y-16.022
X16.022 Y-16.098
X15.96 Y-16.152
X15.905 Y-16.197
X15.849 Y-16.237
X15.822 Y-16.255
X15.753 Y-16.297
X15.684 Y-16.335
X15.6 Y-16.375
X15.546 Y-16.397
X15.477 Y-16.422
X15.407 Y-16.444
X15.338 Y-16.461
X15.269 Y-16.476
X15.2 Y-16.487
X15.131 Y-16.494
X15.062 Y-16.499
X14.993 Y-16.5
X-14.993
X-15.062 Y-16.499
X-15.131 Y-16.494
X-15.2 Y-16.487
X-15.269 Y-16.476
X-15.338 Y-16.461
X-15.407 Y-16.444
X-15.477 Y-16.422
X-15.546 Y-16.397
X-15.6 Y-16.375
X-15.684 Y-16.335
X-15.753 Y-16.297
X-15.822 Y-16.255
X-15.849 Y-16.237
X-15.905 Y-16.197
X-15.96 Y-16.152
X-16.022 Y-16.098
X-16.098 Y-16.022
X-16.152 Y-15.96
X-16.197 Y-15.905
X-16.237 Y-15.849
X-16.255 Y-15.822
X-16.297 Y-15.753
X-16.335 Y-15.684
X-16.375 Y-15.6
G3 X-16.457 Y-15.496 I-0.271 J-0.128
G1 X-16.94 Y-15.104
G3 X-19.05 Y-15.461 I-0.898 J-1.106
X-19.056 Y-15.47 I1.213 J-0.749 F167.
X-16.62 Y-16.95 Z-4.156 I1.218 J-0.74
X-19.056 Y-15.47 Z-4.313 I-1.218 J0.74
X-16.62 Y-16.95 Z-4.469 I1.218 J-0.74
X-19.056 Y-15.47 Z-4.625 I-1.218 J0.74
X-16.62 Y-16.95 Z-4.782 I1.218 J-0.74
X-19.056 Y-15.47 Z-4.938 I-1.218 J0.74
X-16.62 Y-16.95 Z-5.094 I1.218 J-0.74
X-19.056 Y-15.47 Z-5.25 I-1.218 J0.74
X-16.62 Y-16.95 Z-5.407 I1.218 J-0.74
X-19.056 Y-15.47 Z-5.563 I-1.218 J0.74
X-16.62 Y-16.95 Z-5.719 I1.218 J-0.74
X-19.056 Y-15.47 Z-5.875 I-1.218 J0.74
X-17.303 Y-17.531 Z-6. I1.218 J-0.74
X-17.293 Y-17.527 I-0.535 J1.321
G1 X-17.15 Y-17.468 F500.
G3 X-16.375 Y-15.6 I-0.546 J1.322
G1 X-16.397 Y-15.546
X-16.422 Y-15.477
X-16.444 Y-15.407
X-16.461 Y-15.338
X-16.476 Y-15.269
X-16.487 Y-15.2
X-16.494 Y-15.131
X-16.499 Y-15.062
X-16.5 Y-14.993
Y14.993
X-16.499 Y15.062
X-16.494 Y15.131
X-16.487 Y15.2
X-16.476 Y15.269
X-16.461 Y15.338
X-16.444 Y15.407
X-16.422 Y15.477
X-16.397 Y15.546
X-16.375 Y15.6
X-16.335 Y15.684
X-16.297 Y15.753
X-16.255 Y15.822
X-16.237 Y15.849
X-16.197 Y15.905
X-16.152 Y15.96
X-16.098 Y16.022
X-16.022 Y16.098
X-15.96 Y16.152
X-15.905 Y16.197
X-15.849 Y16.237
X-15.822 Y16.255
X-15.753 Y16.297
X-15.684 Y16.335
X-15.6 Y16.375
X-15.546 Y16.397
X-15.477 Y16.422
X-15.407 Y16.444
X-15.338 Y16.461
X-15.269 Y16.476
X-15.2 Y16.487
X-15.131 Y16.494
X-15.062 Y16.499
X-14.993 Y16.5
X14.993
X15.062 Y16.499
X15.131 Y16.494
X15.2 Y16.487
X15.269 Y16.476
X15.338 Y16.461
X15.407 Y16.444
X15.477 Y16.422
X15.546 Y16.397
X15.6 Y16.375
X15.684 Y16.335
X15.753 Y16.297
X15.822 Y16.255
X15.849 Y16.237
X15.905 Y16.197
X15.96 Y16.152
X16.022 Y16.098
X16.098 Y16.022
X16.152 Y15.96
X16.197 Y15.905
X16.237 Y15.849
X16.255 Y15.822
X16.297 Y15.753
X16.335 Y15.684
X16.375 Y15.6
X16.397 Y15.546
X16.422 Y15.477
X16.444 Y15.407
X16.461 Y15.338
X16.476 Y15.269
X16.487 Y15.2
X16.494 Y15.131
X16.499 Y15.062
X16.5 Y14.993
Y-14.993
X16.499 Y-15.062
X16.494 Y-15.131
X16.487 Y-15.2
X16.476 Y-15.269
X16.461 Y-15.338
X16.444 Y-15.407
X16.422 Y-15.477
X16.397 Y-15.546
X16.375 Y-15.6
X16.335 Y-15.684
X16.297 Y-15.753
X16.255 Y-15.822
X16.237 Y-15.849
X16.197 Y-15.905
X16.152 Y-15.96
X16.098 Y-16.022
X16.022 Y-16.098
X15.96 Y-16.152
X15.905 Y-16.197
X15.849 Y-16.237
X15.822 Y-16.255
X15.753 Y-16.297
X15.684 Y-16.335
X15.6 Y-16.375
X15.546 Y-16.397
X15.477 Y-16.422
X15.407 Y-16.444
X15.338 Y-16.461
X15.269 Y-16.476
X15.2 Y-16.487
X15.131 Y-16.494
X15.062 Y-16.499
X14.993 Y-16.5
X-14.993
X-15.062 Y-16.499
X-15.131 Y-16.494
X-15.2 Y-16.487
X-15.269 Y-16.476
X-15.338 Y-16.461
X-15.407 Y-16.444
X-15.477 Y-16.422
X-15.546 Y-16.397
X-15.6 Y-16.375
X-15.684 Y-16.335
X-15.753 Y-16.297
X-15.822 Y-16.255
X-15.849 Y-16.237
X-15.905 Y-16.197
X-15.96 Y-16.152
X-16.022 Y-16.098
X-16.098 Y-16.022
X-16.152 Y-15.96
X-16.197 Y-15.905
X-16.237 Y-15.849
X-16.255 Y-15.822
X-16.297 Y-15.753
X-16.335 Y-15.684
X-16.375 Y-15.6
G3 X-16.457 Y-15.496 I-0.271 J-0.128
G1 X-16.94 Y-15.104
G3 X-19.05 Y-15.461 I-0.898 J-1.106
X-19.056 Y-15.47 I1.213 J-0.749 F167.
X-16.62 Y-16.95 Z-6.156 I1.218 J-0.74
X-19.056 Y-15.47 Z-6.313 I-1.218 J0.74
X-16.62 Y-16.95 Z-6.469 I1.218 J-0.74
X-19.056 Y-15.47 Z-6.625 I-1.218 J0.74
X-16.62 Y-16.95 Z-6.782 I1.218 J-0.74
X-19.056 Y-15.47 Z-6.938 I-1.218 J0.74
X-16.62 Y-16.95 Z-7.094 I1.218 J-0.74
X-19.056 Y-15.47 Z-7.25 I-1.218 J0.74
X-16.62 Y-16.95 Z-7.407 I1.218 J-0.74
X-19.056 Y-15.47 Z-7.563 I-1.218 J0.74
X-16.62 Y-16.95 Z-7.719 I1.218 J-0.74
X-19.056 Y-15.47 Z-7.875 I-1.218 J0.74
X-17.303 Y-17.531 Z-8. I1.218 J-0.74
X-17.293 Y-17.527 I-0.535 J1.321
G1 X-17.15 Y-17.468 F500.
G3 X-16.375 Y-15.6 I-0.546 J1.322
G1 X-16.397 Y-15.546
X-16.422 Y-15.477
X-16.444 Y-15.407
X-16.461 Y-15.338
X-16.476 Y-15.269
X-16.487 Y-15.2
X-16.494 Y-15.131
X-16.499 Y-15.062
X-16.5 Y-14.993
Y14.993
X-16.499 Y15.062
X-16.494 Y15.131
X-16.487 Y15.2
X-16.476 Y15.269
X-16.461 Y15.338
X-16.444 Y15.407
X-16.422 Y15.477
X-16.397 Y15.546
X-16.375 Y15.6
X-16.335 Y15.684
X-16.297 Y15.753
X-16.255 Y15.822
X-16.237 Y15.849
X-16.197 Y15.905
X-16.152 Y15.96
X-16.098 Y16.022
X-16.022 Y16.098
X-15.96 Y16.152
X-15.905 Y16.197
X-15.849 Y16.237
X-15.822 Y16.255
X-15.753 Y16.297
X-15.684 Y16.335
X-15.6 Y16.375
X-15.546 Y16.397
X-15.477 Y16.422
X-15.407 Y16.444
X-15.338 Y16.461
X-15.269 Y16.476
X-15.2 Y16.487
X-15.131 Y16.494
X-15.062 Y16.499
X-14.993 Y16.5
X14.993
X15.062 Y16.499
X15.131 Y16.494
X15.2 Y16.487
X15.269 Y16.476
X15.338 Y16.461
X15.407 Y16.444
X15.477 Y16.422
X15.546 Y16.397
X15.6 Y16.375
X15.684 Y16.335
X15.753 Y16.297
X15.822 Y16.255
X15.849 Y16.237
X15.905 Y16.197
X15.96 Y16.152
X16.022 Y16.098
X16.098 Y16.022
X16.152 Y15.96
X16.197 Y15.905
X16.237 Y15.849
X16.255 Y15.822
X16.297 Y15.753
X16.335 Y15.684
X16.375 Y15.6
X16.397 Y15.546
X16.422 Y15.477
X16.444 Y15.407
X16.461 Y15.338
X16.476 Y15.269
X16.487 Y15.2
X16.494 Y15.131
X16.499 Y15.062
X16.5 Y14.993
Y-14.993
X16.499 Y-15.062
X16.494 Y-15.131
X16.487 Y-15.2
X16.476 Y-15.269
X16.461 Y-15.338
X16.444 Y-15.407
X16.422 Y-15.477
X16.397 Y-15.546
X16.375 Y-15.6
X16.335 Y-15.684
X16.297 Y-15.753
X16.255 Y-15.822
X16.237 Y-15.849
X16.197 Y-15.905
X16.152 Y-15.96
X16.098 Y-16.022
X16.022 Y-16.098
X15.96 Y-16.152
X15.905 Y-16.197
X15.849 Y-16.237
X15.822 Y-16.255
X15.753 Y-16.297
X15.684 Y-16.335
X15.6 Y-16.375
X15.546 Y-16.397
X15.477 Y-16.422
X15.407 Y-16.444
X15.338 Y-16.461
X15.269 Y-16.476
X15.2 Y-16.487
X15.131 Y-16.494
X15.062 Y-16.499
X14.993 Y-16.5
X-14.993
X-15.062 Y-16.499
X-15.131 Y-16.494
X-15.2 Y-16.487
X-15.269 Y-16.476
X-15.338 Y-16.461
X-15.407 Y-16.444
X-15.477 Y-16.422
X-15.546 Y-16.397
X-15.6 Y-16.375
X-15.684 Y-16.335
X-15.753 Y-16.297
X-15.822 Y-16.255
X-15.849 Y-16.237
X-15.905 Y-16.197
X-15.96 Y-16.152
X-16.022 Y-16.098
X-16.098 Y-16.022
X-16.152 Y-15.96
X-16.197 Y-15.905
X-16.237 Y-15.849
X-16.255 Y-15.822
X-16.297 Y-15.753
X-16.335 Y-15.684
X-16.375 Y-15.6
G3 X-16.457 Y-15.496 I-0.271 J-0.128
G1 X-16.94 Y-15.104
G3 X-19.05 Y-15.461 I-0.898 J-1.106
X-19.056 Y-15.47 I1.213 J-0.749 F167.
X-16.62 Y-16.95 Z-8.156 I1.218 J-0.74
X-19.056 Y-15.47 Z-8.313 I-1.218 J0.74
X-16.62 Y-16.95 Z-8.469 I1.218 J-0.74
X-19.056 Y-15.47 Z-8.625 I-1.218 J0.74
X-16.62 Y-16.95 Z-8.782 I1.218 J-0.74
X-19.056 Y-15.47 Z-8.938 I-1.218 J0.74
X-16.62 Y-16.95 Z-9.094 I1.218 J-0.74
X-19.056 Y-15.47 Z-9.25 I-1.218 J0.74
X-16.62 Y-16.95 Z-9.407 I1.218 J-0.74
X-19.056 Y-15.47 Z-9.563 I-1.218 J0.74
X-16.62 Y-16.95 Z-9.719 I1.218 J-0.74
X-19.056 Y-15.47 Z-9.875 I-1.218 J0.74
X-17.303 Y-17.531 Z-10. I1.218 J-0.74
X-17.293 Y-17.527 I-0.535 J1.321
G1 X-17.15 Y-17.468 F500.
G3 X-16.375 Y-15.6 I-0.546 J1.322
G1 X-16.397 Y-15.546
X-16.422 Y-15.477
X-16.444 Y-15.407
X-16.461 Y-15.338
X-16.476 Y-15.269
X-16.487 Y-15.2
X-16.494 Y-15.131
X-16.499 Y-15.062
X-16.5 Y-14.993
Y14.993
X-16.499 Y15.062
X-16.494 Y15.131
X-16.487 Y15.2
X-16.476 Y15.269
X-16.461 Y15.338
X-16.444 Y15.407
X-16.422 Y15.477
X-16.397 Y15.546
X-16.375 Y15.6
X-16.335 Y15.684
X-16.297 Y15.753
X-16.255 Y15.822
X-16.237 Y15.849
X-16.197 Y15.905
X-16.152 Y15.96
X-16.098 Y16.022
X-16.022 Y16.098
X-15.96 Y16.152
X-15.905 Y16.197
X-15.849 Y16.237
X-15.822 Y16.255
X-15.753 Y16.297
X-15.684 Y16.335
X-15.6 Y16.375
X-15.546 Y16.397
X-15.477 Y16.422
X-15.407 Y16.444
X-15.338 Y16.461
X-15.269 Y16.476
X-15.2 Y16.487
X-15.131 Y16.494
X-15.062 Y16.499
X-14.993 Y16.5
X14.993
X15.062 Y16.499
X15.131 Y16.494
X15.2 Y16.487
X15.269 Y16.476
X15.338 Y16.461
X15.407 Y16.444
X15.477 Y16.422
X15.546 Y16.397
X15.6 Y16.375
X15.684 Y16.335
X15.753 Y16.297
X15.822 Y16.255
X15.849 Y16.237
X15.905 Y16.197
X15.96 Y16.152
X16.022 Y16.098
X16.098 Y16.022
X16.152 Y15.96
X16.197 Y15.905
X16.237 Y15.849
X16.255 Y15.822
X16.297 Y15.753
X16.335 Y15.684
X16.375 Y15.6
X16.397 Y15.546
X16.422 Y15.477
X16.444 Y15.407
X16.461 Y15.338
X16.476 Y15.269
X16.487 Y15.2
X16.494 Y15.131
X16.499 Y15.062
X16.5 Y14.993
Y-14.993
X16.499 Y-15.062
X16.494 Y-15.131
X16.487 Y-15.2
X16.476 Y-15.269
X16.461 Y-15.338
X16.444 Y-15.407
X16.422 Y-15.477
X16.397 Y-15.546
X16.375 Y-15.6
X16.335 Y-15.684
X16.297 Y-15.753
X16.255 Y-15.822
X16.237 Y-15.849
X16.197 Y-15.905
X16.152 Y-15.96
X16.098 Y-16.022
X16.022 Y-16.098
X15.96 Y-16.152
X15.905 Y-16.197
X15.849 Y-16.237
X15.822 Y-16.255
X15.753 Y-16.297
X15.684 Y-16.335
X15.6 Y-16.375
X15.546 Y-16.397
X15.477 Y-16.422
X15.407 Y-16.444
X15.338 Y-16.461
X15.269 Y-16.476
X15.2 Y-16.487
X15.131 Y-16.494
X15.062 Y-16.499
X14.993 Y-16.5
X-14.993
X-15.062 Y-16.499
X-15.131 Y-16.494
X-15.2 Y-16.487
X-15.269 Y-16.476
X-15.338 Y-16.461
X-15.407 Y-16.444
X-15.477 Y-16.422
X-15.546 Y-16.397
X-15.6 Y-16.375
X-15.684 Y-16.335
X-15.753 Y-16.297
X-15.822 Y-16.255
X-15.849 Y-16.237
X-15.905 Y-16.197
X-15.96 Y-16.152
X-16.022 Y-16.098
X-16.098 Y-16.022
X-16.152 Y-15.96
X-16.197 Y-15.905
X-16.237 Y-15.849
X-16.255 Y-15.822
X-16.297 Y-15.753
X-16.335 Y-15.684
X-16.375 Y-15.6
X-16.378 Y-15.593
X-16.381 Y-15.586
X-16.387 Y-15.572
X-16.398 Y-15.544
X-16.419 Y-15.486
X-16.454 Y-15.369
X-16.479 Y-15.25
X-16.494 Y-15.129 Z-10.001
X-16.5 Y-15.007
Y-14.885
Y-14.641 Z-10.002
Y-14.397 Z-10.004
Y-14.153 Z-10.005
Y-13.909 Z-10.007
Y-13.665 Z-10.009
Y-13.421 Z-10.012
Y-13.177 Z-10.014
Y-12.933 Z-10.017
Y-12.689 Z-10.02
Y-12.445 Z-10.024
Y-12.201 Z-10.027
Y-11.957 Z-10.031
Y-11.713 Z-10.035
Y-11.469 Z-10.04
Y-11.225 Z-10.044
Y-10.981 Z-10.049
Y-10.859 Z-10.051
Y-10.737 Z-10.054
Y-10.615 Z-10.057
Y-10.493 Z-10.059
Y-10.371 Z-10.062
Y-10.249 Z-10.065
Y-10.127 Z-10.067
Y-10.005 Z-10.07
Y-9.883 Z-10.073
Y-9.761 Z-10.076
Y-9.639 Z-10.079
Y-9.517 Z-10.082
Y-9.395 Z-10.085
Y-9.273 Z-10.088
Y-9.151 Z-10.091
Y-9.029 Z-10.095
Y-8.907 Z-10.098
Y-8.785 Z-10.101
Y-8.663 Z-10.105
Y-8.541 Z-10.108
Y-8.419 Z-10.112
Y-8.297 Z-10.115
Y-8.175 Z-10.119
Y-8.053 Z-10.122
Y-7.931 Z-10.126
Y-7.809 Z-10.129
Y-7.687 Z-10.133
Y-7.565 Z-10.137
Y-7.443 Z-10.141
Y-7.321 Z-10.145
Y-7.199 Z-10.148
Y-7.077 Z-10.152
Y-6.955 Z-10.156
Y-6.833 Z-10.16
Y-6.711 Z-10.164
Y-6.589 Z-10.168
Y-6.467 Z-10.172
Y-6.345 Z-10.177
Y-6.223 Z-10.181
Y-6.101 Z-10.185
Y-5.979 Z-10.189
Y-4.759 Z-10.232
Y-4.637 Z-10.236
Y-4.515 Z-10.24
Y-4.393 Z-10.244
Y-4.271 Z-10.249
Y-4.149 Z-10.253
Y-4.027 Z-10.257
Y-3.905 Z-10.262
Y-3.783 Z-10.266
Y-3.661 Z-10.27
Y-3.539 Z-10.274
Y-3.417 Z-10.279
Y-3.295 Z-10.283
Y-3.173 Z-10.287
Y-3.051 Z-10.291
Y-2.929 Z-10.296
Y-2.807 Z-10.3
Y-2.685 Z-10.304
Y-2.441 Z-10.313
Y-2.074 Z-10.325
Y-1.708 Z-10.338
Y-1.342 Z-10.351
Y-0.976 Z-10.364
Y-0.61 Z-10.377
Y-0.244 Z-10.389
Y0.366 Z-10.411
Y0.976 Z-10.432
Y1.83 Z-10.462
Y3.294 Z-10.513
Y8.54 Z-10.696
Y8.662 Z-10.7
Y8.784 Z-10.705
Y8.906 Z-10.709
Y9.028 Z-10.713
Y9.15 Z-10.717
Y9.272 Z-10.722
Y9.394 Z-10.726
Y9.516 Z-10.73
Y9.638 Z-10.734
Y9.76 Z-10.739
Y9.882 Z-10.743
Y10.004 Z-10.747
Y10.126 Z-10.751
Y10.248 Z-10.756
Y10.37 Z-10.76
Y10.492 Z-10.764
Y10.614 Z-10.768
Y10.736 Z-10.773
Y10.858 Z-10.777
Y10.98 Z-10.781
Y11.102 Z-10.786
Y11.224 Z-10.79
Y11.346 Z-10.794
Y11.468 Z-10.798
Y11.59 Z-10.803
Y11.956 Z-10.815
Y12.078 Z-10.819
Y12.2 Z-10.824
Y12.322 Z-10.828
Y12.444 Z-10.832
Y12.566 Z-10.836
Y12.688 Z-10.84
Y12.81 Z-10.844
Y12.932 Z-10.848
Y13.054 Z-10.852
Y13.176 Z-10.856
Y13.298 Z-10.859
Y13.42 Z-10.863
Y13.542 Z-10.867
Y13.664 Z-10.871
Y13.786 Z-10.874
Y13.908 Z-10.878
Y14.03 Z-10.882
Y14.152 Z-10.885
Y14.274 Z-10.889
Y14.396 Z-10.892
Y14.518 Z-10.895
Y14.64 Z-10.899
Y14.762 Z-10.902
Y14.884 Z-10.905
Y15.006 Z-10.909
X-16.495 Y15.128 Z-10.912
X-16.479 Y15.249 Z-10.915
X-16.454 Y15.369 Z-10.918
X-16.419 Y15.486 Z-10.921
X-16.375 Y15.599 Z-10.924
X-16.322 Y15.709 Z-10.927
X-16.26 Y15.814 Z-10.93
X-16.19 Y15.914 Z-10.933
X-16.111 Y16.007 Z-10.936
X-16.026 Y16.094 Z-10.938
X-15.933 Y16.174 Z-10.941
X-15.835 Y16.246 Z-10.944
X-15.731 Y16.31 Z-10.946
X-15.622 Y16.365 Z-10.949
X-15.509 Y16.411 Z-10.951
X-15.393 Y16.448 Z-10.954
X-15.274 Y16.475 Z-10.956
X-15.153 Y16.492 Z-10.958
X-15.031 Y16.5 Z-10.961
X-14.787 Z-10.965
X-14.543 Z-10.969
X-14.299 Z-10.973
X-14.055 Z-10.976
X-13.811 Z-10.98
X-13.567 Z-10.983
X-13.323 Z-10.986
X-13.079 Z-10.988
X-12.835 Z-10.991
X-12.591 Z-10.993
X-12.347 Z-10.995
X-12.103 Z-10.996
X-11.859 Z-10.998
X-11.615 Z-10.999
X-11.371
X-11.127 Z-11.
X-11.007
X-10.895
X-10.887
X14.993
X15.062 Y16.499
X15.131 Y16.494
X15.2 Y16.487
X15.269 Y16.476
X15.338 Y16.461
X15.407 Y16.444
X15.477 Y16.422
X15.546 Y16.397
X15.6 Y16.375
X15.684 Y16.335
X15.753 Y16.297
X15.822 Y16.255
X15.849 Y16.237
X15.905 Y16.197
X15.96 Y16.152
X16.022 Y16.098
X16.098 Y16.022
X16.152 Y15.96
X16.197 Y15.905
X16.237 Y15.849
X16.255 Y15.822
X16.297 Y15.753
X16.335 Y15.684
X16.375 Y15.6
X16.397 Y15.546
X16.422 Y15.477
X16.444 Y15.407
X16.461 Y15.338
X16.476 Y15.269
X16.487 Y15.2
X16.494 Y15.131
X16.499 Y15.062
X16.5 Y14.993
Y-14.993
X16.499 Y-15.062
X16.494 Y-15.131
X16.487 Y-15.2
X16.476 Y-15.269
X16.461 Y-15.338
X16.444 Y-15.407
X16.422 Y-15.477
X16.397 Y-15.546
X16.375 Y-15.6
X16.335 Y-15.684
X16.297 Y-15.753
X16.255 Y-15.822
X16.237 Y-15.849
X16.197 Y-15.905
X16.152 Y-15.96
X16.098 Y-16.022
X16.022 Y-16.098
X15.96 Y-16.152
X15.905 Y-16.197
X15.849 Y-16.237
X15.822 Y-16.255
X15.753 Y-16.297
X15.684 Y-16.335
X15.6 Y-16.375
X15.546 Y-16.397
X15.477 Y-16.422
X15.407 Y-16.444
X15.338 Y-16.461
X15.269 Y-16.476
X15.2 Y-16.487
X15.131 Y-16.494
X15.062 Y-16.499
X14.993 Y-16.5
X-14.993
X-15.062 Y-16.499
X-15.131 Y-16.494
X-15.2 Y-16.487
X-15.269 Y-16.476
X-15.338 Y-16.461
X-15.407 Y-16.444
X-15.477 Y-16.422
X-15.546 Y-16.397
X-15.6 Y-16.375
X-15.684 Y-16.335
X-15.753 Y-16.297
X-15.822 Y-16.255
X-15.849 Y-16.237
X-15.905 Y-16.197
X-15.96 Y-16.152
X-16.022 Y-16.098
X-16.098 Y-16.022
X-16.152 Y-15.96
X-16.197 Y-15.905
X-16.237 Y-15.849
X-16.255 Y-15.822
X-16.297 Y-15.753
X-16.335 Y-15.684
X-16.375 Y-15.6
X-16.397 Y-15.546
X-16.422 Y-15.477
X-16.444 Y-15.407
X-16.461 Y-15.338
X-16.476 Y-15.269
X-16.487 Y-15.2
X-16.494 Y-15.131
X-16.499 Y-15.062
X-16.5 Y-14.993
Y14.993
X-16.499 Y15.062
X-16.494 Y15.131
X-16.487 Y15.2
X-16.476 Y15.269
X-16.461 Y15.338
X-16.444 Y15.407
X-16.422 Y15.477
X-16.397 Y15.546
X-16.375 Y15.6
X-16.335 Y15.684
X-16.297 Y15.753
X-16.255 Y15.822
X-16.237 Y15.849
X-16.197 Y15.905
X-16.152 Y15.96
X-16.098 Y16.022
X-16.022 Y16.098
X-15.96 Y16.152
X-15.905 Y16.197
X-15.849 Y16.237
X-15.822 Y16.255
X-15.753 Y16.297
X-15.684 Y16.335
X-15.6 Y16.375
X-15.546 Y16.397
X-15.477 Y16.422
X-15.407 Y16.444
X-15.338 Y16.461
X-15.269 Y16.476
X-15.2 Y16.487
X-15.131 Y16.494
X-15.062 Y16.499
X-14.993 Y16.5
X-10.887
G18 G2 X-10.587 Z-10.7 I0. K0.3
G0 Z2.
G17

M9
G53 Z0.
M30
