(3-EDGE2)
(T2  D=3. CR=0. - ZMIN=-12. - FLAT END MILL)
G0 G90 G94 G17
G21
G53 Z0.

(CONTOUR - OUTER EDGE2)
M5
M9
T2
(PART OF A 10 PACK CARBIDE)
M3 S18000
G54
M9
G0 X-16.945 Y-14.613
Z2.
G1 Z-9.6 F500.
X-16.946 Y-14.611 Z-9.633
X-16.948 Y-14.606 Z-9.665
X-16.952 Y-14.598 Z-9.697
G3 X-16.956 Y-14.586 Z-9.728 I-1.309 J-0.564
X-16.963 Y-14.572 Z-9.757 I-1.304 J-0.575
X-16.971 Y-14.555 Z-9.784 I-1.297 J-0.59
X-16.98 Y-14.536 Z-9.809 I-1.289 J-0.607
X-16.991 Y-14.514 Z-9.831 I-1.28 J-0.626
X-17.003 Y-14.491 Z-9.851 I-1.269 J-0.648
X-17.017 Y-14.466 Z-9.867 I-1.257 J-0.671
X-17.032 Y-14.44 Z-9.881 I-1.243 J-0.696
X-17.048 Y-14.413 Z-9.891 I-1.229 J-0.722
X-17.065 Y-14.386 Z-9.897 I-1.212 J-0.749
X-17.083 Y-14.359 Z-9.9 I-1.195 J-0.776
X-19.437 Y-15.965 Z-10.056 I-1.177 J-0.803
X-17.083 Y-14.359 Z-10.213 I1.177 J0.803
X-19.437 Y-15.965 Z-10.369 I-1.177 J-0.803
X-17.083 Y-14.359 Z-10.525 I1.177 J0.803
X-19.437 Y-15.965 Z-10.682 I-1.177 J-0.803
X-17.083 Y-14.359 Z-10.838 I1.177 J0.803
X-19.437 Y-15.965 Z-10.994 I-1.177 J-0.803
X-17.083 Y-14.359 Z-11.151 I1.177 J0.803
X-19.437 Y-15.965 Z-11.307 I-1.177 J-0.803
X-17.083 Y-14.359 Z-11.463 I1.177 J0.803
X-19.437 Y-15.965 Z-11.62 I-1.177 J-0.803
X-17.083 Y-14.359 Z-11.776 I1.177 J0.803
X-19.437 Y-15.965 Z-11.932 I-1.177 J-0.803
X-17.725 Y-16.483 Z-12. I1.177 J0.803
X-17.716 Y-16.479 I-0.535 J1.321
G1 X-16.537 Y-15.992
G3 X-16.375 Y-15.6 I-0.115 J0.277
G1 X-16.397 Y-15.546
X-16.422 Y-15.477
X-16.444 Y-15.407
X-16.461 Y-15.338
X-16.476 Y-15.269
X-16.487 Y-15.2
X-16.494 Y-15.131
X-16.499 Y-15.062
X-16.5 Y-14.993
Y14.993
X-16.499 Y15.062
X-16.494 Y15.131
X-16.487 Y15.2
X-16.476 Y15.269
X-16.461 Y15.338
X-16.444 Y15.407
X-16.422 Y15.477
X-16.397 Y15.546
X-16.375 Y15.6
X-16.335 Y15.684
X-16.297 Y15.753
X-16.255 Y15.822
X-16.237 Y15.849
X-16.197 Y15.905
X-16.152 Y15.96
X-16.098 Y16.022
X-16.022 Y16.098
X-15.96 Y16.152
X-15.905 Y16.197
X-15.849 Y16.237
X-15.822 Y16.255
X-15.753 Y16.297
X-15.684 Y16.335
X-15.6 Y16.375
X-15.546 Y16.397
X-15.477 Y16.422
X-15.407 Y16.444
X-15.338 Y16.461
X-15.269 Y16.476
X-15.2 Y16.487
X-15.131 Y16.494
X-15.062 Y16.499
X-14.993 Y16.5
X14.993
X15.062 Y16.499
X15.131 Y16.494
X15.2 Y16.487
X15.269 Y16.476
X15.338 Y16.461
X15.407 Y16.444
X15.477 Y16.422
X15.546 Y16.397
X15.6 Y16.375
X15.684 Y16.335
X15.753 Y16.297
X15.822 Y16.255
X15.849 Y16.237
X15.905 Y16.197
X15.96 Y16.152
X16.022 Y16.098
X16.098 Y16.022
X16.152 Y15.96
X16.197 Y15.905
X16.237 Y15.849
X16.255 Y15.822
X16.297 Y15.753
X16.335 Y15.684
X16.375 Y15.6
X16.397 Y15.546
X16.422 Y15.477
X16.444 Y15.407
X16.461 Y15.338
X16.476 Y15.269
X16.487 Y15.2
X16.494 Y15.131
X16.499 Y15.062
X16.5 Y14.993
Y-14.993
X16.499 Y-15.062
X16.494 Y-15.131
X16.487 Y-15.2
X16.476 Y-15.269
X16.461 Y-15.338
X16.444 Y-15.407
X16.422 Y-15.477
X16.397 Y-15.546
X16.375 Y-15.6
X16.335 Y-15.684
X16.297 Y-15.753
X16.255 Y-15.822
X16.237 Y-15.849
X16.197 Y-15.905
X16.152 Y-15.96
X16.098 Y-16.022
X16.022 Y-16.098
X15.96 Y-16.152
X15.905 Y-16.197
X15.849 Y-16.237
X15.822 Y-16.255
X15.753 Y-16.297
X15.684 Y-16.335
X15.6 Y-16.375
X15.546 Y-16.397
X15.477 Y-16.422
X15.407 Y-16.444
X15.338 Y-16.461
X15.269 Y-16.476
X15.2 Y-16.487
X15.131 Y-16.494
X15.062 Y-16.499
X14.993 Y-16.5
X-14.993
X-15.062 Y-16.499
X-15.131 Y-16.494
X-15.2 Y-16.487
X-15.269 Y-16.476
X-15.338 Y-16.461
X-15.407 Y-16.444
X-15.477 Y-16.422
X-15.546 Y-16.397
X-15.6 Y-16.375
X-15.684 Y-16.335
X-15.753 Y-16.297
X-15.822 Y-16.255
X-15.849 Y-16.237
X-15.905 Y-16.197
X-15.96 Y-16.152
X-16.022 Y-16.098
X-16.098 Y-16.022
X-16.152 Y-15.96
X-16.197 Y-15.905
X-16.237 Y-15.849
X-16.255 Y-15.822
X-16.297 Y-15.753
X-16.335 Y-15.684
X-16.375 Y-15.6
G0 Z2.

M9
G53 Z0.
M30
