(2-CONTOUR1)
(T2  D=3. CR=0. - ZMIN=-11. - FLAT END MILL)
G0 G90 G94 G17
G21
G53 Z0.

(CONTOUR - OUTER EDGE1)
M5
M9
T2
(PART OF A 10 PACK CARBIDE)
M3 S18000
G54
M9
G0 X-10.699 Y-0.537
Z15.
Z3.992
G1 Z0.4 F250.
X-10.7 Y-0.535 Z0.367
Y-0.53 Z0.335
X-10.702 Y-0.521 Z0.303
G3 X-10.704 Y-0.509 Z0.272 I-1.403 J-0.248
X-10.707 Y-0.493 Z0.243 I-1.401 J-0.26
X-10.711 Y-0.475 Z0.216 I-1.398 J-0.275
X-10.715 Y-0.454 Z0.191 I-1.394 J-0.293
X-10.721 Y-0.431 Z0.169 I-1.39 J-0.315
X-10.727 Y-0.405 Z0.149 I-1.384 J-0.338
X-10.735 Y-0.378 Z0.133 I-1.378 J-0.364
X-10.744 Y-0.349 Z0.119 I-1.37 J-0.391
X-10.753 Y-0.319 Z0.109 I-1.362 J-0.42
X-10.764 Y-0.289 Z0.103 I-1.352 J-0.45
X-10.775 Y-0.258 Z0.1 I-1.342 J-0.48
X-13.436 Y-1.28 Z-0.056 I-1.33 J-0.511
X-10.775 Y-0.258 Z-0.213 I1.33 J0.511
X-13.436 Y-1.28 Z-0.369 I-1.33 J-0.511
X-10.775 Y-0.258 Z-0.525 I1.33 J0.511
X-13.436 Y-1.28 Z-0.682 I-1.33 J-0.511
X-10.775 Y-0.258 Z-0.838 I1.33 J0.511
X-13.436 Y-1.28 Z-0.994 I-1.33 J-0.511
X-10.775 Y-0.258 Z-1.151 I1.33 J0.511
X-13.436 Y-1.28 Z-1.307 I-1.33 J-0.511
X-10.775 Y-0.258 Z-1.463 I1.33 J0.511
X-13.436 Y-1.28 Z-1.62 I-1.33 J-0.511
X-10.775 Y-0.258 Z-1.776 I1.33 J0.511
X-13.436 Y-1.28 Z-1.932 I-1.33 J-0.511
X-11.889 Y-2.177 Z-2. I1.33 J0.511
X-11.879 Y-2.176 I-0.216 J1.409
G1 X-10.62 Y-1.973
G3 X-10.371 Y-1.629 I-0.048 J0.296
G1 X-10.389 Y-1.521
X-10.405 Y-1.383
X-10.426 Y-1.245
X-10.439 Y-1.106
X-10.453 Y-0.968
X-10.467 Y-0.83
X-10.474 Y-0.691
X-10.485 Y-0.553
X-10.49 Y-0.415
X-10.494 Y-0.277
X-10.499 Y-0.138
X-10.497 Y0.
X-10.499 Y0.138
X-10.494 Y0.277
X-10.49 Y0.415
X-10.485 Y0.553
X-10.474 Y0.691
X-10.467 Y0.83
X-10.453 Y0.968
X-10.439 Y1.106
X-10.426 Y1.245
X-10.405 Y1.383
X-10.389 Y1.521
X-10.371 Y1.629
X-10.366 Y1.66
X-10.343 Y1.798
X-10.32 Y1.936
X-10.29 Y2.074
X-10.264 Y2.213
X-10.233 Y2.342
X-10.231 Y2.351
X-10.199 Y2.489
X-10.165 Y2.628
X-10.126 Y2.766
X-10.095 Y2.888
X-10.09 Y2.904
X-10.047 Y3.043
X-10.005 Y3.181
X-9.96 Y3.319
X-9.957 Y3.329
X-9.912 Y3.457
X-9.865 Y3.596
X-9.818 Y3.713
X-9.81 Y3.734
X-9.76 Y3.872
X-9.701 Y4.011
X-9.68 Y4.059
X-9.644 Y4.149
X-9.583 Y4.287
X-9.542 Y4.374
X-9.519 Y4.426
X-9.456 Y4.564
X-9.403 Y4.665
X-9.385 Y4.702
X-9.318 Y4.84
X-9.265 Y4.936
X-9.241 Y4.979
X-9.168 Y5.117
X-9.127 Y5.19
X-9.087 Y5.255
X-9.007 Y5.394
X-8.989 Y5.427
X-8.922 Y5.532
X-8.85 Y5.646
X-8.835 Y5.67
X-8.745 Y5.809
X-8.712 Y5.856
X-8.651 Y5.947
X-8.574 Y6.061
X-8.555 Y6.085
X-8.454 Y6.223
X-8.435 Y6.25
X-8.352 Y6.362
X-8.297 Y6.43
X-8.243 Y6.5
X-8.159 Y6.609
X-8.134 Y6.638
X-8.021 Y6.773
X-8.018 Y6.777
X-7.899 Y6.915
X-7.882 Y6.933
X-7.776 Y7.053
X-7.744 Y7.09
X-7.647 Y7.192
X-7.606 Y7.234
X-7.517 Y7.33
X-7.467 Y7.381
X-7.376 Y7.468
X-7.329 Y7.515
X-7.238 Y7.606
X-7.191 Y7.65
X-7.086 Y7.745
X-7.053 Y7.776
X-6.934 Y7.883
X-6.914 Y7.9
X-6.776 Y8.019
X-6.774 Y8.021
X-6.638 Y8.133
X-6.604 Y8.16
X-6.499 Y8.245
X-6.434 Y8.298
X-6.361 Y8.351
X-6.248 Y8.436
X-6.223 Y8.456
X-6.085 Y8.555
X-6.055 Y8.575
X-5.946 Y8.652
X-5.859 Y8.713
X-5.808 Y8.745
X-5.67 Y8.836
X-5.647 Y8.851
X-5.531 Y8.923
X-5.42 Y8.989
X-5.393 Y9.006
X-5.255 Y9.09
X-5.184 Y9.128
X-5.117 Y9.166
X-4.978 Y9.245
X-4.936 Y9.266
X-4.84 Y9.314
X-4.702 Y9.388
X-4.67 Y9.404
X-4.563 Y9.453
X-4.425 Y9.521
X-4.38 Y9.543
X-4.287 Y9.583
X-4.149 Y9.644
X-4.066 Y9.681
X-4.01 Y9.703
X-3.872 Y9.757
X-3.734 Y9.814
X-3.719 Y9.819
X-3.595 Y9.862
X-3.457 Y9.914
X-3.326 Y9.958
X-3.319 Y9.96
X-3.181 Y10.004
X-3.042 Y10.049
X-2.904 Y10.087
X-2.875 Y10.096
X-2.766 Y10.129
X-2.627 Y10.163
X-2.489 Y10.199
X-2.351 Y10.232
X-2.342 Y10.234
X-2.213 Y10.261
X-2.074 Y10.293
X-1.936 Y10.317
X-1.798 Y10.344
X-1.659 Y10.367
X-1.617 Y10.372
X-1.521 Y10.386
X-1.383 Y10.409
X-1.245 Y10.423
X-1.106 Y10.44
X-0.968 Y10.454
X-0.83 Y10.464
X-0.691 Y10.477
X-0.553 Y10.483
X-0.415 Y10.491
X-0.277 Y10.495
X-0.138 Y10.496
X0. Y10.5
X0.138 Y10.496
X0.277 Y10.495
X0.415 Y10.491
X0.553 Y10.483
X0.691 Y10.477
X0.83 Y10.464
X0.968 Y10.454
X1.106 Y10.44
X1.245 Y10.423
X1.383 Y10.409
X1.521 Y10.386
X1.617 Y10.372
X1.659 Y10.367
X1.798 Y10.344
X1.936 Y10.317
X2.074 Y10.293
X2.213 Y10.261
X2.342 Y10.234
X2.351 Y10.232
X2.489 Y10.199
X2.627 Y10.163
X2.766 Y10.129
X2.875 Y10.096
X2.904 Y10.087
X3.042 Y10.049
X3.181 Y10.004
X3.319 Y9.96
X3.326 Y9.958
X3.457 Y9.914
X3.595 Y9.862
X3.719 Y9.819
X3.734 Y9.814
X3.872 Y9.757
X4.01 Y9.703
X4.066 Y9.681
X4.149 Y9.644
X4.287 Y9.583
X4.38 Y9.543
X4.425 Y9.521
X4.563 Y9.453
X4.67 Y9.404
X4.702 Y9.388
X4.84 Y9.314
X4.936 Y9.266
X4.978 Y9.245
X5.117 Y9.166
X5.184 Y9.128
X5.255 Y9.09
X5.393 Y9.006
X5.42 Y8.989
X5.531 Y8.923
X5.647 Y8.851
X5.67 Y8.836
X5.808 Y8.745
X5.859 Y8.713
X5.946 Y8.652
X6.055 Y8.575
X6.085 Y8.555
X6.223 Y8.456
X6.248 Y8.436
X6.361 Y8.351
X6.434 Y8.298
X6.499 Y8.245
X6.604 Y8.16
X6.638 Y8.133
X6.774 Y8.021
X6.776 Y8.019
X6.914 Y7.9
X6.934 Y7.883
X7.053 Y7.776
X7.086 Y7.745
X7.191 Y7.65
X7.238 Y7.606
X7.329 Y7.515
X7.376 Y7.468
X7.467 Y7.381
X7.517 Y7.33
X7.606 Y7.234
X7.647 Y7.192
X7.744 Y7.09
X7.776 Y7.053
X7.882 Y6.933
X7.899 Y6.915
X8.018 Y6.777
X8.021 Y6.773
X8.134 Y6.638
X8.159 Y6.609
X8.243 Y6.5
X8.297 Y6.43
X8.352 Y6.362
X8.435 Y6.25
X8.454 Y6.223
X8.555 Y6.085
X8.574 Y6.061
X8.651 Y5.947
X8.712 Y5.856
X8.745 Y5.809
X8.835 Y5.67
X8.85 Y5.646
X8.922 Y5.532
X8.989 Y5.427
X9.007 Y5.394
X9.087 Y5.255
X9.127 Y5.19
X9.168 Y5.117
X9.241 Y4.979
X9.265 Y4.936
X9.318 Y4.84
X9.385 Y4.702
X9.403 Y4.665
X9.456 Y4.564
X9.519 Y4.426
X9.542 Y4.374
X9.583 Y4.287
X9.644 Y4.149
X9.68 Y4.059
X9.701 Y4.011
X9.76 Y3.872
X9.81 Y3.734
X9.818 Y3.713
X9.865 Y3.596
X9.912 Y3.457
X9.957 Y3.329
X9.96 Y3.319
X10.005 Y3.181
X10.047 Y3.043
X10.09 Y2.904
X10.095 Y2.888
X10.126 Y2.766
X10.165 Y2.628
X10.199 Y2.489
X10.231 Y2.351
X10.233 Y2.342
X10.264 Y2.213
X10.29 Y2.074
X10.32 Y1.936
X10.343 Y1.798
X10.366 Y1.66
X10.371 Y1.629
X10.389 Y1.521
X10.405 Y1.383
X10.426 Y1.245
X10.439 Y1.106
X10.453 Y0.968
X10.467 Y0.83
X10.474 Y0.691
X10.485 Y0.553
X10.49 Y0.415
X10.494 Y0.277
X10.499 Y0.138
X10.497 Y0.
X10.499 Y-0.138
X10.494 Y-0.277
X10.49 Y-0.415
X10.485 Y-0.553
X10.474 Y-0.691
X10.467 Y-0.83
X10.453 Y-0.968
X10.439 Y-1.106
X10.426 Y-1.245
X10.405 Y-1.383
X10.389 Y-1.521
X10.371 Y-1.629
X10.366 Y-1.66
X10.343 Y-1.798
X10.32 Y-1.936
X10.29 Y-2.074
X10.264 Y-2.213
X10.233 Y-2.342
X10.231 Y-2.351
X10.199 Y-2.489
X10.165 Y-2.628
X10.126 Y-2.766
X10.095 Y-2.888
X10.09 Y-2.904
X10.047 Y-3.043
X10.005 Y-3.181
X9.96 Y-3.319
X9.957 Y-3.329
X9.912 Y-3.457
X9.865 Y-3.596
X9.818 Y-3.713
X9.81 Y-3.734
X9.76 Y-3.872
X9.701 Y-4.011
X9.68 Y-4.059
X9.644 Y-4.149
X9.583 Y-4.287
X9.542 Y-4.374
X9.519 Y-4.426
X9.456 Y-4.564
X9.403 Y-4.665
X9.385 Y-4.702
X9.318 Y-4.84
X9.265 Y-4.936
X9.241 Y-4.979
X9.168 Y-5.117
X9.127 Y-5.19
X9.087 Y-5.255
X9.007 Y-5.394
X8.989 Y-5.427
X8.922 Y-5.532
X8.85 Y-5.646
X8.835 Y-5.67
X8.745 Y-5.809
X8.712 Y-5.856
X8.651 Y-5.947
X8.574 Y-6.061
X8.555 Y-6.085
X8.454 Y-6.223
X8.435 Y-6.25
X8.352 Y-6.362
X8.297 Y-6.43
X8.243 Y-6.5
X8.159 Y-6.609
X8.134 Y-6.638
X8.021 Y-6.773
X8.018 Y-6.777
X7.899 Y-6.915
X7.882 Y-6.933
X7.776 Y-7.053
X7.744 Y-7.09
X7.647 Y-7.192
X7.606 Y-7.234
X7.517 Y-7.33
X7.467 Y-7.381
X7.376 Y-7.468
X7.329 Y-7.515
X7.238 Y-7.606
X7.191 Y-7.65
X7.086 Y-7.745
X7.053 Y-7.776
X6.934 Y-7.883
X6.914 Y-7.9
X6.776 Y-8.019
X6.774 Y-8.021
X6.638 Y-8.133
X6.604 Y-8.16
X6.499 Y-8.245
X6.434 Y-8.298
X6.361 Y-8.351
X6.248 Y-8.436
X6.223 Y-8.456
X6.085 Y-8.555
X6.055 Y-8.575
X5.946 Y-8.652
X5.859 Y-8.713
X5.808 Y-8.745
X5.67 Y-8.836
X5.647 Y-8.851
X5.531 Y-8.923
X5.42 Y-8.989
X5.393 Y-9.006
X5.255 Y-9.09
X5.184 Y-9.128
X5.117 Y-9.166
X4.978 Y-9.245
X4.936 Y-9.266
X4.84 Y-9.314
X4.702 Y-9.388
X4.67 Y-9.404
X4.563 Y-9.453
X4.425 Y-9.521
X4.38 Y-9.543
X4.287 Y-9.583
X4.149 Y-9.644
X4.066 Y-9.681
X4.01 Y-9.703
X3.872 Y-9.757
X3.734 Y-9.814
X3.719 Y-9.819
X3.595 Y-9.862
X3.457 Y-9.914
X3.326 Y-9.958
X3.319 Y-9.96
X3.181 Y-10.004
X3.042 Y-10.049
X2.904 Y-10.087
X2.875 Y-10.096
X2.766 Y-10.129
X2.627 Y-10.163
X2.489 Y-10.199
X2.351 Y-10.232
X2.342 Y-10.234
X2.213 Y-10.261
X2.074 Y-10.293
X1.936 Y-10.317
X1.798 Y-10.344
X1.659 Y-10.367
X1.617 Y-10.372
X1.521 Y-10.386
X1.383 Y-10.409
X1.245 Y-10.423
X1.106 Y-10.44
X0.968 Y-10.454
X0.83 Y-10.464
X0.691 Y-10.477
X0.553 Y-10.483
X0.415 Y-10.491
X0.277 Y-10.495
X0.138 Y-10.496
X0. Y-10.5
X-0.138 Y-10.496
X-0.277 Y-10.495
X-0.415 Y-10.491
X-0.553 Y-10.483
X-0.691 Y-10.477
X-0.83 Y-10.464
X-0.968 Y-10.454
X-1.106 Y-10.44
X-1.245 Y-10.423
X-1.383 Y-10.409
X-1.521 Y-10.386
X-1.617 Y-10.372
X-1.659 Y-10.367
X-1.798 Y-10.344
X-1.936 Y-10.317
X-2.074 Y-10.293
X-2.213 Y-10.261
X-2.342 Y-10.234
X-2.351 Y-10.232
X-2.489 Y-10.199
X-2.627 Y-10.163
X-2.766 Y-10.129
X-2.875 Y-10.096
X-2.904 Y-10.087
X-3.042 Y-10.049
X-3.181 Y-10.004
X-3.319 Y-9.96
X-3.326 Y-9.958
X-3.457 Y-9.914
X-3.595 Y-9.862
X-3.719 Y-9.819
X-3.734 Y-9.814
X-3.872 Y-9.757
X-4.01 Y-9.703
X-4.066 Y-9.681
X-4.149 Y-9.644
X-4.287 Y-9.583
X-4.38 Y-9.543
X-4.425 Y-9.521
X-4.563 Y-9.453
X-4.67 Y-9.404
X-4.702 Y-9.388
X-4.84 Y-9.314
X-4.936 Y-9.266
X-4.978 Y-9.245
X-5.117 Y-9.166
X-5.184 Y-9.128
X-5.255 Y-9.09
X-5.393 Y-9.006
X-5.42 Y-8.989
X-5.531 Y-8.923
X-5.647 Y-8.851
X-5.67 Y-8.836
X-5.808 Y-8.745
X-5.859 Y-8.713
X-5.946 Y-8.652
X-6.055 Y-8.575
X-6.085 Y-8.555
X-6.223 Y-8.456
X-6.248 Y-8.436
X-6.361 Y-8.351
X-6.434 Y-8.298
X-6.499 Y-8.245
X-6.604 Y-8.16
X-6.638 Y-8.133
X-6.774 Y-8.021
X-6.776 Y-8.019
X-6.914 Y-7.9
X-6.934 Y-7.883
X-7.053 Y-7.776
X-7.086 Y-7.745
X-7.191 Y-7.65
X-7.238 Y-7.606
X-7.329 Y-7.515
X-7.376 Y-7.468
X-7.467 Y-7.381
X-7.517 Y-7.33
X-7.606 Y-7.234
X-7.647 Y-7.192
X-7.744 Y-7.09
X-7.776 Y-7.053
X-7.882 Y-6.933
X-7.899 Y-6.915
X-8.018 Y-6.777
X-8.021 Y-6.773
X-8.134 Y-6.638
X-8.159 Y-6.609
X-8.243 Y-6.5
X-8.297 Y-6.43
X-8.352 Y-6.362
X-8.435 Y-6.25
X-8.454 Y-6.223
X-8.555 Y-6.085
X-8.574 Y-6.061
X-8.651 Y-5.947
X-8.712 Y-5.856
X-8.745 Y-5.809
X-8.835 Y-5.67
X-8.85 Y-5.646
X-8.922 Y-5.532
X-8.989 Y-5.427
X-9.007 Y-5.394
X-9.087 Y-5.255
X-9.127 Y-5.19
X-9.168 Y-5.117
X-9.241 Y-4.979
X-9.265 Y-4.936
X-9.318 Y-4.84
X-9.385 Y-4.702
X-9.403 Y-4.665
X-9.456 Y-4.564
X-9.519 Y-4.426
X-9.542 Y-4.374
X-9.583 Y-4.287
X-9.644 Y-4.149
X-9.68 Y-4.059
X-9.701 Y-4.011
X-9.76 Y-3.872
X-9.81 Y-3.734
X-9.818 Y-3.713
X-9.865 Y-3.596
X-9.912 Y-3.457
X-9.957 Y-3.329
X-9.96 Y-3.319
X-10.005 Y-3.181
X-10.047 Y-3.043
X-10.09 Y-2.904
X-10.095 Y-2.888
X-10.126 Y-2.766
X-10.165 Y-2.628
X-10.199 Y-2.489
X-10.231 Y-2.351
X-10.233 Y-2.342
X-10.264 Y-2.213
X-10.29 Y-2.074
X-10.32 Y-1.936
X-10.343 Y-1.798
X-10.366 Y-1.66
X-10.371 Y-1.629
G3 X-10.43 Y-1.499 I-0.295 J-0.054
G1 X-10.812 Y-1.009
G3 X-12.943 Y-0.878 I-1.123 J-0.877
X-12.951 Y-0.886 I1.008 J-1.008 F83.
X-10.921 Y-2.886 Z-2.156 I1.015 J-1.
X-12.951 Y-0.886 Z-2.313 I-1.015 J1.
X-10.921 Y-2.886 Z-2.469 I1.015 J-1.
X-12.951 Y-0.886 Z-2.625 I-1.015 J1.
X-10.921 Y-2.886 Z-2.782 I1.015 J-1.
X-12.951 Y-0.886 Z-2.938 I-1.015 J1.
X-10.921 Y-2.886 Z-3.094 I1.015 J-1.
X-12.951 Y-0.886 Z-3.25 I-1.015 J1.
X-10.921 Y-2.886 Z-3.407 I1.015 J-1.
X-12.951 Y-0.886 Z-3.563 I-1.015 J1.
X-10.921 Y-2.886 Z-3.719 I1.015 J-1.
X-12.951 Y-0.886 Z-3.875 I-1.015 J1.
X-11.719 Y-3.294 Z-4. I1.015 J-1.
X-11.709 Y-3.293 I-0.216 J1.409
G1 X-11.556 Y-3.268 F250.
G3 X-10.371 Y-1.629 I-0.227 J1.412
G1 X-10.389 Y-1.521
X-10.405 Y-1.383
X-10.426 Y-1.245
X-10.439 Y-1.106
X-10.453 Y-0.968
X-10.467 Y-0.83
X-10.474 Y-0.691
X-10.485 Y-0.553
X-10.49 Y-0.415
X-10.494 Y-0.277
X-10.499 Y-0.138
X-10.497 Y0.
X-10.499 Y0.138
X-10.494 Y0.277
X-10.49 Y0.415
X-10.485 Y0.553
X-10.474 Y0.691
X-10.467 Y0.83
X-10.453 Y0.968
X-10.439 Y1.106
X-10.426 Y1.245
X-10.405 Y1.383
X-10.389 Y1.521
X-10.371 Y1.629
X-10.366 Y1.66
X-10.343 Y1.798
X-10.32 Y1.936
X-10.29 Y2.074
X-10.264 Y2.213
X-10.233 Y2.342
X-10.231 Y2.351
X-10.199 Y2.489
X-10.165 Y2.628
X-10.126 Y2.766
X-10.095 Y2.888
X-10.09 Y2.904
X-10.047 Y3.043
X-10.005 Y3.181
X-9.96 Y3.319
X-9.957 Y3.329
X-9.912 Y3.457
X-9.865 Y3.596
X-9.818 Y3.713
X-9.81 Y3.734
X-9.76 Y3.872
X-9.701 Y4.011
X-9.68 Y4.059
X-9.644 Y4.149
X-9.583 Y4.287
X-9.542 Y4.374
X-9.519 Y4.426
X-9.456 Y4.564
X-9.403 Y4.665
X-9.385 Y4.702
X-9.318 Y4.84
X-9.265 Y4.936
X-9.241 Y4.979
X-9.168 Y5.117
X-9.127 Y5.19
X-9.087 Y5.255
X-9.007 Y5.394
X-8.989 Y5.427
X-8.922 Y5.532
X-8.85 Y5.646
X-8.835 Y5.67
X-8.745 Y5.809
X-8.712 Y5.856
X-8.651 Y5.947
X-8.574 Y6.061
X-8.555 Y6.085
X-8.454 Y6.223
X-8.435 Y6.25
X-8.352 Y6.362
X-8.297 Y6.43
X-8.243 Y6.5
X-8.159 Y6.609
X-8.134 Y6.638
X-8.021 Y6.773
X-8.018 Y6.777
X-7.899 Y6.915
X-7.882 Y6.933
X-7.776 Y7.053
X-7.744 Y7.09
X-7.647 Y7.192
X-7.606 Y7.234
X-7.517 Y7.33
X-7.467 Y7.381
X-7.376 Y7.468
X-7.329 Y7.515
X-7.238 Y7.606
X-7.191 Y7.65
X-7.086 Y7.745
X-7.053 Y7.776
X-6.934 Y7.883
X-6.914 Y7.9
X-6.776 Y8.019
X-6.774 Y8.021
X-6.638 Y8.133
X-6.604 Y8.16
X-6.499 Y8.245
X-6.434 Y8.298
X-6.361 Y8.351
X-6.248 Y8.436
X-6.223 Y8.456
X-6.085 Y8.555
X-6.055 Y8.575
X-5.946 Y8.652
X-5.859 Y8.713
X-5.808 Y8.745
X-5.67 Y8.836
X-5.647 Y8.851
X-5.531 Y8.923
X-5.42 Y8.989
X-5.393 Y9.006
X-5.255 Y9.09
X-5.184 Y9.128
X-5.117 Y9.166
X-4.978 Y9.245
X-4.936 Y9.266
X-4.84 Y9.314
X-4.702 Y9.388
X-4.67 Y9.404
X-4.563 Y9.453
X-4.425 Y9.521
X-4.38 Y9.543
X-4.287 Y9.583
X-4.149 Y9.644
X-4.066 Y9.681
X-4.01 Y9.703
X-3.872 Y9.757
X-3.734 Y9.814
X-3.719 Y9.819
X-3.595 Y9.862
X-3.457 Y9.914
X-3.326 Y9.958
X-3.319 Y9.96
X-3.181 Y10.004
X-3.042 Y10.049
X-2.904 Y10.087
X-2.875 Y10.096
X-2.766 Y10.129
X-2.627 Y10.163
X-2.489 Y10.199
X-2.351 Y10.232
X-2.342 Y10.234
X-2.213 Y10.261
X-2.074 Y10.293
X-1.936 Y10.317
X-1.798 Y10.344
X-1.659 Y10.367
X-1.617 Y10.372
X-1.521 Y10.386
X-1.383 Y10.409
X-1.245 Y10.423
X-1.106 Y10.44
X-0.968 Y10.454
X-0.83 Y10.464
X-0.691 Y10.477
X-0.553 Y10.483
X-0.415 Y10.491
X-0.277 Y10.495
X-0.138 Y10.496
X0. Y10.5
X0.138 Y10.496
X0.277 Y10.495
X0.415 Y10.491
X0.553 Y10.483
X0.691 Y10.477
X0.83 Y10.464
X0.968 Y10.454
X1.106 Y10.44
X1.245 Y10.423
X1.383 Y10.409
X1.521 Y10.386
X1.617 Y10.372
X1.659 Y10.367
X1.798 Y10.344
X1.936 Y10.317
X2.074 Y10.293
X2.213 Y10.261
X2.342 Y10.234
X2.351 Y10.232
X2.489 Y10.199
X2.627 Y10.163
X2.766 Y10.129
X2.875 Y10.096
X2.904 Y10.087
X3.042 Y10.049
X3.181 Y10.004
X3.319 Y9.96
X3.326 Y9.958
X3.457 Y9.914
X3.595 Y9.862
X3.719 Y9.819
X3.734 Y9.814
X3.872 Y9.757
X4.01 Y9.703
X4.066 Y9.681
X4.149 Y9.644
X4.287 Y9.583
X4.38 Y9.543
X4.425 Y9.521
X4.563 Y9.453
X4.67 Y9.404
X4.702 Y9.388
X4.84 Y9.314
X4.936 Y9.266
X4.978 Y9.245
X5.117 Y9.166
X5.184 Y9.128
X5.255 Y9.09
X5.393 Y9.006
X5.42 Y8.989
X5.531 Y8.923
X5.647 Y8.851
X5.67 Y8.836
X5.808 Y8.745
X5.859 Y8.713
X5.946 Y8.652
X6.055 Y8.575
X6.085 Y8.555
X6.223 Y8.456
X6.248 Y8.436
X6.361 Y8.351
X6.434 Y8.298
X6.499 Y8.245
X6.604 Y8.16
X6.638 Y8.133
X6.774 Y8.021
X6.776 Y8.019
X6.914 Y7.9
X6.934 Y7.883
X7.053 Y7.776
X7.086 Y7.745
X7.191 Y7.65
X7.238 Y7.606
X7.329 Y7.515
X7.376 Y7.468
X7.467 Y7.381
X7.517 Y7.33
X7.606 Y7.234
X7.647 Y7.192
X7.744 Y7.09
X7.776 Y7.053
X7.882 Y6.933
X7.899 Y6.915
X8.018 Y6.777
X8.021 Y6.773
X8.134 Y6.638
X8.159 Y6.609
X8.243 Y6.5
X8.297 Y6.43
X8.352 Y6.362
X8.435 Y6.25
X8.454 Y6.223
X8.555 Y6.085
X8.574 Y6.061
X8.651 Y5.947
X8.712 Y5.856
X8.745 Y5.809
X8.835 Y5.67
X8.85 Y5.646
X8.922 Y5.532
X8.989 Y5.427
X9.007 Y5.394
X9.087 Y5.255
X9.127 Y5.19
X9.168 Y5.117
X9.241 Y4.979
X9.265 Y4.936
X9.318 Y4.84
X9.385 Y4.702
X9.403 Y4.665
X9.456 Y4.564
X9.519 Y4.426
X9.542 Y4.374
X9.583 Y4.287
X9.644 Y4.149
X9.68 Y4.059
X9.701 Y4.011
X9.76 Y3.872
X9.81 Y3.734
X9.818 Y3.713
X9.865 Y3.596
X9.912 Y3.457
X9.957 Y3.329
X9.96 Y3.319
X10.005 Y3.181
X10.047 Y3.043
X10.09 Y2.904
X10.095 Y2.888
X10.126 Y2.766
X10.165 Y2.628
X10.199 Y2.489
X10.231 Y2.351
X10.233 Y2.342
X10.264 Y2.213
X10.29 Y2.074
X10.32 Y1.936
X10.343 Y1.798
X10.366 Y1.66
X10.371 Y1.629
X10.389 Y1.521
X10.405 Y1.383
X10.426 Y1.245
X10.439 Y1.106
X10.453 Y0.968
X10.467 Y0.83
X10.474 Y0.691
X10.485 Y0.553
X10.49 Y0.415
X10.494 Y0.277
X10.499 Y0.138
X10.497 Y0.
X10.499 Y-0.138
X10.494 Y-0.277
X10.49 Y-0.415
X10.485 Y-0.553
X10.474 Y-0.691
X10.467 Y-0.83
X10.453 Y-0.968
X10.439 Y-1.106
X10.426 Y-1.245
X10.405 Y-1.383
X10.389 Y-1.521
X10.371 Y-1.629
X10.366 Y-1.66
X10.343 Y-1.798
X10.32 Y-1.936
X10.29 Y-2.074
X10.264 Y-2.213
X10.233 Y-2.342
X10.231 Y-2.351
X10.199 Y-2.489
X10.165 Y-2.628
X10.126 Y-2.766
X10.095 Y-2.888
X10.09 Y-2.904
X10.047 Y-3.043
X10.005 Y-3.181
X9.96 Y-3.319
X9.957 Y-3.329
X9.912 Y-3.457
X9.865 Y-3.596
X9.818 Y-3.713
X9.81 Y-3.734
X9.76 Y-3.872
X9.701 Y-4.011
X9.68 Y-4.059
X9.644 Y-4.149
X9.583 Y-4.287
X9.542 Y-4.374
X9.519 Y-4.426
X9.456 Y-4.564
X9.403 Y-4.665
X9.385 Y-4.702
X9.318 Y-4.84
X9.265 Y-4.936
X9.241 Y-4.979
X9.168 Y-5.117
X9.127 Y-5.19
X9.087 Y-5.255
X9.007 Y-5.394
X8.989 Y-5.427
X8.922 Y-5.532
X8.85 Y-5.646
X8.835 Y-5.67
X8.745 Y-5.809
X8.712 Y-5.856
X8.651 Y-5.947
X8.574 Y-6.061
X8.555 Y-6.085
X8.454 Y-6.223
X8.435 Y-6.25
X8.352 Y-6.362
X8.297 Y-6.43
X8.243 Y-6.5
X8.159 Y-6.609
X8.134 Y-6.638
X8.021 Y-6.773
X8.018 Y-6.777
X7.899 Y-6.915
X7.882 Y-6.933
X7.776 Y-7.053
X7.744 Y-7.09
X7.647 Y-7.192
X7.606 Y-7.234
X7.517 Y-7.33
X7.467 Y-7.381
X7.376 Y-7.468
X7.329 Y-7.515
X7.238 Y-7.606
X7.191 Y-7.65
X7.086 Y-7.745
X7.053 Y-7.776
X6.934 Y-7.883
X6.914 Y-7.9
X6.776 Y-8.019
X6.774 Y-8.021
X6.638 Y-8.133
X6.604 Y-8.16
X6.499 Y-8.245
X6.434 Y-8.298
X6.361 Y-8.351
X6.248 Y-8.436
X6.223 Y-8.456
X6.085 Y-8.555
X6.055 Y-8.575
X5.946 Y-8.652
X5.859 Y-8.713
X5.808 Y-8.745
X5.67 Y-8.836
X5.647 Y-8.851
X5.531 Y-8.923
X5.42 Y-8.989
X5.393 Y-9.006
X5.255 Y-9.09
X5.184 Y-9.128
X5.117 Y-9.166
X4.978 Y-9.245
X4.936 Y-9.266
X4.84 Y-9.314
X4.702 Y-9.388
X4.67 Y-9.404
X4.563 Y-9.453
X4.425 Y-9.521
X4.38 Y-9.543
X4.287 Y-9.583
X4.149 Y-9.644
X4.066 Y-9.681
X4.01 Y-9.703
X3.872 Y-9.757
X3.734 Y-9.814
X3.719 Y-9.819
X3.595 Y-9.862
X3.457 Y-9.914
X3.326 Y-9.958
X3.319 Y-9.96
X3.181 Y-10.004
X3.042 Y-10.049
X2.904 Y-10.087
X2.875 Y-10.096
X2.766 Y-10.129
X2.627 Y-10.163
X2.489 Y-10.199
X2.351 Y-10.232
X2.342 Y-10.234
X2.213 Y-10.261
X2.074 Y-10.293
X1.936 Y-10.317
X1.798 Y-10.344
X1.659 Y-10.367
X1.617 Y-10.372
X1.521 Y-10.386
X1.383 Y-10.409
X1.245 Y-10.423
X1.106 Y-10.44
X0.968 Y-10.454
X0.83 Y-10.464
X0.691 Y-10.477
X0.553 Y-10.483
X0.415 Y-10.491
X0.277 Y-10.495
X0.138 Y-10.496
X0. Y-10.5
X-0.138 Y-10.496
X-0.277 Y-10.495
X-0.415 Y-10.491
X-0.553 Y-10.483
X-0.691 Y-10.477
X-0.83 Y-10.464
X-0.968 Y-10.454
X-1.106 Y-10.44
X-1.245 Y-10.423
X-1.383 Y-10.409
X-1.521 Y-10.386
X-1.617 Y-10.372
X-1.659 Y-10.367
X-1.798 Y-10.344
X-1.936 Y-10.317
X-2.074 Y-10.293
X-2.213 Y-10.261
X-2.342 Y-10.234
X-2.351 Y-10.232
X-2.489 Y-10.199
X-2.627 Y-10.163
X-2.766 Y-10.129
X-2.875 Y-10.096
X-2.904 Y-10.087
X-3.042 Y-10.049
X-3.181 Y-10.004
X-3.319 Y-9.96
X-3.326 Y-9.958
X-3.457 Y-9.914
X-3.595 Y-9.862
X-3.719 Y-9.819
X-3.734 Y-9.814
X-3.872 Y-9.757
X-4.01 Y-9.703
X-4.066 Y-9.681
X-4.149 Y-9.644
X-4.287 Y-9.583
X-4.38 Y-9.543
X-4.425 Y-9.521
X-4.563 Y-9.453
X-4.67 Y-9.404
X-4.702 Y-9.388
X-4.84 Y-9.314
X-4.936 Y-9.266
X-4.978 Y-9.245
X-5.117 Y-9.166
X-5.184 Y-9.128
X-5.255 Y-9.09
X-5.393 Y-9.006
X-5.42 Y-8.989
X-5.531 Y-8.923
X-5.647 Y-8.851
X-5.67 Y-8.836
X-5.808 Y-8.745
X-5.859 Y-8.713
X-5.946 Y-8.652
X-6.055 Y-8.575
X-6.085 Y-8.555
X-6.223 Y-8.456
X-6.248 Y-8.436
X-6.361 Y-8.351
X-6.434 Y-8.298
X-6.499 Y-8.245
X-6.604 Y-8.16
X-6.638 Y-8.133
X-6.774 Y-8.021
X-6.776 Y-8.019
X-6.914 Y-7.9
X-6.934 Y-7.883
X-7.053 Y-7.776
X-7.086 Y-7.745
X-7.191 Y-7.65
X-7.238 Y-7.606
X-7.329 Y-7.515
X-7.376 Y-7.468
X-7.467 Y-7.381
X-7.517 Y-7.33
X-7.606 Y-7.234
X-7.647 Y-7.192
X-7.744 Y-7.09
X-7.776 Y-7.053
X-7.882 Y-6.933
X-7.899 Y-6.915
X-8.018 Y-6.777
X-8.021 Y-6.773
X-8.134 Y-6.638
X-8.159 Y-6.609
X-8.243 Y-6.5
X-8.297 Y-6.43
X-8.352 Y-6.362
X-8.435 Y-6.25
X-8.454 Y-6.223
X-8.555 Y-6.085
X-8.574 Y-6.061
X-8.651 Y-5.947
X-8.712 Y-5.856
X-8.745 Y-5.809
X-8.835 Y-5.67
X-8.85 Y-5.646
X-8.922 Y-5.532
X-8.989 Y-5.427
X-9.007 Y-5.394
X-9.087 Y-5.255
X-9.127 Y-5.19
X-9.168 Y-5.117
X-9.241 Y-4.979
X-9.265 Y-4.936
X-9.318 Y-4.84
X-9.385 Y-4.702
X-9.403 Y-4.665
X-9.456 Y-4.564
X-9.519 Y-4.426
X-9.542 Y-4.374
X-9.583 Y-4.287
X-9.644 Y-4.149
X-9.68 Y-4.059
X-9.701 Y-4.011
X-9.76 Y-3.872
X-9.81 Y-3.734
X-9.818 Y-3.713
X-9.865 Y-3.596
X-9.912 Y-3.457
X-9.957 Y-3.329
X-9.96 Y-3.319
X-10.005 Y-3.181
X-10.047 Y-3.043
X-10.09 Y-2.904
X-10.095 Y-2.888
X-10.126 Y-2.766
X-10.165 Y-2.628
X-10.199 Y-2.489
X-10.231 Y-2.351
X-10.233 Y-2.342
X-10.264 Y-2.213
X-10.29 Y-2.074
X-10.32 Y-1.936
X-10.343 Y-1.798
X-10.366 Y-1.66
X-10.371 Y-1.629
G3 X-10.43 Y-1.499 I-0.295 J-0.054
G1 X-10.812 Y-1.009
G3 X-12.943 Y-0.878 I-1.123 J-0.877
X-12.951 Y-0.886 I1.008 J-1.008 F83.
X-10.921 Y-2.886 Z-4.156 I1.015 J-1.
X-12.951 Y-0.886 Z-4.313 I-1.015 J1.
X-10.921 Y-2.886 Z-4.469 I1.015 J-1.
X-12.951 Y-0.886 Z-4.625 I-1.015 J1.
X-10.921 Y-2.886 Z-4.782 I1.015 J-1.
X-12.951 Y-0.886 Z-4.938 I-1.015 J1.
X-10.921 Y-2.886 Z-5.094 I1.015 J-1.
X-12.951 Y-0.886 Z-5.25 I-1.015 J1.
X-10.921 Y-2.886 Z-5.407 I1.015 J-1.
X-12.951 Y-0.886 Z-5.563 I-1.015 J1.
X-10.921 Y-2.886 Z-5.719 I1.015 J-1.
X-12.951 Y-0.886 Z-5.875 I-1.015 J1.
X-11.719 Y-3.294 Z-6. I1.015 J-1.
X-11.709 Y-3.293 I-0.216 J1.409
G1 X-11.556 Y-3.268 F250.
G3 X-10.371 Y-1.629 I-0.227 J1.412
G1 X-10.389 Y-1.521
X-10.405 Y-1.383
X-10.426 Y-1.245
X-10.439 Y-1.106
X-10.453 Y-0.968
X-10.467 Y-0.83
X-10.474 Y-0.691
X-10.485 Y-0.553
X-10.49 Y-0.415
X-10.494 Y-0.277
X-10.499 Y-0.138
X-10.497 Y0.
X-10.499 Y0.138
X-10.494 Y0.277
X-10.49 Y0.415
X-10.485 Y0.553
X-10.474 Y0.691
X-10.467 Y0.83
X-10.453 Y0.968
X-10.439 Y1.106
X-10.426 Y1.245
X-10.405 Y1.383
X-10.389 Y1.521
X-10.371 Y1.629
X-10.366 Y1.66
X-10.343 Y1.798
X-10.32 Y1.936
X-10.29 Y2.074
X-10.264 Y2.213
X-10.233 Y2.342
X-10.231 Y2.351
X-10.199 Y2.489
X-10.165 Y2.628
X-10.126 Y2.766
X-10.095 Y2.888
X-10.09 Y2.904
X-10.047 Y3.043
X-10.005 Y3.181
X-9.96 Y3.319
X-9.957 Y3.329
X-9.912 Y3.457
X-9.865 Y3.596
X-9.818 Y3.713
X-9.81 Y3.734
X-9.76 Y3.872
X-9.701 Y4.011
X-9.68 Y4.059
X-9.644 Y4.149
X-9.583 Y4.287
X-9.542 Y4.374
X-9.519 Y4.426
X-9.456 Y4.564
X-9.403 Y4.665
X-9.385 Y4.702
X-9.318 Y4.84
X-9.265 Y4.936
X-9.241 Y4.979
X-9.168 Y5.117
X-9.127 Y5.19
X-9.087 Y5.255
X-9.007 Y5.394
X-8.989 Y5.427
X-8.922 Y5.532
X-8.85 Y5.646
X-8.835 Y5.67
X-8.745 Y5.809
X-8.712 Y5.856
X-8.651 Y5.947
X-8.574 Y6.061
X-8.555 Y6.085
X-8.454 Y6.223
X-8.435 Y6.25
X-8.352 Y6.362
X-8.297 Y6.43
X-8.243 Y6.5
X-8.159 Y6.609
X-8.134 Y6.638
X-8.021 Y6.773
X-8.018 Y6.777
X-7.899 Y6.915
X-7.882 Y6.933
X-7.776 Y7.053
X-7.744 Y7.09
X-7.647 Y7.192
X-7.606 Y7.234
X-7.517 Y7.33
X-7.467 Y7.381
X-7.376 Y7.468
X-7.329 Y7.515
X-7.238 Y7.606
X-7.191 Y7.65
X-7.086 Y7.745
X-7.053 Y7.776
X-6.934 Y7.883
X-6.914 Y7.9
X-6.776 Y8.019
X-6.774 Y8.021
X-6.638 Y8.133
X-6.604 Y8.16
X-6.499 Y8.245
X-6.434 Y8.298
X-6.361 Y8.351
X-6.248 Y8.436
X-6.223 Y8.456
X-6.085 Y8.555
X-6.055 Y8.575
X-5.946 Y8.652
X-5.859 Y8.713
X-5.808 Y8.745
X-5.67 Y8.836
X-5.647 Y8.851
X-5.531 Y8.923
X-5.42 Y8.989
X-5.393 Y9.006
X-5.255 Y9.09
X-5.184 Y9.128
X-5.117 Y9.166
X-4.978 Y9.245
X-4.936 Y9.266
X-4.84 Y9.314
X-4.702 Y9.388
X-4.67 Y9.404
X-4.563 Y9.453
X-4.425 Y9.521
X-4.38 Y9.543
X-4.287 Y9.583
X-4.149 Y9.644
X-4.066 Y9.681
X-4.01 Y9.703
X-3.872 Y9.757
X-3.734 Y9.814
X-3.719 Y9.819
X-3.595 Y9.862
X-3.457 Y9.914
X-3.326 Y9.958
X-3.319 Y9.96
X-3.181 Y10.004
X-3.042 Y10.049
X-2.904 Y10.087
X-2.875 Y10.096
X-2.766 Y10.129
X-2.627 Y10.163
X-2.489 Y10.199
X-2.351 Y10.232
X-2.342 Y10.234
X-2.213 Y10.261
X-2.074 Y10.293
X-1.936 Y10.317
X-1.798 Y10.344
X-1.659 Y10.367
X-1.617 Y10.372
X-1.521 Y10.386
X-1.383 Y10.409
X-1.245 Y10.423
X-1.106 Y10.44
X-0.968 Y10.454
X-0.83 Y10.464
X-0.691 Y10.477
X-0.553 Y10.483
X-0.415 Y10.491
X-0.277 Y10.495
X-0.138 Y10.496
X0. Y10.5
X0.138 Y10.496
X0.277 Y10.495
X0.415 Y10.491
X0.553 Y10.483
X0.691 Y10.477
X0.83 Y10.464
X0.968 Y10.454
X1.106 Y10.44
X1.245 Y10.423
X1.383 Y10.409
X1.521 Y10.386
X1.617 Y10.372
X1.659 Y10.367
X1.798 Y10.344
X1.936 Y10.317
X2.074 Y10.293
X2.213 Y10.261
X2.342 Y10.234
X2.351 Y10.232
X2.489 Y10.199
X2.627 Y10.163
X2.766 Y10.129
X2.875 Y10.096
X2.904 Y10.087
X3.042 Y10.049
X3.181 Y10.004
X3.319 Y9.96
X3.326 Y9.958
X3.457 Y9.914
X3.595 Y9.862
X3.719 Y9.819
X3.734 Y9.814
X3.872 Y9.757
X4.01 Y9.703
X4.066 Y9.681
X4.149 Y9.644
X4.287 Y9.583
X4.38 Y9.543
X4.425 Y9.521
X4.563 Y9.453
X4.67 Y9.404
X4.702 Y9.388
X4.84 Y9.314
X4.936 Y9.266
X4.978 Y9.245
X5.117 Y9.166
X5.184 Y9.128
X5.255 Y9.09
X5.393 Y9.006
X5.42 Y8.989
X5.531 Y8.923
X5.647 Y8.851
X5.67 Y8.836
X5.808 Y8.745
X5.859 Y8.713
X5.946 Y8.652
X6.055 Y8.575
X6.085 Y8.555
X6.223 Y8.456
X6.248 Y8.436
X6.361 Y8.351
X6.434 Y8.298
X6.499 Y8.245
X6.604 Y8.16
X6.638 Y8.133
X6.774 Y8.021
X6.776 Y8.019
X6.914 Y7.9
X6.934 Y7.883
X7.053 Y7.776
X7.086 Y7.745
X7.191 Y7.65
X7.238 Y7.606
X7.329 Y7.515
X7.376 Y7.468
X7.467 Y7.381
X7.517 Y7.33
X7.606 Y7.234
X7.647 Y7.192
X7.744 Y7.09
X7.776 Y7.053
X7.882 Y6.933
X7.899 Y6.915
X8.018 Y6.777
X8.021 Y6.773
X8.134 Y6.638
X8.159 Y6.609
X8.243 Y6.5
X8.297 Y6.43
X8.352 Y6.362
X8.435 Y6.25
X8.454 Y6.223
X8.555 Y6.085
X8.574 Y6.061
X8.651 Y5.947
X8.712 Y5.856
X8.745 Y5.809
X8.835 Y5.67
X8.85 Y5.646
X8.922 Y5.532
X8.989 Y5.427
X9.007 Y5.394
X9.087 Y5.255
X9.127 Y5.19
X9.168 Y5.117
X9.241 Y4.979
X9.265 Y4.936
X9.318 Y4.84
X9.385 Y4.702
X9.403 Y4.665
X9.456 Y4.564
X9.519 Y4.426
X9.542 Y4.374
X9.583 Y4.287
X9.644 Y4.149
X9.68 Y4.059
X9.701 Y4.011
X9.76 Y3.872
X9.81 Y3.734
X9.818 Y3.713
X9.865 Y3.596
X9.912 Y3.457
X9.957 Y3.329
X9.96 Y3.319
X10.005 Y3.181
X10.047 Y3.043
X10.09 Y2.904
X10.095 Y2.888
X10.126 Y2.766
X10.165 Y2.628
X10.199 Y2.489
X10.231 Y2.351
X10.233 Y2.342
X10.264 Y2.213
X10.29 Y2.074
X10.32 Y1.936
X10.343 Y1.798
X10.366 Y1.66
X10.371 Y1.629
X10.389 Y1.521
X10.405 Y1.383
X10.426 Y1.245
X10.439 Y1.106
X10.453 Y0.968
X10.467 Y0.83
X10.474 Y0.691
X10.485 Y0.553
X10.49 Y0.415
X10.494 Y0.277
X10.499 Y0.138
X10.497 Y0.
X10.499 Y-0.138
X10.494 Y-0.277
X10.49 Y-0.415
X10.485 Y-0.553
X10.474 Y-0.691
X10.467 Y-0.83
X10.453 Y-0.968
X10.439 Y-1.106
X10.426 Y-1.245
X10.405 Y-1.383
X10.389 Y-1.521
X10.371 Y-1.629
X10.366 Y-1.66
X10.343 Y-1.798
X10.32 Y-1.936
X10.29 Y-2.074
X10.264 Y-2.213
X10.233 Y-2.342
X10.231 Y-2.351
X10.199 Y-2.489
X10.165 Y-2.628
X10.126 Y-2.766
X10.095 Y-2.888
X10.09 Y-2.904
X10.047 Y-3.043
X10.005 Y-3.181
X9.96 Y-3.319
X9.957 Y-3.329
X9.912 Y-3.457
X9.865 Y-3.596
X9.818 Y-3.713
X9.81 Y-3.734
X9.76 Y-3.872
X9.701 Y-4.011
X9.68 Y-4.059
X9.644 Y-4.149
X9.583 Y-4.287
X9.542 Y-4.374
X9.519 Y-4.426
X9.456 Y-4.564
X9.403 Y-4.665
X9.385 Y-4.702
X9.318 Y-4.84
X9.265 Y-4.936
X9.241 Y-4.979
X9.168 Y-5.117
X9.127 Y-5.19
X9.087 Y-5.255
X9.007 Y-5.394
X8.989 Y-5.427
X8.922 Y-5.532
X8.85 Y-5.646
X8.835 Y-5.67
X8.745 Y-5.809
X8.712 Y-5.856
X8.651 Y-5.947
X8.574 Y-6.061
X8.555 Y-6.085
X8.454 Y-6.223
X8.435 Y-6.25
X8.352 Y-6.362
X8.297 Y-6.43
X8.243 Y-6.5
X8.159 Y-6.609
X8.134 Y-6.638
X8.021 Y-6.773
X8.018 Y-6.777
X7.899 Y-6.915
X7.882 Y-6.933
X7.776 Y-7.053
X7.744 Y-7.09
X7.647 Y-7.192
X7.606 Y-7.234
X7.517 Y-7.33
X7.467 Y-7.381
X7.376 Y-7.468
X7.329 Y-7.515
X7.238 Y-7.606
X7.191 Y-7.65
X7.086 Y-7.745
X7.053 Y-7.776
X6.934 Y-7.883
X6.914 Y-7.9
X6.776 Y-8.019
X6.774 Y-8.021
X6.638 Y-8.133
X6.604 Y-8.16
X6.499 Y-8.245
X6.434 Y-8.298
X6.361 Y-8.351
X6.248 Y-8.436
X6.223 Y-8.456
X6.085 Y-8.555
X6.055 Y-8.575
X5.946 Y-8.652
X5.859 Y-8.713
X5.808 Y-8.745
X5.67 Y-8.836
X5.647 Y-8.851
X5.531 Y-8.923
X5.42 Y-8.989
X5.393 Y-9.006
X5.255 Y-9.09
X5.184 Y-9.128
X5.117 Y-9.166
X4.978 Y-9.245
X4.936 Y-9.266
X4.84 Y-9.314
X4.702 Y-9.388
X4.67 Y-9.404
X4.563 Y-9.453
X4.425 Y-9.521
X4.38 Y-9.543
X4.287 Y-9.583
X4.149 Y-9.644
X4.066 Y-9.681
X4.01 Y-9.703
X3.872 Y-9.757
X3.734 Y-9.814
X3.719 Y-9.819
X3.595 Y-9.862
X3.457 Y-9.914
X3.326 Y-9.958
X3.319 Y-9.96
X3.181 Y-10.004
X3.042 Y-10.049
X2.904 Y-10.087
X2.875 Y-10.096
X2.766 Y-10.129
X2.627 Y-10.163
X2.489 Y-10.199
X2.351 Y-10.232
X2.342 Y-10.234
X2.213 Y-10.261
X2.074 Y-10.293
X1.936 Y-10.317
X1.798 Y-10.344
X1.659 Y-10.367
X1.617 Y-10.372
X1.521 Y-10.386
X1.383 Y-10.409
X1.245 Y-10.423
X1.106 Y-10.44
X0.968 Y-10.454
X0.83 Y-10.464
X0.691 Y-10.477
X0.553 Y-10.483
X0.415 Y-10.491
X0.277 Y-10.495
X0.138 Y-10.496
X0. Y-10.5
X-0.138 Y-10.496
X-0.277 Y-10.495
X-0.415 Y-10.491
X-0.553 Y-10.483
X-0.691 Y-10.477
X-0.83 Y-10.464
X-0.968 Y-10.454
X-1.106 Y-10.44
X-1.245 Y-10.423
X-1.383 Y-10.409
X-1.521 Y-10.386
X-1.617 Y-10.372
X-1.659 Y-10.367
X-1.798 Y-10.344
X-1.936 Y-10.317
X-2.074 Y-10.293
X-2.213 Y-10.261
X-2.342 Y-10.234
X-2.351 Y-10.232
X-2.489 Y-10.199
X-2.627 Y-10.163
X-2.766 Y-10.129
X-2.875 Y-10.096
X-2.904 Y-10.087
X-3.042 Y-10.049
X-3.181 Y-10.004
X-3.319 Y-9.96
X-3.326 Y-9.958
X-3.457 Y-9.914
X-3.595 Y-9.862
X-3.719 Y-9.819
X-3.734 Y-9.814
X-3.872 Y-9.757
X-4.01 Y-9.703
X-4.066 Y-9.681
X-4.149 Y-9.644
X-4.287 Y-9.583
X-4.38 Y-9.543
X-4.425 Y-9.521
X-4.563 Y-9.453
X-4.67 Y-9.404
X-4.702 Y-9.388
X-4.84 Y-9.314
X-4.936 Y-9.266
X-4.978 Y-9.245
X-5.117 Y-9.166
X-5.184 Y-9.128
X-5.255 Y-9.09
X-5.393 Y-9.006
X-5.42 Y-8.989
X-5.531 Y-8.923
X-5.647 Y-8.851
X-5.67 Y-8.836
X-5.808 Y-8.745
X-5.859 Y-8.713
X-5.946 Y-8.652
X-6.055 Y-8.575
X-6.085 Y-8.555
X-6.223 Y-8.456
X-6.248 Y-8.436
X-6.361 Y-8.351
X-6.434 Y-8.298
X-6.499 Y-8.245
X-6.604 Y-8.16
X-6.638 Y-8.133
X-6.774 Y-8.021
X-6.776 Y-8.019
X-6.914 Y-7.9
X-6.934 Y-7.883
X-7.053 Y-7.776
X-7.086 Y-7.745
X-7.191 Y-7.65
X-7.238 Y-7.606
X-7.329 Y-7.515
X-7.376 Y-7.468
X-7.467 Y-7.381
X-7.517 Y-7.33
X-7.606 Y-7.234
X-7.647 Y-7.192
X-7.744 Y-7.09
X-7.776 Y-7.053
X-7.882 Y-6.933
X-7.899 Y-6.915
X-8.018 Y-6.777
X-8.021 Y-6.773
X-8.134 Y-6.638
X-8.159 Y-6.609
X-8.243 Y-6.5
X-8.297 Y-6.43
X-8.352 Y-6.362
X-8.435 Y-6.25
X-8.454 Y-6.223
X-8.555 Y-6.085
X-8.574 Y-6.061
X-8.651 Y-5.947
X-8.712 Y-5.856
X-8.745 Y-5.809
X-8.835 Y-5.67
X-8.85 Y-5.646
X-8.922 Y-5.532
X-8.989 Y-5.427
X-9.007 Y-5.394
X-9.087 Y-5.255
X-9.127 Y-5.19
X-9.168 Y-5.117
X-9.241 Y-4.979
X-9.265 Y-4.936
X-9.318 Y-4.84
X-9.385 Y-4.702
X-9.403 Y-4.665
X-9.456 Y-4.564
X-9.519 Y-4.426
X-9.542 Y-4.374
X-9.583 Y-4.287
X-9.644 Y-4.149
X-9.68 Y-4.059
X-9.701 Y-4.011
X-9.76 Y-3.872
X-9.81 Y-3.734
X-9.818 Y-3.713
X-9.865 Y-3.596
X-9.912 Y-3.457
X-9.957 Y-3.329
X-9.96 Y-3.319
X-10.005 Y-3.181
X-10.047 Y-3.043
X-10.09 Y-2.904
X-10.095 Y-2.888
X-10.126 Y-2.766
X-10.165 Y-2.628
X-10.199 Y-2.489
X-10.231 Y-2.351
X-10.233 Y-2.342
X-10.264 Y-2.213
X-10.29 Y-2.074
X-10.32 Y-1.936
X-10.343 Y-1.798
X-10.366 Y-1.66
X-10.371 Y-1.629
G3 X-10.43 Y-1.499 I-0.295 J-0.054
G1 X-10.812 Y-1.009
G3 X-12.943 Y-0.878 I-1.123 J-0.877
X-12.951 Y-0.886 I1.008 J-1.008 F83.
X-10.921 Y-2.886 Z-6.156 I1.015 J-1.
X-12.951 Y-0.886 Z-6.313 I-1.015 J1.
X-10.921 Y-2.886 Z-6.469 I1.015 J-1.
X-12.951 Y-0.886 Z-6.625 I-1.015 J1.
X-10.921 Y-2.886 Z-6.782 I1.015 J-1.
X-12.951 Y-0.886 Z-6.938 I-1.015 J1.
X-10.921 Y-2.886 Z-7.094 I1.015 J-1.
X-12.951 Y-0.886 Z-7.25 I-1.015 J1.
X-10.921 Y-2.886 Z-7.407 I1.015 J-1.
X-12.951 Y-0.886 Z-7.563 I-1.015 J1.
X-10.921 Y-2.886 Z-7.719 I1.015 J-1.
X-12.951 Y-0.886 Z-7.875 I-1.015 J1.
X-11.719 Y-3.294 Z-8. I1.015 J-1.
X-11.709 Y-3.293 I-0.216 J1.409
G1 X-11.556 Y-3.268 F250.
G3 X-10.371 Y-1.629 I-0.227 J1.412
G1 X-10.389 Y-1.521
X-10.405 Y-1.383
X-10.426 Y-1.245
X-10.439 Y-1.106
X-10.453 Y-0.968
X-10.467 Y-0.83
X-10.474 Y-0.691
X-10.485 Y-0.553
X-10.49 Y-0.415
X-10.494 Y-0.277
X-10.499 Y-0.138
X-10.497 Y0.
X-10.499 Y0.138
X-10.494 Y0.277
X-10.49 Y0.415
X-10.485 Y0.553
X-10.474 Y0.691
X-10.467 Y0.83
X-10.453 Y0.968
X-10.439 Y1.106
X-10.426 Y1.245
X-10.405 Y1.383
X-10.389 Y1.521
X-10.371 Y1.629
X-10.366 Y1.66
X-10.343 Y1.798
X-10.32 Y1.936
X-10.29 Y2.074
X-10.264 Y2.213
X-10.233 Y2.342
X-10.231 Y2.351
X-10.199 Y2.489
X-10.165 Y2.628
X-10.126 Y2.766
X-10.095 Y2.888
X-10.09 Y2.904
X-10.047 Y3.043
X-10.005 Y3.181
X-9.96 Y3.319
X-9.957 Y3.329
X-9.912 Y3.457
X-9.865 Y3.596
X-9.818 Y3.713
X-9.81 Y3.734
X-9.76 Y3.872
X-9.701 Y4.011
X-9.68 Y4.059
X-9.644 Y4.149
X-9.583 Y4.287
X-9.542 Y4.374
X-9.519 Y4.426
X-9.456 Y4.564
X-9.403 Y4.665
X-9.385 Y4.702
X-9.318 Y4.84
X-9.265 Y4.936
X-9.241 Y4.979
X-9.168 Y5.117
X-9.127 Y5.19
X-9.087 Y5.255
X-9.007 Y5.394
X-8.989 Y5.427
X-8.922 Y5.532
X-8.85 Y5.646
X-8.835 Y5.67
X-8.745 Y5.809
X-8.712 Y5.856
X-8.651 Y5.947
X-8.574 Y6.061
X-8.555 Y6.085
X-8.454 Y6.223
X-8.435 Y6.25
X-8.352 Y6.362
X-8.297 Y6.43
X-8.243 Y6.5
X-8.159 Y6.609
X-8.134 Y6.638
X-8.021 Y6.773
X-8.018 Y6.777
X-7.899 Y6.915
X-7.882 Y6.933
X-7.776 Y7.053
X-7.744 Y7.09
X-7.647 Y7.192
X-7.606 Y7.234
X-7.517 Y7.33
X-7.467 Y7.381
X-7.376 Y7.468
X-7.329 Y7.515
X-7.238 Y7.606
X-7.191 Y7.65
X-7.086 Y7.745
X-7.053 Y7.776
X-6.934 Y7.883
X-6.914 Y7.9
X-6.776 Y8.019
X-6.774 Y8.021
X-6.638 Y8.133
X-6.604 Y8.16
X-6.499 Y8.245
X-6.434 Y8.298
X-6.361 Y8.351
X-6.248 Y8.436
X-6.223 Y8.456
X-6.085 Y8.555
X-6.055 Y8.575
X-5.946 Y8.652
X-5.859 Y8.713
X-5.808 Y8.745
X-5.67 Y8.836
X-5.647 Y8.851
X-5.531 Y8.923
X-5.42 Y8.989
X-5.393 Y9.006
X-5.255 Y9.09
X-5.184 Y9.128
X-5.117 Y9.166
X-4.978 Y9.245
X-4.936 Y9.266
X-4.84 Y9.314
X-4.702 Y9.388
X-4.67 Y9.404
X-4.563 Y9.453
X-4.425 Y9.521
X-4.38 Y9.543
X-4.287 Y9.583
X-4.149 Y9.644
X-4.066 Y9.681
X-4.01 Y9.703
X-3.872 Y9.757
X-3.734 Y9.814
X-3.719 Y9.819
X-3.595 Y9.862
X-3.457 Y9.914
X-3.326 Y9.958
X-3.319 Y9.96
X-3.181 Y10.004
X-3.042 Y10.049
X-2.904 Y10.087
X-2.875 Y10.096
X-2.766 Y10.129
X-2.627 Y10.163
X-2.489 Y10.199
X-2.351 Y10.232
X-2.342 Y10.234
X-2.213 Y10.261
X-2.074 Y10.293
X-1.936 Y10.317
X-1.798 Y10.344
X-1.659 Y10.367
X-1.617 Y10.372
X-1.521 Y10.386
X-1.383 Y10.409
X-1.245 Y10.423
X-1.106 Y10.44
X-0.968 Y10.454
X-0.83 Y10.464
X-0.691 Y10.477
X-0.553 Y10.483
X-0.415 Y10.491
X-0.277 Y10.495
X-0.138 Y10.496
X0. Y10.5
X0.138 Y10.496
X0.277 Y10.495
X0.415 Y10.491
X0.553 Y10.483
X0.691 Y10.477
X0.83 Y10.464
X0.968 Y10.454
X1.106 Y10.44
X1.245 Y10.423
X1.383 Y10.409
X1.521 Y10.386
X1.617 Y10.372
X1.659 Y10.367
X1.798 Y10.344
X1.936 Y10.317
X2.074 Y10.293
X2.213 Y10.261
X2.342 Y10.234
X2.351 Y10.232
X2.489 Y10.199
X2.627 Y10.163
X2.766 Y10.129
X2.875 Y10.096
X2.904 Y10.087
X3.042 Y10.049
X3.181 Y10.004
X3.319 Y9.96
X3.326 Y9.958
X3.457 Y9.914
X3.595 Y9.862
X3.719 Y9.819
X3.734 Y9.814
X3.872 Y9.757
X4.01 Y9.703
X4.066 Y9.681
X4.149 Y9.644
X4.287 Y9.583
X4.38 Y9.543
X4.425 Y9.521
X4.563 Y9.453
X4.67 Y9.404
X4.702 Y9.388
X4.84 Y9.314
X4.936 Y9.266
X4.978 Y9.245
X5.117 Y9.166
X5.184 Y9.128
X5.255 Y9.09
X5.393 Y9.006
X5.42 Y8.989
X5.531 Y8.923
X5.647 Y8.851
X5.67 Y8.836
X5.808 Y8.745
X5.859 Y8.713
X5.946 Y8.652
X6.055 Y8.575
X6.085 Y8.555
X6.223 Y8.456
X6.248 Y8.436
X6.361 Y8.351
X6.434 Y8.298
X6.499 Y8.245
X6.604 Y8.16
X6.638 Y8.133
X6.774 Y8.021
X6.776 Y8.019
X6.914 Y7.9
X6.934 Y7.883
X7.053 Y7.776
X7.086 Y7.745
X7.191 Y7.65
X7.238 Y7.606
X7.329 Y7.515
X7.376 Y7.468
X7.467 Y7.381
X7.517 Y7.33
X7.606 Y7.234
X7.647 Y7.192
X7.744 Y7.09
X7.776 Y7.053
X7.882 Y6.933
X7.899 Y6.915
X8.018 Y6.777
X8.021 Y6.773
X8.134 Y6.638
X8.159 Y6.609
X8.243 Y6.5
X8.297 Y6.43
X8.352 Y6.362
X8.435 Y6.25
X8.454 Y6.223
X8.555 Y6.085
X8.574 Y6.061
X8.651 Y5.947
X8.712 Y5.856
X8.745 Y5.809
X8.835 Y5.67
X8.85 Y5.646
X8.922 Y5.532
X8.989 Y5.427
X9.007 Y5.394
X9.087 Y5.255
X9.127 Y5.19
X9.168 Y5.117
X9.241 Y4.979
X9.265 Y4.936
X9.318 Y4.84
X9.385 Y4.702
X9.403 Y4.665
X9.456 Y4.564
X9.519 Y4.426
X9.542 Y4.374
X9.583 Y4.287
X9.644 Y4.149
X9.68 Y4.059
X9.701 Y4.011
X9.76 Y3.872
X9.81 Y3.734
X9.818 Y3.713
X9.865 Y3.596
X9.912 Y3.457
X9.957 Y3.329
X9.96 Y3.319
X10.005 Y3.181
X10.047 Y3.043
X10.09 Y2.904
X10.095 Y2.888
X10.126 Y2.766
X10.165 Y2.628
X10.199 Y2.489
X10.231 Y2.351
X10.233 Y2.342
X10.264 Y2.213
X10.29 Y2.074
X10.32 Y1.936
X10.343 Y1.798
X10.366 Y1.66
X10.371 Y1.629
X10.389 Y1.521
X10.405 Y1.383
X10.426 Y1.245
X10.439 Y1.106
X10.453 Y0.968
X10.467 Y0.83
X10.474 Y0.691
X10.485 Y0.553
X10.49 Y0.415
X10.494 Y0.277
X10.499 Y0.138
X10.497 Y0.
X10.499 Y-0.138
X10.494 Y-0.277
X10.49 Y-0.415
X10.485 Y-0.553
X10.474 Y-0.691
X10.467 Y-0.83
X10.453 Y-0.968
X10.439 Y-1.106
X10.426 Y-1.245
X10.405 Y-1.383
X10.389 Y-1.521
X10.371 Y-1.629
X10.366 Y-1.66
X10.343 Y-1.798
X10.32 Y-1.936
X10.29 Y-2.074
X10.264 Y-2.213
X10.233 Y-2.342
X10.231 Y-2.351
X10.199 Y-2.489
X10.165 Y-2.628
X10.126 Y-2.766
X10.095 Y-2.888
X10.09 Y-2.904
X10.047 Y-3.043
X10.005 Y-3.181
X9.96 Y-3.319
X9.957 Y-3.329
X9.912 Y-3.457
X9.865 Y-3.596
X9.818 Y-3.713
X9.81 Y-3.734
X9.76 Y-3.872
X9.701 Y-4.011
X9.68 Y-4.059
X9.644 Y-4.149
X9.583 Y-4.287
X9.542 Y-4.374
X9.519 Y-4.426
X9.456 Y-4.564
X9.403 Y-4.665
X9.385 Y-4.702
X9.318 Y-4.84
X9.265 Y-4.936
X9.241 Y-4.979
X9.168 Y-5.117
X9.127 Y-5.19
X9.087 Y-5.255
X9.007 Y-5.394
X8.989 Y-5.427
X8.922 Y-5.532
X8.85 Y-5.646
X8.835 Y-5.67
X8.745 Y-5.809
X8.712 Y-5.856
X8.651 Y-5.947
X8.574 Y-6.061
X8.555 Y-6.085
X8.454 Y-6.223
X8.435 Y-6.25
X8.352 Y-6.362
X8.297 Y-6.43
X8.243 Y-6.5
X8.159 Y-6.609
X8.134 Y-6.638
X8.021 Y-6.773
X8.018 Y-6.777
X7.899 Y-6.915
X7.882 Y-6.933
X7.776 Y-7.053
X7.744 Y-7.09
X7.647 Y-7.192
X7.606 Y-7.234
X7.517 Y-7.33
X7.467 Y-7.381
X7.376 Y-7.468
X7.329 Y-7.515
X7.238 Y-7.606
X7.191 Y-7.65
X7.086 Y-7.745
X7.053 Y-7.776
X6.934 Y-7.883
X6.914 Y-7.9
X6.776 Y-8.019
X6.774 Y-8.021
X6.638 Y-8.133
X6.604 Y-8.16
X6.499 Y-8.245
X6.434 Y-8.298
X6.361 Y-8.351
X6.248 Y-8.436
X6.223 Y-8.456
X6.085 Y-8.555
X6.055 Y-8.575
X5.946 Y-8.652
X5.859 Y-8.713
X5.808 Y-8.745
X5.67 Y-8.836
X5.647 Y-8.851
X5.531 Y-8.923
X5.42 Y-8.989
X5.393 Y-9.006
X5.255 Y-9.09
X5.184 Y-9.128
X5.117 Y-9.166
X4.978 Y-9.245
X4.936 Y-9.266
X4.84 Y-9.314
X4.702 Y-9.388
X4.67 Y-9.404
X4.563 Y-9.453
X4.425 Y-9.521
X4.38 Y-9.543
X4.287 Y-9.583
X4.149 Y-9.644
X4.066 Y-9.681
X4.01 Y-9.703
X3.872 Y-9.757
X3.734 Y-9.814
X3.719 Y-9.819
X3.595 Y-9.862
X3.457 Y-9.914
X3.326 Y-9.958
X3.319 Y-9.96
X3.181 Y-10.004
X3.042 Y-10.049
X2.904 Y-10.087
X2.875 Y-10.096
X2.766 Y-10.129
X2.627 Y-10.163
X2.489 Y-10.199
X2.351 Y-10.232
X2.342 Y-10.234
X2.213 Y-10.261
X2.074 Y-10.293
X1.936 Y-10.317
X1.798 Y-10.344
X1.659 Y-10.367
X1.617 Y-10.372
X1.521 Y-10.386
X1.383 Y-10.409
X1.245 Y-10.423
X1.106 Y-10.44
X0.968 Y-10.454
X0.83 Y-10.464
X0.691 Y-10.477
X0.553 Y-10.483
X0.415 Y-10.491
X0.277 Y-10.495
X0.138 Y-10.496
X0. Y-10.5
X-0.138 Y-10.496
X-0.277 Y-10.495
X-0.415 Y-10.491
X-0.553 Y-10.483
X-0.691 Y-10.477
X-0.83 Y-10.464
X-0.968 Y-10.454
X-1.106 Y-10.44
X-1.245 Y-10.423
X-1.383 Y-10.409
X-1.521 Y-10.386
X-1.617 Y-10.372
X-1.659 Y-10.367
X-1.798 Y-10.344
X-1.936 Y-10.317
X-2.074 Y-10.293
X-2.213 Y-10.261
X-2.342 Y-10.234
X-2.351 Y-10.232
X-2.489 Y-10.199
X-2.627 Y-10.163
X-2.766 Y-10.129
X-2.875 Y-10.096
X-2.904 Y-10.087
X-3.042 Y-10.049
X-3.181 Y-10.004
X-3.319 Y-9.96
X-3.326 Y-9.958
X-3.457 Y-9.914
X-3.595 Y-9.862
X-3.719 Y-9.819
X-3.734 Y-9.814
X-3.872 Y-9.757
X-4.01 Y-9.703
X-4.066 Y-9.681
X-4.149 Y-9.644
X-4.287 Y-9.583
X-4.38 Y-9.543
X-4.425 Y-9.521
X-4.563 Y-9.453
X-4.67 Y-9.404
X-4.702 Y-9.388
X-4.84 Y-9.314
X-4.936 Y-9.266
X-4.978 Y-9.245
X-5.117 Y-9.166
X-5.184 Y-9.128
X-5.255 Y-9.09
X-5.393 Y-9.006
X-5.42 Y-8.989
X-5.531 Y-8.923
X-5.647 Y-8.851
X-5.67 Y-8.836
X-5.808 Y-8.745
X-5.859 Y-8.713
X-5.946 Y-8.652
X-6.055 Y-8.575
X-6.085 Y-8.555
X-6.223 Y-8.456
X-6.248 Y-8.436
X-6.361 Y-8.351
X-6.434 Y-8.298
X-6.499 Y-8.245
X-6.604 Y-8.16
X-6.638 Y-8.133
X-6.774 Y-8.021
X-6.776 Y-8.019
X-6.914 Y-7.9
X-6.934 Y-7.883
X-7.053 Y-7.776
X-7.086 Y-7.745
X-7.191 Y-7.65
X-7.238 Y-7.606
X-7.329 Y-7.515
X-7.376 Y-7.468
X-7.467 Y-7.381
X-7.517 Y-7.33
X-7.606 Y-7.234
X-7.647 Y-7.192
X-7.744 Y-7.09
X-7.776 Y-7.053
X-7.882 Y-6.933
X-7.899 Y-6.915
X-8.018 Y-6.777
X-8.021 Y-6.773
X-8.134 Y-6.638
X-8.159 Y-6.609
X-8.243 Y-6.5
X-8.297 Y-6.43
X-8.352 Y-6.362
X-8.435 Y-6.25
X-8.454 Y-6.223
X-8.555 Y-6.085
X-8.574 Y-6.061
X-8.651 Y-5.947
X-8.712 Y-5.856
X-8.745 Y-5.809
X-8.835 Y-5.67
X-8.85 Y-5.646
X-8.922 Y-5.532
X-8.989 Y-5.427
X-9.007 Y-5.394
X-9.087 Y-5.255
X-9.127 Y-5.19
X-9.168 Y-5.117
X-9.241 Y-4.979
X-9.265 Y-4.936
X-9.318 Y-4.84
X-9.385 Y-4.702
X-9.403 Y-4.665
X-9.456 Y-4.564
X-9.519 Y-4.426
X-9.542 Y-4.374
X-9.583 Y-4.287
X-9.644 Y-4.149
X-9.68 Y-4.059
X-9.701 Y-4.011
X-9.76 Y-3.872
X-9.81 Y-3.734
X-9.818 Y-3.713
X-9.865 Y-3.596
X-9.912 Y-3.457
X-9.957 Y-3.329
X-9.96 Y-3.319
X-10.005 Y-3.181
X-10.047 Y-3.043
X-10.09 Y-2.904
X-10.095 Y-2.888
X-10.126 Y-2.766
X-10.165 Y-2.628
X-10.199 Y-2.489
X-10.231 Y-2.351
X-10.233 Y-2.342
X-10.264 Y-2.213
X-10.29 Y-2.074
X-10.32 Y-1.936
X-10.343 Y-1.798
X-10.366 Y-1.66
X-10.371 Y-1.629
G3 X-10.43 Y-1.499 I-0.295 J-0.054
G1 X-10.812 Y-1.009
G3 X-12.943 Y-0.878 I-1.123 J-0.877
X-12.951 Y-0.886 I1.008 J-1.008 F83.
X-10.921 Y-2.886 Z-8.156 I1.015 J-1.
X-12.951 Y-0.886 Z-8.313 I-1.015 J1.
X-10.921 Y-2.886 Z-8.469 I1.015 J-1.
X-12.951 Y-0.886 Z-8.625 I-1.015 J1.
X-10.921 Y-2.886 Z-8.782 I1.015 J-1.
X-12.951 Y-0.886 Z-8.938 I-1.015 J1.
X-10.921 Y-2.886 Z-9.094 I1.015 J-1.
X-12.951 Y-0.886 Z-9.25 I-1.015 J1.
X-10.921 Y-2.886 Z-9.407 I1.015 J-1.
X-12.951 Y-0.886 Z-9.563 I-1.015 J1.
X-10.921 Y-2.886 Z-9.719 I1.015 J-1.
X-12.951 Y-0.886 Z-9.875 I-1.015 J1.
X-11.719 Y-3.294 Z-10. I1.015 J-1.
X-11.709 Y-3.293 I-0.216 J1.409
G1 X-11.556 Y-3.268 F250.
G3 X-10.371 Y-1.629 I-0.227 J1.412
G1 X-10.389 Y-1.521
X-10.405 Y-1.383
X-10.426 Y-1.245
X-10.439 Y-1.106
X-10.453 Y-0.968
X-10.467 Y-0.83
X-10.474 Y-0.691
X-10.485 Y-0.553
X-10.49 Y-0.415
X-10.494 Y-0.277
X-10.499 Y-0.138
X-10.497 Y0.
X-10.499 Y0.138
X-10.494 Y0.277
X-10.49 Y0.415
X-10.485 Y0.553
X-10.474 Y0.691
X-10.467 Y0.83
X-10.453 Y0.968
X-10.439 Y1.106
X-10.426 Y1.245
X-10.405 Y1.383
X-10.389 Y1.521
X-10.371 Y1.629
X-10.366 Y1.66
X-10.343 Y1.798
X-10.32 Y1.936
X-10.29 Y2.074
X-10.264 Y2.213
X-10.233 Y2.342
X-10.231 Y2.351
X-10.199 Y2.489
X-10.165 Y2.628
X-10.126 Y2.766
X-10.095 Y2.888
X-10.09 Y2.904
X-10.047 Y3.043
X-10.005 Y3.181
X-9.96 Y3.319
X-9.957 Y3.329
X-9.912 Y3.457
X-9.865 Y3.596
X-9.818 Y3.713
X-9.81 Y3.734
X-9.76 Y3.872
X-9.701 Y4.011
X-9.68 Y4.059
X-9.644 Y4.149
X-9.583 Y4.287
X-9.542 Y4.374
X-9.519 Y4.426
X-9.456 Y4.564
X-9.403 Y4.665
X-9.385 Y4.702
X-9.318 Y4.84
X-9.265 Y4.936
X-9.241 Y4.979
X-9.168 Y5.117
X-9.127 Y5.19
X-9.087 Y5.255
X-9.007 Y5.394
X-8.989 Y5.427
X-8.922 Y5.532
X-8.85 Y5.646
X-8.835 Y5.67
X-8.745 Y5.809
X-8.712 Y5.856
X-8.651 Y5.947
X-8.574 Y6.061
X-8.555 Y6.085
X-8.454 Y6.223
X-8.435 Y6.25
X-8.352 Y6.362
X-8.297 Y6.43
X-8.243 Y6.5
X-8.159 Y6.609
X-8.134 Y6.638
X-8.021 Y6.773
X-8.018 Y6.777
X-7.899 Y6.915
X-7.882 Y6.933
X-7.776 Y7.053
X-7.744 Y7.09
X-7.647 Y7.192
X-7.606 Y7.234
X-7.517 Y7.33
X-7.467 Y7.381
X-7.376 Y7.468
X-7.329 Y7.515
X-7.238 Y7.606
X-7.191 Y7.65
X-7.086 Y7.745
X-7.053 Y7.776
X-6.934 Y7.883
X-6.914 Y7.9
X-6.776 Y8.019
X-6.774 Y8.021
X-6.638 Y8.133
X-6.604 Y8.16
X-6.499 Y8.245
X-6.434 Y8.298
X-6.361 Y8.351
X-6.248 Y8.436
X-6.223 Y8.456
X-6.085 Y8.555
X-6.055 Y8.575
X-5.946 Y8.652
X-5.859 Y8.713
X-5.808 Y8.745
X-5.67 Y8.836
X-5.647 Y8.851
X-5.531 Y8.923
X-5.42 Y8.989
X-5.393 Y9.006
X-5.255 Y9.09
X-5.184 Y9.128
X-5.117 Y9.166
X-4.978 Y9.245
X-4.936 Y9.266
X-4.84 Y9.314
X-4.702 Y9.388
X-4.67 Y9.404
X-4.563 Y9.453
X-4.425 Y9.521
X-4.38 Y9.543
X-4.287 Y9.583
X-4.149 Y9.644
X-4.066 Y9.681
X-4.01 Y9.703
X-3.872 Y9.757
X-3.734 Y9.814
X-3.719 Y9.819
X-3.595 Y9.862
X-3.457 Y9.914
X-3.326 Y9.958
X-3.319 Y9.96
X-3.181 Y10.004
X-3.042 Y10.049
X-2.904 Y10.087
X-2.875 Y10.096
X-2.766 Y10.129
X-2.627 Y10.163
X-2.489 Y10.199
X-2.351 Y10.232
X-2.342 Y10.234
X-2.213 Y10.261
X-2.074 Y10.293
X-1.936 Y10.317
X-1.798 Y10.344
X-1.659 Y10.367
X-1.617 Y10.372
X-1.521 Y10.386
X-1.383 Y10.409
X-1.245 Y10.423
X-1.106 Y10.44
X-0.968 Y10.454
X-0.83 Y10.464
X-0.691 Y10.477
X-0.553 Y10.483
X-0.415 Y10.491
X-0.277 Y10.495
X-0.138 Y10.496
X0. Y10.5
X0.138 Y10.496
X0.277 Y10.495
X0.415 Y10.491
X0.553 Y10.483
X0.691 Y10.477
X0.83 Y10.464
X0.968 Y10.454
X1.106 Y10.44
X1.245 Y10.423
X1.383 Y10.409
X1.521 Y10.386
X1.617 Y10.372
X1.659 Y10.367
X1.798 Y10.344
X1.936 Y10.317
X2.074 Y10.293
X2.213 Y10.261
X2.342 Y10.234
X2.351 Y10.232
X2.489 Y10.199
X2.627 Y10.163
X2.766 Y10.129
X2.875 Y10.096
X2.904 Y10.087
X3.042 Y10.049
X3.181 Y10.004
X3.319 Y9.96
X3.326 Y9.958
X3.457 Y9.914
X3.595 Y9.862
X3.719 Y9.819
X3.734 Y9.814
X3.872 Y9.757
X4.01 Y9.703
X4.066 Y9.681
X4.149 Y9.644
X4.287 Y9.583
X4.38 Y9.543
X4.425 Y9.521
X4.563 Y9.453
X4.67 Y9.404
X4.702 Y9.388
X4.84 Y9.314
X4.936 Y9.266
X4.978 Y9.245
X5.117 Y9.166
X5.184 Y9.128
X5.255 Y9.09
X5.393 Y9.006
X5.42 Y8.989
X5.531 Y8.923
X5.647 Y8.851
X5.67 Y8.836
X5.808 Y8.745
X5.859 Y8.713
X5.946 Y8.652
X6.055 Y8.575
X6.085 Y8.555
X6.223 Y8.456
X6.248 Y8.436
X6.361 Y8.351
X6.434 Y8.298
X6.499 Y8.245
X6.604 Y8.16
X6.638 Y8.133
X6.774 Y8.021
X6.776 Y8.019
X6.914 Y7.9
X6.934 Y7.883
X7.053 Y7.776
X7.086 Y7.745
X7.191 Y7.65
X7.238 Y7.606
X7.329 Y7.515
X7.376 Y7.468
X7.467 Y7.381
X7.517 Y7.33
X7.606 Y7.234
X7.647 Y7.192
X7.744 Y7.09
X7.776 Y7.053
X7.882 Y6.933
X7.899 Y6.915
X8.018 Y6.777
X8.021 Y6.773
X8.134 Y6.638
X8.159 Y6.609
X8.243 Y6.5
X8.297 Y6.43
X8.352 Y6.362
X8.435 Y6.25
X8.454 Y6.223
X8.555 Y6.085
X8.574 Y6.061
X8.651 Y5.947
X8.712 Y5.856
X8.745 Y5.809
X8.835 Y5.67
X8.85 Y5.646
X8.922 Y5.532
X8.989 Y5.427
X9.007 Y5.394
X9.087 Y5.255
X9.127 Y5.19
X9.168 Y5.117
X9.241 Y4.979
X9.265 Y4.936
X9.318 Y4.84
X9.385 Y4.702
X9.403 Y4.665
X9.456 Y4.564
X9.519 Y4.426
X9.542 Y4.374
X9.583 Y4.287
X9.644 Y4.149
X9.68 Y4.059
X9.701 Y4.011
X9.76 Y3.872
X9.81 Y3.734
X9.818 Y3.713
X9.865 Y3.596
X9.912 Y3.457
X9.957 Y3.329
X9.96 Y3.319
X10.005 Y3.181
X10.047 Y3.043
X10.09 Y2.904
X10.095 Y2.888
X10.126 Y2.766
X10.165 Y2.628
X10.199 Y2.489
X10.231 Y2.351
X10.233 Y2.342
X10.264 Y2.213
X10.29 Y2.074
X10.32 Y1.936
X10.343 Y1.798
X10.366 Y1.66
X10.371 Y1.629
X10.389 Y1.521
X10.405 Y1.383
X10.426 Y1.245
X10.439 Y1.106
X10.453 Y0.968
X10.467 Y0.83
X10.474 Y0.691
X10.485 Y0.553
X10.49 Y0.415
X10.494 Y0.277
X10.499 Y0.138
X10.497 Y0.
X10.499 Y-0.138
X10.494 Y-0.277
X10.49 Y-0.415
X10.485 Y-0.553
X10.474 Y-0.691
X10.467 Y-0.83
X10.453 Y-0.968
X10.439 Y-1.106
X10.426 Y-1.245
X10.405 Y-1.383
X10.389 Y-1.521
X10.371 Y-1.629
X10.366 Y-1.66
X10.343 Y-1.798
X10.32 Y-1.936
X10.29 Y-2.074
X10.264 Y-2.213
X10.233 Y-2.342
X10.231 Y-2.351
X10.199 Y-2.489
X10.165 Y-2.628
X10.126 Y-2.766
X10.095 Y-2.888
X10.09 Y-2.904
X10.047 Y-3.043
X10.005 Y-3.181
X9.96 Y-3.319
X9.957 Y-3.329
X9.912 Y-3.457
X9.865 Y-3.596
X9.818 Y-3.713
X9.81 Y-3.734
X9.76 Y-3.872
X9.701 Y-4.011
X9.68 Y-4.059
X9.644 Y-4.149
X9.583 Y-4.287
X9.542 Y-4.374
X9.519 Y-4.426
X9.456 Y-4.564
X9.403 Y-4.665
X9.385 Y-4.702
X9.318 Y-4.84
X9.265 Y-4.936
X9.241 Y-4.979
X9.168 Y-5.117
X9.127 Y-5.19
X9.087 Y-5.255
X9.007 Y-5.394
X8.989 Y-5.427
X8.922 Y-5.532
X8.85 Y-5.646
X8.835 Y-5.67
X8.745 Y-5.809
X8.712 Y-5.856
X8.651 Y-5.947
X8.574 Y-6.061
X8.555 Y-6.085
X8.454 Y-6.223
X8.435 Y-6.25
X8.352 Y-6.362
X8.297 Y-6.43
X8.243 Y-6.5
X8.159 Y-6.609
X8.134 Y-6.638
X8.021 Y-6.773
X8.018 Y-6.777
X7.899 Y-6.915
X7.882 Y-6.933
X7.776 Y-7.053
X7.744 Y-7.09
X7.647 Y-7.192
X7.606 Y-7.234
X7.517 Y-7.33
X7.467 Y-7.381
X7.376 Y-7.468
X7.329 Y-7.515
X7.238 Y-7.606
X7.191 Y-7.65
X7.086 Y-7.745
X7.053 Y-7.776
X6.934 Y-7.883
X6.914 Y-7.9
X6.776 Y-8.019
X6.774 Y-8.021
X6.638 Y-8.133
X6.604 Y-8.16
X6.499 Y-8.245
X6.434 Y-8.298
X6.361 Y-8.351
X6.248 Y-8.436
X6.223 Y-8.456
X6.085 Y-8.555
X6.055 Y-8.575
X5.946 Y-8.652
X5.859 Y-8.713
X5.808 Y-8.745
X5.67 Y-8.836
X5.647 Y-8.851
X5.531 Y-8.923
X5.42 Y-8.989
X5.393 Y-9.006
X5.255 Y-9.09
X5.184 Y-9.128
X5.117 Y-9.166
X4.978 Y-9.245
X4.936 Y-9.266
X4.84 Y-9.314
X4.702 Y-9.388
X4.67 Y-9.404
X4.563 Y-9.453
X4.425 Y-9.521
X4.38 Y-9.543
X4.287 Y-9.583
X4.149 Y-9.644
X4.066 Y-9.681
X4.01 Y-9.703
X3.872 Y-9.757
X3.734 Y-9.814
X3.719 Y-9.819
X3.595 Y-9.862
X3.457 Y-9.914
X3.326 Y-9.958
X3.319 Y-9.96
X3.181 Y-10.004
X3.042 Y-10.049
X2.904 Y-10.087
X2.875 Y-10.096
X2.766 Y-10.129
X2.627 Y-10.163
X2.489 Y-10.199
X2.351 Y-10.232
X2.342 Y-10.234
X2.213 Y-10.261
X2.074 Y-10.293
X1.936 Y-10.317
X1.798 Y-10.344
X1.659 Y-10.367
X1.617 Y-10.372
X1.521 Y-10.386
X1.383 Y-10.409
X1.245 Y-10.423
X1.106 Y-10.44
X0.968 Y-10.454
X0.83 Y-10.464
X0.691 Y-10.477
X0.553 Y-10.483
X0.415 Y-10.491
X0.277 Y-10.495
X0.138 Y-10.496
X0. Y-10.5
X-0.138 Y-10.496
X-0.277 Y-10.495
X-0.415 Y-10.491
X-0.553 Y-10.483
X-0.691 Y-10.477
X-0.83 Y-10.464
X-0.968 Y-10.454
X-1.106 Y-10.44
X-1.245 Y-10.423
X-1.383 Y-10.409
X-1.521 Y-10.386
X-1.617 Y-10.372
X-1.659 Y-10.367
X-1.798 Y-10.344
X-1.936 Y-10.317
X-2.074 Y-10.293
X-2.213 Y-10.261
X-2.342 Y-10.234
X-2.351 Y-10.232
X-2.489 Y-10.199
X-2.627 Y-10.163
X-2.766 Y-10.129
X-2.875 Y-10.096
X-2.904 Y-10.087
X-3.042 Y-10.049
X-3.181 Y-10.004
X-3.319 Y-9.96
X-3.326 Y-9.958
X-3.457 Y-9.914
X-3.595 Y-9.862
X-3.719 Y-9.819
X-3.734 Y-9.814
X-3.872 Y-9.757
X-4.01 Y-9.703
X-4.066 Y-9.681
X-4.149 Y-9.644
X-4.287 Y-9.583
X-4.38 Y-9.543
X-4.425 Y-9.521
X-4.563 Y-9.453
X-4.67 Y-9.404
X-4.702 Y-9.388
X-4.84 Y-9.314
X-4.936 Y-9.266
X-4.978 Y-9.245
X-5.117 Y-9.166
X-5.184 Y-9.128
X-5.255 Y-9.09
X-5.393 Y-9.006
X-5.42 Y-8.989
X-5.531 Y-8.923
X-5.647 Y-8.851
X-5.67 Y-8.836
X-5.808 Y-8.745
X-5.859 Y-8.713
X-5.946 Y-8.652
X-6.055 Y-8.575
X-6.085 Y-8.555
X-6.223 Y-8.456
X-6.248 Y-8.436
X-6.361 Y-8.351
X-6.434 Y-8.298
X-6.499 Y-8.245
X-6.604 Y-8.16
X-6.638 Y-8.133
X-6.774 Y-8.021
X-6.776 Y-8.019
X-6.914 Y-7.9
X-6.934 Y-7.883
X-7.053 Y-7.776
X-7.086 Y-7.745
X-7.191 Y-7.65
X-7.238 Y-7.606
X-7.329 Y-7.515
X-7.376 Y-7.468
X-7.467 Y-7.381
X-7.517 Y-7.33
X-7.606 Y-7.234
X-7.647 Y-7.192
X-7.744 Y-7.09
X-7.776 Y-7.053
X-7.882 Y-6.933
X-7.899 Y-6.915
X-8.018 Y-6.777
X-8.021 Y-6.773
X-8.134 Y-6.638
X-8.159 Y-6.609
X-8.243 Y-6.5
X-8.297 Y-6.43
X-8.352 Y-6.362
X-8.435 Y-6.25
X-8.454 Y-6.223
X-8.555 Y-6.085
X-8.574 Y-6.061
X-8.651 Y-5.947
X-8.712 Y-5.856
X-8.745 Y-5.809
X-8.835 Y-5.67
X-8.85 Y-5.646
X-8.922 Y-5.532
X-8.989 Y-5.427
X-9.007 Y-5.394
X-9.087 Y-5.255
X-9.127 Y-5.19
X-9.168 Y-5.117
X-9.241 Y-4.979
X-9.265 Y-4.936
X-9.318 Y-4.84
X-9.385 Y-4.702
X-9.403 Y-4.665
X-9.456 Y-4.564
X-9.519 Y-4.426
X-9.542 Y-4.374
X-9.583 Y-4.287
X-9.644 Y-4.149
X-9.68 Y-4.059
X-9.701 Y-4.011
X-9.76 Y-3.872
X-9.81 Y-3.734
X-9.818 Y-3.713
X-9.865 Y-3.596
X-9.912 Y-3.457
X-9.957 Y-3.329
X-9.96 Y-3.319
X-10.005 Y-3.181
X-10.047 Y-3.043
X-10.09 Y-2.904
X-10.095 Y-2.888
X-10.126 Y-2.766
X-10.165 Y-2.628
X-10.199 Y-2.489
X-10.231 Y-2.351
X-10.233 Y-2.342
X-10.264 Y-2.213
X-10.29 Y-2.074
X-10.32 Y-1.936
X-10.343 Y-1.798
X-10.366 Y-1.66
X-10.371 Y-1.629
X-10.374 Y-1.614
X-10.377 Y-1.599
X-10.382 Y-1.569
X-10.39 Y-1.509
X-10.404 Y-1.387
X-10.436 Y-1.145 Z-10.001
X-10.461 Y-0.903
X-10.476 Y-0.659 Z-10.002
X-10.49 Y-0.416 Z-10.004
X-10.499 Y-0.172 Z-10.005
X-10.498 Y0.072 Z-10.007
X-10.492 Y0.316 Z-10.009
X-10.485 Y0.56 Z-10.012
X-10.468 Y0.803 Z-10.014
X-10.444 Y1.046 Z-10.017
X-10.419 Y1.289 Z-10.02
X-10.388 Y1.531 Z-10.024
X-10.347 Y1.771 Z-10.027
X-10.303 Y2.011 Z-10.031
X-10.256 Y2.251 Z-10.035
X-10.199 Y2.488 Z-10.04
X-10.137 Y2.724 Z-10.044
X-10.074 Y2.96 Z-10.049
X-10.036 Y3.076 Z-10.051
X-10.002 Y3.193 Z-10.054
X-9.964 Y3.309 Z-10.057
X-9.923 Y3.424 Z-10.059
X-9.885 Y3.54 Z-10.062
X-9.842 Y3.654 Z-10.065
X-9.798 Y3.768 Z-10.067
X-9.756 Y3.882 Z-10.07
X-9.708 Y3.994 Z-10.073
X-9.661 Y4.107 Z-10.076
X-9.615 Y4.22 Z-10.079
X-9.563 Y4.33 Z-10.082
X-9.512 Y4.441 Z-10.085
X-9.462 Y4.552 Z-10.088
X-9.406 Y4.661 Z-10.091
X-9.352 Y4.77 Z-10.095
X-9.297 Y4.879 Z-10.098
X-9.237 Y4.986 Z-10.101
X-9.181 Y5.094 Z-10.105
X-9.121 Y5.2 Z-10.108
X-9.058 Y5.304 Z-10.112
X-8.998 Y5.411 Z-10.115
X-8.934 Y5.514 Z-10.119
X-8.868 Y5.617 Z-10.122
X-8.804 Y5.721 Z-10.126
X-8.736 Y5.822 Z-10.129
X-8.667 Y5.923 Z-10.133
X-8.6 Y6.025 Z-10.137
X-8.527 Y6.123 Z-10.141
X-8.455 Y6.222 Z-10.145
X-8.384 Y6.321 Z-10.148
X-8.308 Y6.416 Z-10.152
X-8.234 Y6.513 Z-10.156
X-8.159 Y6.609 Z-10.16
X-8.079 Y6.702 Z-10.164
X-8.002 Y6.796 Z-10.168
X-7.923 Y6.889 Z-10.172
X-7.84 Y6.979 Z-10.177
X-7.761 Y7.071 Z-10.181
X-7.678 Y7.161 Z-10.185
X-7.593 Y7.248 Z-10.189
X-7.51 Y7.338 Z-10.193
X-7.423 Y7.424 Z-10.198
X-7.336 Y7.509 Z-10.202
X-7.25 Y7.595 Z-10.206
X-7.16 Y7.678 Z-10.21
X-7.07 Y7.76 Z-10.215
X-6.981 Y7.843 Z-10.219
X-6.887 Y7.922 Z-10.223
X-6.795 Y8.002 Z-10.227
X-6.703 Y8.082 Z-10.232
X-6.607 Y8.157 Z-10.236
X-6.512 Y8.234 Z-10.24
X-6.417 Y8.31 Z-10.244
X-6.318 Y8.382 Z-10.249
X-6.222 Y8.457 Z-10.253
X-6.123 Y8.529 Z-10.257
X-6.022 Y8.597 Z-10.262
X-5.924 Y8.669 Z-10.266
X-5.822 Y8.736 Z-10.27
X-5.719 Y8.802 Z-10.274
X-5.618 Y8.87 Z-10.279
X-5.514 Y8.934 Z-10.283
X-5.409 Y8.996 Z-10.287
X-5.305 Y9.061 Z-10.291
X-5.199 Y9.12 Z-10.296
X-5.092 Y9.18 Z-10.3
X-4.986 Y9.24 Z-10.304
X-4.877 Y9.295 Z-10.308
X-4.77 Y9.352 Z-10.313
X-4.661 Y9.408 Z-10.317
X-4.55 Y9.459 Z-10.321
X-4.441 Y9.513 Z-10.325
X-4.33 Y9.565 Z-10.33
X-4.218 Y9.612 Z-10.334
X-4.107 Y9.663 Z-10.338
X-3.994 Y9.709 Z-10.342
X-3.88 Y9.753 Z-10.347
X-3.768 Y9.8 Z-10.351
X-3.653 Y9.842 Z-10.355
X-3.538 Y9.883 Z-10.359
X-3.424 Y9.926 Z-10.364
X-3.308 Y9.963 Z-10.368
X-3.192 Y10.001 Z-10.372
X-3.076 Y10.039 Z-10.377
X-2.958 Y10.072 Z-10.381
X-2.841 Y10.106 Z-10.385
X-2.724 Y10.14 Z-10.389
X-2.605 Y10.169 Z-10.394
X-2.487 Y10.2 Z-10.398
X-2.369 Y10.229 Z-10.402
X-2.249 Y10.253 Z-10.406
X-2.131 Y10.28 Z-10.411
X-2.011 Y10.305 Z-10.415
X-1.891 Y10.325 Z-10.419
X-1.771 Y10.349 Z-10.423
X-1.651 Y10.368 Z-10.428
X-1.53 Y10.385 Z-10.432
X-1.409 Y10.405 Z-10.436
X-1.288 Y10.419 Z-10.44
X-1.167 Y10.432 Z-10.445
X-1.046 Y10.448 Z-10.449
X-0.924 Y10.457 Z-10.453
X-0.803 Y10.467 Z-10.457
X-0.681 Y10.478 Z-10.462
X-0.559 Y10.482 Z-10.466
X-0.437 Y10.489 Z-10.47
X-0.315 Y10.495 Z-10.474
X-0.193 Z-10.479
X-0.071 Y10.498 Z-10.483
X0.051 Y10.499 Z-10.487
X0.172 Y10.495 Z-10.492
X0.295 Z-10.496
X0.416 Y10.49 Z-10.5
X0.538 Y10.483 Z-10.504
X0.66 Y10.479 Z-10.509
X0.782 Y10.469 Z-10.513
X0.903 Y10.458 Z-10.517
X1.025 Y10.45 Z-10.521
X1.146 Y10.435 Z-10.526
X1.267 Y10.421 Z-10.53
X1.389 Y10.408 Z-10.534
X1.509 Y10.388 Z-10.538
X1.63 Y10.371 Z-10.543
X1.75 Y10.353 Z-10.547
X1.87 Y10.329 Z-10.551
X1.99 Y10.308 Z-10.555
X2.11 Y10.285 Z-10.56
X2.229 Y10.257 Z-10.564
X2.349 Y10.233 Z-10.568
X2.467 Y10.205 Z-10.572
X2.585 Y10.173 Z-10.577
X2.704 Y10.145 Z-10.581
X2.821 Y10.112 Z-10.585
X2.938 Y10.077 Z-10.59
X3.056 Y10.045 Z-10.594
X3.172 Y10.007 Z-10.598
X3.288 Y9.969 Z-10.602
X3.404 Y9.933 Z-10.607
X3.519 Y9.89 Z-10.611
X3.633 Y9.849 Z-10.615
X3.748 Y9.808 Z-10.619
X3.861 Y9.761 Z-10.624
X3.975 Y9.717 Z-10.628
X4.088 Y9.671 Z-10.632
X4.199 Y9.621 Z-10.636
X4.311 Y9.573 Z-10.641
X4.422 Y9.523 Z-10.645
X4.531 Y9.468 Z-10.649
X4.642 Y9.417 Z-10.653
X4.751 Y9.362 Z-10.658
X4.859 Y9.305 Z-10.662
X4.968 Y9.25 Z-10.666
X5.074 Y9.19 Z-10.67
X5.18 Y9.13 Z-10.675
X5.287 Y9.072 Z-10.679
X5.391 Y9.008 Z-10.683
X5.496 Y8.944 Z-10.687
X5.6 Y8.882 Z-10.692
X5.702 Y8.814 Z-10.696
X5.804 Y8.748 Z-10.7
X5.906 Y8.681 Z-10.704
X6.005 Y8.61 Z-10.709
X6.106 Y8.54 Z-10.713
X6.205 Y8.47 Z-10.717
X6.302 Y8.395 Z-10.722
X6.4 Y8.323 Z-10.726
X6.496 Y8.248 Z-10.73
X6.59 Y8.17 Z-10.734
X6.687 Y8.095 Z-10.739
X6.78 Y8.016 Z-10.743
X6.871 Y7.936 Z-10.747
X6.965 Y7.857 Z-10.751
X7.055 Y7.774 Z-10.756
X7.144 Y7.691 Z-10.76
X7.235 Y7.61 Z-10.764
X7.321 Y7.524 Z-10.768
X7.408 Y7.438 Z-10.773
X7.495 Y7.353 Z-10.777
X7.578 Y7.264 Z-10.781
X7.663 Y7.176 Z-10.785
X7.747 Y7.087 Z-10.79
X7.827 Y6.995 Z-10.794
X7.909 Y6.905 Z-10.798
X7.989 Y6.813 Z-10.802
X8.065 Y6.717 Z-10.807
X8.145 Y6.625 Z-10.811
X8.221 Y6.53 Z-10.815
X8.295 Y6.432 Z-10.819
X8.371 Y6.337 Z-10.824
X8.443 Y6.239 Z-10.828
X8.514 Y6.14 Z-10.832
X8.587 Y6.042 Z-10.836
X8.655 Y5.94 Z-10.84
X8.724 Y5.839 Z-10.844
X8.793 Y5.739 Z-10.848
X8.857 Y5.635 Z-10.852
X8.922 Y5.532 Z-10.856
X8.987 Y5.429 Z-10.859
X9.047 Y5.323 Z-10.863
X9.11 Y5.218 Z-10.867
X9.171 Y5.112 Z-10.871
X9.227 Y5.004 Z-10.874
X9.287 Y4.897 Z-10.878
X9.343 Y4.789 Z-10.881
X9.396 Y4.679 Z-10.885
X9.452 Y4.571 Z-10.889
X9.504 Y4.46 Z-10.892
X9.554 Y4.349 Z-10.895
X9.606 Y4.239 Z-10.899
X9.653 Y4.126 Z-10.902
X9.7 Y4.014 Z-10.905
X9.748 Y3.902 Z-10.909
X9.791 Y3.787 Z-10.912
X9.834 Y3.673 Z-10.915
X9.878 Y3.56 Z-10.918
X9.916 Y3.444 Z-10.921
X9.957 Y3.328 Z-10.924
X9.996 Y3.213 Z-10.927
X10.03 Y3.096 Z-10.93
X10.067 Y2.98 Z-10.933
X10.101 Y2.863 Z-10.935
X10.131 Y2.744 Z-10.938
X10.165 Y2.627 Z-10.941
X10.195 Y2.509 Z-10.944
X10.221 Y2.39 Z-10.946
X10.251 Y2.271 Z-10.949
X10.275 Y2.152 Z-10.951
X10.324 Y1.913 Z-10.956
X10.364 Y1.672 Z-10.96
X10.399 Y1.43 Z-10.965
X10.432 Y1.189 Z-10.969
X10.456 Y0.946 Z-10.973
X10.473 Y0.702 Z-10.976
X10.489 Y0.459 Z-10.98
X10.497 Y0.215 Z-10.983
Y-0.029 Z-10.986
X10.494 Y-0.273 Z-10.988
X10.487 Y-0.517 Z-10.991
X10.47 Y-0.76 Z-10.993
X10.449 Y-1.003 Z-10.995
X10.425 Y-1.246 Z-10.996
X10.393 Y-1.488 Z-10.998
X10.353 Y-1.729 Z-10.999
X10.312 Y-1.969
X10.265 Y-2.208 Z-11.
X10.237 Y-2.326
X10.222 Y-2.385
X10.215 Y-2.414
X10.209 Y-2.444
X10.199 Y-2.489
X10.165 Y-2.628
X10.126 Y-2.766
X10.095 Y-2.888
X10.09 Y-2.904
X10.047 Y-3.043
X10.005 Y-3.181
X9.96 Y-3.319
X9.957 Y-3.329
X9.912 Y-3.457
X9.865 Y-3.596
X9.818 Y-3.713
X9.81 Y-3.734
X9.76 Y-3.872
X9.701 Y-4.011
X9.68 Y-4.059
X9.644 Y-4.149
X9.583 Y-4.287
X9.542 Y-4.374
X9.519 Y-4.426
X9.456 Y-4.564
X9.403 Y-4.665
X9.385 Y-4.702
X9.318 Y-4.84
X9.265 Y-4.936
X9.241 Y-4.979
X9.168 Y-5.117
X9.127 Y-5.19
X9.087 Y-5.255
X9.007 Y-5.394
X8.989 Y-5.427
X8.922 Y-5.532
X8.85 Y-5.646
X8.835 Y-5.67
X8.745 Y-5.809
X8.712 Y-5.856
X8.651 Y-5.947
X8.574 Y-6.061
X8.555 Y-6.085
X8.454 Y-6.223
X8.435 Y-6.25
X8.352 Y-6.362
X8.297 Y-6.43
X8.243 Y-6.5
X8.159 Y-6.609
X8.134 Y-6.638
X8.021 Y-6.773
X8.018 Y-6.777
X7.899 Y-6.915
X7.882 Y-6.933
X7.776 Y-7.053
X7.744 Y-7.09
X7.647 Y-7.192
X7.606 Y-7.234
X7.517 Y-7.33
X7.467 Y-7.381
X7.376 Y-7.468
X7.329 Y-7.515
X7.238 Y-7.606
X7.191 Y-7.65
X7.086 Y-7.745
X7.053 Y-7.776
X6.934 Y-7.883
X6.914 Y-7.9
X6.776 Y-8.019
X6.774 Y-8.021
X6.638 Y-8.133
X6.604 Y-8.16
X6.499 Y-8.245
X6.434 Y-8.298
X6.361 Y-8.351
X6.248 Y-8.436
X6.223 Y-8.456
X6.085 Y-8.555
X6.055 Y-8.575
X5.946 Y-8.652
X5.859 Y-8.713
X5.808 Y-8.745
X5.67 Y-8.836
X5.647 Y-8.851
X5.531 Y-8.923
X5.42 Y-8.989
X5.393 Y-9.006
X5.255 Y-9.09
X5.184 Y-9.128
X5.117 Y-9.166
X4.978 Y-9.245
X4.936 Y-9.266
X4.84 Y-9.314
X4.702 Y-9.388
X4.67 Y-9.404
X4.563 Y-9.453
X4.425 Y-9.521
X4.38 Y-9.543
X4.287 Y-9.583
X4.149 Y-9.644
X4.066 Y-9.681
X4.01 Y-9.703
X3.872 Y-9.757
X3.734 Y-9.814
X3.719 Y-9.819
X3.595 Y-9.862
X3.457 Y-9.914
X3.326 Y-9.958
X3.319 Y-9.96
X3.181 Y-10.004
X3.042 Y-10.049
X2.904 Y-10.087
X2.875 Y-10.096
X2.766 Y-10.129
X2.627 Y-10.163
X2.489 Y-10.199
X2.351 Y-10.232
X2.342 Y-10.234
X2.213 Y-10.261
X2.074 Y-10.293
X1.936 Y-10.317
X1.798 Y-10.344
X1.659 Y-10.367
X1.617 Y-10.372
X1.521 Y-10.386
X1.383 Y-10.409
X1.245 Y-10.423
X1.106 Y-10.44
X0.968 Y-10.454
X0.83 Y-10.464
X0.691 Y-10.477
X0.553 Y-10.483
X0.415 Y-10.491
X0.277 Y-10.495
X0.138 Y-10.496
X0. Y-10.5
X-0.138 Y-10.496
X-0.277 Y-10.495
X-0.415 Y-10.491
X-0.553 Y-10.483
X-0.691 Y-10.477
X-0.83 Y-10.464
X-0.968 Y-10.454
X-1.106 Y-10.44
X-1.245 Y-10.423
X-1.383 Y-10.409
X-1.521 Y-10.386
X-1.617 Y-10.372
X-1.659 Y-10.367
X-1.798 Y-10.344
X-1.936 Y-10.317
X-2.074 Y-10.293
X-2.213 Y-10.261
X-2.342 Y-10.234
X-2.351 Y-10.232
X-2.489 Y-10.199
X-2.627 Y-10.163
X-2.766 Y-10.129
X-2.875 Y-10.096
X-2.904 Y-10.087
X-3.042 Y-10.049
X-3.181 Y-10.004
X-3.319 Y-9.96
X-3.326 Y-9.958
X-3.457 Y-9.914
X-3.595 Y-9.862
X-3.719 Y-9.819
X-3.734 Y-9.814
X-3.872 Y-9.757
X-4.01 Y-9.703
X-4.066 Y-9.681
X-4.149 Y-9.644
X-4.287 Y-9.583
X-4.38 Y-9.543
X-4.425 Y-9.521
X-4.563 Y-9.453
X-4.67 Y-9.404
X-4.702 Y-9.388
X-4.84 Y-9.314
X-4.936 Y-9.266
X-4.978 Y-9.245
X-5.117 Y-9.166
X-5.184 Y-9.128
X-5.255 Y-9.09
X-5.393 Y-9.006
X-5.42 Y-8.989
X-5.531 Y-8.923
X-5.647 Y-8.851
X-5.67 Y-8.836
X-5.808 Y-8.745
X-5.859 Y-8.713
X-5.946 Y-8.652
X-6.055 Y-8.575
X-6.085 Y-8.555
X-6.223 Y-8.456
X-6.248 Y-8.436
X-6.361 Y-8.351
X-6.434 Y-8.298
X-6.499 Y-8.245
X-6.604 Y-8.16
X-6.638 Y-8.133
X-6.774 Y-8.021
X-6.776 Y-8.019
X-6.914 Y-7.9
X-6.934 Y-7.883
X-7.053 Y-7.776
X-7.086 Y-7.745
X-7.191 Y-7.65
X-7.238 Y-7.606
X-7.329 Y-7.515
X-7.376 Y-7.468
X-7.467 Y-7.381
X-7.517 Y-7.33
X-7.606 Y-7.234
X-7.647 Y-7.192
X-7.744 Y-7.09
X-7.776 Y-7.053
X-7.882 Y-6.933
X-7.899 Y-6.915
X-8.018 Y-6.777
X-8.021 Y-6.773
X-8.134 Y-6.638
X-8.159 Y-6.609
X-8.243 Y-6.5
X-8.297 Y-6.43
X-8.352 Y-6.362
X-8.435 Y-6.25
X-8.454 Y-6.223
X-8.555 Y-6.085
X-8.574 Y-6.061
X-8.651 Y-5.947
X-8.712 Y-5.856
X-8.745 Y-5.809
X-8.835 Y-5.67
X-8.85 Y-5.646
X-8.922 Y-5.532
X-8.989 Y-5.427
X-9.007 Y-5.394
X-9.087 Y-5.255
X-9.127 Y-5.19
X-9.168 Y-5.117
X-9.241 Y-4.979
X-9.265 Y-4.936
X-9.318 Y-4.84
X-9.385 Y-4.702
X-9.403 Y-4.665
X-9.456 Y-4.564
X-9.519 Y-4.426
X-9.542 Y-4.374
X-9.583 Y-4.287
X-9.644 Y-4.149
X-9.68 Y-4.059
X-9.701 Y-4.011
X-9.76 Y-3.872
X-9.81 Y-3.734
X-9.818 Y-3.713
X-9.865 Y-3.596
X-9.912 Y-3.457
X-9.957 Y-3.329
X-9.96 Y-3.319
X-10.005 Y-3.181
X-10.047 Y-3.043
X-10.09 Y-2.904
X-10.095 Y-2.888
X-10.126 Y-2.766
X-10.165 Y-2.628
X-10.199 Y-2.489
X-10.231 Y-2.351
X-10.233 Y-2.342
X-10.264 Y-2.213
X-10.29 Y-2.074
X-10.32 Y-1.936
X-10.343 Y-1.798
X-10.366 Y-1.66
X-10.371 Y-1.629
X-10.389 Y-1.521
X-10.405 Y-1.383
X-10.426 Y-1.245
X-10.439 Y-1.106
X-10.453 Y-0.968
X-10.467 Y-0.83
X-10.474 Y-0.691
X-10.485 Y-0.553
X-10.49 Y-0.415
X-10.494 Y-0.277
X-10.499 Y-0.138
X-10.497 Y0.
X-10.499 Y0.138
X-10.494 Y0.277
X-10.49 Y0.415
X-10.485 Y0.553
X-10.474 Y0.691
X-10.467 Y0.83
X-10.453 Y0.968
X-10.439 Y1.106
X-10.426 Y1.245
X-10.405 Y1.383
X-10.389 Y1.521
X-10.371 Y1.629
X-10.366 Y1.66
X-10.343 Y1.798
X-10.32 Y1.936
X-10.29 Y2.074
X-10.264 Y2.213
X-10.233 Y2.342
X-10.231 Y2.351
X-10.199 Y2.489
X-10.165 Y2.628
X-10.126 Y2.766
X-10.095 Y2.888
X-10.09 Y2.904
X-10.047 Y3.043
X-10.005 Y3.181
X-9.96 Y3.319
X-9.957 Y3.329
X-9.912 Y3.457
X-9.865 Y3.596
X-9.818 Y3.713
X-9.81 Y3.734
X-9.76 Y3.872
X-9.701 Y4.011
X-9.68 Y4.059
X-9.644 Y4.149
X-9.583 Y4.287
X-9.542 Y4.374
X-9.519 Y4.426
X-9.456 Y4.564
X-9.403 Y4.665
X-9.385 Y4.702
X-9.318 Y4.84
X-9.265 Y4.936
X-9.241 Y4.979
X-9.168 Y5.117
X-9.127 Y5.19
X-9.087 Y5.255
X-9.007 Y5.394
X-8.989 Y5.427
X-8.922 Y5.532
X-8.85 Y5.646
X-8.835 Y5.67
X-8.745 Y5.809
X-8.712 Y5.856
X-8.651 Y5.947
X-8.574 Y6.061
X-8.555 Y6.085
X-8.454 Y6.223
X-8.435 Y6.25
X-8.352 Y6.362
X-8.297 Y6.43
X-8.243 Y6.5
X-8.159 Y6.609
X-8.134 Y6.638
X-8.021 Y6.773
X-8.018 Y6.777
X-7.899 Y6.915
X-7.882 Y6.933
X-7.776 Y7.053
X-7.744 Y7.09
X-7.647 Y7.192
X-7.606 Y7.234
X-7.517 Y7.33
X-7.467 Y7.381
X-7.376 Y7.468
X-7.329 Y7.515
X-7.238 Y7.606
X-7.191 Y7.65
X-7.086 Y7.745
X-7.053 Y7.776
X-6.934 Y7.883
X-6.914 Y7.9
X-6.776 Y8.019
X-6.774 Y8.021
X-6.638 Y8.133
X-6.604 Y8.16
X-6.499 Y8.245
X-6.434 Y8.298
X-6.361 Y8.351
X-6.248 Y8.436
X-6.223 Y8.456
X-6.085 Y8.555
X-6.055 Y8.575
X-5.946 Y8.652
X-5.859 Y8.713
X-5.808 Y8.745
X-5.67 Y8.836
X-5.647 Y8.851
X-5.531 Y8.923
X-5.42 Y8.989
X-5.393 Y9.006
X-5.255 Y9.09
X-5.184 Y9.128
X-5.117 Y9.166
X-4.978 Y9.245
X-4.936 Y9.266
X-4.84 Y9.314
X-4.702 Y9.388
X-4.67 Y9.404
X-4.563 Y9.453
X-4.425 Y9.521
X-4.38 Y9.543
X-4.287 Y9.583
X-4.149 Y9.644
X-4.066 Y9.681
X-4.01 Y9.703
X-3.872 Y9.757
X-3.734 Y9.814
X-3.719 Y9.819
X-3.595 Y9.862
X-3.457 Y9.914
X-3.326 Y9.958
X-3.319 Y9.96
X-3.181 Y10.004
X-3.042 Y10.049
X-2.904 Y10.087
X-2.875 Y10.096
X-2.766 Y10.129
X-2.627 Y10.163
X-2.489 Y10.199
X-2.351 Y10.232
X-2.342 Y10.234
X-2.213 Y10.261
X-2.074 Y10.293
X-1.936 Y10.317
X-1.798 Y10.344
X-1.659 Y10.367
X-1.617 Y10.372
X-1.521 Y10.386
X-1.383 Y10.409
X-1.245 Y10.423
X-1.106 Y10.44
X-0.968 Y10.454
X-0.83 Y10.464
X-0.691 Y10.477
X-0.553 Y10.483
X-0.415 Y10.491
X-0.277 Y10.495
X-0.138 Y10.496
X0. Y10.5
X0.138 Y10.496
X0.277 Y10.495
X0.415 Y10.491
X0.553 Y10.483
X0.691 Y10.477
X0.83 Y10.464
X0.968 Y10.454
X1.106 Y10.44
X1.245 Y10.423
X1.383 Y10.409
X1.521 Y10.386
X1.617 Y10.372
X1.659 Y10.367
X1.798 Y10.344
X1.936 Y10.317
X2.074 Y10.293
X2.213 Y10.261
X2.342 Y10.234
X2.351 Y10.232
X2.489 Y10.199
X2.627 Y10.163
X2.766 Y10.129
X2.875 Y10.096
X2.904 Y10.087
X3.042 Y10.049
X3.181 Y10.004
X3.319 Y9.96
X3.326 Y9.958
X3.457 Y9.914
X3.595 Y9.862
X3.719 Y9.819
X3.734 Y9.814
X3.872 Y9.757
X4.01 Y9.703
X4.066 Y9.681
X4.149 Y9.644
X4.287 Y9.583
X4.38 Y9.543
X4.425 Y9.521
X4.563 Y9.453
X4.67 Y9.404
X4.702 Y9.388
X4.84 Y9.314
X4.936 Y9.266
X4.978 Y9.245
X5.117 Y9.166
X5.184 Y9.128
X5.255 Y9.09
X5.393 Y9.006
X5.42 Y8.989
X5.531 Y8.923
X5.647 Y8.851
X5.67 Y8.836
X5.808 Y8.745
X5.859 Y8.713
X5.946 Y8.652
X6.055 Y8.575
X6.085 Y8.555
X6.223 Y8.456
X6.248 Y8.436
X6.361 Y8.351
X6.434 Y8.298
X6.499 Y8.245
X6.604 Y8.16
X6.638 Y8.133
X6.774 Y8.021
X6.776 Y8.019
X6.914 Y7.9
X6.934 Y7.883
X7.053 Y7.776
X7.086 Y7.745
X7.191 Y7.65
X7.238 Y7.606
X7.329 Y7.515
X7.376 Y7.468
X7.467 Y7.381
X7.517 Y7.33
X7.606 Y7.234
X7.647 Y7.192
X7.744 Y7.09
X7.776 Y7.053
X7.882 Y6.933
X7.899 Y6.915
X8.018 Y6.777
X8.021 Y6.773
X8.134 Y6.638
X8.159 Y6.609
X8.243 Y6.5
X8.297 Y6.43
X8.352 Y6.362
X8.435 Y6.25
X8.454 Y6.223
X8.555 Y6.085
X8.574 Y6.061
X8.651 Y5.947
X8.712 Y5.856
X8.745 Y5.809
X8.835 Y5.67
X8.85 Y5.646
X8.922 Y5.532
X8.989 Y5.427
X9.007 Y5.394
X9.087 Y5.255
X9.127 Y5.19
X9.168 Y5.117
X9.241 Y4.979
X9.265 Y4.936
X9.318 Y4.84
X9.385 Y4.702
X9.403 Y4.665
X9.456 Y4.564
X9.519 Y4.426
X9.542 Y4.374
X9.583 Y4.287
X9.644 Y4.149
X9.68 Y4.059
X9.701 Y4.011
X9.76 Y3.872
X9.81 Y3.734
X9.818 Y3.713
X9.865 Y3.596
X9.912 Y3.457
X9.957 Y3.329
X9.96 Y3.319
X10.005 Y3.181
X10.047 Y3.043
X10.09 Y2.904
X10.095 Y2.888
X10.126 Y2.766
X10.165 Y2.628
X10.199 Y2.489
X10.231 Y2.351
X10.233 Y2.342
X10.264 Y2.213
X10.29 Y2.074
X10.32 Y1.936
X10.343 Y1.798
X10.366 Y1.66
X10.371 Y1.629
X10.389 Y1.521
X10.405 Y1.383
X10.426 Y1.245
X10.439 Y1.106
X10.453 Y0.968
X10.467 Y0.83
X10.474 Y0.691
X10.485 Y0.553
X10.49 Y0.415
X10.494 Y0.277
X10.499 Y0.138
X10.497 Y0.
X10.499 Y-0.138
X10.494 Y-0.277
X10.49 Y-0.415
X10.485 Y-0.553
X10.474 Y-0.691
X10.467 Y-0.83
X10.453 Y-0.968
X10.439 Y-1.106
X10.426 Y-1.245
X10.405 Y-1.383
X10.389 Y-1.521
X10.371 Y-1.629
X10.366 Y-1.66
X10.343 Y-1.798
X10.32 Y-1.936
X10.29 Y-2.074
X10.264 Y-2.213
X10.233 Y-2.342
X10.231 Y-2.351
X10.209 Y-2.444
X10.194 Y-2.509 Z-10.992
X10.18 Y-2.571 Z-10.97
X10.167 Y-2.626 Z-10.935
X10.156 Y-2.672 Z-10.887
X10.148 Y-2.707 Z-10.83
X10.143 Y-2.729 Z-10.767
X10.141 Y-2.736 Z-10.7
G0 Z15.

M9
G53 Z0.
M30
