(3-CONTOUR2)
(T2  D=3. CR=0. - ZMIN=-12. - FLAT END MILL)
G0 G90 G94 G17
G21
G53 Z0.

(CONTOUR - OUTER EDGE2)
M5
M9
T2
(PART OF A 10 PACK CARBIDE)
M3 S18000
G54
M9
G0 X-13.17 Y0.179
Z15.
Z-10.65
G1 X-13.171 Y0.177 Z-10.684 F500.
X-13.175 Y0.173 Z-10.718
X-13.181 Y0.166 Z-10.751
G3 X-13.19 Y0.156 Z-10.782 I1.076 J-0.934
X-13.201 Y0.143 Z-10.812 I1.085 J-0.924
X-13.213 Y0.127 Z-10.84 I1.095 J-0.911
X-13.228 Y0.109 Z-10.865 I1.108 J-0.896
X-13.243 Y0.089 Z-10.887 I1.123 J-0.878
X-13.26 Y0.066 Z-10.907 I1.138 J-0.857
X-13.276 Y0.044 Z-10.921 I1.155 J-0.835
X-13.292 Y0.021 Z-10.933 I1.171 J-0.813
X-13.308 Y-0.004 Z-10.942 I1.186 J-0.789
X-13.323 Y-0.029 Z-10.947 I1.202 J-0.765
X-13.339 Y-0.056 Z-10.95 I1.218 J-0.739
X-10.872 Y-1.482 Z-11.106 I1.234 J-0.713
X-13.339 Y-0.056 Z-11.263 I-1.234 J0.713
X-10.872 Y-1.482 Z-11.419 I1.234 J-0.713
X-13.339 Y-0.056 Z-11.575 I-1.234 J0.713
X-10.872 Y-1.482 Z-11.732 I1.234 J-0.713
X-13.339 Y-0.056 Z-11.888 I-1.234 J0.713
X-11.889 Y-2.177 Z-12. I1.234 J-0.713
X-11.879 Y-2.176 I-0.216 J1.409
G1 X-10.62 Y-1.973
G3 X-10.371 Y-1.629 I-0.048 J0.296
G1 X-10.389 Y-1.521
X-10.405 Y-1.383
X-10.426 Y-1.245
X-10.439 Y-1.106
X-10.453 Y-0.968
X-10.467 Y-0.83
X-10.474 Y-0.691
X-10.485 Y-0.553
X-10.49 Y-0.415
X-10.494 Y-0.277
X-10.499 Y-0.138
X-10.497 Y0.
X-10.499 Y0.138
X-10.494 Y0.277
X-10.49 Y0.415
X-10.485 Y0.553
X-10.474 Y0.691
X-10.467 Y0.83
X-10.453 Y0.968
X-10.439 Y1.106
X-10.426 Y1.245
X-10.405 Y1.383
X-10.389 Y1.521
X-10.371 Y1.629
X-10.366 Y1.66
X-10.343 Y1.798
X-10.32 Y1.936
X-10.29 Y2.074
X-10.264 Y2.213
X-10.233 Y2.342
X-10.231 Y2.351
X-10.199 Y2.489
X-10.165 Y2.628
X-10.126 Y2.766
X-10.095 Y2.888
X-10.09 Y2.904
X-10.047 Y3.043
X-10.005 Y3.181
X-9.96 Y3.319
X-9.957 Y3.329
X-9.912 Y3.457
X-9.865 Y3.596
X-9.818 Y3.713
X-9.81 Y3.734
X-9.76 Y3.872
X-9.701 Y4.011
X-9.68 Y4.059
X-9.644 Y4.149
X-9.583 Y4.287
X-9.542 Y4.374
X-9.519 Y4.426
X-9.456 Y4.564
X-9.403 Y4.665
X-9.385 Y4.702
X-9.318 Y4.84
X-9.265 Y4.936
X-9.241 Y4.979
X-9.168 Y5.117
X-9.127 Y5.19
X-9.087 Y5.255
X-9.007 Y5.394
X-8.989 Y5.427
X-8.922 Y5.532
X-8.85 Y5.646
X-8.835 Y5.67
X-8.745 Y5.809
X-8.712 Y5.856
X-8.651 Y5.947
X-8.574 Y6.061
X-8.555 Y6.085
X-8.454 Y6.223
X-8.435 Y6.25
X-8.352 Y6.362
X-8.297 Y6.43
X-8.243 Y6.5
X-8.159 Y6.609
X-8.134 Y6.638
X-8.021 Y6.773
X-8.018 Y6.777
X-7.899 Y6.915
X-7.882 Y6.933
X-7.776 Y7.053
X-7.744 Y7.09
X-7.647 Y7.192
X-7.606 Y7.234
X-7.517 Y7.33
X-7.467 Y7.381
X-7.376 Y7.468
X-7.329 Y7.515
X-7.238 Y7.606
X-7.191 Y7.65
X-7.086 Y7.745
X-7.053 Y7.776
X-6.934 Y7.883
X-6.914 Y7.9
X-6.776 Y8.019
X-6.774 Y8.021
X-6.638 Y8.133
X-6.604 Y8.16
X-6.499 Y8.245
X-6.434 Y8.298
X-6.361 Y8.351
X-6.248 Y8.436
X-6.223 Y8.456
X-6.085 Y8.555
X-6.055 Y8.575
X-5.946 Y8.652
X-5.859 Y8.713
X-5.808 Y8.745
X-5.67 Y8.836
X-5.647 Y8.851
X-5.531 Y8.923
X-5.42 Y8.989
X-5.393 Y9.006
X-5.255 Y9.09
X-5.184 Y9.128
X-5.117 Y9.166
X-4.978 Y9.245
X-4.936 Y9.266
X-4.84 Y9.314
X-4.702 Y9.388
X-4.67 Y9.404
X-4.563 Y9.453
X-4.425 Y9.521
X-4.38 Y9.543
X-4.287 Y9.583
X-4.149 Y9.644
X-4.066 Y9.681
X-4.01 Y9.703
X-3.872 Y9.757
X-3.734 Y9.814
X-3.719 Y9.819
X-3.595 Y9.862
X-3.457 Y9.914
X-3.326 Y9.958
X-3.319 Y9.96
X-3.181 Y10.004
X-3.042 Y10.049
X-2.904 Y10.087
X-2.875 Y10.096
X-2.766 Y10.129
X-2.627 Y10.163
X-2.489 Y10.199
X-2.351 Y10.232
X-2.342 Y10.234
X-2.213 Y10.261
X-2.074 Y10.293
X-1.936 Y10.317
X-1.798 Y10.344
X-1.659 Y10.367
X-1.617 Y10.372
X-1.521 Y10.386
X-1.383 Y10.409
X-1.245 Y10.423
X-1.106 Y10.44
X-0.968 Y10.454
X-0.83 Y10.464
X-0.691 Y10.477
X-0.553 Y10.483
X-0.415 Y10.491
X-0.277 Y10.495
X-0.138 Y10.496
X0. Y10.5
X0.138 Y10.496
X0.277 Y10.495
X0.415 Y10.491
X0.553 Y10.483
X0.691 Y10.477
X0.83 Y10.464
X0.968 Y10.454
X1.106 Y10.44
X1.245 Y10.423
X1.383 Y10.409
X1.521 Y10.386
X1.617 Y10.372
X1.659 Y10.367
X1.798 Y10.344
X1.936 Y10.317
X2.074 Y10.293
X2.213 Y10.261
X2.342 Y10.234
X2.351 Y10.232
X2.489 Y10.199
X2.627 Y10.163
X2.766 Y10.129
X2.875 Y10.096
X2.904 Y10.087
X3.042 Y10.049
X3.181 Y10.004
X3.319 Y9.96
X3.326 Y9.958
X3.457 Y9.914
X3.595 Y9.862
X3.719 Y9.819
X3.734 Y9.814
X3.872 Y9.757
X4.01 Y9.703
X4.066 Y9.681
X4.149 Y9.644
X4.287 Y9.583
X4.38 Y9.543
X4.425 Y9.521
X4.563 Y9.453
X4.67 Y9.404
X4.702 Y9.388
X4.84 Y9.314
X4.936 Y9.266
X4.978 Y9.245
X5.117 Y9.166
X5.184 Y9.128
X5.255 Y9.09
X5.393 Y9.006
X5.42 Y8.989
X5.531 Y8.923
X5.647 Y8.851
X5.67 Y8.836
X5.808 Y8.745
X5.859 Y8.713
X5.946 Y8.652
X6.055 Y8.575
X6.085 Y8.555
X6.223 Y8.456
X6.248 Y8.436
X6.361 Y8.351
X6.434 Y8.298
X6.499 Y8.245
X6.604 Y8.16
X6.638 Y8.133
X6.774 Y8.021
X6.776 Y8.019
X6.914 Y7.9
X6.934 Y7.883
X7.053 Y7.776
X7.086 Y7.745
X7.191 Y7.65
X7.238 Y7.606
X7.329 Y7.515
X7.376 Y7.468
X7.467 Y7.381
X7.517 Y7.33
X7.606 Y7.234
X7.647 Y7.192
X7.744 Y7.09
X7.776 Y7.053
X7.882 Y6.933
X7.899 Y6.915
X8.018 Y6.777
X8.021 Y6.773
X8.134 Y6.638
X8.159 Y6.609
X8.243 Y6.5
X8.297 Y6.43
X8.352 Y6.362
X8.435 Y6.25
X8.454 Y6.223
X8.555 Y6.085
X8.574 Y6.061
X8.651 Y5.947
X8.712 Y5.856
X8.745 Y5.809
X8.835 Y5.67
X8.85 Y5.646
X8.922 Y5.532
X8.989 Y5.427
X9.007 Y5.394
X9.087 Y5.255
X9.127 Y5.19
X9.168 Y5.117
X9.241 Y4.979
X9.265 Y4.936
X9.318 Y4.84
X9.385 Y4.702
X9.403 Y4.665
X9.456 Y4.564
X9.519 Y4.426
X9.542 Y4.374
X9.583 Y4.287
X9.644 Y4.149
X9.68 Y4.059
X9.701 Y4.011
X9.76 Y3.872
X9.81 Y3.734
X9.818 Y3.713
X9.865 Y3.596
X9.912 Y3.457
X9.957 Y3.329
X9.96 Y3.319
X10.005 Y3.181
X10.047 Y3.043
X10.09 Y2.904
X10.095 Y2.888
X10.126 Y2.766
X10.165 Y2.628
X10.199 Y2.489
X10.231 Y2.351
X10.233 Y2.342
X10.264 Y2.213
X10.29 Y2.074
X10.32 Y1.936
X10.343 Y1.798
X10.366 Y1.66
X10.371 Y1.629
X10.389 Y1.521
X10.405 Y1.383
X10.426 Y1.245
X10.439 Y1.106
X10.453 Y0.968
X10.467 Y0.83
X10.474 Y0.691
X10.485 Y0.553
X10.49 Y0.415
X10.494 Y0.277
X10.499 Y0.138
X10.497 Y0.
X10.499 Y-0.138
X10.494 Y-0.277
X10.49 Y-0.415
X10.485 Y-0.553
X10.474 Y-0.691
X10.467 Y-0.83
X10.453 Y-0.968
X10.439 Y-1.106
X10.426 Y-1.245
X10.405 Y-1.383
X10.389 Y-1.521
X10.371 Y-1.629
X10.366 Y-1.66
X10.343 Y-1.798
X10.32 Y-1.936
X10.29 Y-2.074
X10.264 Y-2.213
X10.233 Y-2.342
X10.231 Y-2.351
X10.199 Y-2.489
X10.165 Y-2.628
X10.126 Y-2.766
X10.095 Y-2.888
X10.09 Y-2.904
X10.047 Y-3.043
X10.005 Y-3.181
X9.96 Y-3.319
X9.957 Y-3.329
X9.912 Y-3.457
X9.865 Y-3.596
X9.818 Y-3.713
X9.81 Y-3.734
X9.76 Y-3.872
X9.701 Y-4.011
X9.68 Y-4.059
X9.644 Y-4.149
X9.583 Y-4.287
X9.542 Y-4.374
X9.519 Y-4.426
X9.456 Y-4.564
X9.403 Y-4.665
X9.385 Y-4.702
X9.318 Y-4.84
X9.265 Y-4.936
X9.241 Y-4.979
X9.168 Y-5.117
X9.127 Y-5.19
X9.087 Y-5.255
X9.007 Y-5.394
X8.989 Y-5.427
X8.922 Y-5.532
X8.85 Y-5.646
X8.835 Y-5.67
X8.745 Y-5.809
X8.712 Y-5.856
X8.651 Y-5.947
X8.574 Y-6.061
X8.555 Y-6.085
X8.454 Y-6.223
X8.435 Y-6.25
X8.352 Y-6.362
X8.297 Y-6.43
X8.243 Y-6.5
X8.159 Y-6.609
X8.134 Y-6.638
X8.021 Y-6.773
X8.018 Y-6.777
X7.899 Y-6.915
X7.882 Y-6.933
X7.776 Y-7.053
X7.744 Y-7.09
X7.647 Y-7.192
X7.606 Y-7.234
X7.517 Y-7.33
X7.467 Y-7.381
X7.376 Y-7.468
X7.329 Y-7.515
X7.238 Y-7.606
X7.191 Y-7.65
X7.086 Y-7.745
X7.053 Y-7.776
X6.934 Y-7.883
X6.914 Y-7.9
X6.776 Y-8.019
X6.774 Y-8.021
X6.638 Y-8.133
X6.604 Y-8.16
X6.499 Y-8.245
X6.434 Y-8.298
X6.361 Y-8.351
X6.248 Y-8.436
X6.223 Y-8.456
X6.085 Y-8.555
X6.055 Y-8.575
X5.946 Y-8.652
X5.859 Y-8.713
X5.808 Y-8.745
X5.67 Y-8.836
X5.647 Y-8.851
X5.531 Y-8.923
X5.42 Y-8.989
X5.393 Y-9.006
X5.255 Y-9.09
X5.184 Y-9.128
X5.117 Y-9.166
X4.978 Y-9.245
X4.936 Y-9.266
X4.84 Y-9.314
X4.702 Y-9.388
X4.67 Y-9.404
X4.563 Y-9.453
X4.425 Y-9.521
X4.38 Y-9.543
X4.287 Y-9.583
X4.149 Y-9.644
X4.066 Y-9.681
X4.01 Y-9.703
X3.872 Y-9.757
X3.734 Y-9.814
X3.719 Y-9.819
X3.595 Y-9.862
X3.457 Y-9.914
X3.326 Y-9.958
X3.319 Y-9.96
X3.181 Y-10.004
X3.042 Y-10.049
X2.904 Y-10.087
X2.875 Y-10.096
X2.766 Y-10.129
X2.627 Y-10.163
X2.489 Y-10.199
X2.351 Y-10.232
X2.342 Y-10.234
X2.213 Y-10.261
X2.074 Y-10.293
X1.936 Y-10.317
X1.798 Y-10.344
X1.659 Y-10.367
X1.617 Y-10.372
X1.521 Y-10.386
X1.383 Y-10.409
X1.245 Y-10.423
X1.106 Y-10.44
X0.968 Y-10.454
X0.83 Y-10.464
X0.691 Y-10.477
X0.553 Y-10.483
X0.415 Y-10.491
X0.277 Y-10.495
X0.138 Y-10.496
X0. Y-10.5
X-0.138 Y-10.496
X-0.277 Y-10.495
X-0.415 Y-10.491
X-0.553 Y-10.483
X-0.691 Y-10.477
X-0.83 Y-10.464
X-0.968 Y-10.454
X-1.106 Y-10.44
X-1.245 Y-10.423
X-1.383 Y-10.409
X-1.521 Y-10.386
X-1.617 Y-10.372
X-1.659 Y-10.367
X-1.798 Y-10.344
X-1.936 Y-10.317
X-2.074 Y-10.293
X-2.213 Y-10.261
X-2.342 Y-10.234
X-2.351 Y-10.232
X-2.489 Y-10.199
X-2.627 Y-10.163
X-2.766 Y-10.129
X-2.875 Y-10.096
X-2.904 Y-10.087
X-3.042 Y-10.049
X-3.181 Y-10.004
X-3.319 Y-9.96
X-3.326 Y-9.958
X-3.457 Y-9.914
X-3.595 Y-9.862
X-3.719 Y-9.819
X-3.734 Y-9.814
X-3.872 Y-9.757
X-4.01 Y-9.703
X-4.066 Y-9.681
X-4.149 Y-9.644
X-4.287 Y-9.583
X-4.38 Y-9.543
X-4.425 Y-9.521
X-4.563 Y-9.453
X-4.67 Y-9.404
X-4.702 Y-9.388
X-4.84 Y-9.314
X-4.936 Y-9.266
X-4.978 Y-9.245
X-5.117 Y-9.166
X-5.184 Y-9.128
X-5.255 Y-9.09
X-5.393 Y-9.006
X-5.42 Y-8.989
X-5.531 Y-8.923
X-5.647 Y-8.851
X-5.67 Y-8.836
X-5.808 Y-8.745
X-5.859 Y-8.713
X-5.946 Y-8.652
X-6.055 Y-8.575
X-6.085 Y-8.555
X-6.223 Y-8.456
X-6.248 Y-8.436
X-6.361 Y-8.351
X-6.434 Y-8.298
X-6.499 Y-8.245
X-6.604 Y-8.16
X-6.638 Y-8.133
X-6.774 Y-8.021
X-6.776 Y-8.019
X-6.914 Y-7.9
X-6.934 Y-7.883
X-7.053 Y-7.776
X-7.086 Y-7.745
X-7.191 Y-7.65
X-7.238 Y-7.606
X-7.329 Y-7.515
X-7.376 Y-7.468
X-7.467 Y-7.381
X-7.517 Y-7.33
X-7.606 Y-7.234
X-7.647 Y-7.192
X-7.744 Y-7.09
X-7.776 Y-7.053
X-7.882 Y-6.933
X-7.899 Y-6.915
X-8.018 Y-6.777
X-8.021 Y-6.773
X-8.134 Y-6.638
X-8.159 Y-6.609
X-8.243 Y-6.5
X-8.297 Y-6.43
X-8.352 Y-6.362
X-8.435 Y-6.25
X-8.454 Y-6.223
X-8.555 Y-6.085
X-8.574 Y-6.061
X-8.651 Y-5.947
X-8.712 Y-5.856
X-8.745 Y-5.809
X-8.835 Y-5.67
X-8.85 Y-5.646
X-8.922 Y-5.532
X-8.989 Y-5.427
X-9.007 Y-5.394
X-9.087 Y-5.255
X-9.127 Y-5.19
X-9.168 Y-5.117
X-9.241 Y-4.979
X-9.265 Y-4.936
X-9.318 Y-4.84
X-9.385 Y-4.702
X-9.403 Y-4.665
X-9.456 Y-4.564
X-9.519 Y-4.426
X-9.542 Y-4.374
X-9.583 Y-4.287
X-9.644 Y-4.149
X-9.68 Y-4.059
X-9.701 Y-4.011
X-9.76 Y-3.872
X-9.81 Y-3.734
X-9.818 Y-3.713
X-9.865 Y-3.596
X-9.912 Y-3.457
X-9.957 Y-3.329
X-9.96 Y-3.319
X-10.005 Y-3.181
X-10.047 Y-3.043
X-10.09 Y-2.904
X-10.095 Y-2.888
X-10.126 Y-2.766
X-10.165 Y-2.628
X-10.199 Y-2.489
X-10.231 Y-2.351
X-10.233 Y-2.342
X-10.264 Y-2.213
X-10.29 Y-2.074
X-10.32 Y-1.936
X-10.343 Y-1.798
X-10.366 Y-1.66
X-10.371 Y-1.629
X-10.384 Y-1.563 Z-11.992
X-10.395 Y-1.501 Z-11.97
X-10.405 Y-1.445 Z-11.935
X-10.414 Y-1.398 Z-11.887
X-10.42 Y-1.363 Z-11.83
X-10.424 Y-1.341 Z-11.767
X-10.426 Y-1.334 Z-11.7
G0 Z15.

M9
G53 Z0.
M30
