(1)
(T2  D=3.7 CR=0. - ZMIN=-11.499 - FLAT END MILL)
G0 G90 G94 G17
G21
G53 Z0.

(CLEAR INNER)
M5
M9
T2
(PART OF A 10 PACK CARBIDE)
S18000 M3
G54
M9
G0 X3.366 Y1.122
Z2.
Z1.001
Z0.87
G1 Z0.5 F33.
G3 X0.66 Y-1.122 Z0.307 I-1.353 J-1.122 F11.
X3.366 Y1.122 Z0.114 I1.353 J1.122
X0.66 Y-1.122 Z-0.078 I-1.353 J-1.122
X3.366 Y1.122 Z-0.271 I1.353 J1.122
X0.66 Y-1.122 Z-0.464 I-1.353 J-1.122
X3.366 Y1.122 Z-0.657 I1.353 J1.122
X0.66 Y-1.122 Z-0.85 I-1.353 J-1.122
X3.77 Y0. Z-1. I1.353 J1.122
X0.255 I-1.757 J0.
X3.77 I1.757 J0.
G1 X3.803 Y0.881 F33.
X3.792 Y1.03
X3.759 Y1.177
X3.708 Y1.318
X3.642 Y1.452
X3.562 Y1.579
X3.469 Y1.697
X3.367 Y1.807
X3.256 Y1.907
X3.136 Y1.998
X3.01 Y2.079
X2.878 Y2.151
X2.741 Y2.212
X2.6 Y2.262
X2.456 Y2.303
X2.309 Y2.333
X2.16 Y2.353
X2.01 Y2.363
X1.86
X1.711 Y2.352
X1.562 Y2.332
X1.415 Y2.302
X1.271 Y2.262
X1.129 Y2.213
X0.99 Y2.155
X0.856 Y2.088
X0.727 Y2.013
X0.602 Y1.929
X0.483 Y1.838
X0.37 Y1.739
X0.264 Y1.633
X0.164 Y1.521
X0.072 Y1.403
X-0.013 Y1.279
X-0.089 Y1.15
X-0.157 Y1.016
X-0.217 Y0.879
X-0.268 Y0.738
X-0.31 Y0.594
X-0.343 Y0.447
X-0.367 Y0.299
X-0.381 Y0.15
X-0.386 Y0.
X-0.381 Y-0.15
X-0.367 Y-0.299
X-0.344 Y-0.447
X-0.312 Y-0.594
X-0.27 Y-0.738
X-0.22 Y-0.879
X-0.16 Y-1.017
X-0.093 Y-1.151
X-0.017 Y-1.28
X0.067 Y-1.405
X0.159 Y-1.523
X0.258 Y-1.636
X0.363 Y-1.743
X0.475 Y-1.842
X0.593 Y-1.935
X0.717 Y-2.02
X0.846 Y-2.097
X0.979 Y-2.166
X1.116 Y-2.226
X1.257 Y-2.278
X1.401 Y-2.321
X1.547 Y-2.354
X1.695 Y-2.379
X1.844 Y-2.394
X1.994 Y-2.4
X2.144 Y-2.396
X2.294 Y-2.383
X2.442 Y-2.361
X2.589 Y-2.33
X2.733 Y-2.289
X2.875 Y-2.24
X3.013 Y-2.182
X3.147 Y-2.115
X3.277 Y-2.04
X3.402 Y-1.957
X3.522 Y-1.866
X3.635 Y-1.769
X3.743 Y-1.664
X3.843 Y-1.552
X3.937 Y-1.435
X4.022 Y-1.312
X4.1 Y-1.184
X4.173 Y-1.046
X4.253 Y-0.869
X4.34 Y-0.643
X4.423 Y-0.381
X4.48 Y-0.152
X4.517 Y0.039
X4.54 Y0.221
X4.552 Y0.392
X4.553 Y0.549
X4.545 Y0.707
X4.529 Y0.858
X4.503 Y1.006
X4.469 Y1.152
X4.426 Y1.296
X4.374 Y1.437
X4.314 Y1.574
X4.246 Y1.708
X4.169 Y1.836
X4.085 Y1.961
X3.993 Y2.079
X3.894 Y2.193
X3.786 Y2.302
X3.673 Y2.404
X3.554 Y2.499
X3.427 Y2.589
X3.293 Y2.672
X3.152 Y2.748
X3.006 Y2.816
X2.856 Y2.876
X2.702 Y2.926
X2.543 Y2.968
X2.38 Y3.001
X2.213 Y3.024
X2.044 Y3.038
X1.873 Y3.042
X1.702 Y3.035
X1.531 Y3.018
X1.361 Y2.991
X1.191 Y2.953
X1.023 Y2.906
X0.857 Y2.848
X0.693 Y2.779
X0.534 Y2.701
X0.378 Y2.613
X0.227 Y2.516
X0.082 Y2.409
X-0.056 Y2.294
X-0.188 Y2.171
X-0.312 Y2.04
X-0.428 Y1.902
X-0.536 Y1.757
X-0.636 Y1.606
X-0.726 Y1.448
X-0.807 Y1.285
X-0.879 Y1.117
X-0.94 Y0.945
X-0.992 Y0.769
X-1.033 Y0.59
X-1.063 Y0.409
X-1.082 Y0.226
X-1.091 Y0.043
X-1.088 Y-0.142
X-1.075 Y-0.325
X-1.05 Y-0.507
X-1.015 Y-0.688
X-0.97 Y-0.866
X-0.913 Y-1.041
X-0.847 Y-1.212
X-0.771 Y-1.379
X-0.684 Y-1.542
X-0.588 Y-1.699
X-0.483 Y-1.85
X-0.369 Y-1.994
X-0.247 Y-2.132
X-0.116 Y-2.263
X0.022 Y-2.385
X0.167 Y-2.499
X0.319 Y-2.605
X0.477 Y-2.701
X0.641 Y-2.788
X0.809 Y-2.864
X0.981 Y-2.931
X1.157 Y-2.987
X1.336 Y-3.033
X1.517 Y-3.068
X1.7 Y-3.092
X1.884 Y-3.105
X2.068 Y-3.107
X2.252 Y-3.099
X2.435 Y-3.079
X2.617 Y-3.048
X2.797 Y-3.007
X2.974 Y-2.955
X3.148 Y-2.893
X3.318 Y-2.82
X3.483 Y-2.738
X3.643 Y-2.645
X3.798 Y-2.544
X3.946 Y-2.433
X4.088 Y-2.313
X4.227 Y-2.18
X4.362 Y-2.036
X4.494 Y-1.877
X4.627 Y-1.696
X4.753 Y-1.499
X4.868 Y-1.295
X4.97 Y-1.085
X5.059 Y-0.872
X5.134 Y-0.658
X5.194 Y-0.444
X5.241 Y-0.23
X5.274 Y-0.019
X5.295 Y0.191
X5.303 Y0.398
X5.298 Y0.602
X5.282 Y0.803
X5.254 Y1.
X5.214 Y1.195
X5.164 Y1.385
X5.103 Y1.571
X5.031 Y1.752
X4.948 Y1.929
X4.854 Y2.101
X4.751 Y2.267
X4.638 Y2.427
X4.555 Y2.53
X4.503 Y2.591
X4.446 Y2.648
X4.386 Y2.702
X3.995 Y3.025
X3.953 Y3.056
X3.912 Y3.082
X3.277 Y3.381
X3.116 Y3.452
X2.938 Y3.489
X2.403 Y3.591
X2.225 Y3.621
X2.047 Y3.613
X1.513 Y3.579
X1.335 Y3.566
X1.299 Y3.559
X1.157 Y3.514
X0.623 Y3.341
X0.445 Y3.277
X0.323 Y3.203
X-0.267 Y2.828
X-0.309 Y2.798
X-0.351 Y2.759
X-0.801 Y2.28
X-0.933 Y2.135
X-0.979 Y2.059
X-1.335 Y1.411
X-1.376 Y1.329
X-1.4 Y1.246
X-1.582 Y0.534
X-1.601 Y0.445
X-1.603 Y0.356
Y-0.356
X-1.601 Y-0.445
X-1.582 Y-0.534
X-1.4 Y-1.246
X-1.376 Y-1.329
X-1.335 Y-1.411
X-0.979 Y-2.059
X-0.933 Y-2.135
X-0.801 Y-2.28
X-0.351 Y-2.759
X-0.309 Y-2.798
X-0.267 Y-2.828
X0.323 Y-3.203
X0.445 Y-3.277
X0.623 Y-3.341
X1.157 Y-3.514
X1.299 Y-3.559
X1.335 Y-3.566
X1.513 Y-3.579
X2.047 Y-3.613
X2.225 Y-3.621
X2.403 Y-3.591
X2.938 Y-3.489
X3.116 Y-3.452
X3.294 Y-3.373
X3.912 Y-3.082
X3.953 Y-3.056
X3.995 Y-3.025
X4.54 Y-2.575
X4.638 Y-2.491
X4.718 Y-2.388
X5.074 Y-1.898
X5.16 Y-1.779
X5.186 Y-1.735
X5.206 Y-1.69
X5.452 Y-1.068
X5.517 Y-0.89
X5.541 Y-0.712
X5.609 Y-0.178
X5.628 Y0.
X5.608 Y0.184
X5.541 Y0.712
X5.517 Y0.89
X5.452 Y1.068
X5.206 Y1.69
X5.186 Y1.735
X5.16 Y1.779
X4.896 Y2.143
X4.718 Y2.388
X4.638 Y2.491
X4.54 Y2.575
X4.386 Y2.702
G3 X3.792 Y2.44 I-0.226 J-0.293
G1 X3.79 Y2.409 Z-0.999
X3.804 Y2.351 Z-0.988
X3.817 Y2.295 Z-0.968
X3.829 Y2.244 Z-0.94
X3.863 Y2.202 Z-0.897
X3.89 Y2.167 Z-0.845
X3.912 Y2.14 Z-0.785
X3.926 Y2.122 Z-0.72
X3.932 Y2.117 Z-0.675
X3.935 Y2.115 Z-0.63
G0 Z1.001
X3.366 Y1.122
Z-0.13
G1 Z-0.5 F33.
G3 X0.66 Y-1.122 Z-0.693 I-1.353 J-1.122 F11.
X3.366 Y1.122 Z-0.886 I1.353 J1.122
X0.66 Y-1.122 Z-1.078 I-1.353 J-1.122
X3.366 Y1.122 Z-1.271 I1.353 J1.122
X0.66 Y-1.122 Z-1.464 I-1.353 J-1.122
X3.366 Y1.122 Z-1.657 I1.353 J1.122
X0.66 Y-1.122 Z-1.85 I-1.353 J-1.122
X3.77 Y0. Z-2. I1.353 J1.122
X0.255 I-1.757 J0.
X3.77 I1.757 J0.
G1 X3.803 Y0.881 F33.
X3.792 Y1.03
X3.759 Y1.177
X3.708 Y1.318
X3.642 Y1.452
X3.562 Y1.579
X3.469 Y1.697
X3.367 Y1.807
X3.256 Y1.907
X3.136 Y1.998
X3.01 Y2.079
X2.878 Y2.151
X2.741 Y2.212
X2.6 Y2.262
X2.456 Y2.303
X2.309 Y2.333
X2.16 Y2.353
X2.01 Y2.363
X1.86
X1.711 Y2.352
X1.562 Y2.332
X1.415 Y2.302
X1.271 Y2.262
X1.129 Y2.213
X0.99 Y2.155
X0.856 Y2.088
X0.727 Y2.013
X0.602 Y1.929
X0.483 Y1.838
X0.37 Y1.739
X0.264 Y1.633
X0.164 Y1.521
X0.072 Y1.403
X-0.013 Y1.279
X-0.089 Y1.15
X-0.157 Y1.016
X-0.217 Y0.879
X-0.268 Y0.738
X-0.31 Y0.594
X-0.343 Y0.447
X-0.367 Y0.299
X-0.381 Y0.15
X-0.386 Y0.
X-0.381 Y-0.15
X-0.367 Y-0.299
X-0.344 Y-0.447
X-0.312 Y-0.594
X-0.27 Y-0.738
X-0.22 Y-0.879
X-0.16 Y-1.017
X-0.093 Y-1.151
X-0.017 Y-1.28
X0.067 Y-1.405
X0.159 Y-1.523
X0.258 Y-1.636
X0.363 Y-1.743
X0.475 Y-1.842
X0.593 Y-1.935
X0.717 Y-2.02
X0.846 Y-2.097
X0.979 Y-2.166
X1.116 Y-2.226
X1.257 Y-2.278
X1.401 Y-2.321
X1.547 Y-2.354
X1.695 Y-2.379
X1.844 Y-2.394
X1.994 Y-2.4
X2.144 Y-2.396
X2.294 Y-2.383
X2.442 Y-2.361
X2.589 Y-2.33
X2.733 Y-2.289
X2.875 Y-2.24
X3.013 Y-2.182
X3.147 Y-2.115
X3.277 Y-2.04
X3.402 Y-1.957
X3.522 Y-1.866
X3.635 Y-1.769
X3.743 Y-1.664
X3.843 Y-1.552
X3.937 Y-1.435
X4.022 Y-1.312
X4.1 Y-1.184
X4.173 Y-1.046
X4.253 Y-0.869
X4.34 Y-0.643
X4.423 Y-0.381
X4.48 Y-0.152
X4.517 Y0.039
X4.54 Y0.221
X4.552 Y0.392
X4.553 Y0.549
X4.545 Y0.707
X4.529 Y0.858
X4.503 Y1.006
X4.469 Y1.152
X4.426 Y1.296
X4.374 Y1.437
X4.314 Y1.574
X4.246 Y1.708
X4.169 Y1.836
X4.085 Y1.961
X3.993 Y2.079
X3.894 Y2.193
X3.786 Y2.302
X3.673 Y2.404
X3.554 Y2.499
X3.427 Y2.589
X3.293 Y2.672
X3.152 Y2.748
X3.006 Y2.816
X2.856 Y2.876
X2.702 Y2.926
X2.543 Y2.968
X2.38 Y3.001
X2.213 Y3.024
X2.044 Y3.038
X1.873 Y3.042
X1.702 Y3.035
X1.531 Y3.018
X1.361 Y2.991
X1.191 Y2.953
X1.023 Y2.906
X0.857 Y2.848
X0.693 Y2.779
X0.534 Y2.701
X0.378 Y2.613
X0.227 Y2.516
X0.082 Y2.409
X-0.056 Y2.294
X-0.188 Y2.171
X-0.312 Y2.04
X-0.428 Y1.902
X-0.536 Y1.757
X-0.636 Y1.606
X-0.726 Y1.448
X-0.807 Y1.285
X-0.879 Y1.117
X-0.94 Y0.945
X-0.992 Y0.769
X-1.033 Y0.59
X-1.063 Y0.409
X-1.082 Y0.226
X-1.091 Y0.043
X-1.088 Y-0.142
X-1.075 Y-0.325
X-1.05 Y-0.507
X-1.015 Y-0.688
X-0.97 Y-0.866
X-0.913 Y-1.041
X-0.847 Y-1.212
X-0.771 Y-1.379
X-0.684 Y-1.542
X-0.588 Y-1.699
X-0.483 Y-1.85
X-0.369 Y-1.994
X-0.247 Y-2.132
X-0.116 Y-2.263
X0.022 Y-2.385
X0.167 Y-2.499
X0.319 Y-2.605
X0.477 Y-2.701
X0.641 Y-2.788
X0.809 Y-2.864
X0.981 Y-2.931
X1.157 Y-2.987
X1.336 Y-3.033
X1.517 Y-3.068
X1.7 Y-3.092
X1.884 Y-3.105
X2.068 Y-3.107
X2.252 Y-3.099
X2.435 Y-3.079
X2.617 Y-3.048
X2.797 Y-3.007
X2.974 Y-2.955
X3.148 Y-2.893
X3.318 Y-2.82
X3.483 Y-2.738
X3.643 Y-2.645
X3.798 Y-2.544
X3.946 Y-2.433
X4.088 Y-2.313
X4.227 Y-2.18
X4.362 Y-2.036
X4.494 Y-1.877
X4.627 Y-1.696
X4.753 Y-1.499
X4.868 Y-1.295
X4.97 Y-1.085
X5.059 Y-0.872
X5.134 Y-0.658
X5.194 Y-0.444
X5.241 Y-0.23
X5.274 Y-0.019
X5.295 Y0.191
X5.303 Y0.398
X5.298 Y0.602
X5.282 Y0.803
X5.254 Y1.
X5.214 Y1.195
X5.164 Y1.385
X5.103 Y1.571
X5.031 Y1.752
X4.948 Y1.929
X4.854 Y2.101
X4.751 Y2.267
X4.638 Y2.427
X4.555 Y2.53
X4.503 Y2.591
X4.446 Y2.648
X4.386 Y2.702
X3.995 Y3.025
X3.953 Y3.056
X3.912 Y3.082
X3.277 Y3.381
X3.116 Y3.452
X2.938 Y3.489
X2.403 Y3.591
X2.225 Y3.621
X2.047 Y3.613
X1.513 Y3.579
X1.335 Y3.566
X1.299 Y3.559
X1.157 Y3.514
X0.623 Y3.341
X0.445 Y3.277
X0.323 Y3.203
X-0.267 Y2.828
X-0.309 Y2.798
X-0.351 Y2.759
X-0.801 Y2.28
X-0.933 Y2.135
X-0.979 Y2.059
X-1.335 Y1.411
X-1.376 Y1.329
X-1.4 Y1.246
X-1.582 Y0.534
X-1.601 Y0.445
X-1.603 Y0.356
Y-0.356
X-1.601 Y-0.445
X-1.582 Y-0.534
X-1.4 Y-1.246
X-1.376 Y-1.329
X-1.335 Y-1.411
X-0.979 Y-2.059
X-0.933 Y-2.135
X-0.801 Y-2.28
X-0.351 Y-2.759
X-0.309 Y-2.798
X-0.267 Y-2.828
X0.323 Y-3.203
X0.445 Y-3.277
X0.623 Y-3.341
X1.157 Y-3.514
X1.299 Y-3.559
X1.335 Y-3.566
X1.513 Y-3.579
X2.047 Y-3.613
X2.225 Y-3.621
X2.403 Y-3.591
X2.938 Y-3.489
X3.116 Y-3.452
X3.294 Y-3.373
X3.912 Y-3.082
X3.953 Y-3.056
X3.995 Y-3.025
X4.54 Y-2.575
X4.638 Y-2.491
X4.718 Y-2.388
X5.074 Y-1.898
X5.16 Y-1.779
X5.186 Y-1.735
X5.206 Y-1.69
X5.452 Y-1.068
X5.517 Y-0.89
X5.541 Y-0.712
X5.609 Y-0.178
X5.628 Y0.
X5.608 Y0.184
X5.541 Y0.712
X5.517 Y0.89
X5.452 Y1.068
X5.206 Y1.69
X5.186 Y1.735
X5.16 Y1.779
X4.896 Y2.143
X4.718 Y2.388
X4.638 Y2.491
X4.54 Y2.575
X4.386 Y2.702
G3 X3.792 Y2.44 I-0.226 J-0.293
G1 X3.79 Y2.409 Z-1.999
X3.804 Y2.351 Z-1.988
X3.817 Y2.295 Z-1.968
X3.829 Y2.244 Z-1.94
X3.863 Y2.202 Z-1.897
X3.89 Y2.167 Z-1.845
X3.912 Y2.14 Z-1.785
X3.926 Y2.122 Z-1.72
X3.932 Y2.117 Z-1.675
X3.935 Y2.115 Z-1.63
G0 Z1.001
X3.366 Y1.122
Z-1.13
G1 Z-1.5 F33.
G3 X0.66 Y-1.122 Z-1.693 I-1.353 J-1.122 F11.
X3.366 Y1.122 Z-1.886 I1.353 J1.122
X0.66 Y-1.122 Z-2.078 I-1.353 J-1.122
X3.366 Y1.122 Z-2.271 I1.353 J1.122
X0.66 Y-1.122 Z-2.464 I-1.353 J-1.122
X3.366 Y1.122 Z-2.657 I1.353 J1.122
X0.66 Y-1.122 Z-2.85 I-1.353 J-1.122
X3.77 Y0. Z-3. I1.353 J1.122
X0.255 I-1.757 J0.
X3.77 I1.757 J0.
G1 X3.803 Y0.881 F33.
X3.792 Y1.03
X3.759 Y1.177
X3.708 Y1.318
X3.642 Y1.452
X3.562 Y1.579
X3.469 Y1.697
X3.367 Y1.807
X3.256 Y1.907
X3.136 Y1.998
X3.01 Y2.079
X2.878 Y2.151
X2.741 Y2.212
X2.6 Y2.262
X2.456 Y2.303
X2.309 Y2.333
X2.16 Y2.353
X2.01 Y2.363
X1.86
X1.711 Y2.352
X1.562 Y2.332
X1.415 Y2.302
X1.271 Y2.262
X1.129 Y2.213
X0.99 Y2.155
X0.856 Y2.088
X0.727 Y2.013
X0.602 Y1.929
X0.483 Y1.838
X0.37 Y1.739
X0.264 Y1.633
X0.164 Y1.521
X0.072 Y1.403
X-0.013 Y1.279
X-0.089 Y1.15
X-0.157 Y1.016
X-0.217 Y0.879
X-0.268 Y0.738
X-0.31 Y0.594
X-0.343 Y0.447
X-0.367 Y0.299
X-0.381 Y0.15
X-0.386 Y0.
X-0.381 Y-0.15
X-0.367 Y-0.299
X-0.344 Y-0.447
X-0.312 Y-0.594
X-0.27 Y-0.738
X-0.22 Y-0.879
X-0.16 Y-1.017
X-0.093 Y-1.151
X-0.017 Y-1.28
X0.067 Y-1.405
X0.159 Y-1.523
X0.258 Y-1.636
X0.363 Y-1.743
X0.475 Y-1.842
X0.593 Y-1.935
X0.717 Y-2.02
X0.846 Y-2.097
X0.979 Y-2.166
X1.116 Y-2.226
X1.257 Y-2.278
X1.401 Y-2.321
X1.547 Y-2.354
X1.695 Y-2.379
X1.844 Y-2.394
X1.994 Y-2.4
X2.144 Y-2.396
X2.294 Y-2.383
X2.442 Y-2.361
X2.589 Y-2.33
X2.733 Y-2.289
X2.875 Y-2.24
X3.013 Y-2.182
X3.147 Y-2.115
X3.277 Y-2.04
X3.402 Y-1.957
X3.522 Y-1.866
X3.635 Y-1.769
X3.743 Y-1.664
X3.843 Y-1.552
X3.937 Y-1.435
X4.022 Y-1.312
X4.1 Y-1.184
X4.173 Y-1.046
X4.253 Y-0.869
X4.34 Y-0.643
X4.423 Y-0.381
X4.48 Y-0.152
X4.517 Y0.039
X4.54 Y0.221
X4.552 Y0.392
X4.553 Y0.549
X4.545 Y0.707
X4.529 Y0.858
X4.503 Y1.006
X4.469 Y1.152
X4.426 Y1.296
X4.374 Y1.437
X4.314 Y1.574
X4.246 Y1.708
X4.169 Y1.836
X4.085 Y1.961
X3.993 Y2.079
X3.894 Y2.193
X3.786 Y2.302
X3.673 Y2.404
X3.554 Y2.499
X3.427 Y2.589
X3.293 Y2.672
X3.152 Y2.748
X3.006 Y2.816
X2.856 Y2.876
X2.702 Y2.926
X2.543 Y2.968
X2.38 Y3.001
X2.213 Y3.024
X2.044 Y3.038
X1.873 Y3.042
X1.702 Y3.035
X1.531 Y3.018
X1.361 Y2.991
X1.191 Y2.953
X1.023 Y2.906
X0.857 Y2.848
X0.693 Y2.779
X0.534 Y2.701
X0.378 Y2.613
X0.227 Y2.516
X0.082 Y2.409
X-0.056 Y2.294
X-0.188 Y2.171
X-0.312 Y2.04
X-0.428 Y1.902
X-0.536 Y1.757
X-0.636 Y1.606
X-0.726 Y1.448
X-0.807 Y1.285
X-0.879 Y1.117
X-0.94 Y0.945
X-0.992 Y0.769
X-1.033 Y0.59
X-1.063 Y0.409
X-1.082 Y0.226
X-1.091 Y0.043
X-1.088 Y-0.142
X-1.075 Y-0.325
X-1.05 Y-0.507
X-1.015 Y-0.688
X-0.97 Y-0.866
X-0.913 Y-1.041
X-0.847 Y-1.212
X-0.771 Y-1.379
X-0.684 Y-1.542
X-0.588 Y-1.699
X-0.483 Y-1.85
X-0.369 Y-1.994
X-0.247 Y-2.132
X-0.116 Y-2.263
X0.022 Y-2.385
X0.167 Y-2.499
X0.319 Y-2.605
X0.477 Y-2.701
X0.641 Y-2.788
X0.809 Y-2.864
X0.981 Y-2.931
X1.157 Y-2.987
X1.336 Y-3.033
X1.517 Y-3.068
X1.7 Y-3.092
X1.884 Y-3.105
X2.068 Y-3.107
X2.252 Y-3.099
X2.435 Y-3.079
X2.617 Y-3.048
X2.797 Y-3.007
X2.974 Y-2.955
X3.148 Y-2.893
X3.318 Y-2.82
X3.483 Y-2.738
X3.643 Y-2.645
X3.798 Y-2.544
X3.946 Y-2.433
X4.088 Y-2.313
X4.227 Y-2.18
X4.362 Y-2.036
X4.494 Y-1.877
X4.627 Y-1.696
X4.753 Y-1.499
X4.868 Y-1.295
X4.97 Y-1.085
X5.059 Y-0.872
X5.134 Y-0.658
X5.194 Y-0.444
X5.241 Y-0.23
X5.274 Y-0.019
X5.295 Y0.191
X5.303 Y0.398
X5.298 Y0.602
X5.282 Y0.803
X5.254 Y1.
X5.214 Y1.195
X5.164 Y1.385
X5.103 Y1.571
X5.031 Y1.752
X4.948 Y1.929
X4.854 Y2.101
X4.751 Y2.267
X4.638 Y2.427
X4.555 Y2.53
X4.503 Y2.591
X4.446 Y2.648
X4.386 Y2.702
X3.995 Y3.025
X3.953 Y3.056
X3.912 Y3.082
X3.277 Y3.381
X3.116 Y3.452
X2.938 Y3.489
X2.403 Y3.591
X2.225 Y3.621
X2.047 Y3.613
X1.513 Y3.579
X1.335 Y3.566
X1.299 Y3.559
X1.157 Y3.514
X0.623 Y3.341
X0.445 Y3.277
X0.323 Y3.203
X-0.267 Y2.828
X-0.309 Y2.798
X-0.351 Y2.759
X-0.801 Y2.28
X-0.933 Y2.135
X-0.979 Y2.059
X-1.335 Y1.411
X-1.376 Y1.329
X-1.4 Y1.246
X-1.582 Y0.534
X-1.601 Y0.445
X-1.603 Y0.356
Y-0.356
X-1.601 Y-0.445
X-1.582 Y-0.534
X-1.4 Y-1.246
X-1.376 Y-1.329
X-1.335 Y-1.411
X-0.979 Y-2.059
X-0.933 Y-2.135
X-0.801 Y-2.28
X-0.351 Y-2.759
X-0.309 Y-2.798
X-0.267 Y-2.828
X0.323 Y-3.203
X0.445 Y-3.277
X0.623 Y-3.341
X1.157 Y-3.514
X1.299 Y-3.559
X1.335 Y-3.566
X1.513 Y-3.579
X2.047 Y-3.613
X2.225 Y-3.621
X2.403 Y-3.591
X2.938 Y-3.489
X3.116 Y-3.452
X3.294 Y-3.373
X3.912 Y-3.082
X3.953 Y-3.056
X3.995 Y-3.025
X4.54 Y-2.575
X4.638 Y-2.491
X4.718 Y-2.388
X5.074 Y-1.898
X5.16 Y-1.779
X5.186 Y-1.735
X5.206 Y-1.69
X5.452 Y-1.068
X5.517 Y-0.89
X5.541 Y-0.712
X5.609 Y-0.178
X5.628 Y0.
X5.608 Y0.184
X5.541 Y0.712
X5.517 Y0.89
X5.452 Y1.068
X5.206 Y1.69
X5.186 Y1.735
X5.16 Y1.779
X4.896 Y2.143
X4.718 Y2.388
X4.638 Y2.491
X4.54 Y2.575
X4.386 Y2.702
G3 X3.792 Y2.44 I-0.226 J-0.293
G1 X3.79 Y2.409 Z-2.999
X3.804 Y2.351 Z-2.988
X3.817 Y2.295 Z-2.968
X3.829 Y2.244 Z-2.94
X3.863 Y2.202 Z-2.897
X3.89 Y2.167 Z-2.845
X3.912 Y2.14 Z-2.785
X3.926 Y2.122 Z-2.72
X3.932 Y2.117 Z-2.675
X3.935 Y2.115 Z-2.63
G0 Z1.001
X3.366 Y1.122
Z-2.13
G1 Z-2.5 F33.
G3 X0.66 Y-1.122 Z-2.693 I-1.353 J-1.122 F11.
X3.366 Y1.122 Z-2.886 I1.353 J1.122
X0.66 Y-1.122 Z-3.078 I-1.353 J-1.122
X3.366 Y1.122 Z-3.271 I1.353 J1.122
X0.66 Y-1.122 Z-3.464 I-1.353 J-1.122
X3.366 Y1.122 Z-3.657 I1.353 J1.122
X0.66 Y-1.122 Z-3.85 I-1.353 J-1.122
X3.77 Y0. Z-4. I1.353 J1.122
X0.255 I-1.757 J0.
X3.77 I1.757 J0.
G1 X3.803 Y0.881 F33.
X3.792 Y1.03
X3.759 Y1.177
X3.708 Y1.318
X3.642 Y1.452
X3.562 Y1.579
X3.469 Y1.697
X3.367 Y1.807
X3.256 Y1.907
X3.136 Y1.998
X3.01 Y2.079
X2.878 Y2.151
X2.741 Y2.212
X2.6 Y2.262
X2.456 Y2.303
X2.309 Y2.333
X2.16 Y2.353
X2.01 Y2.363
X1.86
X1.711 Y2.352
X1.562 Y2.332
X1.415 Y2.302
X1.271 Y2.262
X1.129 Y2.213
X0.99 Y2.155
X0.856 Y2.088
X0.727 Y2.013
X0.602 Y1.929
X0.483 Y1.838
X0.37 Y1.739
X0.264 Y1.633
X0.164 Y1.521
X0.072 Y1.403
X-0.013 Y1.279
X-0.089 Y1.15
X-0.157 Y1.016
X-0.217 Y0.879
X-0.268 Y0.738
X-0.31 Y0.594
X-0.343 Y0.447
X-0.367 Y0.299
X-0.381 Y0.15
X-0.386 Y0.
X-0.381 Y-0.15
X-0.367 Y-0.299
X-0.344 Y-0.447
X-0.312 Y-0.594
X-0.27 Y-0.738
X-0.22 Y-0.879
X-0.16 Y-1.017
X-0.093 Y-1.151
X-0.017 Y-1.28
X0.067 Y-1.405
X0.159 Y-1.523
X0.258 Y-1.636
X0.363 Y-1.743
X0.475 Y-1.842
X0.593 Y-1.935
X0.717 Y-2.02
X0.846 Y-2.097
X0.979 Y-2.166
X1.116 Y-2.226
X1.257 Y-2.278
X1.401 Y-2.321
X1.547 Y-2.354
X1.695 Y-2.379
X1.844 Y-2.394
X1.994 Y-2.4
X2.144 Y-2.396
X2.294 Y-2.383
X2.442 Y-2.361
X2.589 Y-2.33
X2.733 Y-2.289
X2.875 Y-2.24
X3.013 Y-2.182
X3.147 Y-2.115
X3.277 Y-2.04
X3.402 Y-1.957
X3.522 Y-1.866
X3.635 Y-1.769
X3.743 Y-1.664
X3.843 Y-1.552
X3.937 Y-1.435
X4.022 Y-1.312
X4.1 Y-1.184
X4.173 Y-1.046
X4.253 Y-0.869
X4.34 Y-0.643
X4.423 Y-0.381
X4.48 Y-0.152
X4.517 Y0.039
X4.54 Y0.221
X4.552 Y0.392
X4.553 Y0.549
X4.545 Y0.707
X4.529 Y0.858
X4.503 Y1.006
X4.469 Y1.152
X4.426 Y1.296
X4.374 Y1.437
X4.314 Y1.574
X4.246 Y1.708
X4.169 Y1.836
X4.085 Y1.961
X3.993 Y2.079
X3.894 Y2.193
X3.786 Y2.302
X3.673 Y2.404
X3.554 Y2.499
X3.427 Y2.589
X3.293 Y2.672
X3.152 Y2.748
X3.006 Y2.816
X2.856 Y2.876
X2.702 Y2.926
X2.543 Y2.968
X2.38 Y3.001
X2.213 Y3.024
X2.044 Y3.038
X1.873 Y3.042
X1.702 Y3.035
X1.531 Y3.018
X1.361 Y2.991
X1.191 Y2.953
X1.023 Y2.906
X0.857 Y2.848
X0.693 Y2.779
X0.534 Y2.701
X0.378 Y2.613
X0.227 Y2.516
X0.082 Y2.409
X-0.056 Y2.294
X-0.188 Y2.171
X-0.312 Y2.04
X-0.428 Y1.902
X-0.536 Y1.757
X-0.636 Y1.606
X-0.726 Y1.448
X-0.807 Y1.285
X-0.879 Y1.117
X-0.94 Y0.945
X-0.992 Y0.769
X-1.033 Y0.59
X-1.063 Y0.409
X-1.082 Y0.226
X-1.091 Y0.043
X-1.088 Y-0.142
X-1.075 Y-0.325
X-1.05 Y-0.507
X-1.015 Y-0.688
X-0.97 Y-0.866
X-0.913 Y-1.041
X-0.847 Y-1.212
X-0.771 Y-1.379
X-0.684 Y-1.542
X-0.588 Y-1.699
X-0.483 Y-1.85
X-0.369 Y-1.994
X-0.247 Y-2.132
X-0.116 Y-2.263
X0.022 Y-2.385
X0.167 Y-2.499
X0.319 Y-2.605
X0.477 Y-2.701
X0.641 Y-2.788
X0.809 Y-2.864
X0.981 Y-2.931
X1.157 Y-2.987
X1.336 Y-3.033
X1.517 Y-3.068
X1.7 Y-3.092
X1.884 Y-3.105
X2.068 Y-3.107
X2.252 Y-3.099
X2.435 Y-3.079
X2.617 Y-3.048
X2.797 Y-3.007
X2.974 Y-2.955
X3.148 Y-2.893
X3.318 Y-2.82
X3.483 Y-2.738
X3.643 Y-2.645
X3.798 Y-2.544
X3.946 Y-2.433
X4.088 Y-2.313
X4.227 Y-2.18
X4.362 Y-2.036
X4.494 Y-1.877
X4.627 Y-1.696
X4.753 Y-1.499
X4.868 Y-1.295
X4.97 Y-1.085
X5.059 Y-0.872
X5.134 Y-0.658
X5.194 Y-0.444
X5.241 Y-0.23
X5.274 Y-0.019
X5.295 Y0.191
X5.303 Y0.398
X5.298 Y0.602
X5.282 Y0.803
X5.254 Y1.
X5.214 Y1.195
X5.164 Y1.385
X5.103 Y1.571
X5.031 Y1.752
X4.948 Y1.929
X4.854 Y2.101
X4.751 Y2.267
X4.638 Y2.427
X4.555 Y2.53
X4.503 Y2.591
X4.446 Y2.648
X4.386 Y2.702
X3.995 Y3.025
X3.953 Y3.056
X3.912 Y3.082
X3.277 Y3.381
X3.116 Y3.452
X2.938 Y3.489
X2.403 Y3.591
X2.225 Y3.621
X2.047 Y3.613
X1.513 Y3.579
X1.335 Y3.566
X1.299 Y3.559
X1.157 Y3.514
X0.623 Y3.341
X0.445 Y3.277
X0.323 Y3.203
X-0.267 Y2.828
X-0.309 Y2.798
X-0.351 Y2.759
X-0.801 Y2.28
X-0.933 Y2.135
X-0.979 Y2.059
X-1.335 Y1.411
X-1.376 Y1.329
X-1.4 Y1.246
X-1.582 Y0.534
X-1.601 Y0.445
X-1.603 Y0.356
Y-0.356
X-1.601 Y-0.445
X-1.582 Y-0.534
X-1.4 Y-1.246
X-1.376 Y-1.329
X-1.335 Y-1.411
X-0.979 Y-2.059
X-0.933 Y-2.135
X-0.801 Y-2.28
X-0.351 Y-2.759
X-0.309 Y-2.798
X-0.267 Y-2.828
X0.323 Y-3.203
X0.445 Y-3.277
X0.623 Y-3.341
X1.157 Y-3.514
X1.299 Y-3.559
X1.335 Y-3.566
X1.513 Y-3.579
X2.047 Y-3.613
X2.225 Y-3.621
X2.403 Y-3.591
X2.938 Y-3.489
X3.116 Y-3.452
X3.294 Y-3.373
X3.912 Y-3.082
X3.953 Y-3.056
X3.995 Y-3.025
X4.54 Y-2.575
X4.638 Y-2.491
X4.718 Y-2.388
X5.074 Y-1.898
X5.16 Y-1.779
X5.186 Y-1.735
X5.206 Y-1.69
X5.452 Y-1.068
X5.517 Y-0.89
X5.541 Y-0.712
X5.609 Y-0.178
X5.628 Y0.
X5.608 Y0.184
X5.541 Y0.712
X5.517 Y0.89
X5.452 Y1.068
X5.206 Y1.69
X5.186 Y1.735
X5.16 Y1.779
X4.896 Y2.143
X4.718 Y2.388
X4.638 Y2.491
X4.54 Y2.575
X4.386 Y2.702
G3 X3.792 Y2.44 I-0.226 J-0.293
G1 X3.79 Y2.409 Z-3.999
X3.804 Y2.351 Z-3.988
X3.817 Y2.295 Z-3.968
X3.829 Y2.244 Z-3.94
X3.863 Y2.202 Z-3.897
X3.89 Y2.167 Z-3.845
X3.912 Y2.14 Z-3.785
X3.926 Y2.122 Z-3.72
X3.932 Y2.117 Z-3.675
X3.935 Y2.115 Z-3.63
G0 Z1.001
X3.366 Y1.122
Z-3.13
G1 Z-3.5 F33.
G3 X0.66 Y-1.122 Z-3.693 I-1.353 J-1.122 F11.
X3.366 Y1.122 Z-3.886 I1.353 J1.122
X0.66 Y-1.122 Z-4.078 I-1.353 J-1.122
X3.366 Y1.122 Z-4.271 I1.353 J1.122
X0.66 Y-1.122 Z-4.464 I-1.353 J-1.122
X3.366 Y1.122 Z-4.657 I1.353 J1.122
X0.66 Y-1.122 Z-4.85 I-1.353 J-1.122
X3.77 Y0. Z-5. I1.353 J1.122
X0.255 I-1.757 J0.
X3.77 I1.757 J0.
G1 X3.803 Y0.881 F33.
X3.792 Y1.03
X3.759 Y1.177
X3.708 Y1.318
X3.642 Y1.452
X3.562 Y1.579
X3.469 Y1.697
X3.367 Y1.807
X3.256 Y1.907
X3.136 Y1.998
X3.01 Y2.079
X2.878 Y2.151
X2.741 Y2.212
X2.6 Y2.262
X2.456 Y2.303
X2.309 Y2.333
X2.16 Y2.353
X2.01 Y2.363
X1.86
X1.711 Y2.352
X1.562 Y2.332
X1.415 Y2.302
X1.271 Y2.262
X1.129 Y2.213
X0.99 Y2.155
X0.856 Y2.088
X0.727 Y2.013
X0.602 Y1.929
X0.483 Y1.838
X0.37 Y1.739
X0.264 Y1.633
X0.164 Y1.521
X0.072 Y1.403
X-0.013 Y1.279
X-0.089 Y1.15
X-0.157 Y1.016
X-0.217 Y0.879
X-0.268 Y0.738
X-0.31 Y0.594
X-0.343 Y0.447
X-0.367 Y0.299
X-0.381 Y0.15
X-0.386 Y0.
X-0.381 Y-0.15
X-0.367 Y-0.299
X-0.344 Y-0.447
X-0.312 Y-0.594
X-0.27 Y-0.738
X-0.22 Y-0.879
X-0.16 Y-1.017
X-0.093 Y-1.151
X-0.017 Y-1.28
X0.067 Y-1.405
X0.159 Y-1.523
X0.258 Y-1.636
X0.363 Y-1.743
X0.475 Y-1.842
X0.593 Y-1.935
X0.717 Y-2.02
X0.846 Y-2.097
X0.979 Y-2.166
X1.116 Y-2.226
X1.257 Y-2.278
X1.401 Y-2.321
X1.547 Y-2.354
X1.695 Y-2.379
X1.844 Y-2.394
X1.994 Y-2.4
X2.144 Y-2.396
X2.294 Y-2.383
X2.442 Y-2.361
X2.589 Y-2.33
X2.733 Y-2.289
X2.875 Y-2.24
X3.013 Y-2.182
X3.147 Y-2.115
X3.277 Y-2.04
X3.402 Y-1.957
X3.522 Y-1.866
X3.635 Y-1.769
X3.743 Y-1.664
X3.843 Y-1.552
X3.937 Y-1.435
X4.022 Y-1.312
X4.1 Y-1.184
X4.173 Y-1.046
X4.253 Y-0.869
X4.34 Y-0.643
X4.423 Y-0.381
X4.48 Y-0.152
X4.517 Y0.039
X4.54 Y0.221
X4.552 Y0.392
X4.553 Y0.549
X4.545 Y0.707
X4.529 Y0.858
X4.503 Y1.006
X4.469 Y1.152
X4.426 Y1.296
X4.374 Y1.437
X4.314 Y1.574
X4.246 Y1.708
X4.169 Y1.836
X4.085 Y1.961
X3.993 Y2.079
X3.894 Y2.193
X3.786 Y2.302
X3.673 Y2.404
X3.554 Y2.499
X3.427 Y2.589
X3.293 Y2.672
X3.152 Y2.748
X3.006 Y2.816
X2.856 Y2.876
X2.702 Y2.926
X2.543 Y2.968
X2.38 Y3.001
X2.213 Y3.024
X2.044 Y3.038
X1.873 Y3.042
X1.702 Y3.035
X1.531 Y3.018
X1.361 Y2.991
X1.191 Y2.953
X1.023 Y2.906
X0.857 Y2.848
X0.693 Y2.779
X0.534 Y2.701
X0.378 Y2.613
X0.227 Y2.516
X0.082 Y2.409
X-0.056 Y2.294
X-0.188 Y2.171
X-0.312 Y2.04
X-0.428 Y1.902
X-0.536 Y1.757
X-0.636 Y1.606
X-0.726 Y1.448
X-0.807 Y1.285
X-0.879 Y1.117
X-0.94 Y0.945
X-0.992 Y0.769
X-1.033 Y0.59
X-1.063 Y0.409
X-1.082 Y0.226
X-1.091 Y0.043
X-1.088 Y-0.142
X-1.075 Y-0.325
X-1.05 Y-0.507
X-1.015 Y-0.688
X-0.97 Y-0.866
X-0.913 Y-1.041
X-0.847 Y-1.212
X-0.771 Y-1.379
X-0.684 Y-1.542
X-0.588 Y-1.699
X-0.483 Y-1.85
X-0.369 Y-1.994
X-0.247 Y-2.132
X-0.116 Y-2.263
X0.022 Y-2.385
X0.167 Y-2.499
X0.319 Y-2.605
X0.477 Y-2.701
X0.641 Y-2.788
X0.809 Y-2.864
X0.981 Y-2.931
X1.157 Y-2.987
X1.336 Y-3.033
X1.517 Y-3.068
X1.7 Y-3.092
X1.884 Y-3.105
X2.068 Y-3.107
X2.252 Y-3.099
X2.435 Y-3.079
X2.617 Y-3.048
X2.797 Y-3.007
X2.974 Y-2.955
X3.148 Y-2.893
X3.318 Y-2.82
X3.483 Y-2.738
X3.643 Y-2.645
X3.798 Y-2.544
X3.946 Y-2.433
X4.088 Y-2.313
X4.227 Y-2.18
X4.362 Y-2.036
X4.494 Y-1.877
X4.627 Y-1.696
X4.753 Y-1.499
X4.868 Y-1.295
X4.97 Y-1.085
X5.059 Y-0.872
X5.134 Y-0.658
X5.194 Y-0.444
X5.241 Y-0.23
X5.274 Y-0.019
X5.295 Y0.191
X5.303 Y0.398
X5.298 Y0.602
X5.282 Y0.803
X5.254 Y1.
X5.214 Y1.195
X5.164 Y1.385
X5.103 Y1.571
X5.031 Y1.752
X4.948 Y1.929
X4.854 Y2.101
X4.751 Y2.267
X4.638 Y2.427
X4.555 Y2.53
X4.503 Y2.591
X4.446 Y2.648
X4.386 Y2.702
X3.995 Y3.025
X3.953 Y3.056
X3.912 Y3.082
X3.277 Y3.381
X3.116 Y3.452
X2.938 Y3.489
X2.403 Y3.591
X2.225 Y3.621
X2.047 Y3.613
X1.513 Y3.579
X1.335 Y3.566
X1.299 Y3.559
X1.157 Y3.514
X0.623 Y3.341
X0.445 Y3.277
X0.323 Y3.203
X-0.267 Y2.828
X-0.309 Y2.798
X-0.351 Y2.759
X-0.801 Y2.28
X-0.933 Y2.135
X-0.979 Y2.059
X-1.335 Y1.411
X-1.376 Y1.329
X-1.4 Y1.246
X-1.582 Y0.534
X-1.601 Y0.445
X-1.603 Y0.356
Y-0.356
X-1.601 Y-0.445
X-1.582 Y-0.534
X-1.4 Y-1.246
X-1.376 Y-1.329
X-1.335 Y-1.411
X-0.979 Y-2.059
X-0.933 Y-2.135
X-0.801 Y-2.28
X-0.351 Y-2.759
X-0.309 Y-2.798
X-0.267 Y-2.828
X0.323 Y-3.203
X0.445 Y-3.277
X0.623 Y-3.341
X1.157 Y-3.514
X1.299 Y-3.559
X1.335 Y-3.566
X1.513 Y-3.579
X2.047 Y-3.613
X2.225 Y-3.621
X2.403 Y-3.591
X2.938 Y-3.489
X3.116 Y-3.452
X3.294 Y-3.373
X3.912 Y-3.082
X3.953 Y-3.056
X3.995 Y-3.025
X4.54 Y-2.575
X4.638 Y-2.491
X4.718 Y-2.388
X5.074 Y-1.898
X5.16 Y-1.779
X5.186 Y-1.735
X5.206 Y-1.69
X5.452 Y-1.068
X5.517 Y-0.89
X5.541 Y-0.712
X5.609 Y-0.178
X5.628 Y0.
X5.608 Y0.184
X5.541 Y0.712
X5.517 Y0.89
X5.452 Y1.068
X5.206 Y1.69
X5.186 Y1.735
X5.16 Y1.779
X4.896 Y2.143
X4.718 Y2.388
X4.638 Y2.491
X4.54 Y2.575
X4.386 Y2.702
G3 X3.792 Y2.44 I-0.226 J-0.293
G1 X3.79 Y2.409 Z-4.999
X3.804 Y2.351 Z-4.988
X3.817 Y2.295 Z-4.968
X3.829 Y2.244 Z-4.94
X3.863 Y2.202 Z-4.897
X3.89 Y2.167 Z-4.845
X3.912 Y2.14 Z-4.785
X3.926 Y2.122 Z-4.72
X3.932 Y2.117 Z-4.675
X3.935 Y2.115 Z-4.63
G0 Z1.001
X3.366 Y1.122
Z-4.13
G1 Z-4.5 F33.
G3 X0.66 Y-1.122 Z-4.693 I-1.353 J-1.122 F11.
X3.366 Y1.122 Z-4.886 I1.353 J1.122
X0.66 Y-1.122 Z-5.078 I-1.353 J-1.122
X3.366 Y1.122 Z-5.271 I1.353 J1.122
X0.66 Y-1.122 Z-5.464 I-1.353 J-1.122
X3.366 Y1.122 Z-5.657 I1.353 J1.122
X0.66 Y-1.122 Z-5.85 I-1.353 J-1.122
X3.77 Y0. Z-6. I1.353 J1.122
X0.255 I-1.757 J0.
X3.77 I1.757 J0.
G1 X3.803 Y0.881 F33.
X3.792 Y1.03
X3.759 Y1.177
X3.708 Y1.318
X3.642 Y1.452
X3.562 Y1.579
X3.469 Y1.697
X3.367 Y1.807
X3.256 Y1.907
X3.136 Y1.998
X3.01 Y2.079
X2.878 Y2.151
X2.741 Y2.212
X2.6 Y2.262
X2.456 Y2.303
X2.309 Y2.333
X2.16 Y2.353
X2.01 Y2.363
X1.86
X1.711 Y2.352
X1.562 Y2.332
X1.415 Y2.302
X1.271 Y2.262
X1.129 Y2.213
X0.99 Y2.155
X0.856 Y2.088
X0.727 Y2.013
X0.602 Y1.929
X0.483 Y1.838
X0.37 Y1.739
X0.264 Y1.633
X0.164 Y1.521
X0.072 Y1.403
X-0.013 Y1.279
X-0.089 Y1.15
X-0.157 Y1.016
X-0.217 Y0.879
X-0.268 Y0.738
X-0.31 Y0.594
X-0.343 Y0.447
X-0.367 Y0.299
X-0.381 Y0.15
X-0.386 Y0.
X-0.381 Y-0.15
X-0.367 Y-0.299
X-0.344 Y-0.447
X-0.312 Y-0.594
X-0.27 Y-0.738
X-0.22 Y-0.879
X-0.16 Y-1.017
X-0.093 Y-1.151
X-0.017 Y-1.28
X0.067 Y-1.405
X0.159 Y-1.523
X0.258 Y-1.636
X0.363 Y-1.743
X0.475 Y-1.842
X0.593 Y-1.935
X0.717 Y-2.02
X0.846 Y-2.097
X0.979 Y-2.166
X1.116 Y-2.226
X1.257 Y-2.278
X1.401 Y-2.321
X1.547 Y-2.354
X1.695 Y-2.379
X1.844 Y-2.394
X1.994 Y-2.4
X2.144 Y-2.396
X2.294 Y-2.383
X2.442 Y-2.361
X2.589 Y-2.33
X2.733 Y-2.289
X2.875 Y-2.24
X3.013 Y-2.182
X3.147 Y-2.115
X3.277 Y-2.04
X3.402 Y-1.957
X3.522 Y-1.866
X3.635 Y-1.769
X3.743 Y-1.664
X3.843 Y-1.552
X3.937 Y-1.435
X4.022 Y-1.312
X4.1 Y-1.184
X4.173 Y-1.046
X4.253 Y-0.869
X4.34 Y-0.643
X4.423 Y-0.381
X4.48 Y-0.152
X4.517 Y0.039
X4.54 Y0.221
X4.552 Y0.392
X4.553 Y0.549
X4.545 Y0.707
X4.529 Y0.858
X4.503 Y1.006
X4.469 Y1.152
X4.426 Y1.296
X4.374 Y1.437
X4.314 Y1.574
X4.246 Y1.708
X4.169 Y1.836
X4.085 Y1.961
X3.993 Y2.079
X3.894 Y2.193
X3.786 Y2.302
X3.673 Y2.404
X3.554 Y2.499
X3.427 Y2.589
X3.293 Y2.672
X3.152 Y2.748
X3.006 Y2.816
X2.856 Y2.876
X2.702 Y2.926
X2.543 Y2.968
X2.38 Y3.001
X2.213 Y3.024
X2.044 Y3.038
X1.873 Y3.042
X1.702 Y3.035
X1.531 Y3.018
X1.361 Y2.991
X1.191 Y2.953
X1.023 Y2.906
X0.857 Y2.848
X0.693 Y2.779
X0.534 Y2.701
X0.378 Y2.613
X0.227 Y2.516
X0.082 Y2.409
X-0.056 Y2.294
X-0.188 Y2.171
X-0.312 Y2.04
X-0.428 Y1.902
X-0.536 Y1.757
X-0.636 Y1.606
X-0.726 Y1.448
X-0.807 Y1.285
X-0.879 Y1.117
X-0.94 Y0.945
X-0.992 Y0.769
X-1.033 Y0.59
X-1.063 Y0.409
X-1.082 Y0.226
X-1.091 Y0.043
X-1.088 Y-0.142
X-1.075 Y-0.325
X-1.05 Y-0.507
X-1.015 Y-0.688
X-0.97 Y-0.866
X-0.913 Y-1.041
X-0.847 Y-1.212
X-0.771 Y-1.379
X-0.684 Y-1.542
X-0.588 Y-1.699
X-0.483 Y-1.85
X-0.369 Y-1.994
X-0.247 Y-2.132
X-0.116 Y-2.263
X0.022 Y-2.385
X0.167 Y-2.499
X0.319 Y-2.605
X0.477 Y-2.701
X0.641 Y-2.788
X0.809 Y-2.864
X0.981 Y-2.931
X1.157 Y-2.987
X1.336 Y-3.033
X1.517 Y-3.068
X1.7 Y-3.092
X1.884 Y-3.105
X2.068 Y-3.107
X2.252 Y-3.099
X2.435 Y-3.079
X2.617 Y-3.048
X2.797 Y-3.007
X2.974 Y-2.955
X3.148 Y-2.893
X3.318 Y-2.82
X3.483 Y-2.738
X3.643 Y-2.645
X3.798 Y-2.544
X3.946 Y-2.433
X4.088 Y-2.313
X4.227 Y-2.18
X4.362 Y-2.036
X4.494 Y-1.877
X4.627 Y-1.696
X4.753 Y-1.499
X4.868 Y-1.295
X4.97 Y-1.085
X5.059 Y-0.872
X5.134 Y-0.658
X5.194 Y-0.444
X5.241 Y-0.23
X5.274 Y-0.019
X5.295 Y0.191
X5.303 Y0.398
X5.298 Y0.602
X5.282 Y0.803
X5.254 Y1.
X5.214 Y1.195
X5.164 Y1.385
X5.103 Y1.571
X5.031 Y1.752
X4.948 Y1.929
X4.854 Y2.101
X4.751 Y2.267
X4.638 Y2.427
X4.555 Y2.53
X4.503 Y2.591
X4.446 Y2.648
X4.386 Y2.702
X3.995 Y3.025
X3.953 Y3.056
X3.912 Y3.082
X3.277 Y3.381
X3.116 Y3.452
X2.938 Y3.489
X2.403 Y3.591
X2.225 Y3.621
X2.047 Y3.613
X1.513 Y3.579
X1.335 Y3.566
X1.299 Y3.559
X1.157 Y3.514
X0.623 Y3.341
X0.445 Y3.277
X0.323 Y3.203
X-0.267 Y2.828
X-0.309 Y2.798
X-0.351 Y2.759
X-0.801 Y2.28
X-0.933 Y2.135
X-0.979 Y2.059
X-1.335 Y1.411
X-1.376 Y1.329
X-1.4 Y1.246
X-1.582 Y0.534
X-1.601 Y0.445
X-1.603 Y0.356
Y-0.356
X-1.601 Y-0.445
X-1.582 Y-0.534
X-1.4 Y-1.246
X-1.376 Y-1.329
X-1.335 Y-1.411
X-0.979 Y-2.059
X-0.933 Y-2.135
X-0.801 Y-2.28
X-0.351 Y-2.759
X-0.309 Y-2.798
X-0.267 Y-2.828
X0.323 Y-3.203
X0.445 Y-3.277
X0.623 Y-3.341
X1.157 Y-3.514
X1.299 Y-3.559
X1.335 Y-3.566
X1.513 Y-3.579
X2.047 Y-3.613
X2.225 Y-3.621
X2.403 Y-3.591
X2.938 Y-3.489
X3.116 Y-3.452
X3.294 Y-3.373
X3.912 Y-3.082
X3.953 Y-3.056
X3.995 Y-3.025
X4.54 Y-2.575
X4.638 Y-2.491
X4.718 Y-2.388
X5.074 Y-1.898
X5.16 Y-1.779
X5.186 Y-1.735
X5.206 Y-1.69
X5.452 Y-1.068
X5.517 Y-0.89
X5.541 Y-0.712
X5.609 Y-0.178
X5.628 Y0.
X5.608 Y0.184
X5.541 Y0.712
X5.517 Y0.89
X5.452 Y1.068
X5.206 Y1.69
X5.186 Y1.735
X5.16 Y1.779
X4.896 Y2.143
X4.718 Y2.388
X4.638 Y2.491
X4.54 Y2.575
X4.386 Y2.702
G3 X3.792 Y2.44 I-0.226 J-0.293
G1 X3.79 Y2.409 Z-5.999
X3.804 Y2.351 Z-5.988
X3.817 Y2.295 Z-5.968
X3.829 Y2.244 Z-5.94
X3.863 Y2.202 Z-5.897
X3.89 Y2.167 Z-5.845
X3.912 Y2.14 Z-5.785
X3.926 Y2.122 Z-5.72
X3.932 Y2.117 Z-5.675
X3.935 Y2.115 Z-5.63
G0 Z1.001
X3.366 Y1.122
Z-5.13
G1 Z-5.5 F33.
G3 X0.66 Y-1.122 Z-5.693 I-1.353 J-1.122 F11.
X3.366 Y1.122 Z-5.886 I1.353 J1.122
X0.66 Y-1.122 Z-6.078 I-1.353 J-1.122
X3.366 Y1.122 Z-6.271 I1.353 J1.122
X0.66 Y-1.122 Z-6.464 I-1.353 J-1.122
X3.366 Y1.122 Z-6.657 I1.353 J1.122
X0.66 Y-1.122 Z-6.85 I-1.353 J-1.122
X3.77 Y0. Z-7. I1.353 J1.122
X0.255 I-1.757 J0.
X3.77 I1.757 J0.
G1 X3.803 Y0.881 F33.
X3.792 Y1.03
X3.759 Y1.177
X3.708 Y1.318
X3.642 Y1.452
X3.562 Y1.579
X3.469 Y1.697
X3.367 Y1.807
X3.256 Y1.907
X3.136 Y1.998
X3.01 Y2.079
X2.878 Y2.151
X2.741 Y2.212
X2.6 Y2.262
X2.456 Y2.303
X2.309 Y2.333
X2.16 Y2.353
X2.01 Y2.363
X1.86
X1.711 Y2.352
X1.562 Y2.332
X1.415 Y2.302
X1.271 Y2.262
X1.129 Y2.213
X0.99 Y2.155
X0.856 Y2.088
X0.727 Y2.013
X0.602 Y1.929
X0.483 Y1.838
X0.37 Y1.739
X0.264 Y1.633
X0.164 Y1.521
X0.072 Y1.403
X-0.013 Y1.279
X-0.089 Y1.15
X-0.157 Y1.016
X-0.217 Y0.879
X-0.268 Y0.738
X-0.31 Y0.594
X-0.343 Y0.447
X-0.367 Y0.299
X-0.381 Y0.15
X-0.386 Y0.
X-0.381 Y-0.15
X-0.367 Y-0.299
X-0.344 Y-0.447
X-0.312 Y-0.594
X-0.27 Y-0.738
X-0.22 Y-0.879
X-0.16 Y-1.017
X-0.093 Y-1.151
X-0.017 Y-1.28
X0.067 Y-1.405
X0.159 Y-1.523
X0.258 Y-1.636
X0.363 Y-1.743
X0.475 Y-1.842
X0.593 Y-1.935
X0.717 Y-2.02
X0.846 Y-2.097
X0.979 Y-2.166
X1.116 Y-2.226
X1.257 Y-2.278
X1.401 Y-2.321
X1.547 Y-2.354
X1.695 Y-2.379
X1.844 Y-2.394
X1.994 Y-2.4
X2.144 Y-2.396
X2.294 Y-2.383
X2.442 Y-2.361
X2.589 Y-2.33
X2.733 Y-2.289
X2.875 Y-2.24
X3.013 Y-2.182
X3.147 Y-2.115
X3.277 Y-2.04
X3.402 Y-1.957
X3.522 Y-1.866
X3.635 Y-1.769
X3.743 Y-1.664
X3.843 Y-1.552
X3.937 Y-1.435
X4.022 Y-1.312
X4.1 Y-1.184
X4.173 Y-1.046
X4.253 Y-0.869
X4.34 Y-0.643
X4.423 Y-0.381
X4.48 Y-0.152
X4.517 Y0.039
X4.54 Y0.221
X4.552 Y0.392
X4.553 Y0.549
X4.545 Y0.707
X4.529 Y0.858
X4.503 Y1.006
X4.469 Y1.152
X4.426 Y1.296
X4.374 Y1.437
X4.314 Y1.574
X4.246 Y1.708
X4.169 Y1.836
X4.085 Y1.961
X3.993 Y2.079
X3.894 Y2.193
X3.786 Y2.302
X3.673 Y2.404
X3.554 Y2.499
X3.427 Y2.589
X3.293 Y2.672
X3.152 Y2.748
X3.006 Y2.816
X2.856 Y2.876
X2.702 Y2.926
X2.543 Y2.968
X2.38 Y3.001
X2.213 Y3.024
X2.044 Y3.038
X1.873 Y3.042
X1.702 Y3.035
X1.531 Y3.018
X1.361 Y2.991
X1.191 Y2.953
X1.023 Y2.906
X0.857 Y2.848
X0.693 Y2.779
X0.534 Y2.701
X0.378 Y2.613
X0.227 Y2.516
X0.082 Y2.409
X-0.056 Y2.294
X-0.188 Y2.171
X-0.312 Y2.04
X-0.428 Y1.902
X-0.536 Y1.757
X-0.636 Y1.606
X-0.726 Y1.448
X-0.807 Y1.285
X-0.879 Y1.117
X-0.94 Y0.945
X-0.992 Y0.769
X-1.033 Y0.59
X-1.063 Y0.409
X-1.082 Y0.226
X-1.091 Y0.043
X-1.088 Y-0.142
X-1.075 Y-0.325
X-1.05 Y-0.507
X-1.015 Y-0.688
X-0.97 Y-0.866
X-0.913 Y-1.041
X-0.847 Y-1.212
X-0.771 Y-1.379
X-0.684 Y-1.542
X-0.588 Y-1.699
X-0.483 Y-1.85
X-0.369 Y-1.994
X-0.247 Y-2.132
X-0.116 Y-2.263
X0.022 Y-2.385
X0.167 Y-2.499
X0.319 Y-2.605
X0.477 Y-2.701
X0.641 Y-2.788
X0.809 Y-2.864
X0.981 Y-2.931
X1.157 Y-2.987
X1.336 Y-3.033
X1.517 Y-3.068
X1.7 Y-3.092
X1.884 Y-3.105
X2.068 Y-3.107
X2.252 Y-3.099
X2.435 Y-3.079
X2.617 Y-3.048
X2.797 Y-3.007
X2.974 Y-2.955
X3.148 Y-2.893
X3.318 Y-2.82
X3.483 Y-2.738
X3.643 Y-2.645
X3.798 Y-2.544
X3.946 Y-2.433
X4.088 Y-2.313
X4.227 Y-2.18
X4.362 Y-2.036
X4.494 Y-1.877
X4.627 Y-1.696
X4.753 Y-1.499
X4.868 Y-1.295
X4.97 Y-1.085
X5.059 Y-0.872
X5.134 Y-0.658
X5.194 Y-0.444
X5.241 Y-0.23
X5.274 Y-0.019
X5.295 Y0.191
X5.303 Y0.398
X5.298 Y0.602
X5.282 Y0.803
X5.254 Y1.
X5.214 Y1.195
X5.164 Y1.385
X5.103 Y1.571
X5.031 Y1.752
X4.948 Y1.929
X4.854 Y2.101
X4.751 Y2.267
X4.638 Y2.427
X4.555 Y2.53
X4.503 Y2.591
X4.446 Y2.648
X4.386 Y2.702
X3.995 Y3.025
X3.953 Y3.056
X3.912 Y3.082
X3.277 Y3.381
X3.116 Y3.452
X2.938 Y3.489
X2.403 Y3.591
X2.225 Y3.621
X2.047 Y3.613
X1.513 Y3.579
X1.335 Y3.566
X1.299 Y3.559
X1.157 Y3.514
X0.623 Y3.341
X0.445 Y3.277
X0.323 Y3.203
X-0.267 Y2.828
X-0.309 Y2.798
X-0.351 Y2.759
X-0.801 Y2.28
X-0.933 Y2.135
X-0.979 Y2.059
X-1.335 Y1.411
X-1.376 Y1.329
X-1.4 Y1.246
X-1.582 Y0.534
X-1.601 Y0.445
X-1.603 Y0.356
Y-0.356
X-1.601 Y-0.445
X-1.582 Y-0.534
X-1.4 Y-1.246
X-1.376 Y-1.329
X-1.335 Y-1.411
X-0.979 Y-2.059
X-0.933 Y-2.135
X-0.801 Y-2.28
X-0.351 Y-2.759
X-0.309 Y-2.798
X-0.267 Y-2.828
X0.323 Y-3.203
X0.445 Y-3.277
X0.623 Y-3.341
X1.157 Y-3.514
X1.299 Y-3.559
X1.335 Y-3.566
X1.513 Y-3.579
X2.047 Y-3.613
X2.225 Y-3.621
X2.403 Y-3.591
X2.938 Y-3.489
X3.116 Y-3.452
X3.294 Y-3.373
X3.912 Y-3.082
X3.953 Y-3.056
X3.995 Y-3.025
X4.54 Y-2.575
X4.638 Y-2.491
X4.718 Y-2.388
X5.074 Y-1.898
X5.16 Y-1.779
X5.186 Y-1.735
X5.206 Y-1.69
X5.452 Y-1.068
X5.517 Y-0.89
X5.541 Y-0.712
X5.609 Y-0.178
X5.628 Y0.
X5.608 Y0.184
X5.541 Y0.712
X5.517 Y0.89
X5.452 Y1.068
X5.206 Y1.69
X5.186 Y1.735
X5.16 Y1.779
X4.896 Y2.143
X4.718 Y2.388
X4.638 Y2.491
X4.54 Y2.575
X4.386 Y2.702
G3 X3.792 Y2.44 I-0.226 J-0.293
G1 X3.79 Y2.409 Z-6.999
X3.804 Y2.351 Z-6.988
X3.817 Y2.295 Z-6.968
X3.829 Y2.244 Z-6.94
X3.863 Y2.202 Z-6.897
X3.89 Y2.167 Z-6.845
X3.912 Y2.14 Z-6.785
X3.926 Y2.122 Z-6.72
X3.932 Y2.117 Z-6.675
X3.935 Y2.115 Z-6.63
G0 Z1.001
X3.366 Y1.122
Z-6.13
G1 Z-6.5 F33.
G3 X0.66 Y-1.122 Z-6.693 I-1.353 J-1.122 F11.
X3.366 Y1.122 Z-6.886 I1.353 J1.122
X0.66 Y-1.122 Z-7.078 I-1.353 J-1.122
X3.366 Y1.122 Z-7.271 I1.353 J1.122
X0.66 Y-1.122 Z-7.464 I-1.353 J-1.122
X3.366 Y1.122 Z-7.657 I1.353 J1.122
X0.66 Y-1.122 Z-7.85 I-1.353 J-1.122
X3.77 Y0. Z-8. I1.353 J1.122
X0.255 I-1.757 J0.
X3.77 I1.757 J0.
G1 X3.803 Y0.881 F33.
X3.792 Y1.03
X3.759 Y1.177
X3.708 Y1.318
X3.642 Y1.452
X3.562 Y1.579
X3.469 Y1.697
X3.367 Y1.807
X3.256 Y1.907
X3.136 Y1.998
X3.01 Y2.079
X2.878 Y2.151
X2.741 Y2.212
X2.6 Y2.262
X2.456 Y2.303
X2.309 Y2.333
X2.16 Y2.353
X2.01 Y2.363
X1.86
X1.711 Y2.352
X1.562 Y2.332
X1.415 Y2.302
X1.271 Y2.262
X1.129 Y2.213
X0.99 Y2.155
X0.856 Y2.088
X0.727 Y2.013
X0.602 Y1.929
X0.483 Y1.838
X0.37 Y1.739
X0.264 Y1.633
X0.164 Y1.521
X0.072 Y1.403
X-0.013 Y1.279
X-0.089 Y1.15
X-0.157 Y1.016
X-0.217 Y0.879
X-0.268 Y0.738
X-0.31 Y0.594
X-0.343 Y0.447
X-0.367 Y0.299
X-0.381 Y0.15
X-0.386 Y0.
X-0.381 Y-0.15
X-0.367 Y-0.299
X-0.344 Y-0.447
X-0.312 Y-0.594
X-0.27 Y-0.738
X-0.22 Y-0.879
X-0.16 Y-1.017
X-0.093 Y-1.151
X-0.017 Y-1.28
X0.067 Y-1.405
X0.159 Y-1.523
X0.258 Y-1.636
X0.363 Y-1.743
X0.475 Y-1.842
X0.593 Y-1.935
X0.717 Y-2.02
X0.846 Y-2.097
X0.979 Y-2.166
X1.116 Y-2.226
X1.257 Y-2.278
X1.401 Y-2.321
X1.547 Y-2.354
X1.695 Y-2.379
X1.844 Y-2.394
X1.994 Y-2.4
X2.144 Y-2.396
X2.294 Y-2.383
X2.442 Y-2.361
X2.589 Y-2.33
X2.733 Y-2.289
X2.875 Y-2.24
X3.013 Y-2.182
X3.147 Y-2.115
X3.277 Y-2.04
X3.402 Y-1.957
X3.522 Y-1.866
X3.635 Y-1.769
X3.743 Y-1.664
X3.843 Y-1.552
X3.937 Y-1.435
X4.022 Y-1.312
X4.1 Y-1.184
X4.173 Y-1.046
X4.253 Y-0.869
X4.34 Y-0.643
X4.423 Y-0.381
X4.48 Y-0.152
X4.517 Y0.039
X4.54 Y0.221
X4.552 Y0.392
X4.553 Y0.549
X4.545 Y0.707
X4.529 Y0.858
X4.503 Y1.006
X4.469 Y1.152
X4.426 Y1.296
X4.374 Y1.437
X4.314 Y1.574
X4.246 Y1.708
X4.169 Y1.836
X4.085 Y1.961
X3.993 Y2.079
X3.894 Y2.193
X3.786 Y2.302
X3.673 Y2.404
X3.554 Y2.499
X3.427 Y2.589
X3.293 Y2.672
X3.152 Y2.748
X3.006 Y2.816
X2.856 Y2.876
X2.702 Y2.926
X2.543 Y2.968
X2.38 Y3.001
X2.213 Y3.024
X2.044 Y3.038
X1.873 Y3.042
X1.702 Y3.035
X1.531 Y3.018
X1.361 Y2.991
X1.191 Y2.953
X1.023 Y2.906
X0.857 Y2.848
X0.693 Y2.779
X0.534 Y2.701
X0.378 Y2.613
X0.227 Y2.516
X0.082 Y2.409
X-0.056 Y2.294
X-0.188 Y2.171
X-0.312 Y2.04
X-0.428 Y1.902
X-0.536 Y1.757
X-0.636 Y1.606
X-0.726 Y1.448
X-0.807 Y1.285
X-0.879 Y1.117
X-0.94 Y0.945
X-0.992 Y0.769
X-1.033 Y0.59
X-1.063 Y0.409
X-1.082 Y0.226
X-1.091 Y0.043
X-1.088 Y-0.142
X-1.075 Y-0.325
X-1.05 Y-0.507
X-1.015 Y-0.688
X-0.97 Y-0.866
X-0.913 Y-1.041
X-0.847 Y-1.212
X-0.771 Y-1.379
X-0.684 Y-1.542
X-0.588 Y-1.699
X-0.483 Y-1.85
X-0.369 Y-1.994
X-0.247 Y-2.132
X-0.116 Y-2.263
X0.022 Y-2.385
X0.167 Y-2.499
X0.319 Y-2.605
X0.477 Y-2.701
X0.641 Y-2.788
X0.809 Y-2.864
X0.981 Y-2.931
X1.157 Y-2.987
X1.336 Y-3.033
X1.517 Y-3.068
X1.7 Y-3.092
X1.884 Y-3.105
X2.068 Y-3.107
X2.252 Y-3.099
X2.435 Y-3.079
X2.617 Y-3.048
X2.797 Y-3.007
X2.974 Y-2.955
X3.148 Y-2.893
X3.318 Y-2.82
X3.483 Y-2.738
X3.643 Y-2.645
X3.798 Y-2.544
X3.946 Y-2.433
X4.088 Y-2.313
X4.227 Y-2.18
X4.362 Y-2.036
X4.494 Y-1.877
X4.627 Y-1.696
X4.753 Y-1.499
X4.868 Y-1.295
X4.97 Y-1.085
X5.059 Y-0.872
X5.134 Y-0.658
X5.194 Y-0.444
X5.241 Y-0.23
X5.274 Y-0.019
X5.295 Y0.191
X5.303 Y0.398
X5.298 Y0.602
X5.282 Y0.803
X5.254 Y1.
X5.214 Y1.195
X5.164 Y1.385
X5.103 Y1.571
X5.031 Y1.752
X4.948 Y1.929
X4.854 Y2.101
X4.751 Y2.267
X4.638 Y2.427
X4.555 Y2.53
X4.503 Y2.591
X4.446 Y2.648
X4.386 Y2.702
X3.995 Y3.025
X3.953 Y3.056
X3.912 Y3.082
X3.277 Y3.381
X3.116 Y3.452
X2.938 Y3.489
X2.403 Y3.591
X2.225 Y3.621
X2.047 Y3.613
X1.513 Y3.579
X1.335 Y3.566
X1.299 Y3.559
X1.157 Y3.514
X0.623 Y3.341
X0.445 Y3.277
X0.323 Y3.203
X-0.267 Y2.828
X-0.309 Y2.798
X-0.351 Y2.759
X-0.801 Y2.28
X-0.933 Y2.135
X-0.979 Y2.059
X-1.335 Y1.411
X-1.376 Y1.329
X-1.4 Y1.246
X-1.582 Y0.534
X-1.601 Y0.445
X-1.603 Y0.356
Y-0.356
X-1.601 Y-0.445
X-1.582 Y-0.534
X-1.4 Y-1.246
X-1.376 Y-1.329
X-1.335 Y-1.411
X-0.979 Y-2.059
X-0.933 Y-2.135
X-0.801 Y-2.28
X-0.351 Y-2.759
X-0.309 Y-2.798
X-0.267 Y-2.828
X0.323 Y-3.203
X0.445 Y-3.277
X0.623 Y-3.341
X1.157 Y-3.514
X1.299 Y-3.559
X1.335 Y-3.566
X1.513 Y-3.579
X2.047 Y-3.613
X2.225 Y-3.621
X2.403 Y-3.591
X2.938 Y-3.489
X3.116 Y-3.452
X3.294 Y-3.373
X3.912 Y-3.082
X3.953 Y-3.056
X3.995 Y-3.025
X4.54 Y-2.575
X4.638 Y-2.491
X4.718 Y-2.388
X5.074 Y-1.898
X5.16 Y-1.779
X5.186 Y-1.735
X5.206 Y-1.69
X5.452 Y-1.068
X5.517 Y-0.89
X5.541 Y-0.712
X5.609 Y-0.178
X5.628 Y0.
X5.608 Y0.184
X5.541 Y0.712
X5.517 Y0.89
X5.452 Y1.068
X5.206 Y1.69
X5.186 Y1.735
X5.16 Y1.779
X4.896 Y2.143
X4.718 Y2.388
X4.638 Y2.491
X4.54 Y2.575
X4.386 Y2.702
G3 X3.792 Y2.44 I-0.226 J-0.293
G1 X3.79 Y2.409 Z-7.999
X3.804 Y2.351 Z-7.988
X3.817 Y2.295 Z-7.968
X3.829 Y2.244 Z-7.94
X3.863 Y2.202 Z-7.897
X3.89 Y2.167 Z-7.845
X3.912 Y2.14 Z-7.785
X3.926 Y2.122 Z-7.72
X3.932 Y2.117 Z-7.675
X3.935 Y2.115 Z-7.63
G0 Z1.001
X3.366 Y1.122
Z-7.13
G1 Z-7.5 F33.
G3 X0.66 Y-1.122 Z-7.693 I-1.353 J-1.122 F11.
X3.366 Y1.122 Z-7.886 I1.353 J1.122
X0.66 Y-1.122 Z-8.078 I-1.353 J-1.122
X3.366 Y1.122 Z-8.271 I1.353 J1.122
X0.66 Y-1.122 Z-8.464 I-1.353 J-1.122
X3.366 Y1.122 Z-8.657 I1.353 J1.122
X0.66 Y-1.122 Z-8.85 I-1.353 J-1.122
X3.77 Y0. Z-9. I1.353 J1.122
X0.255 I-1.757 J0.
X3.77 I1.757 J0.
G1 X3.803 Y0.881 F33.
X3.792 Y1.03
X3.759 Y1.177
X3.708 Y1.318
X3.642 Y1.452
X3.562 Y1.579
X3.469 Y1.697
X3.367 Y1.807
X3.256 Y1.907
X3.136 Y1.998
X3.01 Y2.079
X2.878 Y2.151
X2.741 Y2.212
X2.6 Y2.262
X2.456 Y2.303
X2.309 Y2.333
X2.16 Y2.353
X2.01 Y2.363
X1.86
X1.711 Y2.352
X1.562 Y2.332
X1.415 Y2.302
X1.271 Y2.262
X1.129 Y2.213
X0.99 Y2.155
X0.856 Y2.088
X0.727 Y2.013
X0.602 Y1.929
X0.483 Y1.838
X0.37 Y1.739
X0.264 Y1.633
X0.164 Y1.521
X0.072 Y1.403
X-0.013 Y1.279
X-0.089 Y1.15
X-0.157 Y1.016
X-0.217 Y0.879
X-0.268 Y0.738
X-0.31 Y0.594
X-0.343 Y0.447
X-0.367 Y0.299
X-0.381 Y0.15
X-0.386 Y0.
X-0.381 Y-0.15
X-0.367 Y-0.299
X-0.344 Y-0.447
X-0.312 Y-0.594
X-0.27 Y-0.738
X-0.22 Y-0.879
X-0.16 Y-1.017
X-0.093 Y-1.151
X-0.017 Y-1.28
X0.067 Y-1.405
X0.159 Y-1.523
X0.258 Y-1.636
X0.363 Y-1.743
X0.475 Y-1.842
X0.593 Y-1.935
X0.717 Y-2.02
X0.846 Y-2.097
X0.979 Y-2.166
X1.116 Y-2.226
X1.257 Y-2.278
X1.401 Y-2.321
X1.547 Y-2.354
X1.695 Y-2.379
X1.844 Y-2.394
X1.994 Y-2.4
X2.144 Y-2.396
X2.294 Y-2.383
X2.442 Y-2.361
X2.589 Y-2.33
X2.733 Y-2.289
X2.875 Y-2.24
X3.013 Y-2.182
X3.147 Y-2.115
X3.277 Y-2.04
X3.402 Y-1.957
X3.522 Y-1.866
X3.635 Y-1.769
X3.743 Y-1.664
X3.843 Y-1.552
X3.937 Y-1.435
X4.022 Y-1.312
X4.1 Y-1.184
X4.173 Y-1.046
X4.253 Y-0.869
X4.34 Y-0.643
X4.423 Y-0.381
X4.48 Y-0.152
X4.517 Y0.039
X4.54 Y0.221
X4.552 Y0.392
X4.553 Y0.549
X4.545 Y0.707
X4.529 Y0.858
X4.503 Y1.006
X4.469 Y1.152
X4.426 Y1.296
X4.374 Y1.437
X4.314 Y1.574
X4.246 Y1.708
X4.169 Y1.836
X4.085 Y1.961
X3.993 Y2.079
X3.894 Y2.193
X3.786 Y2.302
X3.673 Y2.404
X3.554 Y2.499
X3.427 Y2.589
X3.293 Y2.672
X3.152 Y2.748
X3.006 Y2.816
X2.856 Y2.876
X2.702 Y2.926
X2.543 Y2.968
X2.38 Y3.001
X2.213 Y3.024
X2.044 Y3.038
X1.873 Y3.042
X1.702 Y3.035
X1.531 Y3.018
X1.361 Y2.991
X1.191 Y2.953
X1.023 Y2.906
X0.857 Y2.848
X0.693 Y2.779
X0.534 Y2.701
X0.378 Y2.613
X0.227 Y2.516
X0.082 Y2.409
X-0.056 Y2.294
X-0.188 Y2.171
X-0.312 Y2.04
X-0.428 Y1.902
X-0.536 Y1.757
X-0.636 Y1.606
X-0.726 Y1.448
X-0.807 Y1.285
X-0.879 Y1.117
X-0.94 Y0.945
X-0.992 Y0.769
X-1.033 Y0.59
X-1.063 Y0.409
X-1.082 Y0.226
X-1.091 Y0.043
X-1.088 Y-0.142
X-1.075 Y-0.325
X-1.05 Y-0.507
X-1.015 Y-0.688
X-0.97 Y-0.866
X-0.913 Y-1.041
X-0.847 Y-1.212
X-0.771 Y-1.379
X-0.684 Y-1.542
X-0.588 Y-1.699
X-0.483 Y-1.85
X-0.369 Y-1.994
X-0.247 Y-2.132
X-0.116 Y-2.263
X0.022 Y-2.385
X0.167 Y-2.499
X0.319 Y-2.605
X0.477 Y-2.701
X0.641 Y-2.788
X0.809 Y-2.864
X0.981 Y-2.931
X1.157 Y-2.987
X1.336 Y-3.033
X1.517 Y-3.068
X1.7 Y-3.092
X1.884 Y-3.105
X2.068 Y-3.107
X2.252 Y-3.099
X2.435 Y-3.079
X2.617 Y-3.048
X2.797 Y-3.007
X2.974 Y-2.955
X3.148 Y-2.893
X3.318 Y-2.82
X3.483 Y-2.738
X3.643 Y-2.645
X3.798 Y-2.544
X3.946 Y-2.433
X4.088 Y-2.313
X4.227 Y-2.18
X4.362 Y-2.036
X4.494 Y-1.877
X4.627 Y-1.696
X4.753 Y-1.499
X4.868 Y-1.295
X4.97 Y-1.085
X5.059 Y-0.872
X5.134 Y-0.658
X5.194 Y-0.444
X5.241 Y-0.23
X5.274 Y-0.019
X5.295 Y0.191
X5.303 Y0.398
X5.298 Y0.602
X5.282 Y0.803
X5.254 Y1.
X5.214 Y1.195
X5.164 Y1.385
X5.103 Y1.571
X5.031 Y1.752
X4.948 Y1.929
X4.854 Y2.101
X4.751 Y2.267
X4.638 Y2.427
X4.555 Y2.53
X4.503 Y2.591
X4.446 Y2.648
X4.386 Y2.702
X3.995 Y3.025
X3.953 Y3.056
X3.912 Y3.082
X3.277 Y3.381
X3.116 Y3.452
X2.938 Y3.489
X2.403 Y3.591
X2.225 Y3.621
X2.047 Y3.613
X1.513 Y3.579
X1.335 Y3.566
X1.299 Y3.559
X1.157 Y3.514
X0.623 Y3.341
X0.445 Y3.277
X0.323 Y3.203
X-0.267 Y2.828
X-0.309 Y2.798
X-0.351 Y2.759
X-0.801 Y2.28
X-0.933 Y2.135
X-0.979 Y2.059
X-1.335 Y1.411
X-1.376 Y1.329
X-1.4 Y1.246
X-1.582 Y0.534
X-1.601 Y0.445
X-1.603 Y0.356
Y-0.356
X-1.601 Y-0.445
X-1.582 Y-0.534
X-1.4 Y-1.246
X-1.376 Y-1.329
X-1.335 Y-1.411
X-0.979 Y-2.059
X-0.933 Y-2.135
X-0.801 Y-2.28
X-0.351 Y-2.759
X-0.309 Y-2.798
X-0.267 Y-2.828
X0.323 Y-3.203
X0.445 Y-3.277
X0.623 Y-3.341
X1.157 Y-3.514
X1.299 Y-3.559
X1.335 Y-3.566
X1.513 Y-3.579
X2.047 Y-3.613
X2.225 Y-3.621
X2.403 Y-3.591
X2.938 Y-3.489
X3.116 Y-3.452
X3.294 Y-3.373
X3.912 Y-3.082
X3.953 Y-3.056
X3.995 Y-3.025
X4.54 Y-2.575
X4.638 Y-2.491
X4.718 Y-2.388
X5.074 Y-1.898
X5.16 Y-1.779
X5.186 Y-1.735
X5.206 Y-1.69
X5.452 Y-1.068
X5.517 Y-0.89
X5.541 Y-0.712
X5.609 Y-0.178
X5.628 Y0.
X5.608 Y0.184
X5.541 Y0.712
X5.517 Y0.89
X5.452 Y1.068
X5.206 Y1.69
X5.186 Y1.735
X5.16 Y1.779
X4.896 Y2.143
X4.718 Y2.388
X4.638 Y2.491
X4.54 Y2.575
X4.386 Y2.702
G3 X3.792 Y2.44 I-0.226 J-0.293
G1 X3.79 Y2.409 Z-8.999
X3.804 Y2.351 Z-8.988
X3.817 Y2.295 Z-8.968
X3.829 Y2.244 Z-8.94
X3.863 Y2.202 Z-8.897
X3.89 Y2.167 Z-8.845
X3.912 Y2.14 Z-8.785
X3.926 Y2.122 Z-8.72
X3.932 Y2.117 Z-8.675
X3.935 Y2.115 Z-8.63
G0 Z1.001
X3.366 Y1.122
Z-8.13
G1 Z-8.5 F33.
G3 X0.66 Y-1.122 Z-8.693 I-1.353 J-1.122 F11.
X3.366 Y1.122 Z-8.886 I1.353 J1.122
X0.66 Y-1.122 Z-9.078 I-1.353 J-1.122
X3.366 Y1.122 Z-9.271 I1.353 J1.122
X0.66 Y-1.122 Z-9.464 I-1.353 J-1.122
X3.366 Y1.122 Z-9.657 I1.353 J1.122
X0.66 Y-1.122 Z-9.85 I-1.353 J-1.122
X3.77 Y0. Z-10. I1.353 J1.122
X0.255 I-1.757 J0.
X3.77 I1.757 J0.
G1 X3.803 Y0.881 F33.
X3.792 Y1.03
X3.759 Y1.177
X3.708 Y1.318
X3.642 Y1.452
X3.562 Y1.579
X3.469 Y1.697
X3.367 Y1.807
X3.256 Y1.907
X3.136 Y1.998
X3.01 Y2.079
X2.878 Y2.151
X2.741 Y2.212
X2.6 Y2.262
X2.456 Y2.303
X2.309 Y2.333
X2.16 Y2.353
X2.01 Y2.363
X1.86
X1.711 Y2.352
X1.562 Y2.332
X1.415 Y2.302
X1.271 Y2.262
X1.129 Y2.213
X0.99 Y2.155
X0.856 Y2.088
X0.727 Y2.013
X0.602 Y1.929
X0.483 Y1.838
X0.37 Y1.739
X0.264 Y1.633
X0.164 Y1.521
X0.072 Y1.403
X-0.013 Y1.279
X-0.089 Y1.15
X-0.157 Y1.016
X-0.217 Y0.879
X-0.268 Y0.738
X-0.31 Y0.594
X-0.343 Y0.447
X-0.367 Y0.299
X-0.381 Y0.15
X-0.386 Y0.
X-0.381 Y-0.15
X-0.367 Y-0.299
X-0.344 Y-0.447
X-0.312 Y-0.594
X-0.27 Y-0.738
X-0.22 Y-0.879
X-0.16 Y-1.017
X-0.093 Y-1.151
X-0.017 Y-1.28
X0.067 Y-1.405
X0.159 Y-1.523
X0.258 Y-1.636
X0.363 Y-1.743
X0.475 Y-1.842
X0.593 Y-1.935
X0.717 Y-2.02
X0.846 Y-2.097
X0.979 Y-2.166
X1.116 Y-2.226
X1.257 Y-2.278
X1.401 Y-2.321
X1.547 Y-2.354
X1.695 Y-2.379
X1.844 Y-2.394
X1.994 Y-2.4
X2.144 Y-2.396
X2.294 Y-2.383
X2.442 Y-2.361
X2.589 Y-2.33
X2.733 Y-2.289
X2.875 Y-2.24
X3.013 Y-2.182
X3.147 Y-2.115
X3.277 Y-2.04
X3.402 Y-1.957
X3.522 Y-1.866
X3.635 Y-1.769
X3.743 Y-1.664
X3.843 Y-1.552
X3.937 Y-1.435
X4.022 Y-1.312
X4.1 Y-1.184
X4.173 Y-1.046
X4.253 Y-0.869
X4.34 Y-0.643
X4.423 Y-0.381
X4.48 Y-0.152
X4.517 Y0.039
X4.54 Y0.221
X4.552 Y0.392
X4.553 Y0.549
X4.545 Y0.707
X4.529 Y0.858
X4.503 Y1.006
X4.469 Y1.152
X4.426 Y1.296
X4.374 Y1.437
X4.314 Y1.574
X4.246 Y1.708
X4.169 Y1.836
X4.085 Y1.961
X3.993 Y2.079
X3.894 Y2.193
X3.786 Y2.302
X3.673 Y2.404
X3.554 Y2.499
X3.427 Y2.589
X3.293 Y2.672
X3.152 Y2.748
X3.006 Y2.816
X2.856 Y2.876
X2.702 Y2.926
X2.543 Y2.968
X2.38 Y3.001
X2.213 Y3.024
X2.044 Y3.038
X1.873 Y3.042
X1.702 Y3.035
X1.531 Y3.018
X1.361 Y2.991
X1.191 Y2.953
X1.023 Y2.906
X0.857 Y2.848
X0.693 Y2.779
X0.534 Y2.701
X0.378 Y2.613
X0.227 Y2.516
X0.082 Y2.409
X-0.056 Y2.294
X-0.188 Y2.171
X-0.312 Y2.04
X-0.428 Y1.902
X-0.536 Y1.757
X-0.636 Y1.606
X-0.726 Y1.448
X-0.807 Y1.285
X-0.879 Y1.117
X-0.94 Y0.945
X-0.992 Y0.769
X-1.033 Y0.59
X-1.063 Y0.409
X-1.082 Y0.226
X-1.091 Y0.043
X-1.088 Y-0.142
X-1.075 Y-0.325
X-1.05 Y-0.507
X-1.015 Y-0.688
X-0.97 Y-0.866
X-0.913 Y-1.041
X-0.847 Y-1.212
X-0.771 Y-1.379
X-0.684 Y-1.542
X-0.588 Y-1.699
X-0.483 Y-1.85
X-0.369 Y-1.994
X-0.247 Y-2.132
X-0.116 Y-2.263
X0.022 Y-2.385
X0.167 Y-2.499
X0.319 Y-2.605
X0.477 Y-2.701
X0.641 Y-2.788
X0.809 Y-2.864
X0.981 Y-2.931
X1.157 Y-2.987
X1.336 Y-3.033
X1.517 Y-3.068
X1.7 Y-3.092
X1.884 Y-3.105
X2.068 Y-3.107
X2.252 Y-3.099
X2.435 Y-3.079
X2.617 Y-3.048
X2.797 Y-3.007
X2.974 Y-2.955
X3.148 Y-2.893
X3.318 Y-2.82
X3.483 Y-2.738
X3.643 Y-2.645
X3.798 Y-2.544
X3.946 Y-2.433
X4.088 Y-2.313
X4.227 Y-2.18
X4.362 Y-2.036
X4.494 Y-1.877
X4.627 Y-1.696
X4.753 Y-1.499
X4.868 Y-1.295
X4.97 Y-1.085
X5.059 Y-0.872
X5.134 Y-0.658
X5.194 Y-0.444
X5.241 Y-0.23
X5.274 Y-0.019
X5.295 Y0.191
X5.303 Y0.398
X5.298 Y0.602
X5.282 Y0.803
X5.254 Y1.
X5.214 Y1.195
X5.164 Y1.385
X5.103 Y1.571
X5.031 Y1.752
X4.948 Y1.929
X4.854 Y2.101
X4.751 Y2.267
X4.638 Y2.427
X4.555 Y2.53
X4.503 Y2.591
X4.446 Y2.648
X4.386 Y2.702
X3.995 Y3.025
X3.953 Y3.056
X3.912 Y3.082
X3.277 Y3.381
X3.116 Y3.452
X2.938 Y3.489
X2.403 Y3.591
X2.225 Y3.621
X2.047 Y3.613
X1.513 Y3.579
X1.335 Y3.566
X1.299 Y3.559
X1.157 Y3.514
X0.623 Y3.341
X0.445 Y3.277
X0.323 Y3.203
X-0.267 Y2.828
X-0.309 Y2.798
X-0.351 Y2.759
X-0.801 Y2.28
X-0.933 Y2.135
X-0.979 Y2.059
X-1.335 Y1.411
X-1.376 Y1.329
X-1.4 Y1.246
X-1.582 Y0.534
X-1.601 Y0.445
X-1.603 Y0.356
Y-0.356
X-1.601 Y-0.445
X-1.582 Y-0.534
X-1.4 Y-1.246
X-1.376 Y-1.329
X-1.335 Y-1.411
X-0.979 Y-2.059
X-0.933 Y-2.135
X-0.801 Y-2.28
X-0.351 Y-2.759
X-0.309 Y-2.798
X-0.267 Y-2.828
X0.323 Y-3.203
X0.445 Y-3.277
X0.623 Y-3.341
X1.157 Y-3.514
X1.299 Y-3.559
X1.335 Y-3.566
X1.513 Y-3.579
X2.047 Y-3.613
X2.225 Y-3.621
X2.403 Y-3.591
X2.938 Y-3.489
X3.116 Y-3.452
X3.294 Y-3.373
X3.912 Y-3.082
X3.953 Y-3.056
X3.995 Y-3.025
X4.54 Y-2.575
X4.638 Y-2.491
X4.718 Y-2.388
X5.074 Y-1.898
X5.16 Y-1.779
X5.186 Y-1.735
X5.206 Y-1.69
X5.452 Y-1.068
X5.517 Y-0.89
X5.541 Y-0.712
X5.609 Y-0.178
X5.628 Y0.
X5.608 Y0.184
X5.541 Y0.712
X5.517 Y0.89
X5.452 Y1.068
X5.206 Y1.69
X5.186 Y1.735
X5.16 Y1.779
X4.896 Y2.143
X4.718 Y2.388
X4.638 Y2.491
X4.54 Y2.575
X4.386 Y2.702
G3 X3.792 Y2.44 I-0.226 J-0.293
G1 X3.79 Y2.409 Z-9.999
X3.804 Y2.351 Z-9.988
X3.817 Y2.295 Z-9.968
X3.829 Y2.244 Z-9.94
X3.863 Y2.202 Z-9.897
X3.89 Y2.167 Z-9.845
X3.912 Y2.14 Z-9.785
X3.926 Y2.122 Z-9.72
X3.932 Y2.117 Z-9.675
X3.935 Y2.115 Z-9.63
G0 Z1.001
X3.366 Y1.122
Z-9.13
G1 Z-9.5 F33.
G3 X0.66 Y-1.122 Z-9.693 I-1.353 J-1.122 F11.
X3.366 Y1.122 Z-9.886 I1.353 J1.122
X0.66 Y-1.122 Z-10.078 I-1.353 J-1.122
X3.366 Y1.122 Z-10.271 I1.353 J1.122
X0.66 Y-1.122 Z-10.464 I-1.353 J-1.122
X3.366 Y1.122 Z-10.657 I1.353 J1.122
X0.66 Y-1.122 Z-10.85 I-1.353 J-1.122
X3.77 Y0. Z-11. I1.353 J1.122
X0.255 I-1.757 J0.
X3.77 I1.757 J0.
G1 X3.803 Y0.881 F33.
X3.792 Y1.03
X3.759 Y1.177
X3.708 Y1.318
X3.642 Y1.452
X3.562 Y1.579
X3.469 Y1.697
X3.367 Y1.807
X3.256 Y1.907
X3.136 Y1.998
X3.01 Y2.079
X2.878 Y2.151
X2.741 Y2.212
X2.6 Y2.262
X2.456 Y2.303
X2.309 Y2.333
X2.16 Y2.353
X2.01 Y2.363
X1.86
X1.711 Y2.352
X1.562 Y2.332
X1.415 Y2.302
X1.271 Y2.262
X1.129 Y2.213
X0.99 Y2.155
X0.856 Y2.088
X0.727 Y2.013
X0.602 Y1.929
X0.483 Y1.838
X0.37 Y1.739
X0.264 Y1.633
X0.164 Y1.521
X0.072 Y1.403
X-0.013 Y1.279
X-0.089 Y1.15
X-0.157 Y1.016
X-0.217 Y0.879
X-0.268 Y0.738
X-0.31 Y0.594
X-0.343 Y0.447
X-0.367 Y0.299
X-0.381 Y0.15
X-0.386 Y0.
X-0.381 Y-0.15
X-0.367 Y-0.299
X-0.344 Y-0.447
X-0.312 Y-0.594
X-0.27 Y-0.738
X-0.22 Y-0.879
X-0.16 Y-1.017
X-0.093 Y-1.151
X-0.017 Y-1.28
X0.067 Y-1.405
X0.159 Y-1.523
X0.258 Y-1.636
X0.363 Y-1.743
X0.475 Y-1.842
X0.593 Y-1.935
X0.717 Y-2.02
X0.846 Y-2.097
X0.979 Y-2.166
X1.116 Y-2.226
X1.257 Y-2.278
X1.401 Y-2.321
X1.547 Y-2.354
X1.695 Y-2.379
X1.844 Y-2.394
X1.994 Y-2.4
X2.144 Y-2.396
X2.294 Y-2.383
X2.442 Y-2.361
X2.589 Y-2.33
X2.733 Y-2.289
X2.875 Y-2.24
X3.013 Y-2.182
X3.147 Y-2.115
X3.277 Y-2.04
X3.402 Y-1.957
X3.522 Y-1.866
X3.635 Y-1.769
X3.743 Y-1.664
X3.843 Y-1.552
X3.937 Y-1.435
X4.022 Y-1.312
X4.1 Y-1.184
X4.173 Y-1.046
X4.253 Y-0.869
X4.34 Y-0.643
X4.423 Y-0.381
X4.48 Y-0.152
X4.517 Y0.039
X4.54 Y0.221
X4.552 Y0.392
X4.553 Y0.549
X4.545 Y0.707
X4.529 Y0.858
X4.503 Y1.006
X4.469 Y1.152
X4.426 Y1.296
X4.374 Y1.437
X4.314 Y1.574
X4.246 Y1.708
X4.169 Y1.836
X4.085 Y1.961
X3.993 Y2.079
X3.894 Y2.193
X3.786 Y2.302
X3.673 Y2.404
X3.554 Y2.499
X3.427 Y2.589
X3.293 Y2.672
X3.152 Y2.748
X3.006 Y2.816
X2.856 Y2.876
X2.702 Y2.926
X2.543 Y2.968
X2.38 Y3.001
X2.213 Y3.024
X2.044 Y3.038
X1.873 Y3.042
X1.702 Y3.035
X1.531 Y3.018
X1.361 Y2.991
X1.191 Y2.953
X1.023 Y2.906
X0.857 Y2.848
X0.693 Y2.779
X0.534 Y2.701
X0.378 Y2.613
X0.227 Y2.516
X0.082 Y2.409
X-0.056 Y2.294
X-0.188 Y2.171
X-0.312 Y2.04
X-0.428 Y1.902
X-0.536 Y1.757
X-0.636 Y1.606
X-0.726 Y1.448
X-0.807 Y1.285
X-0.879 Y1.117
X-0.94 Y0.945
X-0.992 Y0.769
X-1.033 Y0.59
X-1.063 Y0.409
X-1.082 Y0.226
X-1.091 Y0.043
X-1.088 Y-0.142
X-1.075 Y-0.325
X-1.05 Y-0.507
X-1.015 Y-0.688
X-0.97 Y-0.866
X-0.913 Y-1.041
X-0.847 Y-1.212
X-0.771 Y-1.379
X-0.684 Y-1.542
X-0.588 Y-1.699
X-0.483 Y-1.85
X-0.369 Y-1.994
X-0.247 Y-2.132
X-0.116 Y-2.263
X0.022 Y-2.385
X0.167 Y-2.499
X0.319 Y-2.605
X0.477 Y-2.701
X0.641 Y-2.788
X0.809 Y-2.864
X0.981 Y-2.931
X1.157 Y-2.987
X1.336 Y-3.033
X1.517 Y-3.068
X1.7 Y-3.092
X1.884 Y-3.105
X2.068 Y-3.107
X2.252 Y-3.099
X2.435 Y-3.079
X2.617 Y-3.048
X2.797 Y-3.007
X2.974 Y-2.955
X3.148 Y-2.893
X3.318 Y-2.82
X3.483 Y-2.738
X3.643 Y-2.645
X3.798 Y-2.544
X3.946 Y-2.433
X4.088 Y-2.313
X4.227 Y-2.18
X4.362 Y-2.036
X4.494 Y-1.877
X4.627 Y-1.696
X4.753 Y-1.499
X4.868 Y-1.295
X4.97 Y-1.085
X5.059 Y-0.872
X5.134 Y-0.658
X5.194 Y-0.444
X5.241 Y-0.23
X5.274 Y-0.019
X5.295 Y0.191
X5.303 Y0.398
X5.298 Y0.602
X5.282 Y0.803
X5.254 Y1.
X5.214 Y1.195
X5.164 Y1.385
X5.103 Y1.571
X5.031 Y1.752
X4.948 Y1.929
X4.854 Y2.101
X4.751 Y2.267
X4.638 Y2.427
X4.555 Y2.53
X4.503 Y2.591
X4.446 Y2.648
X4.386 Y2.702
X3.995 Y3.025
X3.953 Y3.056
X3.912 Y3.082
X3.277 Y3.381
X3.116 Y3.452
X2.938 Y3.489
X2.403 Y3.591
X2.225 Y3.621
X2.047 Y3.613
X1.513 Y3.579
X1.335 Y3.566
X1.299 Y3.559
X1.157 Y3.514
X0.623 Y3.341
X0.445 Y3.277
X0.323 Y3.203
X-0.267 Y2.828
X-0.309 Y2.798
X-0.351 Y2.759
X-0.801 Y2.28
X-0.933 Y2.135
X-0.979 Y2.059
X-1.335 Y1.411
X-1.376 Y1.329
X-1.4 Y1.246
X-1.582 Y0.534
X-1.601 Y0.445
X-1.603 Y0.356
Y-0.356
X-1.601 Y-0.445
X-1.582 Y-0.534
X-1.4 Y-1.246
X-1.376 Y-1.329
X-1.335 Y-1.411
X-0.979 Y-2.059
X-0.933 Y-2.135
X-0.801 Y-2.28
X-0.351 Y-2.759
X-0.309 Y-2.798
X-0.267 Y-2.828
X0.323 Y-3.203
X0.445 Y-3.277
X0.623 Y-3.341
X1.157 Y-3.514
X1.299 Y-3.559
X1.335 Y-3.566
X1.513 Y-3.579
X2.047 Y-3.613
X2.225 Y-3.621
X2.403 Y-3.591
X2.938 Y-3.489
X3.116 Y-3.452
X3.294 Y-3.373
X3.912 Y-3.082
X3.953 Y-3.056
X3.995 Y-3.025
X4.54 Y-2.575
X4.638 Y-2.491
X4.718 Y-2.388
X5.074 Y-1.898
X5.16 Y-1.779
X5.186 Y-1.735
X5.206 Y-1.69
X5.452 Y-1.068
X5.517 Y-0.89
X5.541 Y-0.712
X5.609 Y-0.178
X5.628 Y0.
X5.608 Y0.184
X5.541 Y0.712
X5.517 Y0.89
X5.452 Y1.068
X5.206 Y1.69
X5.186 Y1.735
X5.16 Y1.779
X4.896 Y2.143
X4.718 Y2.388
X4.638 Y2.491
X4.54 Y2.575
X4.386 Y2.702
G3 X3.792 Y2.44 I-0.226 J-0.293
G1 X3.79 Y2.409 Z-10.999
X3.804 Y2.351 Z-10.988
X3.817 Y2.295 Z-10.968
X3.829 Y2.244 Z-10.94
X3.863 Y2.202 Z-10.897
X3.89 Y2.167 Z-10.845
X3.912 Y2.14 Z-10.785
X3.926 Y2.122 Z-10.72
X3.932 Y2.117 Z-10.675
X3.935 Y2.115 Z-10.63
G0 Z1.001
X0.533 Y0.948
Z-10.13
G1 Z-10.5 F33.
G3 X3.493 Y-0.948 Z-10.693 I1.48 J-0.948 F11.
X0.533 Y0.948 Z-10.886 I-1.48 J0.948
X3.493 Y-0.948 Z-11.078 I1.48 J-0.948
X0.533 Y0.948 Z-11.271 I-1.48 J0.948
X3.493 Y-0.948 Z-11.464 I1.48 J-0.948
X3.77 Y0. Z-11.499 I-1.48 J0.948
X0.255 I-1.757 J0.
X3.77 I1.757 J0.
G1 X3.803 Y0.881 F33.
X3.792 Y1.03
X3.759 Y1.177
X3.708 Y1.318
X3.642 Y1.452
X3.562 Y1.579
X3.469 Y1.697
X3.367 Y1.807
X3.256 Y1.907
X3.136 Y1.998
X3.01 Y2.079
X2.878 Y2.151
X2.741 Y2.212
X2.6 Y2.262
X2.456 Y2.303
X2.309 Y2.333
X2.16 Y2.353
X2.01 Y2.363
X1.86
X1.711 Y2.352
X1.562 Y2.332
X1.415 Y2.302
X1.271 Y2.262
X1.129 Y2.213
X0.99 Y2.155
X0.856 Y2.088
X0.727 Y2.013
X0.602 Y1.929
X0.483 Y1.838
X0.37 Y1.739
X0.264 Y1.633
X0.164 Y1.521
X0.072 Y1.403
X-0.013 Y1.279
X-0.089 Y1.15
X-0.157 Y1.016
X-0.217 Y0.879
X-0.268 Y0.738
X-0.31 Y0.594
X-0.343 Y0.447
X-0.367 Y0.299
X-0.381 Y0.15
X-0.386 Y0.
X-0.381 Y-0.15
X-0.367 Y-0.299
X-0.344 Y-0.447
X-0.312 Y-0.594
X-0.27 Y-0.738
X-0.22 Y-0.879
X-0.16 Y-1.017
X-0.093 Y-1.151
X-0.017 Y-1.28
X0.067 Y-1.405
X0.159 Y-1.523
X0.258 Y-1.636
X0.363 Y-1.743
X0.475 Y-1.842
X0.593 Y-1.935
X0.717 Y-2.02
X0.846 Y-2.097
X0.979 Y-2.166
X1.116 Y-2.226
X1.257 Y-2.278
X1.401 Y-2.321
X1.547 Y-2.354
X1.695 Y-2.379
X1.844 Y-2.394
X1.994 Y-2.4
X2.144 Y-2.396
X2.294 Y-2.383
X2.442 Y-2.361
X2.589 Y-2.33
X2.733 Y-2.289
X2.875 Y-2.24
X3.013 Y-2.182
X3.147 Y-2.115
X3.277 Y-2.04
X3.402 Y-1.957
X3.522 Y-1.866
X3.635 Y-1.769
X3.743 Y-1.664
X3.843 Y-1.552
X3.937 Y-1.435
X4.022 Y-1.312
X4.1 Y-1.184
X4.173 Y-1.046
X4.253 Y-0.869
X4.34 Y-0.643
X4.423 Y-0.381
X4.48 Y-0.152
X4.517 Y0.039
X4.54 Y0.221
X4.552 Y0.392
X4.553 Y0.549
X4.545 Y0.707
X4.529 Y0.858
X4.503 Y1.006
X4.469 Y1.152
X4.426 Y1.296
X4.374 Y1.437
X4.314 Y1.574
X4.246 Y1.708
X4.169 Y1.836
X4.085 Y1.961
X3.993 Y2.079
X3.894 Y2.193
X3.786 Y2.302
X3.673 Y2.404
X3.554 Y2.499
X3.427 Y2.589
X3.293 Y2.672
X3.152 Y2.748
X3.006 Y2.816
X2.856 Y2.876
X2.702 Y2.926
X2.543 Y2.968
X2.38 Y3.001
X2.213 Y3.024
X2.044 Y3.038
X1.873 Y3.042
X1.702 Y3.035
X1.531 Y3.018
X1.361 Y2.991
X1.191 Y2.953
X1.023 Y2.906
X0.857 Y2.848
X0.693 Y2.779
X0.534 Y2.701
X0.378 Y2.613
X0.227 Y2.516
X0.082 Y2.409
X-0.056 Y2.294
X-0.188 Y2.171
X-0.312 Y2.04
X-0.428 Y1.902
X-0.536 Y1.757
X-0.636 Y1.606
X-0.726 Y1.448
X-0.807 Y1.285
X-0.879 Y1.117
X-0.94 Y0.945
X-0.992 Y0.769
X-1.033 Y0.59
X-1.063 Y0.409
X-1.082 Y0.226
X-1.091 Y0.043
X-1.088 Y-0.142
X-1.075 Y-0.325
X-1.05 Y-0.507
X-1.015 Y-0.688
X-0.97 Y-0.866
X-0.913 Y-1.041
X-0.847 Y-1.212
X-0.771 Y-1.379
X-0.684 Y-1.542
X-0.588 Y-1.699
X-0.483 Y-1.85
X-0.369 Y-1.994
X-0.247 Y-2.132
X-0.116 Y-2.263
X0.022 Y-2.385
X0.167 Y-2.499
X0.319 Y-2.605
X0.477 Y-2.701
X0.641 Y-2.788
X0.809 Y-2.864
X0.981 Y-2.931
X1.157 Y-2.987
X1.336 Y-3.033
X1.517 Y-3.068
X1.7 Y-3.092
X1.884 Y-3.105
X2.068 Y-3.107
X2.252 Y-3.099
X2.435 Y-3.079
X2.617 Y-3.048
X2.797 Y-3.007
X2.974 Y-2.955
X3.148 Y-2.893
X3.318 Y-2.82
X3.483 Y-2.738
X3.643 Y-2.645
X3.798 Y-2.544
X3.946 Y-2.433
X4.088 Y-2.313
X4.227 Y-2.18
X4.362 Y-2.036
X4.494 Y-1.877
X4.627 Y-1.696
X4.753 Y-1.499
X4.868 Y-1.295
X4.97 Y-1.085
X5.059 Y-0.872
X5.134 Y-0.658
X5.194 Y-0.444
X5.241 Y-0.23
X5.274 Y-0.019
X5.295 Y0.191
X5.303 Y0.398
X5.298 Y0.602
X5.282 Y0.803
X5.254 Y1.
X5.214 Y1.195
X5.164 Y1.385
X5.103 Y1.571
X5.031 Y1.752
X4.948 Y1.929
X4.854 Y2.101
X4.751 Y2.267
X4.638 Y2.427
X4.555 Y2.53
X4.503 Y2.591
X4.446 Y2.648
X4.386 Y2.702
X3.995 Y3.025
X3.953 Y3.056
X3.912 Y3.082
X3.277 Y3.381
X3.116 Y3.452
X2.938 Y3.489
X2.403 Y3.591
X2.225 Y3.621
X2.047 Y3.613
X1.513 Y3.579
X1.335 Y3.566
X1.299 Y3.559
X1.157 Y3.514
X0.623 Y3.341
X0.445 Y3.277
X0.323 Y3.203
X-0.267 Y2.828
X-0.309 Y2.798
X-0.351 Y2.759
X-0.801 Y2.28
X-0.933 Y2.135
X-0.979 Y2.059
X-1.335 Y1.411
X-1.376 Y1.329
X-1.4 Y1.246
X-1.582 Y0.534
X-1.601 Y0.445
X-1.603 Y0.356
Y-0.356
X-1.601 Y-0.445
X-1.582 Y-0.534
X-1.4 Y-1.246
X-1.376 Y-1.329
X-1.335 Y-1.411
X-0.979 Y-2.059
X-0.933 Y-2.135
X-0.801 Y-2.28
X-0.351 Y-2.759
X-0.309 Y-2.798
X-0.267 Y-2.828
X0.323 Y-3.203
X0.445 Y-3.277
X0.623 Y-3.341
X1.157 Y-3.514
X1.299 Y-3.559
X1.335 Y-3.566
X1.513 Y-3.579
X2.047 Y-3.613
X2.225 Y-3.621
X2.403 Y-3.591
X2.938 Y-3.489
X3.116 Y-3.452
X3.294 Y-3.373
X3.912 Y-3.082
X3.953 Y-3.056
X3.995 Y-3.025
X4.54 Y-2.575
X4.638 Y-2.491
X4.718 Y-2.388
X5.074 Y-1.898
X5.16 Y-1.779
X5.186 Y-1.735
X5.206 Y-1.69
X5.452 Y-1.068
X5.517 Y-0.89
X5.541 Y-0.712
X5.609 Y-0.178
X5.628 Y0.
X5.608 Y0.184
X5.541 Y0.712
X5.517 Y0.89
X5.452 Y1.068
X5.206 Y1.69
X5.186 Y1.735
X5.16 Y1.779
X4.896 Y2.143
X4.718 Y2.388
X4.638 Y2.491
X4.54 Y2.575
X4.386 Y2.702
G3 X3.935 Y2.115 I-0.226 J-0.293
G1 X3.992 Y2.071 Z-11.492
X4.047 Y2.029 Z-11.471
X4.098 Y1.99 Z-11.437
X4.142 Y1.956 Z-11.391
X4.178 Y1.928 Z-11.335
X4.205 Y1.907 Z-11.271
X4.222 Y1.894 Z-11.201
X4.228 Y1.89 Z-11.129
G0 Z2.

M9
G53 Z0.
M30
