(2)
(T2  D=3.7 CR=0. - ZMIN=-12. - FLAT END MILL)
G0 G90 G94 G17
G21
G53 Z0.

(INNER CIRCLE)
M5
M9
T2
(PART OF A 10 PACK CARBIDE)
S18000 M3
G54
M9
G0 X-0.679 Y-0.188
Z2.
Z1.367
G1 Z-0.63 F33.
X-0.686 Y-0.189 Z-0.702
X-0.706 Y-0.192 Z-0.772
X-0.74 Y-0.198 Z-0.836
X-0.785 Y-0.206 Z-0.892
X-0.841 Y-0.215 Z-0.938
X-0.904 Y-0.226 Z-0.972
X-0.972 Y-0.237 Z-0.993
X-1.043 Y-0.249 Z-1.
X-1.766 Y-0.372
G3 X-2.069 Y-0.798 I0.062 J-0.365
G1 X-2.062 Y-0.843
X-1.985 Y-1.149
X-1.935 Y-1.303
X-1.883 Y-1.456
X-1.82 Y-1.609
X-1.754 Y-1.762
X-1.676 Y-1.916
X-1.594 Y-2.069
X-1.499 Y-2.222
X-1.401 Y-2.375
X-1.303 Y-2.504
X-1.284 Y-2.529
X-1.163 Y-2.682
X-0.996 Y-2.867
X-0.873 Y-2.989
X-0.843 Y-3.016
X-0.708 Y-3.142
X-0.516 Y-3.295
X-0.383 Y-3.392
X-0.23 Y-3.495
X-0.077 Y-3.588
X0.077 Y-3.674
X0.23 Y-3.748
X0.383 Y-3.818
X0.536 Y-3.878
X0.69 Y-3.934
X0.843 Y-3.981
X0.996 Y-4.023
X1.15 Y-4.058
X1.303 Y-4.086
X1.456 Y-4.111
X1.609 Y-4.127
X1.763 Y-4.141
X2.069 Y-4.147
X2.223 Y-4.139
X2.376 Y-4.13
X2.529 Y-4.112
X2.682 Y-4.09
X2.834 Y-4.061
X2.989 Y-4.026
X3.142 Y-3.986
X3.389 Y-3.908
X3.449 Y-3.886
X3.602 Y-3.823
X3.755 Y-3.757
X3.909 Y-3.68
X4.056 Y-3.602
X4.306 Y-3.448
X4.369 Y-3.403
X4.522 Y-3.291
X4.675 Y-3.167
X4.828 Y-3.034
X4.875 Y-2.989
X5.025 Y-2.835
X5.135 Y-2.713
X5.288 Y-2.528
X5.397 Y-2.375
X5.442 Y-2.312
X5.502 Y-2.222
X5.595 Y-2.064
X5.678 Y-1.916
X5.752 Y-1.762
X5.822 Y-1.609
X5.901 Y-1.403
X5.937 Y-1.303
X5.982 Y-1.149
X6.027 Y-0.996
X6.09 Y-0.69
X6.11 Y-0.536
X6.129 Y-0.383
X6.139 Y-0.23
X6.145 Y-0.077
Y0.077
X6.139 Y0.23
X6.129 Y0.383
X6.11 Y0.536
X6.09 Y0.69
X6.027 Y0.996
X5.982 Y1.149
X5.937 Y1.303
X5.901 Y1.403
X5.822 Y1.609
X5.752 Y1.762
X5.678 Y1.916
X5.595 Y2.064
X5.502 Y2.222
X5.442 Y2.312
X5.397 Y2.375
X5.288 Y2.528
X5.135 Y2.713
X5.025 Y2.835
X4.875 Y2.989
X4.828 Y3.034
X4.675 Y3.167
X4.522 Y3.291
X4.369 Y3.403
X4.306 Y3.448
X4.056 Y3.602
X3.909 Y3.68
X3.755 Y3.757
X3.602 Y3.823
X3.449 Y3.886
X3.389 Y3.908
X3.142 Y3.986
X2.989 Y4.026
X2.834 Y4.061
X2.682 Y4.09
X2.529 Y4.112
X2.376 Y4.13
X2.223 Y4.139
X2.069 Y4.147
X1.763 Y4.141
X1.609 Y4.127
X1.456 Y4.111
X1.303 Y4.086
X1.15 Y4.058
X0.996 Y4.023
X0.843 Y3.981
X0.69 Y3.934
X0.536 Y3.878
X0.383 Y3.818
X0.23 Y3.748
X0.077 Y3.674
X-0.077 Y3.588
X-0.23 Y3.495
X-0.383 Y3.392
X-0.516 Y3.295
X-0.708 Y3.142
X-0.843 Y3.016
X-0.873 Y2.989
X-0.996 Y2.867
X-1.163 Y2.682
X-1.284 Y2.529
X-1.303 Y2.504
X-1.401 Y2.375
X-1.499 Y2.222
X-1.594 Y2.069
X-1.676 Y1.916
X-1.754 Y1.762
X-1.82 Y1.609
X-1.883 Y1.456
X-1.935 Y1.303
X-1.985 Y1.149
X-2.062 Y0.843
X-2.069 Y0.798
X-2.112 Y0.536
X-2.128 Y0.383
X-2.14 Y0.23
X-2.145 Y0.077
Y-0.077
X-2.14 Y-0.23
X-2.128 Y-0.383
X-2.112 Y-0.536
X-2.069 Y-0.798
X-2.008 Y-1.06
X-1.93 Y-1.317 Z-1.001
X-1.838 Y-1.569 Z-1.002
X-1.73 Y-1.815 Z-1.003
X-1.603 Y-2.052 Z-1.004
X-1.462 Y-2.28 Z-1.006
X-1.307 Y-2.499 Z-1.009
X-1.139 Y-2.709 Z-1.011
X-0.959 Y-2.908 Z-1.014
X-0.763 Y-3.092 Z-1.017
X-0.556 Y-3.263 Z-1.021
X-0.34 Y-3.422 Z-1.024
X-0.114 Y-3.567 Z-1.028
X0.121 Y-3.698 Z-1.033
X0.365 Y-3.81 Z-1.037
X0.615 Y-3.907 Z-1.042
X0.742 Y-3.953 Z-1.045
X0.871 Y-3.989 Z-1.048
X1.001 Y-4.024 Z-1.05
X1.131 Y-4.055 Z-1.053
X1.263 Y-4.079 Z-1.056
X1.395 Y-4.104 Z-1.059
X1.529 Y-4.118 Z-1.062
X1.662 Y-4.132 Z-1.065
X1.796 Y-4.142 Z-1.068
X1.931 Y-4.144 Z-1.071
X2.065 Y-4.147 Z-1.074
X2.199 Y-4.141 Z-1.077
X2.333 Y-4.132 Z-1.081
X2.467 Y-4.121 Z-1.084
X2.6 Y-4.101 Z-1.087
X2.733 Y-4.082 Z-1.091
X2.864 Y-4.054 Z-1.094
X2.995 Y-4.025 Z-1.098
X3.125 Y-3.991 Z-1.102
X3.253 Y-3.951 Z-1.105
X3.381 Y-3.911 Z-1.109
X3.506 Y-3.862 Z-1.113
X3.631 Y-3.811 Z-1.117
X3.754 Y-3.758 Z-1.121
X3.874 Y-3.697 Z-1.125
X3.994 Y-3.637 Z-1.129
X4.109 Y-3.569 Z-1.133
X4.224 Y-3.498 Z-1.137
X4.337 Y-3.426 Z-1.141
X4.445 Y-3.347 Z-1.145
X4.554 Y-3.267 Z-1.15
X4.657 Y-3.182 Z-1.154
X4.759 Y-3.094 Z-1.158
X4.859 Y-3.005 Z-1.163
X4.953 Y-2.909 Z-1.167
X5.047 Y-2.813 Z-1.172
X5.136 Y-2.712 Z-1.176
X5.222 Y-2.609 Z-1.181
X5.306 Y-2.505 Z-1.185
X5.46 Y-2.285 Z-1.195
X5.532 Y-2.171 Z-1.2
X5.6 Y-2.055 Z-1.204
X5.667 Y-1.939 Z-1.209
X5.725 Y-1.818 Z-1.214
X5.783 Y-1.697 Z-1.218
X5.836 Y-1.573 Z-1.223
X5.884 Y-1.448 Z-1.228
X5.932 Y-1.322 Z-1.232
X5.97 Y-1.193 Z-1.237
X6.007 Y-1.065 Z-1.242
X6.039 Y-0.934 Z-1.246
X6.067 Y-0.803 Z-1.251
X6.094 Y-0.671 Z-1.256
X6.11 Y-0.538 Z-1.26
X6.126 Y-0.405 Z-1.265
X6.137 Y-0.271 Z-1.27
X6.143 Y-0.137 Z-1.275
X6.148 Y-0.002 Z-1.279
X6.143 Y0.132 Z-1.284
X6.138 Y0.266 Z-1.289
X6.127 Y0.4 Z-1.293
X6.111 Y0.533 Z-1.298
X6.094 Y0.666 Z-1.303
X6.068 Y0.798 Z-1.307
X6.04 Y0.93 Z-1.312
X6.009 Y1.06 Z-1.317
X5.971 Y1.189 Z-1.321
X5.933 Y1.318 Z-1.326
X5.886 Y1.443 Z-1.331
X5.838 Y1.569 Z-1.335
X5.786 Y1.693 Z-1.34
X5.669 Y1.935 Z-1.35
X5.602 Y2.051 Z-1.354
X5.534 Y2.167 Z-1.359
X5.463 Y2.281 Z-1.364
X5.309 Y2.501 Z-1.373
X5.225 Y2.605 Z-1.378
X5.139 Y2.708 Z-1.382
X5.05 Y2.809 Z-1.387
X4.862 Y3.001 Z-1.396
X4.762 Y3.091 Z-1.401
X4.661 Y3.179 Z-1.406
X4.558 Y3.265 Z-1.41
X4.341 Y3.423 Z-1.42
X4.228 Y3.496 Z-1.425
X4.114 Y3.566 Z-1.429
X3.998 Y3.634 Z-1.434
X3.758 Y3.756 Z-1.443
X3.635 Y3.81 Z-1.448
X3.511 Y3.86 Z-1.453
X3.386 Y3.909 Z-1.457
X3.13 Y3.99 Z-1.467
X3. Y4.023 Z-1.471
X2.869 Y4.053 Z-1.476
X2.737 Y4.082 Z-1.481
X2.471 Y4.12 Z-1.49
X2.338 Y4.132 Z-1.495
X2.204 Y4.14 Z-1.5
X2.07 Y4.147 Z-1.504
X1.801 Y4.142 Z-1.514
X1.667 Y4.133 Z-1.518
X1.534 Y4.119 Z-1.523
X1.4 Y4.104 Z-1.528
X1.136 Y4.055 Z-1.537
X1.005 Y4.025 Z-1.542
X0.876 Y3.99 Z-1.546
X0.746 Y3.954 Z-1.551
X0.493 Y3.863 Z-1.561
X0.369 Y3.812 Z-1.565
X0.125 Y3.7 Z-1.575
X0.007 Y3.635 Z-1.579
X-0.11 Y3.569 Z-1.584
X-0.224 Y3.499 Z-1.589
X-0.447 Y3.349 Z-1.598
X-0.553 Y3.266 Z-1.603
X-0.658 Y3.182 Z-1.607
X-0.759 Y3.095 Z-1.612
X-0.955 Y2.911 Z-1.621
X-1.046 Y2.812 Z-1.626
X-1.136 Y2.712 Z-1.631
X-1.223 Y2.61 Z-1.636
X-1.386 Y2.396 Z-1.645
X-1.459 Y2.284 Z-1.65
X-1.532 Y2.171 Z-1.654
X-1.601 Y2.056 Z-1.659
X-1.728 Y1.819 Z-1.668
X-1.782 Y1.696 Z-1.673
X-1.836 Y1.573 Z-1.678
X-1.886 Y1.448 Z-1.682
X-1.929 Y1.321 Z-1.687
X-1.972 Y1.194 Z-1.692
X-2.006 Y1.064 Z-1.696
X-2.039 Y0.934 Z-1.701
X-2.069 Y0.803 Z-1.706
X-2.09 Y0.671 Z-1.711
X-2.112 Y0.538 Z-1.715
X-2.126 Y0.405 Z-1.72
X-2.137 Y0.271 Z-1.725
X-2.145 Y0.137 Z-1.729
Y0.002 Z-1.734
Y-0.132 Z-1.739
X-2.137 Y-0.266 Z-1.743
X-2.126 Y-0.4 Z-1.748
X-2.113 Y-0.533 Z-1.753
X-2.091 Y-0.666 Z-1.757
X-2.069 Y-0.798 Z-1.762
X-2.04 Y-0.93 Z-1.767
X-2.008 Y-1.06 Z-1.771
X-1.973 Y-1.19 Z-1.776
X-1.93 Y-1.317 Z-1.781
X-1.887 Y-1.444 Z-1.786
X-1.838 Y-1.569 Z-1.79
X-1.784 Y-1.692 Z-1.795
X-1.73 Y-1.815 Z-1.8
X-1.667 Y-1.933 Z-1.804
X-1.603 Y-2.052 Z-1.809
X-1.535 Y-2.167 Z-1.814
X-1.462 Y-2.28 Z-1.818
X-1.389 Y-2.392 Z-1.823
X-1.307 Y-2.499 Z-1.827
X-1.225 Y-2.606 Z-1.832
X-1.139 Y-2.709 Z-1.836
X-1.049 Y-2.808 Z-1.841
X-0.959 Y-2.908 Z-1.845
X-0.861 Y-3. Z-1.849
X-0.763 Y-3.092 Z-1.854
X-0.661 Y-3.179 Z-1.858
X-0.556 Y-3.263 Z-1.862
X-0.451 Y-3.347 Z-1.866
X-0.34 Y-3.422 Z-1.87
X-0.228 Y-3.497 Z-1.874
X-0.114 Y-3.567 Z-1.878
X0.003 Y-3.633 Z-1.882
X0.121 Y-3.698 Z-1.886
X0.243 Y-3.754 Z-1.89
X0.365 Y-3.81 Z-1.894
X0.489 Y-3.861 Z-1.898
X0.615 Y-3.907 Z-1.901
X0.742 Y-3.953 Z-1.905
X0.871 Y-3.989 Z-1.908
X1.001 Y-4.024 Z-1.912
X1.131 Y-4.055 Z-1.915
X1.263 Y-4.079 Z-1.919
X1.395 Y-4.104 Z-1.922
X1.529 Y-4.118 Z-1.925
X1.662 Y-4.132 Z-1.929
X1.796 Y-4.142 Z-1.932
X1.931 Y-4.144 Z-1.935
X2.065 Y-4.147 Z-1.938
X2.199 Y-4.141 Z-1.941
X2.333 Y-4.132 Z-1.944
X2.467 Y-4.121 Z-1.946
X2.6 Y-4.101 Z-1.949
X2.733 Y-4.082 Z-1.952
X2.864 Y-4.054 Z-1.955
X2.995 Y-4.025 Z-1.957
X3.253 Y-3.951 Z-1.962
X3.506 Y-3.862 Z-1.967
X3.754 Y-3.758 Z-1.971
X3.994 Y-3.637 Z-1.975
X4.224 Y-3.498 Z-1.979
X4.445 Y-3.347 Z-1.983
X4.657 Y-3.182 Z-1.986
X4.859 Y-3.005 Z-1.989
X5.047 Y-2.813 Z-1.991
X5.222 Y-2.609 Z-1.994
X5.383 Y-2.395 Z-1.995
X5.532 Y-2.171 Z-1.997
X5.667 Y-1.939 Z-1.998
X5.783 Y-1.697 Z-1.999
X5.884 Y-1.448 Z-2.
X5.97 Y-1.193
X5.977 Y-1.168
X5.982 Y-1.149
X6.027 Y-0.996
X6.09 Y-0.69
X6.11 Y-0.536
X6.129 Y-0.383
X6.139 Y-0.23
X6.145 Y-0.077
Y0.077
X6.139 Y0.23
X6.129 Y0.383
X6.11 Y0.536
X6.09 Y0.69
X6.027 Y0.996
X5.982 Y1.149
X5.937 Y1.303
X5.901 Y1.403
X5.822 Y1.609
X5.752 Y1.762
X5.678 Y1.916
X5.595 Y2.064
X5.502 Y2.222
X5.442 Y2.312
X5.397 Y2.375
X5.288 Y2.528
X5.135 Y2.713
X5.025 Y2.835
X4.875 Y2.989
X4.828 Y3.034
X4.675 Y3.167
X4.522 Y3.291
X4.369 Y3.403
X4.306 Y3.448
X4.056 Y3.602
X3.909 Y3.68
X3.755 Y3.757
X3.602 Y3.823
X3.449 Y3.886
X3.389 Y3.908
X3.142 Y3.986
X2.989 Y4.026
X2.834 Y4.061
X2.682 Y4.09
X2.529 Y4.112
X2.376 Y4.13
X2.223 Y4.139
X2.069 Y4.147
X1.763 Y4.141
X1.609 Y4.127
X1.456 Y4.111
X1.303 Y4.086
X1.15 Y4.058
X0.996 Y4.023
X0.843 Y3.981
X0.69 Y3.934
X0.536 Y3.878
X0.383 Y3.818
X0.23 Y3.748
X0.077 Y3.674
X-0.077 Y3.588
X-0.23 Y3.495
X-0.383 Y3.392
X-0.516 Y3.295
X-0.708 Y3.142
X-0.843 Y3.016
X-0.873 Y2.989
X-0.996 Y2.867
X-1.163 Y2.682
X-1.284 Y2.529
X-1.303 Y2.504
X-1.401 Y2.375
X-1.499 Y2.222
X-1.594 Y2.069
X-1.676 Y1.916
X-1.754 Y1.762
X-1.82 Y1.609
X-1.883 Y1.456
X-1.935 Y1.303
X-1.985 Y1.149
X-2.062 Y0.843
X-2.069 Y0.798
X-2.112 Y0.536
X-2.128 Y0.383
X-2.14 Y0.23
X-2.145 Y0.077
Y-0.077
X-2.14 Y-0.23
X-2.128 Y-0.383
X-2.112 Y-0.536
X-2.069 Y-0.798
X-2.062 Y-0.843
X-1.985 Y-1.149
X-1.935 Y-1.303
X-1.883 Y-1.456
X-1.82 Y-1.609
X-1.754 Y-1.762
X-1.676 Y-1.916
X-1.594 Y-2.069
X-1.499 Y-2.222
X-1.401 Y-2.375
X-1.303 Y-2.504
X-1.284 Y-2.529
X-1.163 Y-2.682
X-0.996 Y-2.867
X-0.873 Y-2.989
X-0.843 Y-3.016
X-0.708 Y-3.142
X-0.516 Y-3.295
X-0.383 Y-3.392
X-0.23 Y-3.495
X-0.077 Y-3.588
X0.077 Y-3.674
X0.23 Y-3.748
X0.383 Y-3.818
X0.536 Y-3.878
X0.69 Y-3.934
X0.843 Y-3.981
X0.996 Y-4.023
X1.15 Y-4.058
X1.303 Y-4.086
X1.456 Y-4.111
X1.609 Y-4.127
X1.763 Y-4.141
X2.069 Y-4.147
X2.223 Y-4.139
X2.376 Y-4.13
X2.529 Y-4.112
X2.682 Y-4.09
X2.834 Y-4.061
X2.989 Y-4.026
X3.142 Y-3.986
X3.389 Y-3.908
X3.449 Y-3.886
X3.602 Y-3.823
X3.755 Y-3.757
X3.909 Y-3.68
X4.056 Y-3.602
X4.306 Y-3.448
X4.369 Y-3.403
X4.522 Y-3.291
X4.675 Y-3.167
X4.828 Y-3.034
X4.875 Y-2.989
X5.025 Y-2.835
X5.135 Y-2.713
X5.288 Y-2.528
X5.397 Y-2.375
X5.442 Y-2.312
X5.502 Y-2.222
X5.595 Y-2.064
X5.678 Y-1.916
X5.752 Y-1.762
X5.822 Y-1.609
X5.901 Y-1.403
X5.937 Y-1.303
X5.977 Y-1.168
X6.045 Y-0.909
X6.097 Y-0.645 Z-2.001
X6.13 Y-0.379 Z-2.002
X6.144 Y-0.11 Z-2.003
X6.142 Y0.158 Z-2.004
X6.124 Y0.426 Z-2.006
X6.09 Y0.692 Z-2.009
X6.035 Y0.955 Z-2.011
X5.964 Y1.214 Z-2.014
X5.876 Y1.468 Z-2.017
X5.774 Y1.716 Z-2.021
X5.657 Y1.958 Z-2.024
X5.521 Y2.19 Z-2.028
X5.371 Y2.412 Z-2.033
X5.208 Y2.625 Z-2.037
X5.032 Y2.828 Z-2.042
X4.938 Y2.924 Z-2.045
X4.844 Y3.02 Z-2.048
X4.743 Y3.108 Z-2.05
X4.641 Y3.196 Z-2.053
X4.536 Y3.28 Z-2.056
X4.428 Y3.359 Z-2.059
X4.32 Y3.439 Z-2.062
X4.206 Y3.51 Z-2.065
X4.091 Y3.58 Z-2.068
X3.974 Y3.646 Z-2.071
X3.855 Y3.707 Z-2.074
X3.735 Y3.768 Z-2.077
X3.611 Y3.819 Z-2.081
X3.487 Y3.87 Z-2.084
X3.361 Y3.917 Z-2.087
X3.233 Y3.957 Z-2.091
X3.105 Y3.998 Z-2.094
X2.974 Y4.029 Z-2.098
X2.843 Y4.059 Z-2.102
X2.711 Y4.085 Z-2.105
X2.579 Y4.104 Z-2.109
X2.446 Y4.124 Z-2.113
X2.312 Y4.134 Z-2.117
X2.178 Y4.142 Z-2.121
X2.043 Y4.147 Z-2.125
X1.909 Y4.144 Z-2.129
X1.775 Y4.141 Z-2.133
X1.641 Y4.13 Z-2.137
X1.508 Y4.116 Z-2.141
X1.374 Y4.1 Z-2.145
X1.242 Y4.075 Z-2.15
X1.11 Y4.051 Z-2.154
X0.98 Y4.018 Z-2.158
X0.85 Y3.983 Z-2.163
X0.721 Y3.945 Z-2.167
X0.595 Y3.9 Z-2.172
X0.469 Y3.854 Z-2.176
X0.345 Y3.801 Z-2.181
X0.223 Y3.745 Z-2.185
X0.102 Y3.688 Z-2.19
X-0.015 Y3.622 Z-2.195
X-0.133 Y3.557 Z-2.2
X-0.246 Y3.485 Z-2.204
X-0.357 Y3.41 Z-2.209
X-0.468 Y3.333 Z-2.214
X-0.573 Y3.25 Z-2.218
X-0.678 Y3.166 Z-2.223
X-0.779 Y3.077 Z-2.228
X-0.876 Y2.985 Z-2.232
X-0.973 Y2.892 Z-2.237
X-1.063 Y2.792 Z-2.242
X-1.153 Y2.693 Z-2.246
X-1.238 Y2.589 Z-2.251
X-1.32 Y2.482 Z-2.256
X-1.401 Y2.375 Z-2.26
X-1.473 Y2.262 Z-2.265
X-1.546 Y2.149 Z-2.27
X-1.614 Y2.033 Z-2.275
X-1.677 Y1.914 Z-2.279
X-1.739 Y1.796 Z-2.284
X-1.793 Y1.672 Z-2.289
X-1.846 Y1.549 Z-2.293
X-1.894 Y1.424 Z-2.298
X-1.937 Y1.297 Z-2.303
X-1.98 Y1.169 Z-2.307
X-2.013 Y1.039 Z-2.312
X-2.045 Y0.909 Z-2.317
X-2.073 Y0.777 Z-2.321
X-2.095 Y0.645 Z-2.326
X-2.116 Y0.512 Z-2.331
X-2.128 Y0.379 Z-2.335
X-2.139 Y0.245 Z-2.34
X-2.145 Y0.111 Z-2.345
Y-0.024 Z-2.35
Y-0.158 Z-2.354
X-2.135 Y-0.292 Z-2.359
X-2.124 Y-0.426 Z-2.364
X-2.109 Y-0.559 Z-2.368
X-2.065 Y-0.824 Z-2.378
X-2.034 Y-0.955 Z-2.382
X-2.001 Y-1.085 Z-2.387
X-1.965 Y-1.214 Z-2.392
X-1.879 Y-1.469 Z-2.401
X-1.827 Y-1.593 Z-2.406
X-1.774 Y-1.716 Z-2.41
X-1.717 Y-1.838 Z-2.415
X-1.591 Y-2.075 Z-2.425
X-1.52 Y-2.189 Z-2.429
X-1.448 Y-2.302 Z-2.434
X-1.373 Y-2.413 Z-2.439
X-1.21 Y-2.627 Z-2.448
X-1.121 Y-2.728 Z-2.453
X-1.031 Y-2.828 Z-2.457
X-0.94 Y-2.926 Z-2.462
X-0.744 Y-3.11 Z-2.471
X-0.641 Y-3.196 Z-2.476
X-0.536 Y-3.279 Z-2.481
X-0.429 Y-3.361 Z-2.485
X-0.207 Y-3.511 Z-2.495
X-0.091 Y-3.58 Z-2.5
X0.026 Y-3.645 Z-2.504
X0.144 Y-3.709 Z-2.509
X0.389 Y-3.821 Z-2.518
X0.514 Y-3.87 Z-2.523
X0.64 Y-3.916 Z-2.528
X0.767 Y-3.96 Z-2.532
X1.026 Y-4.031 Z-2.542
X1.157 Y-4.059 Z-2.546
X1.289 Y-4.084 Z-2.551
X1.421 Y-4.107 Z-2.556
X1.688 Y-4.135 Z-2.565
X1.823 Y-4.142 Z-2.57
X1.957 Y-4.145 Z-2.575
X2.091 Y-4.147 Z-2.579
X2.359 Y-4.131 Z-2.589
X2.493 Y-4.117 Z-2.593
X2.626 Y-4.098 Z-2.598
X2.759 Y-4.078 Z-2.603
X3.02 Y-4.019 Z-2.612
X3.15 Y-3.984 Z-2.617
X3.406 Y-3.903 Z-2.626
X3.531 Y-3.852 Z-2.631
X3.655 Y-3.801 Z-2.636
X3.777 Y-3.746 Z-2.64
X4.017 Y-3.625 Z-2.65
X4.132 Y-3.555 Z-2.654
X4.246 Y-3.485 Z-2.659
X4.358 Y-3.411 Z-2.664
X4.575 Y-3.252 Z-2.673
X4.677 Y-3.165 Z-2.678
X4.779 Y-3.077 Z-2.682
X4.877 Y-2.986 Z-2.687
X4.971 Y-2.89 Z-2.692
X5.065 Y-2.794 Z-2.696
X5.152 Y-2.692 Z-2.701
X5.238 Y-2.589 Z-2.706
X5.321 Y-2.483 Z-2.711
X5.398 Y-2.373 Z-2.715
X5.476 Y-2.263 Z-2.72
X5.545 Y-2.149 Z-2.725
X5.613 Y-2.033 Z-2.729
X5.678 Y-1.915 Z-2.734
X5.737 Y-1.794 Z-2.739
X5.795 Y-1.673 Z-2.743
X5.845 Y-1.549 Z-2.748
X5.894 Y-1.423 Z-2.753
X5.939 Y-1.297 Z-2.757
X5.977 Y-1.168 Z-2.762
X6.015 Y-1.04 Z-2.767
X6.045 Y-0.909 Z-2.771
X6.072 Y-0.777 Z-2.776
X6.097 Y-0.645 Z-2.781
X6.113 Y-0.512 Z-2.786
X6.13 Y-0.379 Z-2.79
X6.138 Y-0.245 Z-2.795
X6.144 Y-0.11 Z-2.8
X6.147 Y0.024 Z-2.804
X6.137 Y0.292 Z-2.814
X6.124 Y0.426 Z-2.818
X6.107 Y0.559 Z-2.823
X6.09 Y0.692 Z-2.827
X6.062 Y0.824 Z-2.832
X6.035 Y0.955 Z-2.836
X6.001 Y1.085 Z-2.841
X5.964 Y1.214 Z-2.845
X5.925 Y1.343 Z-2.849
X5.876 Y1.468 Z-2.854
X5.828 Y1.593 Z-2.858
X5.774 Y1.716 Z-2.862
X5.716 Y1.837 Z-2.866
X5.657 Y1.958 Z-2.87
X5.589 Y2.074 Z-2.874
X5.521 Y2.19 Z-2.878
X5.448 Y2.302 Z-2.882
X5.371 Y2.412 Z-2.886
X5.294 Y2.522 Z-2.89
X5.208 Y2.625 Z-2.894
X5.122 Y2.728 Z-2.898
X5.032 Y2.828 Z-2.901
X4.938 Y2.924 Z-2.905
X4.844 Y3.02 Z-2.908
X4.743 Y3.108 Z-2.912
X4.641 Y3.196 Z-2.915
X4.536 Y3.28 Z-2.919
X4.428 Y3.359 Z-2.922
X4.32 Y3.439 Z-2.925
X4.206 Y3.51 Z-2.929
X4.091 Y3.58 Z-2.932
X3.974 Y3.646 Z-2.935
X3.855 Y3.707 Z-2.938
X3.735 Y3.768 Z-2.941
X3.611 Y3.819 Z-2.944
X3.487 Y3.87 Z-2.946
X3.361 Y3.917 Z-2.949
X3.233 Y3.957 Z-2.952
X3.105 Y3.998 Z-2.955
X2.974 Y4.029 Z-2.957
X2.711 Y4.085 Z-2.962
X2.446 Y4.124 Z-2.967
X2.178 Y4.142 Z-2.971
X1.909 Y4.144 Z-2.975
X1.641 Y4.13 Z-2.979
X1.374 Y4.1 Z-2.983
X1.11 Y4.051 Z-2.986
X0.85 Y3.983 Z-2.989
X0.595 Y3.9 Z-2.991
X0.345 Y3.801 Z-2.994
X0.102 Y3.688 Z-2.995
X-0.133 Y3.557 Z-2.997
X-0.357 Y3.41 Z-2.998
X-0.573 Y3.25 Z-2.999
X-0.779 Y3.077 Z-3.
X-0.973 Y2.892
X-0.99 Y2.872
X-0.996 Y2.867
X-1.163 Y2.682
X-1.284 Y2.529
X-1.303 Y2.504
X-1.401 Y2.375
X-1.499 Y2.222
X-1.594 Y2.069
X-1.676 Y1.916
X-1.754 Y1.762
X-1.82 Y1.609
X-1.883 Y1.456
X-1.935 Y1.303
X-1.985 Y1.149
X-2.062 Y0.843
X-2.069 Y0.798
X-2.112 Y0.536
X-2.128 Y0.383
X-2.14 Y0.23
X-2.145 Y0.077
Y-0.077
X-2.14 Y-0.23
X-2.128 Y-0.383
X-2.112 Y-0.536
X-2.069 Y-0.798
X-2.062 Y-0.843
X-1.985 Y-1.149
X-1.935 Y-1.303
X-1.883 Y-1.456
X-1.82 Y-1.609
X-1.754 Y-1.762
X-1.676 Y-1.916
X-1.594 Y-2.069
X-1.499 Y-2.222
X-1.401 Y-2.375
X-1.303 Y-2.504
X-1.284 Y-2.529
X-1.163 Y-2.682
X-0.996 Y-2.867
X-0.873 Y-2.989
X-0.843 Y-3.016
X-0.708 Y-3.142
X-0.516 Y-3.295
X-0.383 Y-3.392
X-0.23 Y-3.495
X-0.077 Y-3.588
X0.077 Y-3.674
X0.23 Y-3.748
X0.383 Y-3.818
X0.536 Y-3.878
X0.69 Y-3.934
X0.843 Y-3.981
X0.996 Y-4.023
X1.15 Y-4.058
X1.303 Y-4.086
X1.456 Y-4.111
X1.609 Y-4.127
X1.763 Y-4.141
X2.069 Y-4.147
X2.223 Y-4.139
X2.376 Y-4.13
X2.529 Y-4.112
X2.682 Y-4.09
X2.834 Y-4.061
X2.989 Y-4.026
X3.142 Y-3.986
X3.389 Y-3.908
X3.449 Y-3.886
X3.602 Y-3.823
X3.755 Y-3.757
X3.909 Y-3.68
X4.056 Y-3.602
X4.306 Y-3.448
X4.369 Y-3.403
X4.522 Y-3.291
X4.675 Y-3.167
X4.828 Y-3.034
X4.875 Y-2.989
X5.025 Y-2.835
X5.135 Y-2.713
X5.288 Y-2.528
X5.397 Y-2.375
X5.442 Y-2.312
X5.502 Y-2.222
X5.595 Y-2.064
X5.678 Y-1.916
X5.752 Y-1.762
X5.822 Y-1.609
X5.901 Y-1.403
X5.937 Y-1.303
X5.977 Y-1.168
X5.982 Y-1.149
X6.027 Y-0.996
X6.09 Y-0.69
X6.11 Y-0.536
X6.129 Y-0.383
X6.139 Y-0.23
X6.145 Y-0.077
Y0.077
X6.139 Y0.23
X6.129 Y0.383
X6.11 Y0.536
X6.09 Y0.69
X6.027 Y0.996
X5.982 Y1.149
X5.937 Y1.303
X5.901 Y1.403
X5.822 Y1.609
X5.752 Y1.762
X5.678 Y1.916
X5.595 Y2.064
X5.502 Y2.222
X5.442 Y2.312
X5.397 Y2.375
X5.288 Y2.528
X5.135 Y2.713
X5.025 Y2.835
X4.875 Y2.989
X4.828 Y3.034
X4.675 Y3.167
X4.522 Y3.291
X4.369 Y3.403
X4.306 Y3.448
X4.056 Y3.602
X3.909 Y3.68
X3.755 Y3.757
X3.602 Y3.823
X3.449 Y3.886
X3.389 Y3.908
X3.142 Y3.986
X2.989 Y4.026
X2.834 Y4.061
X2.682 Y4.09
X2.529 Y4.112
X2.376 Y4.13
X2.223 Y4.139
X2.069 Y4.147
X1.763 Y4.141
X1.609 Y4.127
X1.456 Y4.111
X1.303 Y4.086
X1.15 Y4.058
X0.996 Y4.023
X0.843 Y3.981
X0.69 Y3.934
X0.536 Y3.878
X0.383 Y3.818
X0.23 Y3.748
X0.077 Y3.674
X-0.077 Y3.588
X-0.23 Y3.495
X-0.383 Y3.392
X-0.516 Y3.295
X-0.708 Y3.142
X-0.843 Y3.016
X-0.873 Y2.989
X-0.99 Y2.872
X-1.171 Y2.673
X-1.336 Y2.461 Z-3.001
X-1.488 Y2.24 Z-3.002
X-1.626 Y2.01 Z-3.003
X-1.75 Y1.772 Z-3.004
X-1.856 Y1.525 Z-3.006
X-1.946 Y1.272 Z-3.009
X-2.019 Y1.014 Z-3.011
X-2.077 Y0.752 Z-3.014
X-2.119 Y0.486 Z-3.017
X-2.141 Y0.219 Z-3.021
X-2.145 Y-0.05 Z-3.024
X-2.133 Y-0.318 Z-3.028
X-2.104 Y-0.585 Z-3.033
X-2.06 Y-0.85 Z-3.037
X-1.995 Y-1.11 Z-3.042
X-1.957 Y-1.239 Z-3.045
X-1.914 Y-1.366 Z-3.048
X-1.87 Y-1.493 Z-3.05
X-1.817 Y-1.617 Z-3.053
X-1.764 Y-1.74 Z-3.056
X-1.705 Y-1.861 Z-3.059
X-1.642 Y-1.979 Z-3.062
X-1.579 Y-2.098 Z-3.065
X-1.506 Y-2.211 Z-3.068
X-1.434 Y-2.324 Z-3.071
X-1.357 Y-2.434 Z-3.074
X-1.275 Y-2.541 Z-3.077
X-1.194 Y-2.647 Z-3.081
X-1.104 Y-2.747 Z-3.084
X-1.014 Y-2.847 Z-3.087
X-0.921 Y-2.943 Z-3.091
X-0.823 Y-3.035 Z-3.094
X-0.725 Y-3.127 Z-3.098
X-0.62 Y-3.212 Z-3.102
X-0.516 Y-3.296 Z-3.105
X-0.408 Y-3.376 Z-3.109
X-0.296 Y-3.451 Z-3.113
X-0.185 Y-3.526 Z-3.117
X-0.068 Y-3.592 Z-3.121
X0.049 Y-3.658 Z-3.125
X0.168 Y-3.72 Z-3.129
X0.29 Y-3.776 Z-3.133
X0.412 Y-3.832 Z-3.137
X0.538 Y-3.879 Z-3.141
X0.664 Y-3.925 Z-3.145
X0.792 Y-3.967 Z-3.15
X0.921 Y-4.002 Z-3.154
X1.051 Y-4.037 Z-3.158
X1.183 Y-4.064 Z-3.163
X1.315 Y-4.089 Z-3.167
X1.447 Y-4.11 Z-3.172
X1.581 Y-4.124 Z-3.176
X1.714 Y-4.137 Z-3.181
X1.849 Y-4.143 Z-3.185
X1.983 Y-4.146 Z-3.19
X2.117 Z-3.195
X2.251 Y-4.137 Z-3.2
X2.385 Y-4.129 Z-3.204
X2.518 Y-4.113 Z-3.209
X2.651 Y-4.094 Z-3.214
X2.784 Y-4.073 Z-3.218
X2.915 Y-4.043 Z-3.223
X3.046 Y-4.013 Z-3.228
X3.175 Y-3.976 Z-3.232
X3.303 Y-3.935 Z-3.237
X3.43 Y-3.893 Z-3.242
X3.555 Y-3.842 Z-3.246
X3.679 Y-3.792 Z-3.251
X3.801 Y-3.734 Z-3.256
X3.92 Y-3.674 Z-3.26
X4.04 Y-3.612 Z-3.265
X4.154 Y-3.541 Z-3.27
X4.268 Y-3.471 Z-3.275
X4.379 Y-3.395 Z-3.279
X4.487 Y-3.316 Z-3.284
X4.595 Y-3.236 Z-3.289
X4.697 Y-3.148 Z-3.293
X4.798 Y-3.06 Z-3.298
X4.896 Y-2.967 Z-3.303
X4.99 Y-2.871 Z-3.307
X5.083 Y-2.775 Z-3.312
X5.169 Y-2.672 Z-3.317
X5.255 Y-2.569 Z-3.321
X5.336 Y-2.462 Z-3.326
X5.413 Y-2.352 Z-3.331
X5.49 Y-2.242 Z-3.335
X5.626 Y-2.01 Z-3.345
X5.69 Y-1.892 Z-3.35
X5.806 Y-1.65 Z-3.359
X5.855 Y-1.525 Z-3.364
X5.903 Y-1.399 Z-3.368
X5.946 Y-1.272 Z-3.373
X6.022 Y-1.014 Z-3.382
X6.05 Y-0.883 Z-3.387
X6.077 Y-0.752 Z-3.392
X6.1 Y-0.619 Z-3.396
X6.133 Y-0.353 Z-3.406
X6.14 Y-0.219 Z-3.41
X6.145 Y-0.084 Z-3.415
X6.146 Y0.05 Z-3.42
X6.135 Y0.318 Z-3.429
X6.121 Y0.452 Z-3.434
X6.104 Y0.585 Z-3.439
X6.084 Y0.718 Z-3.443
X6.03 Y0.981 Z-3.453
X5.994 Y1.11 Z-3.457
X5.956 Y1.239 Z-3.462
X5.915 Y1.367 Z-3.467
X5.819 Y1.618 Z-3.476
X5.763 Y1.74 Z-3.481
X5.705 Y1.861 Z-3.485
X5.644 Y1.98 Z-3.49
X5.508 Y2.212 Z-3.5
X5.433 Y2.324 Z-3.504
X5.356 Y2.433 Z-3.509
X5.277 Y2.542 Z-3.514
X5.105 Y2.749 Z-3.523
X5.014 Y2.847 Z-3.528
X4.92 Y2.943 Z-3.532
X4.824 Y3.037 Z-3.537
X4.621 Y3.213 Z-3.546
X4.515 Y3.296 Z-3.551
X4.407 Y3.375 Z-3.556
X4.298 Y3.453 Z-3.56
X4.069 Y3.594 Z-3.57
X3.951 Y3.658 Z-3.575
X3.831 Y3.719 Z-3.579
X3.711 Y3.779 Z-3.584
X3.463 Y3.88 Z-3.593
X3.336 Y3.925 Z-3.598
X3.208 Y3.965 Z-3.603
X3.08 Y4.005 Z-3.607
X2.818 Y4.065 Z-3.617
X2.686 Y4.089 Z-3.621
X2.553 Y4.108 Z-3.626
X2.42 Y4.127 Z-3.631
X2.152 Y4.143 Z-3.64
X2.017 Y4.146 Z-3.645
X1.749 Y4.141 Z-3.654
X1.615 Y4.127 Z-3.659
X1.482 Y4.114 Z-3.664
X1.349 Y4.095 Z-3.668
X1.217 Y4.07 Z-3.673
X1.085 Y4.046 Z-3.678
X0.955 Y4.011 Z-3.682
X0.825 Y3.976 Z-3.687
X0.697 Y3.936 Z-3.692
X0.571 Y3.891 Z-3.696
X0.444 Y3.845 Z-3.701
X0.322 Y3.79 Z-3.706
X0.199 Y3.735 Z-3.711
X0.079 Y3.675 Z-3.715
X-0.038 Y3.609 Z-3.72
X-0.155 Y3.544 Z-3.725
X-0.268 Y3.47 Z-3.729
X-0.379 Y3.395 Z-3.734
X-0.488 Y3.317 Z-3.739
X-0.593 Y3.233 Z-3.743
X-0.698 Y3.15 Z-3.748
X-0.798 Y3.059 Z-3.753
X-0.895 Y2.967 Z-3.757
X-0.991 Y2.873 Z-3.762
X-1.081 Y2.773 Z-3.767
X-1.171 Y2.673 Z-3.771
X-1.254 Y2.568 Z-3.776
X-1.336 Y2.461 Z-3.781
X-1.415 Y2.353 Z-3.786
X-1.488 Y2.24 Z-3.79
X-1.56 Y2.127 Z-3.795
X-1.626 Y2.01 Z-3.8
X-1.689 Y1.891 Z-3.804
X-1.75 Y1.772 Z-3.809
X-1.803 Y1.648 Z-3.814
X-1.856 Y1.525 Z-3.818
X-1.902 Y1.399 Z-3.823
X-1.946 Y1.272 Z-3.827
X-1.987 Y1.144 Z-3.832
X-2.019 Y1.014 Z-3.836
X-2.052 Y0.883 Z-3.841
X-2.077 Y0.752 Z-3.845
X-2.099 Y0.619 Z-3.849
X-2.119 Y0.486 Z-3.854
X-2.13 Y0.353 Z-3.858
X-2.141 Y0.219 Z-3.862
X-2.145 Y0.084 Z-3.866
Y-0.05 Z-3.87
X-2.144 Y-0.184 Z-3.874
X-2.133 Y-0.318 Z-3.878
X-2.122 Y-0.452 Z-3.882
X-2.104 Y-0.585 Z-3.886
X-2.083 Y-0.718 Z-3.89
X-2.06 Y-0.85 Z-3.894
X-2.028 Y-0.98 Z-3.898
X-1.995 Y-1.11 Z-3.901
X-1.957 Y-1.239 Z-3.905
X-1.914 Y-1.366 Z-3.908
X-1.87 Y-1.493 Z-3.912
X-1.817 Y-1.617 Z-3.915
X-1.764 Y-1.74 Z-3.919
X-1.705 Y-1.861 Z-3.922
X-1.642 Y-1.979 Z-3.925
X-1.579 Y-2.098 Z-3.929
X-1.506 Y-2.211 Z-3.932
X-1.434 Y-2.324 Z-3.935
X-1.357 Y-2.434 Z-3.938
X-1.275 Y-2.541 Z-3.941
X-1.194 Y-2.647 Z-3.944
X-1.104 Y-2.747 Z-3.946
X-1.014 Y-2.847 Z-3.949
X-0.921 Y-2.943 Z-3.952
X-0.823 Y-3.035 Z-3.955
X-0.725 Y-3.127 Z-3.957
X-0.516 Y-3.296 Z-3.962
X-0.296 Y-3.451 Z-3.967
X-0.068 Y-3.592 Z-3.971
X0.168 Y-3.72 Z-3.975
X0.412 Y-3.832 Z-3.979
X0.664 Y-3.925 Z-3.983
X0.921 Y-4.002 Z-3.986
X1.183 Y-4.064 Z-3.989
X1.447 Y-4.11 Z-3.991
X1.714 Y-4.137 Z-3.994
X1.983 Y-4.146 Z-3.995
X2.251 Y-4.137 Z-3.997
X2.518 Y-4.113 Z-3.998
X2.784 Y-4.073 Z-3.999
X3.046 Y-4.013 Z-4.
X3.303 Y-3.935
X3.328 Y-3.927
X3.389 Y-3.908
X3.449 Y-3.886
X3.602 Y-3.823
X3.755 Y-3.757
X3.909 Y-3.68
X4.056 Y-3.602
X4.306 Y-3.448
X4.369 Y-3.403
X4.522 Y-3.291
X4.675 Y-3.167
X4.828 Y-3.034
X4.875 Y-2.989
X5.025 Y-2.835
X5.135 Y-2.713
X5.288 Y-2.528
X5.397 Y-2.375
X5.442 Y-2.312
X5.502 Y-2.222
X5.595 Y-2.064
X5.678 Y-1.916
X5.752 Y-1.762
X5.822 Y-1.609
X5.901 Y-1.403
X5.937 Y-1.303
X5.982 Y-1.149
X6.027 Y-0.996
X6.09 Y-0.69
X6.11 Y-0.536
X6.129 Y-0.383
X6.139 Y-0.23
X6.145 Y-0.077
Y0.077
X6.139 Y0.23
X6.129 Y0.383
X6.11 Y0.536
X6.09 Y0.69
X6.027 Y0.996
X5.982 Y1.149
X5.937 Y1.303
X5.901 Y1.403
X5.822 Y1.609
X5.752 Y1.762
X5.678 Y1.916
X5.595 Y2.064
X5.502 Y2.222
X5.442 Y2.312
X5.397 Y2.375
X5.288 Y2.528
X5.135 Y2.713
X5.025 Y2.835
X4.875 Y2.989
X4.828 Y3.034
X4.675 Y3.167
X4.522 Y3.291
X4.369 Y3.403
X4.306 Y3.448
X4.056 Y3.602
X3.909 Y3.68
X3.755 Y3.757
X3.602 Y3.823
X3.449 Y3.886
X3.389 Y3.908
X3.142 Y3.986
X2.989 Y4.026
X2.834 Y4.061
X2.682 Y4.09
X2.529 Y4.112
X2.376 Y4.13
X2.223 Y4.139
X2.069 Y4.147
X1.763 Y4.141
X1.609 Y4.127
X1.456 Y4.111
X1.303 Y4.086
X1.15 Y4.058
X0.996 Y4.023
X0.843 Y3.981
X0.69 Y3.934
X0.536 Y3.878
X0.383 Y3.818
X0.23 Y3.748
X0.077 Y3.674
X-0.077 Y3.588
X-0.23 Y3.495
X-0.383 Y3.392
X-0.516 Y3.295
X-0.708 Y3.142
X-0.843 Y3.016
X-0.873 Y2.989
X-0.99 Y2.872
X-0.996 Y2.867
X-1.163 Y2.682
X-1.284 Y2.529
X-1.303 Y2.504
X-1.401 Y2.375
X-1.499 Y2.222
X-1.594 Y2.069
X-1.676 Y1.916
X-1.754 Y1.762
X-1.82 Y1.609
X-1.883 Y1.456
X-1.935 Y1.303
X-1.985 Y1.149
X-2.062 Y0.843
X-2.069 Y0.798
X-2.112 Y0.536
X-2.128 Y0.383
X-2.14 Y0.23
X-2.145 Y0.077
Y-0.077
X-2.14 Y-0.23
X-2.128 Y-0.383
X-2.112 Y-0.536
X-2.069 Y-0.798
X-2.062 Y-0.843
X-1.985 Y-1.149
X-1.935 Y-1.303
X-1.883 Y-1.456
X-1.82 Y-1.609
X-1.754 Y-1.762
X-1.676 Y-1.916
X-1.594 Y-2.069
X-1.499 Y-2.222
X-1.401 Y-2.375
X-1.303 Y-2.504
X-1.284 Y-2.529
X-1.163 Y-2.682
X-0.996 Y-2.867
X-0.873 Y-2.989
X-0.843 Y-3.016
X-0.708 Y-3.142
X-0.516 Y-3.295
X-0.383 Y-3.392
X-0.23 Y-3.495
X-0.077 Y-3.588
X0.077 Y-3.674
X0.23 Y-3.748
X0.383 Y-3.818
X0.536 Y-3.878
X0.69 Y-3.934
X0.843 Y-3.981
X0.996 Y-4.023
X1.15 Y-4.058
X1.303 Y-4.086
X1.456 Y-4.111
X1.609 Y-4.127
X1.763 Y-4.141
X2.069 Y-4.147
X2.223 Y-4.139
X2.376 Y-4.13
X2.529 Y-4.112
X2.682 Y-4.09
X2.834 Y-4.061
X2.989 Y-4.026
X3.142 Y-3.986
X3.328 Y-3.927
X3.579 Y-3.832
X3.824 Y-3.723 Z-4.001
X4.062 Y-3.598 Z-4.002
X4.291 Y-3.457 Z-4.003
X4.509 Y-3.3 Z-4.004
X4.717 Y-3.131 Z-4.006
X4.914 Y-2.949 Z-4.009
X5.1 Y-2.755 Z-4.011
X5.272 Y-2.548 Z-4.014
X5.428 Y-2.33 Z-4.017
X5.572 Y-2.103 Z-4.021
X5.701 Y-1.868 Z-4.024
X5.816 Y-1.625 Z-4.028
X5.912 Y-1.375 Z-4.033
X5.992 Y-1.118 Z-4.037
X6.055 Y-0.857 Z-4.042
X6.083 Y-0.726 Z-4.045
X6.103 Y-0.593 Z-4.048
X6.12 Y-0.46 Z-4.05
X6.135 Y-0.327 Z-4.053
X6.141 Y-0.192 Z-4.056
X6.146 Y-0.058 Z-4.059
X6.145 Y0.076 Z-4.062
X6.14 Y0.21 Z-4.065
X6.134 Y0.344 Z-4.068
X6.117 Y0.478 Z-4.071
X6.101 Y0.611 Z-4.074
X6.079 Y0.743 Z-4.077
X6.052 Y0.875 Z-4.081
X6.024 Y1.006 Z-4.084
X5.987 Y1.135 Z-4.087
X5.949 Y1.264 Z-4.091
X5.906 Y1.391 Z-4.094
X5.858 Y1.517 Z-4.098
X5.809 Y1.642 Z-4.102
X5.751 Y1.763 Z-4.105
X5.693 Y1.884 Z-4.109
X5.631 Y2.003 Z-4.113
X5.563 Y2.119 Z-4.117
X5.495 Y2.235 Z-4.121
X5.418 Y2.345 Z-4.125
X5.341 Y2.455 Z-4.129
X5.26 Y2.562 Z-4.133
X5.174 Y2.665 Z-4.137
X5.089 Y2.769 Z-4.141
X4.995 Y2.865 Z-4.145
X4.901 Y2.961 Z-4.15
X4.805 Y3.054 Z-4.154
X4.703 Y3.142 Z-4.158
X4.602 Y3.23 Z-4.163
X4.494 Y3.311 Z-4.167
X4.386 Y3.39 Z-4.172
X4.276 Y3.467 Z-4.176
X4.161 Y3.537 Z-4.181
X4.047 Y3.607 Z-4.185
X3.928 Y3.67 Z-4.19
X3.808 Y3.731 Z-4.195
X3.687 Y3.788 Z-4.2
X3.563 Y3.839 Z-4.204
X3.438 Y3.89 Z-4.209
X3.311 Y3.933 Z-4.214
X3.183 Y3.973 Z-4.218
X3.054 Y4.011 Z-4.223
X2.923 Y4.041 Z-4.228
X2.792 Y4.071 Z-4.232
X2.66 Y4.093 Z-4.237
X2.527 Y4.112 Z-4.242
X2.394 Y4.129 Z-4.246
X2.259 Y4.137 Z-4.251
X2.125 Y4.145 Z-4.256
X1.991 Y4.146 Z-4.26
X1.857 Y4.143 Z-4.265
X1.723 Y4.138 Z-4.27
X1.589 Y4.125 Z-4.275
X1.456 Y4.111 Z-4.279
X1.323 Y4.09 Z-4.284
X1.191 Y4.066 Z-4.289
X1.059 Y4.04 Z-4.293
X0.929 Y4.004 Z-4.298
X0.8 Y3.969 Z-4.303
X0.672 Y3.928 Z-4.307
X0.546 Y3.882 Z-4.312
X0.42 Y3.835 Z-4.317
X0.176 Y3.724 Z-4.326
X0.056 Y3.662 Z-4.331
X-0.061 Y3.597 Z-4.335
X-0.178 Y3.53 Z-4.34
X-0.401 Y3.381 Z-4.35
X-0.509 Y3.301 Z-4.354
X-0.614 Y3.217 Z-4.359
X-0.719 Y3.133 Z-4.364
X-0.914 Y2.949 Z-4.373
X-1.008 Y2.853 Z-4.378
X-1.188 Y2.654 Z-4.387
X-1.27 Y2.547 Z-4.392
X-1.352 Y2.441 Z-4.396
X-1.429 Y2.331 Z-4.401
X-1.574 Y2.105 Z-4.41
X-1.638 Y1.987 Z-4.415
X-1.701 Y1.868 Z-4.42
X-1.76 Y1.748 Z-4.425
X-1.867 Y1.501 Z-4.434
X-1.911 Y1.374 Z-4.439
X-1.954 Y1.247 Z-4.443
X-1.993 Y1.119 Z-4.448
X-2.058 Y0.858 Z-4.457
X-2.081 Y0.726 Z-4.462
X-2.103 Y0.593 Z-4.467
X-2.121 Y0.46 Z-4.471
X-2.143 Y0.192 Z-4.481
X-2.145 Y0.058 Z-4.486
Y-0.076 Z-4.49
X-2.142 Y-0.21 Z-4.495
X-2.12 Y-0.478 Z-4.504
X-2.1 Y-0.611 Z-4.509
X-2.078 Y-0.743 Z-4.514
X-2.054 Y-0.875 Z-4.518
X-1.989 Y-1.136 Z-4.528
X-1.948 Y-1.264 Z-4.532
X-1.905 Y-1.391 Z-4.537
X-1.86 Y-1.517 Z-4.542
X-1.753 Y-1.764 Z-4.551
X-1.693 Y-1.884 Z-4.556
X-1.63 Y-2.003 Z-4.561
X-1.565 Y-2.12 Z-4.565
X-1.42 Y-2.346 Z-4.575
X-1.341 Y-2.455 Z-4.579
X-1.259 Y-2.561 Z-4.584
X-1.176 Y-2.667 Z-4.589
X-0.996 Y-2.866 Z-4.598
X-0.901 Y-2.961 Z-4.603
X-0.804 Y-3.053 Z-4.607
X-0.705 Y-3.145 Z-4.612
X-0.495 Y-3.312 Z-4.621
X-0.386 Y-3.391 Z-4.626
X-0.275 Y-3.465 Z-4.631
X-0.163 Y-3.54 Z-4.636
X0.072 Y-3.671 Z-4.645
X0.192 Y-3.731 Z-4.65
X0.314 Y-3.787 Z-4.654
X0.436 Y-3.842 Z-4.659
X0.689 Y-3.934 Z-4.668
X0.817 Y-3.974 Z-4.673
X1.076 Y-4.044 Z-4.682
X1.208 Y-4.069 Z-4.687
X1.34 Y-4.093 Z-4.692
X1.473 Y-4.113 Z-4.696
X1.607 Y-4.126 Z-4.701
X1.741 Y-4.14 Z-4.706
X1.875 Y-4.143 Z-4.711
X2.009 Y-4.146 Z-4.715
X2.143 Y-4.144 Z-4.72
X2.277 Y-4.136 Z-4.725
X2.411 Y-4.128 Z-4.729
X2.544 Y-4.109 Z-4.734
X2.677 Y-4.09 Z-4.739
X2.81 Y-4.067 Z-4.743
X2.941 Y-4.037 Z-4.748
X3.071 Y-4.007 Z-4.753
X3.2 Y-3.968 Z-4.757
X3.328 Y-3.927 Z-4.762
X3.455 Y-3.883 Z-4.767
X3.579 Y-3.832 Z-4.771
X3.703 Y-3.782 Z-4.776
X3.824 Y-3.723 Z-4.781
X3.944 Y-3.662 Z-4.786
X4.062 Y-3.598 Z-4.79
X4.176 Y-3.528 Z-4.795
X4.291 Y-3.457 Z-4.8
X4.4 Y-3.38 Z-4.804
X4.509 Y-3.3 Z-4.809
X4.615 Y-3.219 Z-4.814
X4.717 Y-3.131 Z-4.818
X4.818 Y-3.043 Z-4.823
X4.914 Y-2.949 Z-4.827
X5.008 Y-2.853 Z-4.832
X5.1 Y-2.755 Z-4.836
X5.186 Y-2.652 Z-4.841
X5.272 Y-2.548 Z-4.845
X5.351 Y-2.44 Z-4.849
X5.428 Y-2.33 Z-4.854
X5.504 Y-2.219 Z-4.858
X5.572 Y-2.103 Z-4.862
X5.64 Y-1.988 Z-4.866
X5.701 Y-1.868 Z-4.87
X5.759 Y-1.747 Z-4.874
X5.816 Y-1.625 Z-4.878
X5.864 Y-1.5 Z-4.882
X5.912 Y-1.375 Z-4.886
X5.954 Y-1.247 Z-4.89
X5.992 Y-1.118 Z-4.894
X6.028 Y-0.989 Z-4.898
X6.055 Y-0.857 Z-4.901
X6.083 Y-0.726 Z-4.905
X6.103 Y-0.593 Z-4.908
X6.12 Y-0.46 Z-4.912
X6.135 Y-0.327 Z-4.915
X6.141 Y-0.192 Z-4.919
X6.146 Y-0.058 Z-4.922
X6.145 Y0.076 Z-4.925
X6.14 Y0.21 Z-4.929
X6.134 Y0.344 Z-4.932
X6.117 Y0.478 Z-4.935
X6.101 Y0.611 Z-4.938
X6.079 Y0.743 Z-4.941
X6.052 Y0.875 Z-4.944
X6.024 Y1.006 Z-4.946
X5.987 Y1.135 Z-4.949
X5.949 Y1.264 Z-4.952
X5.906 Y1.391 Z-4.955
X5.858 Y1.517 Z-4.957
X5.751 Y1.763 Z-4.962
X5.631 Y2.003 Z-4.967
X5.495 Y2.235 Z-4.971
X5.341 Y2.455 Z-4.975
X5.174 Y2.665 Z-4.979
X4.995 Y2.865 Z-4.983
X4.805 Y3.054 Z-4.986
X4.602 Y3.23 Z-4.989
X4.386 Y3.39 Z-4.991
X4.161 Y3.537 Z-4.994
X3.928 Y3.67 Z-4.995
X3.687 Y3.788 Z-4.997
X3.438 Y3.89 Z-4.998
X3.183 Y3.973 Z-4.999
X2.923 Y4.041 Z-5.
X2.66 Y4.093
X2.634 Y4.096
X2.529 Y4.112
X2.376 Y4.13
X2.223 Y4.139
X2.069 Y4.147
X1.763 Y4.141
X1.609 Y4.127
X1.456 Y4.111
X1.303 Y4.086
X1.15 Y4.058
X0.996 Y4.023
X0.843 Y3.981
X0.69 Y3.934
X0.536 Y3.878
X0.383 Y3.818
X0.23 Y3.748
X0.077 Y3.674
X-0.077 Y3.588
X-0.23 Y3.495
X-0.383 Y3.392
X-0.516 Y3.295
X-0.708 Y3.142
X-0.843 Y3.016
X-0.873 Y2.989
X-0.996 Y2.867
X-1.163 Y2.682
X-1.284 Y2.529
X-1.303 Y2.504
X-1.401 Y2.375
X-1.499 Y2.222
X-1.594 Y2.069
X-1.676 Y1.916
X-1.754 Y1.762
X-1.82 Y1.609
X-1.883 Y1.456
X-1.935 Y1.303
X-1.985 Y1.149
X-2.062 Y0.843
X-2.069 Y0.798
X-2.112 Y0.536
X-2.128 Y0.383
X-2.14 Y0.23
X-2.145 Y0.077
Y-0.077
X-2.14 Y-0.23
X-2.128 Y-0.383
X-2.112 Y-0.536
X-2.069 Y-0.798
X-2.062 Y-0.843
X-1.985 Y-1.149
X-1.935 Y-1.303
X-1.883 Y-1.456
X-1.82 Y-1.609
X-1.754 Y-1.762
X-1.676 Y-1.916
X-1.594 Y-2.069
X-1.499 Y-2.222
X-1.401 Y-2.375
X-1.303 Y-2.504
X-1.284 Y-2.529
X-1.163 Y-2.682
X-0.996 Y-2.867
X-0.873 Y-2.989
X-0.843 Y-3.016
X-0.708 Y-3.142
X-0.516 Y-3.295
X-0.383 Y-3.392
X-0.23 Y-3.495
X-0.077 Y-3.588
X0.077 Y-3.674
X0.23 Y-3.748
X0.383 Y-3.818
X0.536 Y-3.878
X0.69 Y-3.934
X0.843 Y-3.981
X0.996 Y-4.023
X1.15 Y-4.058
X1.303 Y-4.086
X1.456 Y-4.111
X1.609 Y-4.127
X1.763 Y-4.141
X2.069 Y-4.147
X2.223 Y-4.139
X2.376 Y-4.13
X2.529 Y-4.112
X2.682 Y-4.09
X2.834 Y-4.061
X2.989 Y-4.026
X3.142 Y-3.986
X3.328 Y-3.927
X3.389 Y-3.908
X3.449 Y-3.886
X3.602 Y-3.823
X3.755 Y-3.757
X3.909 Y-3.68
X4.056 Y-3.602
X4.306 Y-3.448
X4.369 Y-3.403
X4.522 Y-3.291
X4.675 Y-3.167
X4.828 Y-3.034
X4.875 Y-2.989
X5.025 Y-2.835
X5.135 Y-2.713
X5.288 Y-2.528
X5.397 Y-2.375
X5.442 Y-2.312
X5.502 Y-2.222
X5.595 Y-2.064
X5.678 Y-1.916
X5.752 Y-1.762
X5.822 Y-1.609
X5.901 Y-1.403
X5.937 Y-1.303
X5.982 Y-1.149
X6.027 Y-0.996
X6.09 Y-0.69
X6.11 Y-0.536
X6.129 Y-0.383
X6.139 Y-0.23
X6.145 Y-0.077
Y0.077
X6.139 Y0.23
X6.129 Y0.383
X6.11 Y0.536
X6.09 Y0.69
X6.027 Y0.996
X5.982 Y1.149
X5.937 Y1.303
X5.901 Y1.403
X5.822 Y1.609
X5.752 Y1.762
X5.678 Y1.916
X5.595 Y2.064
X5.502 Y2.222
X5.442 Y2.312
X5.397 Y2.375
X5.288 Y2.528
X5.135 Y2.713
X5.025 Y2.835
X4.875 Y2.989
X4.828 Y3.034
X4.675 Y3.167
X4.522 Y3.291
X4.369 Y3.403
X4.306 Y3.448
X4.056 Y3.602
X3.909 Y3.68
X3.755 Y3.757
X3.602 Y3.823
X3.449 Y3.886
X3.389 Y3.908
X3.142 Y3.986
X2.989 Y4.026
X2.834 Y4.061
X2.682 Y4.09
X2.634 Y4.096
X2.368 Y4.13
X2.1 Y4.147 Z-5.001
X1.831 Y4.142 Z-5.002
X1.564 Y4.122 Z-5.003
X1.298 Y4.085 Z-5.004
X1.034 Y4.033 Z-5.006
X0.775 Y3.962 Z-5.009
X0.522 Y3.873 Z-5.011
X0.274 Y3.769 Z-5.014
X0.034 Y3.65 Z-5.017
X-0.199 Y3.516 Z-5.021
X-0.422 Y3.366 Z-5.024
X-0.634 Y3.201 Z-5.028
X-0.835 Y3.024 Z-5.033
X-1.026 Y2.834 Z-5.037
X-1.204 Y2.633 Z-5.042
X-1.286 Y2.527 Z-5.045
X-1.367 Y2.42 Z-5.048
X-1.443 Y2.309 Z-5.05
X-1.516 Y2.196 Z-5.053
X-1.587 Y2.083 Z-5.056
X-1.65 Y1.964 Z-5.059
X-1.713 Y1.845 Z-5.062
X-1.77 Y1.724 Z-5.065
X-1.824 Y1.601 Z-5.068
X-1.876 Y1.477 Z-5.071
X-1.919 Y1.35 Z-5.074
X-1.962 Y1.223 Z-5.077
X-1.999 Y1.094 Z-5.081
X-2.032 Y0.963 Z-5.084
X-2.064 Y0.833 Z-5.087
X-2.086 Y0.7 Z-5.091
X-2.107 Y0.568 Z-5.094
X-2.123 Y0.435 Z-5.098
X-2.134 Y0.301 Z-5.102
X-2.145 Y0.167 Z-5.105
Y0.032 Z-5.109
Y-0.102 Z-5.113
X-2.14 Y-0.236 Z-5.117
X-2.129 Y-0.37 Z-5.121
X-2.118 Y-0.504 Z-5.125
X-2.096 Y-0.636 Z-5.129
X-2.074 Y-0.769 Z-5.133
X-2.047 Y-0.9 Z-5.137
X-2.015 Y-1.031 Z-5.141
X-1.982 Y-1.161 Z-5.145
X-1.94 Y-1.288 Z-5.15
X-1.897 Y-1.416 Z-5.154
X-1.849 Y-1.541 Z-5.158
X-1.796 Y-1.664 Z-5.163
X-1.743 Y-1.788 Z-5.167
X-1.681 Y-1.907 Z-5.172
X-1.618 Y-2.025 Z-5.176
X-1.551 Y-2.142 Z-5.181
X-1.478 Y-2.255 Z-5.185
X-1.406 Y-2.368 Z-5.19
X-1.325 Y-2.475 Z-5.195
X-1.244 Y-2.582 Z-5.2
X-1.159 Y-2.686 Z-5.204
X-1.069 Y-2.786 Z-5.209
X-0.979 Y-2.886 Z-5.214
X-0.883 Y-2.979 Z-5.218
X-0.785 Y-3.071 Z-5.223
X-0.685 Y-3.161 Z-5.228
X-0.58 Y-3.244 Z-5.232
X-0.475 Y-3.328 Z-5.237
X-0.365 Y-3.405 Z-5.242
X-0.253 Y-3.48 Z-5.246
X-0.14 Y-3.552 Z-5.251
X-0.023 Y-3.618 Z-5.256
X0.094 Y-3.683 Z-5.26
X0.215 Y-3.742 Z-5.265
X0.337 Y-3.798 Z-5.27
X0.461 Y-3.851 Z-5.275
X0.587 Y-3.897 Z-5.279
X0.713 Y-3.942 Z-5.284
X0.842 Y-3.981 Z-5.289
X0.972 Y-4.016 Z-5.293
X1.102 Y-4.049 Z-5.298
X1.234 Y-4.074 Z-5.303
X1.366 Y-4.098 Z-5.307
X1.499 Y-4.115 Z-5.312
X1.633 Y-4.129 Z-5.317
X1.766 Y-4.141 Z-5.321
X1.901 Y-4.144 Z-5.326
X2.035 Y-4.147 Z-5.331
X2.169 Y-4.142 Z-5.335
X2.303 Y-4.134 Z-5.34
X2.437 Y-4.125 Z-5.345
X2.703 Y-4.087 Z-5.354
X2.835 Y-4.061 Z-5.359
X2.966 Y-4.031 Z-5.364
X3.096 Y-4.001 Z-5.368
X3.353 Y-3.92 Z-5.378
X3.479 Y-3.873 Z-5.382
X3.603 Y-3.823 Z-5.387
X3.727 Y-3.772 Z-5.392
X3.967 Y-3.65 Z-5.401
X4.084 Y-3.584 Z-5.406
X4.313 Y-3.444 Z-5.415
X4.421 Y-3.365 Z-5.42
X4.529 Y-3.285 Z-5.425
X4.635 Y-3.202 Z-5.429
X4.838 Y-3.026 Z-5.439
X4.932 Y-2.93 Z-5.443
X5.026 Y-2.834 Z-5.448
X5.116 Y-2.735 Z-5.453
X5.288 Y-2.529 Z-5.462
X5.366 Y-2.419 Z-5.467
X5.443 Y-2.309 Z-5.471
X5.517 Y-2.197 Z-5.476
X5.653 Y-1.965 Z-5.485
X5.712 Y-1.845 Z-5.49
X5.77 Y-1.724 Z-5.495
X5.825 Y-1.601 Z-5.5
X5.922 Y-1.351 Z-5.509
X5.961 Y-1.222 Z-5.514
X5.999 Y-1.093 Z-5.518
X6.033 Y-0.964 Z-5.523
X6.088 Y-0.701 Z-5.532
X6.106 Y-0.568 Z-5.537
X6.123 Y-0.434 Z-5.542
X6.136 Y-0.301 Z-5.546
X6.147 Y-0.032 Z-5.556
X6.144 Y0.102 Z-5.561
X6.139 Y0.236 Z-5.565
X6.131 Y0.37 Z-5.57
X6.098 Y0.637 Z-5.579
X6.074 Y0.769 Z-5.584
X6.047 Y0.9 Z-5.589
X6.017 Y1.031 Z-5.593
X5.942 Y1.289 Z-5.603
X5.897 Y1.415 Z-5.607
X5.848 Y1.541 Z-5.612
X5.799 Y1.665 Z-5.617
X5.682 Y1.907 Z-5.626
X5.618 Y2.025 Z-5.631
X5.55 Y2.141 Z-5.636
X5.481 Y2.256 Z-5.64
X5.326 Y2.476 Z-5.65
X5.244 Y2.582 Z-5.654
X5.158 Y2.685 Z-5.659
X5.071 Y2.788 Z-5.664
X4.977 Y2.884 Z-5.668
X4.883 Y2.98 Z-5.673
X4.785 Y3.071 Z-5.678
X4.684 Y3.159 Z-5.682
X4.582 Y3.247 Z-5.687
X4.473 Y3.326 Z-5.692
X4.365 Y3.406 Z-5.696
X4.254 Y3.48 Z-5.701
X4.139 Y3.551 Z-5.706
X4.025 Y3.621 Z-5.711
X3.905 Y3.682 Z-5.715
X3.785 Y3.742 Z-5.72
X3.663 Y3.798 Z-5.725
X3.539 Y3.849 Z-5.729
X3.414 Y3.9 Z-5.734
X3.286 Y3.941 Z-5.739
X3.158 Y3.981 Z-5.743
X3.029 Y4.017 Z-5.748
X2.898 Y4.047 Z-5.753
X2.767 Y4.077 Z-5.757
X2.634 Y4.096 Z-5.762
X2.501 Y4.116 Z-5.767
X2.368 Y4.13 Z-5.771
X2.234 Y4.138 Z-5.776
X2.1 Y4.147 Z-5.781
X1.965 Y4.145 Z-5.786
X1.831 Y4.142 Z-5.79
X1.697 Y4.136 Z-5.795
X1.564 Y4.122 Z-5.8
X1.43 Y4.108 Z-5.804
X1.298 Y4.085 Z-5.809
X1.166 Y4.061 Z-5.814
X1.034 Y4.033 Z-5.818
X0.905 Y3.998 Z-5.823
X0.775 Y3.962 Z-5.827
X0.648 Y3.919 Z-5.832
X0.522 Y3.873 Z-5.836
X0.396 Y3.824 Z-5.841
X0.274 Y3.769 Z-5.845
X0.152 Y3.713 Z-5.849
X0.034 Y3.65 Z-5.854
X-0.083 Y3.584 Z-5.858
X-0.199 Y3.516 Z-5.862
X-0.311 Y3.441 Z-5.866
X-0.422 Y3.366 Z-5.87
X-0.529 Y3.285 Z-5.874
X-0.634 Y3.201 Z-5.878
X-0.738 Y3.116 Z-5.882
X-0.835 Y3.024 Z-5.886
X-0.933 Y2.931 Z-5.89
X-1.026 Y2.834 Z-5.894
X-1.116 Y2.734 Z-5.898
X-1.204 Y2.633 Z-5.901
X-1.286 Y2.527 Z-5.905
X-1.367 Y2.42 Z-5.908
X-1.443 Y2.309 Z-5.912
X-1.516 Y2.196 Z-5.915
X-1.587 Y2.083 Z-5.919
X-1.65 Y1.964 Z-5.922
X-1.713 Y1.845 Z-5.925
X-1.77 Y1.724 Z-5.929
X-1.824 Y1.601 Z-5.932
X-1.876 Y1.477 Z-5.935
X-1.919 Y1.35 Z-5.938
X-1.962 Y1.223 Z-5.941
X-1.999 Y1.094 Z-5.944
X-2.032 Y0.963 Z-5.946
X-2.064 Y0.833 Z-5.949
X-2.086 Y0.7 Z-5.952
X-2.107 Y0.568 Z-5.955
X-2.123 Y0.435 Z-5.957
X-2.145 Y0.167 Z-5.962
Y-0.102 Z-5.967
X-2.129 Y-0.37 Z-5.971
X-2.096 Y-0.636 Z-5.975
X-2.047 Y-0.9 Z-5.979
X-1.982 Y-1.161 Z-5.983
X-1.897 Y-1.416 Z-5.986
X-1.796 Y-1.664 Z-5.989
X-1.681 Y-1.907 Z-5.991
X-1.551 Y-2.142 Z-5.994
X-1.406 Y-2.368 Z-5.995
X-1.244 Y-2.582 Z-5.997
X-1.069 Y-2.786 Z-5.998
X-0.883 Y-2.979 Z-5.999
X-0.685 Y-3.161 Z-6.
X-0.475 Y-3.328
X-0.452 Y-3.342
X-0.383 Y-3.392
X-0.23 Y-3.495
X-0.077 Y-3.588
X0.077 Y-3.674
X0.23 Y-3.748
X0.383 Y-3.818
X0.536 Y-3.878
X0.69 Y-3.934
X0.843 Y-3.981
X0.996 Y-4.023
X1.15 Y-4.058
X1.303 Y-4.086
X1.456 Y-4.111
X1.609 Y-4.127
X1.763 Y-4.141
X2.069 Y-4.147
X2.223 Y-4.139
X2.376 Y-4.13
X2.529 Y-4.112
X2.682 Y-4.09
X2.834 Y-4.061
X2.989 Y-4.026
X3.142 Y-3.986
X3.389 Y-3.908
X3.449 Y-3.886
X3.602 Y-3.823
X3.755 Y-3.757
X3.909 Y-3.68
X4.056 Y-3.602
X4.306 Y-3.448
X4.369 Y-3.403
X4.522 Y-3.291
X4.675 Y-3.167
X4.828 Y-3.034
X4.875 Y-2.989
X5.025 Y-2.835
X5.135 Y-2.713
X5.288 Y-2.528
X5.397 Y-2.375
X5.442 Y-2.312
X5.502 Y-2.222
X5.595 Y-2.064
X5.678 Y-1.916
X5.752 Y-1.762
X5.822 Y-1.609
X5.901 Y-1.403
X5.937 Y-1.303
X5.982 Y-1.149
X6.027 Y-0.996
X6.09 Y-0.69
X6.11 Y-0.536
X6.129 Y-0.383
X6.139 Y-0.23
X6.145 Y-0.077
Y0.077
X6.139 Y0.23
X6.129 Y0.383
X6.11 Y0.536
X6.09 Y0.69
X6.027 Y0.996
X5.982 Y1.149
X5.937 Y1.303
X5.901 Y1.403
X5.822 Y1.609
X5.752 Y1.762
X5.678 Y1.916
X5.595 Y2.064
X5.502 Y2.222
X5.442 Y2.312
X5.397 Y2.375
X5.288 Y2.528
X5.135 Y2.713
X5.025 Y2.835
X4.875 Y2.989
X4.828 Y3.034
X4.675 Y3.167
X4.522 Y3.291
X4.369 Y3.403
X4.306 Y3.448
X4.056 Y3.602
X3.909 Y3.68
X3.755 Y3.757
X3.602 Y3.823
X3.449 Y3.886
X3.389 Y3.908
X3.142 Y3.986
X2.989 Y4.026
X2.834 Y4.061
X2.682 Y4.09
X2.529 Y4.112
X2.376 Y4.13
X2.223 Y4.139
X2.069 Y4.147
X1.763 Y4.141
X1.609 Y4.127
X1.456 Y4.111
X1.303 Y4.086
X1.15 Y4.058
X0.996 Y4.023
X0.843 Y3.981
X0.69 Y3.934
X0.536 Y3.878
X0.383 Y3.818
X0.23 Y3.748
X0.077 Y3.674
X-0.077 Y3.588
X-0.23 Y3.495
X-0.383 Y3.392
X-0.516 Y3.295
X-0.708 Y3.142
X-0.843 Y3.016
X-0.873 Y2.989
X-0.996 Y2.867
X-1.163 Y2.682
X-1.284 Y2.529
X-1.303 Y2.504
X-1.401 Y2.375
X-1.499 Y2.222
X-1.594 Y2.069
X-1.676 Y1.916
X-1.754 Y1.762
X-1.82 Y1.609
X-1.883 Y1.456
X-1.935 Y1.303
X-1.985 Y1.149
X-2.062 Y0.843
X-2.069 Y0.798
X-2.112 Y0.536
X-2.128 Y0.383
X-2.14 Y0.23
X-2.145 Y0.077
Y-0.077
X-2.14 Y-0.23
X-2.128 Y-0.383
X-2.112 Y-0.536
X-2.069 Y-0.798
X-2.062 Y-0.843
X-1.985 Y-1.149
X-1.935 Y-1.303
X-1.883 Y-1.456
X-1.82 Y-1.609
X-1.754 Y-1.762
X-1.676 Y-1.916
X-1.594 Y-2.069
X-1.499 Y-2.222
X-1.401 Y-2.375
X-1.303 Y-2.504
X-1.284 Y-2.529
X-1.163 Y-2.682
X-0.996 Y-2.867
X-0.873 Y-2.989
X-0.843 Y-3.016
X-0.708 Y-3.142
X-0.516 Y-3.295
X-0.452 Y-3.342
X-0.231 Y-3.494
X0. Y-3.631 Z-6.001
X0.239 Y-3.753 Z-6.002
X0.485 Y-3.86 Z-6.003
X0.738 Y-3.951 Z-6.004
X0.997 Y-4.023 Z-6.006
X1.26 Y-4.078 Z-6.009
X1.525 Y-4.118 Z-6.011
X1.793 Y-4.142 Z-6.014
X2.061 Y-4.147 Z-6.017
X2.329 Y-4.133 Z-6.021
X2.596 Y-4.102 Z-6.024
X2.86 Y-4.055 Z-6.028
X3.121 Y-3.993 Z-6.033
X3.378 Y-3.912 Z-6.037
X3.627 Y-3.813 Z-6.042
X3.751 Y-3.76 Z-6.045
X3.87 Y-3.699 Z-6.048
X3.99 Y-3.638 Z-6.05
X4.106 Y-3.571 Z-6.053
X4.221 Y-3.501 Z-6.056
X4.334 Y-3.428 Z-6.059
X4.442 Y-3.349 Z-6.062
X4.551 Y-3.27 Z-6.065
X4.654 Y-3.185 Z-6.068
X4.756 Y-3.097 Z-6.071
X4.856 Y-3.007 Z-6.074
X4.95 Y-2.912 Z-6.077
X5.044 Y-2.816 Z-6.081
X5.133 Y-2.715 Z-6.084
X5.219 Y-2.612 Z-6.087
X5.304 Y-2.508 Z-6.091
X5.381 Y-2.398 Z-6.094
X5.458 Y-2.288 Z-6.098
X5.53 Y-2.174 Z-6.102
X5.598 Y-2.059 Z-6.105
X5.665 Y-1.942 Z-6.109
X5.724 Y-1.821 Z-6.113
X5.782 Y-1.7 Z-6.117
X5.835 Y-1.577 Z-6.121
X5.883 Y-1.451 Z-6.125
X5.931 Y-1.326 Z-6.129
X5.968 Y-1.197 Z-6.133
X6.006 Y-1.068 Z-6.137
X6.039 Y-0.938 Z-6.141
X6.066 Y-0.807 Z-6.145
X6.093 Y-0.675 Z-6.15
X6.11 Y-0.542 Z-6.154
X6.126 Y-0.408 Z-6.158
X6.137 Y-0.275 Z-6.163
X6.143 Y-0.14 Z-6.167
X6.148 Y-0.006 Z-6.172
X6.143 Y0.128 Z-6.176
X6.138 Y0.262 Z-6.181
X6.128 Y0.396 Z-6.185
X6.095 Y0.663 Z-6.195
X6.068 Y0.794 Z-6.2
X6.041 Y0.926 Z-6.204
X6.01 Y1.056 Z-6.209
X5.972 Y1.185 Z-6.214
X5.934 Y1.314 Z-6.218
X5.887 Y1.44 Z-6.223
X5.839 Y1.565 Z-6.228
X5.787 Y1.689 Z-6.232
X5.729 Y1.81 Z-6.237
X5.671 Y1.931 Z-6.242
X5.604 Y2.048 Z-6.246
X5.536 Y2.164 Z-6.251
X5.465 Y2.278 Z-6.256
X5.388 Y2.388 Z-6.26
X5.311 Y2.497 Z-6.265
X5.227 Y2.602 Z-6.27
X5.141 Y2.705 Z-6.275
X5.053 Y2.807 Z-6.279
X4.959 Y2.903 Z-6.284
X4.865 Y2.999 Z-6.289
X4.765 Y3.088 Z-6.293
X4.664 Y3.176 Z-6.298
X4.561 Y3.262 Z-6.303
X4.452 Y3.342 Z-6.307
X4.344 Y3.421 Z-6.312
X4.231 Y3.494 Z-6.317
X4.117 Y3.564 Z-6.321
X4.001 Y3.633 Z-6.326
X3.762 Y3.754 Z-6.335
X3.639 Y3.808 Z-6.34
X3.514 Y3.859 Z-6.345
X3.389 Y3.908 Z-6.35
X3.133 Y3.989 Z-6.359
X3.003 Y4.023 Z-6.364
X2.872 Y4.052 Z-6.368
X2.741 Y4.081 Z-6.373
X2.475 Y4.119 Z-6.382
X2.342 Y4.132 Z-6.387
X2.208 Y4.14 Z-6.392
X2.073 Y4.147 Z-6.396
X1.805 Y4.142 Z-6.406
X1.671 Y4.133 Z-6.41
X1.537 Y4.119 Z-6.415
X1.404 Y4.105 Z-6.42
X1.14 Y4.056 Z-6.429
X1.009 Y4.026 Z-6.434
X0.879 Y3.991 Z-6.439
X0.75 Y3.956 Z-6.443
X0.497 Y3.864 Z-6.453
X0.373 Y3.814 Z-6.457
X0.128 Y3.702 Z-6.467
X0.011 Y3.637 Z-6.471
X-0.106 Y3.571 Z-6.476
X-0.221 Y3.501 Z-6.481
X-0.444 Y3.352 Z-6.49
X-0.55 Y3.268 Z-6.495
X-0.655 Y3.185 Z-6.5
X-0.757 Y3.098 Z-6.504
X-0.952 Y2.914 Z-6.514
X-1.043 Y2.815 Z-6.518
X-1.133 Y2.715 Z-6.523
X-1.22 Y2.613 Z-6.528
X-1.383 Y2.399 Z-6.537
X-1.457 Y2.287 Z-6.542
X-1.53 Y2.174 Z-6.546
X-1.599 Y2.059 Z-6.551
X-1.726 Y1.822 Z-6.561
X-1.781 Y1.7 Z-6.565
X-1.834 Y1.577 Z-6.57
X-1.884 Y1.452 Z-6.575
X-1.971 Y1.198 Z-6.584
X-2.006 Y1.068 Z-6.589
X-2.038 Y0.938 Z-6.593
X-2.068 Y0.807 Z-6.598
X-2.112 Y0.542 Z-6.607
X-2.125 Y0.408 Z-6.612
X-2.136 Y0.275 Z-6.617
X-2.145 Y0.141 Z-6.621
Y-0.128 Z-6.631
X-2.137 Y-0.262 Z-6.636
X-2.126 Y-0.396 Z-6.64
X-2.114 Y-0.53 Z-6.645
X-2.07 Y-0.795 Z-6.654
X-2.041 Y-0.926 Z-6.659
X-2.009 Y-1.056 Z-6.664
X-1.975 Y-1.186 Z-6.668
X-1.932 Y-1.313 Z-6.673
X-1.888 Y-1.44 Z-6.678
X-1.839 Y-1.565 Z-6.682
X-1.786 Y-1.688 Z-6.687
X-1.732 Y-1.811 Z-6.692
X-1.668 Y-1.93 Z-6.696
X-1.605 Y-2.048 Z-6.701
X-1.537 Y-2.164 Z-6.706
X-1.464 Y-2.277 Z-6.711
X-1.391 Y-2.389 Z-6.715
X-1.309 Y-2.496 Z-6.72
X-1.228 Y-2.603 Z-6.725
X-1.142 Y-2.706 Z-6.729
X-1.052 Y-2.805 Z-6.734
X-0.961 Y-2.905 Z-6.739
X-0.864 Y-2.997 Z-6.743
X-0.766 Y-3.089 Z-6.748
X-0.664 Y-3.177 Z-6.753
X-0.559 Y-3.261 Z-6.757
X-0.454 Y-3.344 Z-6.762
X-0.343 Y-3.42 Z-6.767
X-0.231 Y-3.494 Z-6.771
X-0.117 Y-3.565 Z-6.776
X0. Y-3.631 Z-6.781
X0.117 Y-3.696 Z-6.786
X0.239 Y-3.753 Z-6.79
X0.361 Y-3.808 Z-6.795
X0.485 Y-3.86 Z-6.8
X0.612 Y-3.906 Z-6.804
X0.738 Y-3.951 Z-6.809
X0.867 Y-3.988 Z-6.814
X0.997 Y-4.023 Z-6.818
X1.127 Y-4.054 Z-6.823
X1.26 Y-4.078 Z-6.827
X1.392 Y-4.103 Z-6.832
X1.525 Y-4.118 Z-6.836
X1.659 Y-4.132 Z-6.841
X1.793 Y-4.142 Z-6.845
X1.927 Y-4.144 Z-6.849
X2.061 Y-4.147 Z-6.854
X2.195 Y-4.141 Z-6.858
X2.329 Y-4.133 Z-6.862
X2.463 Y-4.121 Z-6.866
X2.596 Y-4.102 Z-6.87
X2.729 Y-4.083 Z-6.874
X2.86 Y-4.055 Z-6.878
X2.991 Y-4.025 Z-6.882
X3.121 Y-3.993 Z-6.886
X3.25 Y-3.952 Z-6.89
X3.378 Y-3.912 Z-6.894
X3.503 Y-3.864 Z-6.898
X3.627 Y-3.813 Z-6.901
X3.751 Y-3.76 Z-6.905
X3.87 Y-3.699 Z-6.908
X3.99 Y-3.638 Z-6.912
X4.106 Y-3.571 Z-6.915
X4.221 Y-3.501 Z-6.919
X4.334 Y-3.428 Z-6.922
X4.442 Y-3.349 Z-6.925
X4.551 Y-3.27 Z-6.929
X4.654 Y-3.185 Z-6.932
X4.756 Y-3.097 Z-6.935
X4.856 Y-3.007 Z-6.938
X4.95 Y-2.912 Z-6.941
X5.044 Y-2.816 Z-6.944
X5.133 Y-2.715 Z-6.946
X5.219 Y-2.612 Z-6.949
X5.304 Y-2.508 Z-6.952
X5.381 Y-2.398 Z-6.955
X5.458 Y-2.288 Z-6.957
X5.598 Y-2.059 Z-6.962
X5.724 Y-1.821 Z-6.967
X5.835 Y-1.577 Z-6.971
X5.931 Y-1.326 Z-6.975
X6.006 Y-1.068 Z-6.979
X6.066 Y-0.807 Z-6.983
X6.11 Y-0.542 Z-6.986
X6.137 Y-0.275 Z-6.989
X6.148 Y-0.006 Z-6.991
X6.138 Y0.262 Z-6.994
X6.111 Y0.529 Z-6.995
X6.068 Y0.794 Z-6.997
X6.01 Y1.056 Z-6.998
X5.934 Y1.314 Z-6.999
X5.839 Y1.565 Z-7.
X5.729 Y1.81
X5.718 Y1.834
X5.678 Y1.916
X5.595 Y2.064
X5.502 Y2.222
X5.442 Y2.312
X5.397 Y2.375
X5.288 Y2.528
X5.135 Y2.713
X5.025 Y2.835
X4.875 Y2.989
X4.828 Y3.034
X4.675 Y3.167
X4.522 Y3.291
X4.369 Y3.403
X4.306 Y3.448
X4.056 Y3.602
X3.909 Y3.68
X3.755 Y3.757
X3.602 Y3.823
X3.449 Y3.886
X3.389 Y3.908
X3.142 Y3.986
X2.989 Y4.026
X2.834 Y4.061
X2.682 Y4.09
X2.529 Y4.112
X2.376 Y4.13
X2.223 Y4.139
X2.069 Y4.147
X1.763 Y4.141
X1.609 Y4.127
X1.456 Y4.111
X1.303 Y4.086
X1.15 Y4.058
X0.996 Y4.023
X0.843 Y3.981
X0.69 Y3.934
X0.536 Y3.878
X0.383 Y3.818
X0.23 Y3.748
X0.077 Y3.674
X-0.077 Y3.588
X-0.23 Y3.495
X-0.383 Y3.392
X-0.516 Y3.295
X-0.708 Y3.142
X-0.843 Y3.016
X-0.873 Y2.989
X-0.996 Y2.867
X-1.163 Y2.682
X-1.284 Y2.529
X-1.303 Y2.504
X-1.401 Y2.375
X-1.499 Y2.222
X-1.594 Y2.069
X-1.676 Y1.916
X-1.754 Y1.762
X-1.82 Y1.609
X-1.883 Y1.456
X-1.935 Y1.303
X-1.985 Y1.149
X-2.062 Y0.843
X-2.069 Y0.798
X-2.112 Y0.536
X-2.128 Y0.383
X-2.14 Y0.23
X-2.145 Y0.077
Y-0.077
X-2.14 Y-0.23
X-2.128 Y-0.383
X-2.112 Y-0.536
X-2.069 Y-0.798
X-2.062 Y-0.843
X-1.985 Y-1.149
X-1.935 Y-1.303
X-1.883 Y-1.456
X-1.82 Y-1.609
X-1.754 Y-1.762
X-1.676 Y-1.916
X-1.594 Y-2.069
X-1.499 Y-2.222
X-1.401 Y-2.375
X-1.303 Y-2.504
X-1.284 Y-2.529
X-1.163 Y-2.682
X-0.996 Y-2.867
X-0.873 Y-2.989
X-0.843 Y-3.016
X-0.708 Y-3.142
X-0.516 Y-3.295
X-0.383 Y-3.392
X-0.23 Y-3.495
X-0.077 Y-3.588
X0.077 Y-3.674
X0.23 Y-3.748
X0.383 Y-3.818
X0.536 Y-3.878
X0.69 Y-3.934
X0.843 Y-3.981
X0.996 Y-4.023
X1.15 Y-4.058
X1.303 Y-4.086
X1.456 Y-4.111
X1.609 Y-4.127
X1.763 Y-4.141
X2.069 Y-4.147
X2.223 Y-4.139
X2.376 Y-4.13
X2.529 Y-4.112
X2.682 Y-4.09
X2.834 Y-4.061
X2.989 Y-4.026
X3.142 Y-3.986
X3.389 Y-3.908
X3.449 Y-3.886
X3.602 Y-3.823
X3.755 Y-3.757
X3.909 Y-3.68
X4.056 Y-3.602
X4.306 Y-3.448
X4.369 Y-3.403
X4.522 Y-3.291
X4.675 Y-3.167
X4.828 Y-3.034
X4.875 Y-2.989
X5.025 Y-2.835
X5.135 Y-2.713
X5.288 Y-2.528
X5.397 Y-2.375
X5.442 Y-2.312
X5.502 Y-2.222
X5.595 Y-2.064
X5.678 Y-1.916
X5.752 Y-1.762
X5.822 Y-1.609
X5.901 Y-1.403
X5.937 Y-1.303
X5.982 Y-1.149
X6.027 Y-0.996
X6.09 Y-0.69
X6.11 Y-0.536
X6.129 Y-0.383
X6.139 Y-0.23
X6.145 Y-0.077
Y0.077
X6.139 Y0.23
X6.129 Y0.383
X6.11 Y0.536
X6.09 Y0.69
X6.027 Y0.996
X5.982 Y1.149
X5.937 Y1.303
X5.901 Y1.403
X5.822 Y1.609
X5.752 Y1.762
X5.718 Y1.834
X5.591 Y2.07
X5.45 Y2.299 Z-7.001
X5.296 Y2.519 Z-7.002
X5.125 Y2.725 Z-7.003
X4.941 Y2.921 Z-7.004
X4.746 Y3.106 Z-7.006
X4.54 Y3.278 Z-7.009
X4.323 Y3.437 Z-7.011
X4.095 Y3.578 Z-7.014
X3.858 Y3.705 Z-7.017
X3.615 Y3.818 Z-7.021
X3.365 Y3.916 Z-7.024
X3.108 Y3.997 Z-7.028
X2.847 Y4.058 Z-7.033
X2.582 Y4.104 Z-7.037
X2.316 Y4.133 Z-7.042
X2.182 Y4.142 Z-7.045
X2.047 Y4.147 Z-7.048
X1.913 Y4.144 Z-7.05
X1.779 Y4.141 Z-7.053
X1.645 Y4.13 Z-7.056
X1.511 Y4.117 Z-7.059
X1.378 Y4.1 Z-7.062
X1.246 Y4.076 Z-7.065
X1.114 Y4.051 Z-7.068
X0.984 Y4.019 Z-7.071
X0.854 Y3.984 Z-7.074
X0.725 Y3.947 Z-7.077
X0.599 Y3.901 Z-7.081
X0.472 Y3.855 Z-7.084
X0.349 Y3.803 Z-7.087
X0.227 Y3.747 Z-7.091
X0.105 Y3.69 Z-7.094
X-0.012 Y3.624 Z-7.098
X-0.129 Y3.558 Z-7.102
X-0.243 Y3.487 Z-7.105
X-0.354 Y3.412 Z-7.109
X-0.465 Y3.336 Z-7.113
X-0.57 Y3.252 Z-7.117
X-0.675 Y3.168 Z-7.121
X-0.776 Y3.08 Z-7.125
X-0.873 Y2.988 Z-7.129
X-0.971 Y2.895 Z-7.133
X-1.061 Y2.795 Z-7.137
X-1.151 Y2.696 Z-7.141
X-1.236 Y2.592 Z-7.145
X-1.318 Y2.485 Z-7.15
X-1.399 Y2.378 Z-7.154
X-1.471 Y2.265 Z-7.158
X-1.544 Y2.152 Z-7.163
X-1.612 Y2.036 Z-7.167
X-1.675 Y1.918 Z-7.172
X-1.738 Y1.799 Z-7.176
X-1.791 Y1.676 Z-7.181
X-1.845 Y1.553 Z-7.185
X-1.893 Y1.427 Z-7.19
X-1.936 Y1.3 Z-7.195
X-1.979 Y1.173 Z-7.2
X-2.012 Y1.043 Z-7.204
X-2.044 Y0.913 Z-7.209
X-2.072 Y0.781 Z-7.214
X-2.094 Y0.649 Z-7.218
X-2.116 Y0.516 Z-7.223
X-2.128 Y0.382 Z-7.228
X-2.139 Y0.249 Z-7.232
X-2.145 Y0.114 Z-7.237
Y-0.02 Z-7.242
Y-0.154 Z-7.246
X-2.135 Y-0.288 Z-7.251
X-2.124 Y-0.422 Z-7.256
X-2.109 Y-0.555 Z-7.26
X-2.088 Y-0.688 Z-7.265
X-2.066 Y-0.82 Z-7.27
X-2.035 Y-0.951 Z-7.275
X-2.002 Y-1.081 Z-7.279
X-1.966 Y-1.211 Z-7.284
X-1.923 Y-1.338 Z-7.289
X-1.88 Y-1.465 Z-7.293
X-1.829 Y-1.589 Z-7.298
X-1.775 Y-1.712 Z-7.303
X-1.719 Y-1.834 Z-7.307
X-1.656 Y-1.953 Z-7.312
X-1.593 Y-2.071 Z-7.317
X-1.523 Y-2.186 Z-7.321
X-1.45 Y-2.299 Z-7.326
X-1.375 Y-2.41 Z-7.331
X-1.212 Y-2.623 Z-7.34
X-1.124 Y-2.725 Z-7.345
X-1.034 Y-2.825 Z-7.35
X-0.942 Y-2.923 Z-7.354
X-0.747 Y-3.107 Z-7.364
X-0.644 Y-3.193 Z-7.368
X-0.539 Y-3.277 Z-7.373
X-0.433 Y-3.359 Z-7.378
X-0.21 Y-3.509 Z-7.387
X-0.094 Y-3.578 Z-7.392
X0.023 Y-3.643 Z-7.396
X0.141 Y-3.708 Z-7.401
X0.385 Y-3.819 Z-7.41
X0.51 Y-3.869 Z-7.415
X0.636 Y-3.914 Z-7.42
X0.763 Y-3.959 Z-7.425
X1.022 Y-4.03 Z-7.434
X1.153 Y-4.059 Z-7.439
X1.285 Y-4.083 Z-7.443
X1.417 Y-4.107 Z-7.448
X1.685 Y-4.134 Z-7.457
X1.819 Y-4.142 Z-7.462
X1.953 Y-4.145 Z-7.467
X2.087 Y-4.147 Z-7.471
X2.355 Y-4.131 Z-7.481
X2.489 Y-4.117 Z-7.485
X2.755 Y-4.079 Z-7.495
X2.886 Y-4.049 Z-7.5
X3.017 Y-4.02 Z-7.504
X3.146 Y-3.985 Z-7.509
X3.402 Y-3.904 Z-7.518
X3.527 Y-3.854 Z-7.523
X3.651 Y-3.803 Z-7.528
X3.774 Y-3.748 Z-7.532
X4.013 Y-3.627 Z-7.542
X4.128 Y-3.557 Z-7.546
X4.243 Y-3.487 Z-7.551
X4.355 Y-3.413 Z-7.556
X4.572 Y-3.254 Z-7.565
X4.674 Y-3.167 Z-7.57
X4.776 Y-3.08 Z-7.575
X4.875 Y-2.989 Z-7.579
X5.063 Y-2.797 Z-7.589
X5.15 Y-2.695 Z-7.593
X5.236 Y-2.592 Z-7.598
X5.319 Y-2.486 Z-7.603
X5.473 Y-2.267 Z-7.612
X5.543 Y-2.152 Z-7.617
X5.611 Y-2.036 Z-7.621
X5.677 Y-1.919 Z-7.626
X5.793 Y-1.677 Z-7.636
X5.844 Y-1.552 Z-7.64
X5.892 Y-1.427 Z-7.645
X5.938 Y-1.301 Z-7.65
X6.014 Y-1.043 Z-7.659
X6.044 Y-0.912 Z-7.664
X6.071 Y-0.781 Z-7.668
X6.096 Y-0.649 Z-7.673
X6.113 Y-0.516 Z-7.678
X6.129 Y-0.383 Z-7.682
X6.138 Y-0.249 Z-7.687
X6.144 Y-0.114 Z-7.692
X6.148 Y0.02 Z-7.696
X6.142 Y0.154 Z-7.701
X6.137 Y0.288 Z-7.706
X6.124 Y0.422 Z-7.711
X6.108 Y0.555 Z-7.715
X6.09 Y0.688 Z-7.72
X6.063 Y0.82 Z-7.725
X6.036 Y0.951 Z-7.729
X6.002 Y1.081 Z-7.734
X5.965 Y1.21 Z-7.739
X5.926 Y1.339 Z-7.743
X5.878 Y1.464 Z-7.748
X5.83 Y1.59 Z-7.753
X5.776 Y1.713 Z-7.757
X5.718 Y1.834 Z-7.762
X5.659 Y1.954 Z-7.767
X5.591 Y2.07 Z-7.771
X5.523 Y2.186 Z-7.776
X5.45 Y2.299 Z-7.781
X5.373 Y2.409 Z-7.786
X5.296 Y2.519 Z-7.79
X5.21 Y2.622 Z-7.795
X5.125 Y2.725 Z-7.8
X5.035 Y2.825 Z-7.804
X4.847 Y3.017 Z-7.814
X4.746 Y3.106 Z-7.818
X4.644 Y3.193 Z-7.823
X4.54 Y3.278 Z-7.827
X4.431 Y3.357 Z-7.832
X4.323 Y3.437 Z-7.836
X4.209 Y3.508 Z-7.841
X4.095 Y3.578 Z-7.845
X3.978 Y3.644 Z-7.849
X3.858 Y3.705 Z-7.854
X3.738 Y3.766 Z-7.858
X3.615 Y3.818 Z-7.862
X3.49 Y3.869 Z-7.866
X3.365 Y3.916 Z-7.87
X3.237 Y3.956 Z-7.874
X3.108 Y3.997 Z-7.878
X2.978 Y4.028 Z-7.882
X2.847 Y4.058 Z-7.886
X2.715 Y4.085 Z-7.89
X2.582 Y4.104 Z-7.894
X2.449 Y4.123 Z-7.898
X2.316 Y4.133 Z-7.901
X2.182 Y4.142 Z-7.905
X2.047 Y4.147 Z-7.908
X1.913 Y4.144 Z-7.912
X1.779 Y4.141 Z-7.915
X1.645 Y4.13 Z-7.919
X1.511 Y4.117 Z-7.922
X1.378 Y4.1 Z-7.925
X1.246 Y4.076 Z-7.929
X1.114 Y4.051 Z-7.932
X0.984 Y4.019 Z-7.935
X0.854 Y3.984 Z-7.938
X0.725 Y3.947 Z-7.941
X0.599 Y3.901 Z-7.944
X0.472 Y3.855 Z-7.946
X0.349 Y3.803 Z-7.949
X0.227 Y3.747 Z-7.952
X0.105 Y3.69 Z-7.955
X-0.012 Y3.624 Z-7.957
X-0.243 Y3.487 Z-7.962
X-0.465 Y3.336 Z-7.967
X-0.675 Y3.168 Z-7.971
X-0.873 Y2.988 Z-7.975
X-1.061 Y2.795 Z-7.979
X-1.236 Y2.592 Z-7.983
X-1.399 Y2.378 Z-7.986
X-1.544 Y2.152 Z-7.989
X-1.675 Y1.918 Z-7.991
X-1.791 Y1.676 Z-7.994
X-1.893 Y1.427 Z-7.995
X-1.979 Y1.173 Z-7.997
X-2.044 Y0.913 Z-7.998
X-2.094 Y0.649 Z-7.999
X-2.128 Y0.382 Z-8.
X-2.145 Y0.114
Y0.088
Y0.077
Y-0.077
X-2.14 Y-0.23
X-2.128 Y-0.383
X-2.112 Y-0.536
X-2.069 Y-0.798
X-2.062 Y-0.843
X-1.985 Y-1.149
X-1.935 Y-1.303
X-1.883 Y-1.456
X-1.82 Y-1.609
X-1.754 Y-1.762
X-1.676 Y-1.916
X-1.594 Y-2.069
X-1.499 Y-2.222
X-1.401 Y-2.375
X-1.303 Y-2.504
X-1.284 Y-2.529
X-1.163 Y-2.682
X-0.996 Y-2.867
X-0.873 Y-2.989
X-0.843 Y-3.016
X-0.708 Y-3.142
X-0.516 Y-3.295
X-0.383 Y-3.392
X-0.23 Y-3.495
X-0.077 Y-3.588
X0.077 Y-3.674
X0.23 Y-3.748
X0.383 Y-3.818
X0.536 Y-3.878
X0.69 Y-3.934
X0.843 Y-3.981
X0.996 Y-4.023
X1.15 Y-4.058
X1.303 Y-4.086
X1.456 Y-4.111
X1.609 Y-4.127
X1.763 Y-4.141
X2.069 Y-4.147
X2.223 Y-4.139
X2.376 Y-4.13
X2.529 Y-4.112
X2.682 Y-4.09
X2.834 Y-4.061
X2.989 Y-4.026
X3.142 Y-3.986
X3.389 Y-3.908
X3.449 Y-3.886
X3.602 Y-3.823
X3.755 Y-3.757
X3.909 Y-3.68
X4.056 Y-3.602
X4.306 Y-3.448
X4.369 Y-3.403
X4.522 Y-3.291
X4.675 Y-3.167
X4.828 Y-3.034
X4.875 Y-2.989
X5.025 Y-2.835
X5.135 Y-2.713
X5.288 Y-2.528
X5.397 Y-2.375
X5.442 Y-2.312
X5.502 Y-2.222
X5.595 Y-2.064
X5.678 Y-1.916
X5.752 Y-1.762
X5.822 Y-1.609
X5.901 Y-1.403
X5.937 Y-1.303
X5.982 Y-1.149
X6.027 Y-0.996
X6.09 Y-0.69
X6.11 Y-0.536
X6.129 Y-0.383
X6.139 Y-0.23
X6.145 Y-0.077
Y0.077
X6.139 Y0.23
X6.129 Y0.383
X6.11 Y0.536
X6.09 Y0.69
X6.027 Y0.996
X5.982 Y1.149
X5.937 Y1.303
X5.901 Y1.403
X5.822 Y1.609
X5.752 Y1.762
X5.678 Y1.916
X5.595 Y2.064
X5.502 Y2.222
X5.442 Y2.312
X5.397 Y2.375
X5.288 Y2.528
X5.135 Y2.713
X5.025 Y2.835
X4.875 Y2.989
X4.828 Y3.034
X4.675 Y3.167
X4.522 Y3.291
X4.369 Y3.403
X4.306 Y3.448
X4.056 Y3.602
X3.909 Y3.68
X3.755 Y3.757
X3.602 Y3.823
X3.449 Y3.886
X3.389 Y3.908
X3.142 Y3.986
X2.989 Y4.026
X2.834 Y4.061
X2.682 Y4.09
X2.529 Y4.112
X2.376 Y4.13
X2.223 Y4.139
X2.069 Y4.147
X1.763 Y4.141
X1.609 Y4.127
X1.456 Y4.111
X1.303 Y4.086
X1.15 Y4.058
X0.996 Y4.023
X0.843 Y3.981
X0.69 Y3.934
X0.536 Y3.878
X0.383 Y3.818
X0.23 Y3.748
X0.077 Y3.674
X-0.077 Y3.588
X-0.23 Y3.495
X-0.383 Y3.392
X-0.516 Y3.295
X-0.708 Y3.142
X-0.843 Y3.016
X-0.873 Y2.989
X-0.996 Y2.867
X-1.163 Y2.682
X-1.284 Y2.529
X-1.303 Y2.504
X-1.401 Y2.375
X-1.499 Y2.222
X-1.594 Y2.069
X-1.676 Y1.916
X-1.754 Y1.762
X-1.82 Y1.609
X-1.883 Y1.456
X-1.935 Y1.303
X-1.985 Y1.149
X-2.062 Y0.843
X-2.069 Y0.798
X-2.112 Y0.536
X-2.128 Y0.383
X-2.14 Y0.23
X-2.145 Y0.088
X-2.144 Y-0.18
X-2.122 Y-0.448 Z-8.001
X-2.083 Y-0.714 Z-8.002
X-2.028 Y-0.976 Z-8.003
X-1.958 Y-1.235 Z-8.004
X-1.872 Y-1.49 Z-8.006
X-1.765 Y-1.736 Z-8.009
X-1.644 Y-1.976 Z-8.011
X-1.508 Y-2.208 Z-8.014
X-1.359 Y-2.431 Z-8.017
X-1.196 Y-2.644 Z-8.021
X-1.017 Y-2.844 Z-8.024
X-0.826 Y-3.033 Z-8.028
X-0.624 Y-3.209 Z-8.033
X-0.411 Y-3.374 Z-8.037
X-0.188 Y-3.524 Z-8.042
X-0.072 Y-3.591 Z-8.045
X0.046 Y-3.656 Z-8.048
X0.164 Y-3.719 Z-8.05
X0.287 Y-3.774 Z-8.053
X0.409 Y-3.83 Z-8.056
X0.534 Y-3.878 Z-8.059
X0.661 Y-3.923 Z-8.062
X0.788 Y-3.966 Z-8.065
X0.918 Y-4.001 Z-8.068
X1.047 Y-4.036 Z-8.071
X1.179 Y-4.063 Z-8.074
X1.311 Y-4.088 Z-8.077
X1.443 Y-4.11 Z-8.081
X1.577 Y-4.123 Z-8.084
X1.711 Y-4.137 Z-8.087
X1.845 Y-4.143 Z-8.091
X1.979 Y-4.145 Z-8.094
X2.113 Y-4.146 Z-8.098
X2.247 Y-4.138 Z-8.102
X2.381 Y-4.129 Z-8.105
X2.515 Y-4.114 Z-8.109
X2.648 Y-4.095 Z-8.113
X2.78 Y-4.074 Z-8.117
X2.911 Y-4.044 Z-8.121
X3.042 Y-4.014 Z-8.125
X3.171 Y-3.977 Z-8.129
X3.299 Y-3.936 Z-8.133
X3.427 Y-3.895 Z-8.137
X3.551 Y-3.844 Z-8.141
X3.676 Y-3.793 Z-8.145
X3.797 Y-3.736 Z-8.15
X3.917 Y-3.675 Z-8.154
X4.036 Y-3.614 Z-8.158
X4.151 Y-3.543 Z-8.163
X4.265 Y-3.473 Z-8.167
X4.376 Y-3.398 Z-8.172
X4.484 Y-3.318 Z-8.176
X4.592 Y-3.238 Z-8.181
X4.694 Y-3.15 Z-8.185
X4.795 Y-3.062 Z-8.19
X4.893 Y-2.97 Z-8.195
X4.987 Y-2.874 Z-8.2
X5.081 Y-2.778 Z-8.204
X5.167 Y-2.675 Z-8.209
X5.252 Y-2.572 Z-8.214
X5.334 Y-2.465 Z-8.218
X5.411 Y-2.355 Z-8.223
X5.488 Y-2.245 Z-8.228
X5.556 Y-2.129 Z-8.232
X5.624 Y-2.014 Z-8.237
X5.688 Y-1.895 Z-8.242
X5.746 Y-1.774 Z-8.246
X5.804 Y-1.653 Z-8.251
X5.853 Y-1.528 Z-8.256
X5.901 Y-1.403 Z-8.26
X5.945 Y-1.276 Z-8.265
X5.983 Y-1.147 Z-8.27
X6.021 Y-1.018 Z-8.275
X6.049 Y-0.887 Z-8.279
X6.076 Y-0.755 Z-8.284
X6.1 Y-0.623 Z-8.289
X6.116 Y-0.49 Z-8.293
X6.132 Y-0.357 Z-8.298
X6.139 Y-0.222 Z-8.303
X6.145 Y-0.088 Z-8.307
X6.147 Y0.046 Z-8.312
X6.141 Y0.18 Z-8.317
X6.136 Y0.314 Z-8.321
X6.121 Y0.448 Z-8.326
X6.105 Y0.581 Z-8.331
X6.085 Y0.714 Z-8.335
X6.031 Y0.977 Z-8.345
X5.995 Y1.106 Z-8.35
X5.957 Y1.235 Z-8.354
X5.917 Y1.363 Z-8.359
X5.82 Y1.614 Z-8.368
X5.765 Y1.736 Z-8.373
X5.706 Y1.857 Z-8.378
X5.646 Y1.977 Z-8.382
X5.51 Y2.209 Z-8.392
X5.435 Y2.32 Z-8.396
X5.358 Y2.43 Z-8.401
X5.28 Y2.539 Z-8.406
X5.108 Y2.746 Z-8.415
X5.016 Y2.844 Z-8.42
X4.922 Y2.94 Z-8.425
X4.827 Y3.035 Z-8.429
X4.624 Y3.211 Z-8.439
X4.518 Y3.293 Z-8.443
X4.41 Y3.373 Z-8.448
X4.301 Y3.451 Z-8.453
X4.072 Y3.592 Z-8.462
X3.955 Y3.656 Z-8.467
X3.835 Y3.717 Z-8.471
X3.715 Y3.777 Z-8.476
X3.466 Y3.879 Z-8.485
X3.34 Y3.924 Z-8.49
X3.212 Y3.964 Z-8.495
X3.083 Y4.004 Z-8.5
X2.822 Y4.064 Z-8.509
X2.689 Y4.089 Z-8.514
X2.424 Y4.127 Z-8.523
X2.289 Y4.135 Z-8.528
X2.155 Y4.143 Z-8.532
X2.021 Y4.146 Z-8.537
X1.753 Y4.141 Z-8.546
X1.619 Y4.128 Z-8.551
X1.485 Y4.114 Z-8.556
X1.352 Y4.096 Z-8.56
X1.088 Y4.047 Z-8.57
X0.958 Y4.012 Z-8.575
X0.829 Y3.977 Z-8.579
X0.7 Y3.938 Z-8.584
X0.448 Y3.846 Z-8.593
X0.325 Y3.792 Z-8.598
X0.203 Y3.736 Z-8.603
X0.082 Y3.677 Z-8.607
X-0.152 Y3.546 Z-8.617
X-0.264 Y3.472 Z-8.621
X-0.376 Y3.397 Z-8.626
X-0.485 Y3.32 Z-8.631
X-0.695 Y3.152 Z-8.64
X-0.795 Y3.062 Z-8.645
X-0.893 Y2.97 Z-8.65
X-0.988 Y2.876 Z-8.654
X-1.168 Y2.676 Z-8.664
X-1.252 Y2.571 Z-8.668
X-1.333 Y2.465 Z-8.673
X-1.413 Y2.356 Z-8.678
X-1.485 Y2.243 Z-8.682
X-1.558 Y2.13 Z-8.687
X-1.624 Y2.013 Z-8.692
X-1.687 Y1.895 Z-8.696
X-1.748 Y1.775 Z-8.701
X-1.802 Y1.652 Z-8.706
X-1.855 Y1.529 Z-8.711
X-1.901 Y1.403 Z-8.715
X-1.944 Y1.275 Z-8.72
X-1.986 Y1.148 Z-8.725
X-2.018 Y1.017 Z-8.729
X-2.051 Y0.887 Z-8.734
X-2.076 Y0.755 Z-8.739
X-2.098 Y0.623 Z-8.743
X-2.119 Y0.49 Z-8.748
X-2.13 Y0.356 Z-8.753
X-2.141 Y0.223 Z-8.757
X-2.145 Y0.088 Z-8.762
Y-0.046 Z-8.767
X-2.144 Y-0.18 Z-8.771
X-2.133 Y-0.314 Z-8.776
X-2.122 Y-0.448 Z-8.781
X-2.105 Y-0.581 Z-8.786
X-2.083 Y-0.714 Z-8.79
X-2.061 Y-0.846 Z-8.795
X-2.028 Y-0.976 Z-8.8
X-1.996 Y-1.107 Z-8.804
X-1.958 Y-1.235 Z-8.809
X-1.915 Y-1.363 Z-8.814
X-1.872 Y-1.49 Z-8.818
X-1.818 Y-1.613 Z-8.823
X-1.765 Y-1.736 Z-8.827
X-1.707 Y-1.857 Z-8.832
X-1.644 Y-1.976 Z-8.836
X-1.581 Y-2.094 Z-8.841
X-1.508 Y-2.208 Z-8.845
X-1.436 Y-2.321 Z-8.849
X-1.359 Y-2.431 Z-8.854
X-1.278 Y-2.538 Z-8.858
X-1.196 Y-2.644 Z-8.862
X-1.107 Y-2.744 Z-8.866
X-1.017 Y-2.844 Z-8.87
X-0.923 Y-2.941 Z-8.874
X-0.826 Y-3.033 Z-8.878
X-0.728 Y-3.125 Z-8.882
X-0.624 Y-3.209 Z-8.886
X-0.519 Y-3.293 Z-8.89
X-0.411 Y-3.374 Z-8.894
X-0.3 Y-3.449 Z-8.898
X-0.188 Y-3.524 Z-8.901
X-0.072 Y-3.591 Z-8.905
X0.046 Y-3.656 Z-8.908
X0.164 Y-3.719 Z-8.912
X0.287 Y-3.774 Z-8.915
X0.409 Y-3.83 Z-8.919
X0.534 Y-3.878 Z-8.922
X0.661 Y-3.923 Z-8.925
X0.788 Y-3.966 Z-8.929
X0.918 Y-4.001 Z-8.932
X1.047 Y-4.036 Z-8.935
X1.179 Y-4.063 Z-8.938
X1.311 Y-4.088 Z-8.941
X1.443 Y-4.11 Z-8.944
X1.577 Y-4.123 Z-8.946
X1.711 Y-4.137 Z-8.949
X1.845 Y-4.143 Z-8.952
X1.979 Y-4.145 Z-8.955
X2.113 Y-4.146 Z-8.957
X2.381 Y-4.129 Z-8.962
X2.648 Y-4.095 Z-8.967
X2.911 Y-4.044 Z-8.971
X3.171 Y-3.977 Z-8.975
X3.427 Y-3.895 Z-8.979
X3.676 Y-3.793 Z-8.983
X3.917 Y-3.675 Z-8.986
X4.151 Y-3.543 Z-8.989
X4.376 Y-3.398 Z-8.991
X4.592 Y-3.238 Z-8.994
X4.795 Y-3.062 Z-8.995
X4.987 Y-2.874 Z-8.997
X5.167 Y-2.675 Z-8.998
X5.334 Y-2.465 Z-8.999
X5.488 Y-2.245 Z-9.
X5.624 Y-2.014
X5.636 Y-1.99
X5.678 Y-1.916
X5.752 Y-1.762
X5.822 Y-1.609
X5.901 Y-1.403
X5.937 Y-1.303
X5.982 Y-1.149
X6.027 Y-0.996
X6.09 Y-0.69
X6.11 Y-0.536
X6.129 Y-0.383
X6.139 Y-0.23
X6.145 Y-0.077
Y0.077
X6.139 Y0.23
X6.129 Y0.383
X6.11 Y0.536
X6.09 Y0.69
X6.027 Y0.996
X5.982 Y1.149
X5.937 Y1.303
X5.901 Y1.403
X5.822 Y1.609
X5.752 Y1.762
X5.678 Y1.916
X5.595 Y2.064
X5.502 Y2.222
X5.442 Y2.312
X5.397 Y2.375
X5.288 Y2.528
X5.135 Y2.713
X5.025 Y2.835
X4.875 Y2.989
X4.828 Y3.034
X4.675 Y3.167
X4.522 Y3.291
X4.369 Y3.403
X4.306 Y3.448
X4.056 Y3.602
X3.909 Y3.68
X3.755 Y3.757
X3.602 Y3.823
X3.449 Y3.886
X3.389 Y3.908
X3.142 Y3.986
X2.989 Y4.026
X2.834 Y4.061
X2.682 Y4.09
X2.529 Y4.112
X2.376 Y4.13
X2.223 Y4.139
X2.069 Y4.147
X1.763 Y4.141
X1.609 Y4.127
X1.456 Y4.111
X1.303 Y4.086
X1.15 Y4.058
X0.996 Y4.023
X0.843 Y3.981
X0.69 Y3.934
X0.536 Y3.878
X0.383 Y3.818
X0.23 Y3.748
X0.077 Y3.674
X-0.077 Y3.588
X-0.23 Y3.495
X-0.383 Y3.392
X-0.516 Y3.295
X-0.708 Y3.142
X-0.843 Y3.016
X-0.873 Y2.989
X-0.996 Y2.867
X-1.163 Y2.682
X-1.284 Y2.529
X-1.303 Y2.504
X-1.401 Y2.375
X-1.499 Y2.222
X-1.594 Y2.069
X-1.676 Y1.916
X-1.754 Y1.762
X-1.82 Y1.609
X-1.883 Y1.456
X-1.935 Y1.303
X-1.985 Y1.149
X-2.062 Y0.843
X-2.069 Y0.798
X-2.112 Y0.536
X-2.128 Y0.383
X-2.14 Y0.23
X-2.145 Y0.088
Y0.077
Y-0.077
X-2.14 Y-0.23
X-2.128 Y-0.383
X-2.112 Y-0.536
X-2.069 Y-0.798
X-2.062 Y-0.843
X-1.985 Y-1.149
X-1.935 Y-1.303
X-1.883 Y-1.456
X-1.82 Y-1.609
X-1.754 Y-1.762
X-1.676 Y-1.916
X-1.594 Y-2.069
X-1.499 Y-2.222
X-1.401 Y-2.375
X-1.303 Y-2.504
X-1.284 Y-2.529
X-1.163 Y-2.682
X-0.996 Y-2.867
X-0.873 Y-2.989
X-0.843 Y-3.016
X-0.708 Y-3.142
X-0.516 Y-3.295
X-0.383 Y-3.392
X-0.23 Y-3.495
X-0.077 Y-3.588
X0.077 Y-3.674
X0.23 Y-3.748
X0.383 Y-3.818
X0.536 Y-3.878
X0.69 Y-3.934
X0.843 Y-3.981
X0.996 Y-4.023
X1.15 Y-4.058
X1.303 Y-4.086
X1.456 Y-4.111
X1.609 Y-4.127
X1.763 Y-4.141
X2.069 Y-4.147
X2.223 Y-4.139
X2.376 Y-4.13
X2.529 Y-4.112
X2.682 Y-4.09
X2.834 Y-4.061
X2.989 Y-4.026
X3.142 Y-3.986
X3.389 Y-3.908
X3.449 Y-3.886
X3.602 Y-3.823
X3.755 Y-3.757
X3.909 Y-3.68
X4.056 Y-3.602
X4.306 Y-3.448
X4.369 Y-3.403
X4.522 Y-3.291
X4.675 Y-3.167
X4.828 Y-3.034
X4.875 Y-2.989
X5.025 Y-2.835
X5.135 Y-2.713
X5.288 Y-2.528
X5.397 Y-2.375
X5.442 Y-2.312
X5.502 Y-2.222
X5.595 Y-2.064
X5.636 Y-1.99
X5.758 Y-1.75
X5.863 Y-1.503 Z-9.001
X5.953 Y-1.25 Z-9.002
X6.027 Y-0.993 Z-9.003
X6.082 Y-0.73 Z-9.004
X6.119 Y-0.464 Z-9.006
X6.14 Y-0.196 Z-9.009
X6.146 Y0.072 Z-9.011
X6.134 Y0.341 Z-9.014
X6.102 Y0.607 Z-9.017
X6.053 Y0.871 Z-9.021
X5.988 Y1.132 Z-9.024
X5.907 Y1.388 Z-9.028
X5.811 Y1.639 Z-9.033
X5.695 Y1.881 Z-9.037
X5.564 Y2.116 Z-9.042
X5.497 Y2.232 Z-9.045
X5.42 Y2.342 Z-9.048
X5.343 Y2.452 Z-9.05
X5.263 Y2.559 Z-9.053
X5.177 Y2.663 Z-9.056
X5.091 Y2.766 Z-9.059
X4.998 Y2.863 Z-9.062
X4.904 Y2.959 Z-9.065
X4.807 Y3.052 Z-9.068
X4.706 Y3.14 Z-9.071
X4.604 Y3.228 Z-9.074
X4.497 Y3.309 Z-9.077
X4.389 Y3.388 Z-9.081
X4.279 Y3.465 Z-9.084
X4.164 Y3.535 Z-9.087
X4.05 Y3.605 Z-9.091
X3.931 Y3.668 Z-9.094
X3.811 Y3.729 Z-9.098
X3.69 Y3.787 Z-9.102
X3.566 Y3.838 Z-9.105
X3.442 Y3.889 Z-9.109
X3.314 Y3.932 Z-9.113
X3.186 Y3.972 Z-9.117
X3.058 Y4.01 Z-9.121
X2.927 Y4.04 Z-9.125
X2.796 Y4.07 Z-9.129
X2.663 Y4.092 Z-9.133
X2.53 Y4.111 Z-9.137
X2.397 Y4.128 Z-9.141
X2.263 Y4.137 Z-9.145
X2.129 Y4.145 Z-9.15
X1.995 Y4.146 Z-9.154
X1.861 Y4.143 Z-9.158
X1.726 Y4.139 Z-9.163
X1.593 Y4.125 Z-9.167
X1.459 Y4.111 Z-9.172
X1.326 Y4.091 Z-9.176
X1.194 Y4.066 Z-9.181
X1.063 Y4.041 Z-9.185
X0.803 Y3.97 Z-9.195
X0.676 Y3.929 Z-9.2
X0.549 Y3.883 Z-9.204
X0.423 Y3.837 Z-9.209
X0.301 Y3.781 Z-9.214
X0.179 Y3.725 Z-9.218
X0.059 Y3.664 Z-9.223
X-0.058 Y3.598 Z-9.228
X-0.175 Y3.532 Z-9.232
X-0.286 Y3.458 Z-9.237
X-0.398 Y3.383 Z-9.242
X-0.506 Y3.303 Z-9.246
X-0.611 Y3.219 Z-9.251
X-0.716 Y3.136 Z-9.256
X-0.814 Y3.044 Z-9.26
X-0.912 Y2.952 Z-9.265
X-1.006 Y2.856 Z-9.27
X-1.096 Y2.756 Z-9.275
X-1.186 Y2.657 Z-9.279
X-1.268 Y2.55 Z-9.284
X-1.35 Y2.443 Z-9.289
X-1.427 Y2.334 Z-9.293
X-1.5 Y2.221 Z-9.298
X-1.572 Y2.108 Z-9.303
X-1.636 Y1.99 Z-9.307
X-1.7 Y1.871 Z-9.312
X-1.759 Y1.751 Z-9.317
X-1.812 Y1.628 Z-9.321
X-1.865 Y1.504 Z-9.326
X-1.91 Y1.378 Z-9.331
X-1.953 Y1.25 Z-9.335
X-1.992 Y1.122 Z-9.34
X-2.057 Y0.861 Z-9.35
X-2.081 Y0.729 Z-9.354
X-2.103 Y0.597 Z-9.359
X-2.121 Y0.464 Z-9.364
X-2.143 Y0.196 Z-9.373
X-2.145 Y0.062 Z-9.378
Y-0.072 Z-9.382
X-2.142 Y-0.207 Z-9.387
X-2.12 Y-0.474 Z-9.396
X-2.101 Y-0.607 Z-9.401
X-2.079 Y-0.74 Z-9.406
X-2.055 Y-0.872 Z-9.41
X-1.99 Y-1.132 Z-9.42
X-1.949 Y-1.26 Z-9.425
X-1.906 Y-1.388 Z-9.429
X-1.861 Y-1.514 Z-9.434
X-1.755 Y-1.761 Z-9.443
X-1.695 Y-1.881 Z-9.448
X-1.631 Y-1.999 Z-9.453
X-1.567 Y-2.117 Z-9.457
X-1.421 Y-2.343 Z-9.467
X-1.343 Y-2.452 Z-9.471
X-1.262 Y-2.559 Z-9.476
X-1.179 Y-2.664 Z-9.481
X-0.999 Y-2.864 Z-9.49
X-0.904 Y-2.959 Z-9.495
X-0.806 Y-3.051 Z-9.5
X-0.708 Y-3.142 Z-9.504
X-0.498 Y-3.31 Z-9.514
X-0.389 Y-3.389 Z-9.518
X-0.278 Y-3.463 Z-9.523
X-0.166 Y-3.538 Z-9.528
X0.069 Y-3.669 Z-9.537
X0.189 Y-3.73 Z-9.542
X0.311 Y-3.785 Z-9.546
X0.433 Y-3.841 Z-9.551
X0.686 Y-3.932 Z-9.561
X0.814 Y-3.973 Z-9.565
X1.073 Y-4.043 Z-9.575
X1.205 Y-4.068 Z-9.579
X1.337 Y-4.093 Z-9.584
X1.47 Y-4.112 Z-9.589
X1.737 Y-4.14 Z-9.598
X1.871 Y-4.143 Z-9.603
X2.005 Y-4.146 Z-9.607
X2.14 Y-4.144 Z-9.612
X2.408 Y-4.128 Z-9.621
X2.541 Y-4.11 Z-9.626
X2.674 Y-4.091 Z-9.631
X2.806 Y-4.068 Z-9.636
X3.068 Y-4.008 Z-9.645
X3.196 Y-3.969 Z-9.65
X3.325 Y-3.928 Z-9.654
X3.451 Y-3.885 Z-9.659
X3.7 Y-3.783 Z-9.668
X3.821 Y-3.724 Z-9.673
X3.941 Y-3.663 Z-9.678
X4.059 Y-3.6 Z-9.682
X4.173 Y-3.53 Z-9.687
X4.288 Y-3.459 Z-9.692
X4.397 Y-3.382 Z-9.696
X4.506 Y-3.303 Z-9.701
X4.612 Y-3.221 Z-9.706
X4.714 Y-3.133 Z-9.711
X4.815 Y-3.045 Z-9.715
X4.911 Y-2.951 Z-9.72
X5.005 Y-2.855 Z-9.725
X5.098 Y-2.758 Z-9.729
X5.184 Y-2.654 Z-9.734
X5.269 Y-2.551 Z-9.739
X5.349 Y-2.443 Z-9.743
X5.426 Y-2.333 Z-9.748
X5.502 Y-2.222 Z-9.753
X5.57 Y-2.107 Z-9.757
X5.638 Y-1.991 Z-9.762
X5.699 Y-1.871 Z-9.767
X5.758 Y-1.75 Z-9.771
X5.815 Y-1.629 Z-9.776
X5.863 Y-1.503 Z-9.781
X5.911 Y-1.378 Z-9.786
X5.953 Y-1.25 Z-9.79
X5.991 Y-1.122 Z-9.795
X6.027 Y-0.993 Z-9.8
X6.055 Y-0.861 Z-9.804
X6.082 Y-0.73 Z-9.809
X6.103 Y-0.597 Z-9.814
X6.119 Y-0.464 Z-9.818
X6.135 Y-0.33 Z-9.823
X6.14 Y-0.196 Z-9.827
X6.146 Y-0.062 Z-9.832
Y0.072 Z-9.836
X6.14 Y0.207 Z-9.841
X6.134 Y0.341 Z-9.845
X6.118 Y0.474 Z-9.849
X6.102 Y0.607 Z-9.854
X6.08 Y0.74 Z-9.858
X6.053 Y0.871 Z-9.862
X6.025 Y1.003 Z-9.866
X5.988 Y1.132 Z-9.87
X5.95 Y1.261 Z-9.874
X5.907 Y1.388 Z-9.878
X5.859 Y1.513 Z-9.882
X5.811 Y1.639 Z-9.886
X5.753 Y1.76 Z-9.89
X5.695 Y1.881 Z-9.894
X5.632 Y2. Z-9.898
X5.564 Y2.116 Z-9.901
X5.497 Y2.232 Z-9.905
X5.42 Y2.342 Z-9.908
X5.343 Y2.452 Z-9.912
X5.263 Y2.559 Z-9.915
X5.177 Y2.663 Z-9.919
X5.091 Y2.766 Z-9.922
X4.998 Y2.863 Z-9.925
X4.904 Y2.959 Z-9.929
X4.807 Y3.052 Z-9.932
X4.706 Y3.14 Z-9.935
X4.604 Y3.228 Z-9.938
X4.497 Y3.309 Z-9.941
X4.389 Y3.388 Z-9.944
X4.279 Y3.465 Z-9.946
X4.164 Y3.535 Z-9.949
X4.05 Y3.605 Z-9.952
X3.931 Y3.668 Z-9.955
X3.811 Y3.729 Z-9.957
X3.566 Y3.838 Z-9.962
X3.314 Y3.932 Z-9.967
X3.058 Y4.01 Z-9.971
X2.796 Y4.07 Z-9.975
X2.53 Y4.111 Z-9.979
X2.263 Y4.137 Z-9.983
X1.995 Y4.146 Z-9.986
X1.726 Y4.139 Z-9.989
X1.459 Y4.111 Z-9.991
X1.194 Y4.066 Z-9.994
X0.933 Y4.005 Z-9.995
X0.676 Y3.929 Z-9.997
X0.423 Y3.837 Z-9.998
X0.179 Y3.725 Z-9.999
X-0.058 Y3.598 Z-10.
X-0.286 Y3.458
X-0.308 Y3.443
X-0.383 Y3.392
X-0.516 Y3.295
X-0.708 Y3.142
X-0.843 Y3.016
X-0.873 Y2.989
X-0.996 Y2.867
X-1.163 Y2.682
X-1.284 Y2.529
X-1.303 Y2.504
X-1.401 Y2.375
X-1.499 Y2.222
X-1.594 Y2.069
X-1.676 Y1.916
X-1.754 Y1.762
X-1.82 Y1.609
X-1.883 Y1.456
X-1.935 Y1.303
X-1.985 Y1.149
X-2.062 Y0.843
X-2.069 Y0.798
X-2.112 Y0.536
X-2.128 Y0.383
X-2.14 Y0.23
X-2.145 Y0.077
Y-0.077
X-2.14 Y-0.23
X-2.128 Y-0.383
X-2.112 Y-0.536
X-2.069 Y-0.798
X-2.062 Y-0.843
X-1.985 Y-1.149
X-1.935 Y-1.303
X-1.883 Y-1.456
X-1.82 Y-1.609
X-1.754 Y-1.762
X-1.676 Y-1.916
X-1.594 Y-2.069
X-1.499 Y-2.222
X-1.401 Y-2.375
X-1.303 Y-2.504
X-1.284 Y-2.529
X-1.163 Y-2.682
X-0.996 Y-2.867
X-0.873 Y-2.989
X-0.843 Y-3.016
X-0.708 Y-3.142
X-0.516 Y-3.295
X-0.383 Y-3.392
X-0.23 Y-3.495
X-0.077 Y-3.588
X0.077 Y-3.674
X0.23 Y-3.748
X0.383 Y-3.818
X0.536 Y-3.878
X0.69 Y-3.934
X0.843 Y-3.981
X0.996 Y-4.023
X1.15 Y-4.058
X1.303 Y-4.086
X1.456 Y-4.111
X1.609 Y-4.127
X1.763 Y-4.141
X2.069 Y-4.147
X2.223 Y-4.139
X2.376 Y-4.13
X2.529 Y-4.112
X2.682 Y-4.09
X2.834 Y-4.061
X2.989 Y-4.026
X3.142 Y-3.986
X3.389 Y-3.908
X3.449 Y-3.886
X3.602 Y-3.823
X3.755 Y-3.757
X3.909 Y-3.68
X4.056 Y-3.602
X4.306 Y-3.448
X4.369 Y-3.403
X4.522 Y-3.291
X4.675 Y-3.167
X4.828 Y-3.034
X4.875 Y-2.989
X5.025 Y-2.835
X5.135 Y-2.713
X5.288 Y-2.528
X5.397 Y-2.375
X5.442 Y-2.312
X5.502 Y-2.222
X5.595 Y-2.064
X5.678 Y-1.916
X5.752 Y-1.762
X5.822 Y-1.609
X5.901 Y-1.403
X5.937 Y-1.303
X5.982 Y-1.149
X6.027 Y-0.996
X6.09 Y-0.69
X6.11 Y-0.536
X6.129 Y-0.383
X6.139 Y-0.23
X6.145 Y-0.077
Y0.077
X6.139 Y0.23
X6.129 Y0.383
X6.11 Y0.536
X6.09 Y0.69
X6.027 Y0.996
X5.982 Y1.149
X5.937 Y1.303
X5.901 Y1.403
X5.822 Y1.609
X5.752 Y1.762
X5.678 Y1.916
X5.595 Y2.064
X5.502 Y2.222
X5.442 Y2.312
X5.397 Y2.375
X5.288 Y2.528
X5.135 Y2.713
X5.025 Y2.835
X4.875 Y2.989
X4.828 Y3.034
X4.675 Y3.167
X4.522 Y3.291
X4.369 Y3.403
X4.306 Y3.448
X4.056 Y3.602
X3.909 Y3.68
X3.755 Y3.757
X3.602 Y3.823
X3.449 Y3.886
X3.389 Y3.908
X3.142 Y3.986
X2.989 Y4.026
X2.834 Y4.061
X2.682 Y4.09
X2.529 Y4.112
X2.376 Y4.13
X2.223 Y4.139
X2.069 Y4.147
X1.763 Y4.141
X1.609 Y4.127
X1.456 Y4.111
X1.303 Y4.086
X1.15 Y4.058
X0.996 Y4.023
X0.843 Y3.981
X0.69 Y3.934
X0.536 Y3.878
X0.383 Y3.818
X0.23 Y3.748
X0.077 Y3.674
X-0.077 Y3.588
X-0.23 Y3.495
X-0.308 Y3.443
X-0.526 Y3.287
X-0.735 Y3.118 Z-10.001
X-0.931 Y2.934 Z-10.002
X-1.113 Y2.737 Z-10.003
X-1.284 Y2.53 Z-10.004
X-1.441 Y2.312 Z-10.006
X-1.585 Y2.086 Z-10.009
X-1.712 Y1.849 Z-10.011
X-1.822 Y1.604 Z-10.014
X-1.918 Y1.353 Z-10.017
X-1.998 Y1.097 Z-10.021
X-2.063 Y0.836 Z-10.024
X-2.107 Y0.571 Z-10.028
X-2.134 Y0.304 Z-10.033
X-2.145 Y0.036 Z-10.037
X-2.14 Y-0.233 Z-10.042
X-2.129 Y-0.366 Z-10.045
X-2.118 Y-0.5 Z-10.048
X-2.097 Y-0.633 Z-10.05
X-2.075 Y-0.765 Z-10.053
X-2.048 Y-0.897 Z-10.056
X-2.016 Y-1.027 Z-10.059
X-1.983 Y-1.158 Z-10.062
X-1.941 Y-1.285 Z-10.065
X-1.898 Y-1.412 Z-10.068
X-1.851 Y-1.538 Z-10.071
X-1.798 Y-1.661 Z-10.074
X-1.744 Y-1.785 Z-10.077
X-1.682 Y-1.904 Z-10.081
X-1.619 Y-2.022 Z-10.084
X-1.553 Y-2.139 Z-10.087
X-1.48 Y-2.252 Z-10.091
X-1.407 Y-2.365 Z-10.094
X-1.327 Y-2.472 Z-10.098
X-1.246 Y-2.579 Z-10.102
X-1.161 Y-2.684 Z-10.105
X-1.071 Y-2.783 Z-10.109
X-0.981 Y-2.883 Z-10.113
X-0.885 Y-2.977 Z-10.117
X-0.787 Y-3.069 Z-10.121
X-0.688 Y-3.158 Z-10.125
X-0.583 Y-3.242 Z-10.129
X-0.478 Y-3.326 Z-10.133
X-0.368 Y-3.403 Z-10.137
X-0.256 Y-3.478 Z-10.141
X-0.143 Y-3.551 Z-10.145
X-0.026 Y-3.616 Z-10.15
X0.091 Y-3.682 Z-10.154
X0.212 Y-3.74 Z-10.158
X0.334 Y-3.796 Z-10.163
X0.457 Y-3.85 Z-10.167
X0.584 Y-3.896 Z-10.172
X0.71 Y-3.941 Z-10.176
X0.839 Y-3.98 Z-10.181
X0.968 Y-4.015 Z-10.185
X1.098 Y-4.048 Z-10.19
X1.23 Y-4.073 Z-10.195
X1.362 Y-4.097 Z-10.2
X1.496 Y-4.115 Z-10.204
X1.629 Y-4.129 Z-10.209
X1.763 Y-4.141 Z-10.214
X1.897 Y-4.144 Z-10.218
X2.031 Y-4.147 Z-10.223
X2.165 Y-4.143 Z-10.228
X2.3 Y-4.134 Z-10.232
X2.434 Y-4.125 Z-10.237
X2.566 Y-4.106 Z-10.242
X2.699 Y-4.087 Z-10.246
X2.831 Y-4.062 Z-10.251
X2.962 Y-4.032 Z-10.256
X3.093 Y-4.002 Z-10.26
X3.221 Y-3.961 Z-10.265
X3.349 Y-3.921 Z-10.27
X3.475 Y-3.875 Z-10.275
X3.6 Y-3.824 Z-10.279
X3.724 Y-3.773 Z-10.284
X3.844 Y-3.712 Z-10.289
X3.964 Y-3.652 Z-10.293
X4.081 Y-3.586 Z-10.298
X4.195 Y-3.516 Z-10.303
X4.31 Y-3.446 Z-10.307
X4.418 Y-3.367 Z-10.312
X4.527 Y-3.287 Z-10.317
X4.632 Y-3.204 Z-10.321
X4.733 Y-3.116 Z-10.326
X4.835 Y-3.028 Z-10.331
X4.93 Y-2.933 Z-10.335
X5.024 Y-2.837 Z-10.34
X5.114 Y-2.738 Z-10.345
X5.286 Y-2.531 Z-10.354
X5.364 Y-2.422 Z-10.359
X5.441 Y-2.312 Z-10.364
X5.515 Y-2.2 Z-10.368
X5.651 Y-1.968 Z-10.378
X5.711 Y-1.848 Z-10.382
X5.769 Y-1.727 Z-10.387
X5.824 Y-1.605 Z-10.392
X5.92 Y-1.354 Z-10.401
X5.96 Y-1.226 Z-10.406
X5.998 Y-1.097 Z-10.41
X6.033 Y-0.967 Z-10.415
X6.087 Y-0.704 Z-10.425
X6.106 Y-0.571 Z-10.429
X6.122 Y-0.438 Z-10.434
X6.136 Y-0.304 Z-10.439
X6.147 Y-0.036 Z-10.448
X6.144 Y0.098 Z-10.453
X6.139 Y0.233 Z-10.457
X6.131 Y0.367 Z-10.462
X6.098 Y0.633 Z-10.471
X6.074 Y0.765 Z-10.476
X6.047 Y0.897 Z-10.481
X6.018 Y1.028 Z-10.485
X5.943 Y1.286 Z-10.495
X5.898 Y1.412 Z-10.5
X5.85 Y1.537 Z-10.504
X5.8 Y1.662 Z-10.509
X5.684 Y1.904 Z-10.518
X5.619 Y2.022 Z-10.523
X5.551 Y2.138 Z-10.528
X5.483 Y2.253 Z-10.532
X5.328 Y2.473 Z-10.542
X5.246 Y2.579 Z-10.546
X5.16 Y2.683 Z-10.551
X5.074 Y2.785 Z-10.556
X4.886 Y2.977 Z-10.565
X4.788 Y3.069 Z-10.57
X4.686 Y3.157 Z-10.575
X4.585 Y3.245 Z-10.579
X4.368 Y3.404 Z-10.589
X4.257 Y3.478 Z-10.593
X4.028 Y3.619 Z-10.603
X3.908 Y3.68 Z-10.607
X3.788 Y3.741 Z-10.612
X3.666 Y3.797 Z-10.617
X3.418 Y3.898 Z-10.626
X3.29 Y3.939 Z-10.631
X3.162 Y3.98 Z-10.636
X3.032 Y4.016 Z-10.64
X2.77 Y4.076 Z-10.65
X2.638 Y4.096 Z-10.654
X2.505 Y4.115 Z-10.659
X2.371 Y4.13 Z-10.664
X2.103 Y4.146 Z-10.673
X1.969 Y4.145 Z-10.678
X1.835 Y4.142 Z-10.682
X1.701 Y4.136 Z-10.687
X1.567 Y4.122 Z-10.692
X1.433 Y4.109 Z-10.696
X1.301 Y4.086 Z-10.701
X1.169 Y4.062 Z-10.706
X1.038 Y4.034 Z-10.711
X0.908 Y3.999 Z-10.715
X0.778 Y3.963 Z-10.72
X0.651 Y3.92 Z-10.725
X0.525 Y3.874 Z-10.729
X0.4 Y3.826 Z-10.734
X0.277 Y3.77 Z-10.739
X0.155 Y3.714 Z-10.743
X0.037 Y3.651 Z-10.748
X-0.08 Y3.586 Z-10.753
X-0.196 Y3.518 Z-10.757
X-0.308 Y3.443 Z-10.762
X-0.419 Y3.368 Z-10.767
X-0.526 Y3.287 Z-10.771
X-0.631 Y3.203 Z-10.776
X-0.735 Y3.118 Z-10.781
X-0.833 Y3.026 Z-10.786
X-0.931 Y2.934 Z-10.79
X-1.023 Y2.837 Z-10.795
X-1.113 Y2.737 Z-10.8
X-1.202 Y2.636 Z-10.804
X-1.365 Y2.423 Z-10.814
X-1.441 Y2.312 Z-10.818
X-1.514 Y2.199 Z-10.823
X-1.585 Y2.086 Z-10.827
X-1.649 Y1.967 Z-10.832
X-1.712 Y1.849 Z-10.836
X-1.769 Y1.727 Z-10.841
X-1.822 Y1.604 Z-10.845
X-1.875 Y1.48 Z-10.849
X-1.918 Y1.353 Z-10.854
X-1.961 Y1.226 Z-10.858
X-1.998 Y1.097 Z-10.862
X-2.031 Y0.967 Z-10.866
X-2.063 Y0.836 Z-10.87
X-2.085 Y0.704 Z-10.874
X-2.107 Y0.571 Z-10.878
X-2.123 Y0.438 Z-10.882
X-2.134 Y0.304 Z-10.886
X-2.145 Y0.17 Z-10.89
Y0.036 Z-10.894
Y-0.098 Z-10.898
X-2.14 Y-0.233 Z-10.901
X-2.129 Y-0.366 Z-10.905
X-2.118 Y-0.5 Z-10.908
X-2.097 Y-0.633 Z-10.912
X-2.075 Y-0.765 Z-10.915
X-2.048 Y-0.897 Z-10.919
X-2.016 Y-1.027 Z-10.922
X-1.983 Y-1.158 Z-10.925
X-1.941 Y-1.285 Z-10.929
X-1.898 Y-1.412 Z-10.932
X-1.851 Y-1.538 Z-10.935
X-1.798 Y-1.661 Z-10.938
X-1.744 Y-1.785 Z-10.941
X-1.682 Y-1.904 Z-10.944
X-1.619 Y-2.022 Z-10.946
X-1.553 Y-2.139 Z-10.949
X-1.48 Y-2.252 Z-10.952
X-1.407 Y-2.365 Z-10.955
X-1.327 Y-2.472 Z-10.957
X-1.161 Y-2.684 Z-10.962
X-0.981 Y-2.883 Z-10.967
X-0.787 Y-3.069 Z-10.971
X-0.583 Y-3.242 Z-10.975
X-0.368 Y-3.403 Z-10.979
X-0.143 Y-3.551 Z-10.983
X0.091 Y-3.682 Z-10.986
X0.334 Y-3.796 Z-10.989
X0.584 Y-3.896 Z-10.991
X0.839 Y-3.98 Z-10.994
X1.098 Y-4.048 Z-10.995
X1.362 Y-4.097 Z-10.997
X1.629 Y-4.129 Z-10.998
X1.897 Y-4.144 Z-10.999
X2.165 Y-4.143 Z-11.
X2.434 Y-4.125
X2.459 Y-4.12
X2.529 Y-4.112
X2.682 Y-4.09
X2.834 Y-4.061
X2.989 Y-4.026
X3.142 Y-3.986
X3.389 Y-3.908
X3.449 Y-3.886
X3.602 Y-3.823
X3.755 Y-3.757
X3.909 Y-3.68
X4.056 Y-3.602
X4.306 Y-3.448
X4.369 Y-3.403
X4.522 Y-3.291
X4.675 Y-3.167
X4.828 Y-3.034
X4.875 Y-2.989
X5.025 Y-2.835
X5.135 Y-2.713
X5.288 Y-2.528
X5.397 Y-2.375
X5.442 Y-2.312
X5.502 Y-2.222
X5.595 Y-2.064
X5.678 Y-1.916
X5.752 Y-1.762
X5.822 Y-1.609
X5.901 Y-1.403
X5.937 Y-1.303
X5.982 Y-1.149
X6.027 Y-0.996
X6.09 Y-0.69
X6.11 Y-0.536
X6.129 Y-0.383
X6.139 Y-0.23
X6.145 Y-0.077
Y0.077
X6.139 Y0.23
X6.129 Y0.383
X6.11 Y0.536
X6.09 Y0.69
X6.027 Y0.996
X5.982 Y1.149
X5.937 Y1.303
X5.901 Y1.403
X5.822 Y1.609
X5.752 Y1.762
X5.678 Y1.916
X5.595 Y2.064
X5.502 Y2.222
X5.442 Y2.312
X5.397 Y2.375
X5.288 Y2.528
X5.135 Y2.713
X5.025 Y2.835
X4.875 Y2.989
X4.828 Y3.034
X4.675 Y3.167
X4.522 Y3.291
X4.369 Y3.403
X4.306 Y3.448
X4.056 Y3.602
X3.909 Y3.68
X3.755 Y3.757
X3.602 Y3.823
X3.449 Y3.886
X3.389 Y3.908
X3.142 Y3.986
X2.989 Y4.026
X2.834 Y4.061
X2.682 Y4.09
X2.529 Y4.112
X2.376 Y4.13
X2.223 Y4.139
X2.069 Y4.147
X1.763 Y4.141
X1.609 Y4.127
X1.456 Y4.111
X1.303 Y4.086
X1.15 Y4.058
X0.996 Y4.023
X0.843 Y3.981
X0.69 Y3.934
X0.536 Y3.878
X0.383 Y3.818
X0.23 Y3.748
X0.077 Y3.674
X-0.077 Y3.588
X-0.23 Y3.495
X-0.308 Y3.443
X-0.383 Y3.392
X-0.516 Y3.295
X-0.708 Y3.142
X-0.843 Y3.016
X-0.873 Y2.989
X-0.996 Y2.867
X-1.163 Y2.682
X-1.284 Y2.529
X-1.303 Y2.504
X-1.401 Y2.375
X-1.499 Y2.222
X-1.594 Y2.069
X-1.676 Y1.916
X-1.754 Y1.762
X-1.82 Y1.609
X-1.883 Y1.456
X-1.935 Y1.303
X-1.985 Y1.149
X-2.062 Y0.843
X-2.069 Y0.798
X-2.112 Y0.536
X-2.128 Y0.383
X-2.14 Y0.23
X-2.145 Y0.077
Y-0.077
X-2.14 Y-0.23
X-2.128 Y-0.383
X-2.112 Y-0.536
X-2.069 Y-0.798
X-2.062 Y-0.843
X-1.985 Y-1.149
X-1.935 Y-1.303
X-1.883 Y-1.456
X-1.82 Y-1.609
X-1.754 Y-1.762
X-1.676 Y-1.916
X-1.594 Y-2.069
X-1.499 Y-2.222
X-1.401 Y-2.375
X-1.303 Y-2.504
X-1.284 Y-2.529
X-1.163 Y-2.682
X-0.996 Y-2.867
X-0.873 Y-2.989
X-0.843 Y-3.016
X-0.708 Y-3.142
X-0.516 Y-3.295
X-0.383 Y-3.392
X-0.23 Y-3.495
X-0.077 Y-3.588
X0.077 Y-3.674
X0.23 Y-3.748
X0.383 Y-3.818
X0.536 Y-3.878
X0.69 Y-3.934
X0.843 Y-3.981
X0.996 Y-4.023
X1.15 Y-4.058
X1.303 Y-4.086
X1.456 Y-4.111
X1.609 Y-4.127
X1.763 Y-4.141
X2.069 Y-4.147
X2.223 Y-4.139
X2.376 Y-4.13
X2.459 Y-4.12
X2.725 Y-4.083
X2.988 Y-4.026 Z-11.001
X3.246 Y-3.953 Z-11.002
X3.5 Y-3.865 Z-11.003
X3.747 Y-3.761 Z-11.004
X3.987 Y-3.64 Z-11.006
X4.218 Y-3.502 Z-11.009
X4.439 Y-3.351 Z-11.011
X4.652 Y-3.187 Z-11.014
X4.854 Y-3.01 Z-11.017
X5.042 Y-2.818 Z-11.021
X5.217 Y-2.615 Z-11.024
X5.379 Y-2.401 Z-11.028
X5.528 Y-2.178 Z-11.033
X5.664 Y-1.946 Z-11.037
X5.78 Y-1.704 Z-11.042
X5.833 Y-1.58 Z-11.045
X5.881 Y-1.455 Z-11.048
X5.93 Y-1.329 Z-11.05
X5.967 Y-1.201 Z-11.053
X6.005 Y-1.072 Z-11.056
X6.038 Y-0.942 Z-11.059
X6.065 Y-0.81 Z-11.062
X6.092 Y-0.679 Z-11.065
X6.109 Y-0.545 Z-11.068
X6.126 Y-0.412 Z-11.071
X6.137 Y-0.278 Z-11.074
X6.143 Y-0.144 Z-11.077
X6.148 Y-0.01 Z-11.081
X6.143 Y0.124 Z-11.084
X6.138 Y0.259 Z-11.087
X6.128 Y0.392 Z-11.091
X6.112 Y0.526 Z-11.094
X6.095 Y0.659 Z-11.098
X6.069 Y0.791 Z-11.102
X6.042 Y0.922 Z-11.105
X6.011 Y1.053 Z-11.109
X5.973 Y1.182 Z-11.113
X5.935 Y1.311 Z-11.117
X5.889 Y1.436 Z-11.121
X5.84 Y1.562 Z-11.125
X5.789 Y1.686 Z-11.129
X5.731 Y1.807 Z-11.133
X5.672 Y1.928 Z-11.137
X5.606 Y2.045 Z-11.141
X5.538 Y2.161 Z-11.145
X5.468 Y2.275 Z-11.15
X5.39 Y2.385 Z-11.154
X5.313 Y2.494 Z-11.158
X5.229 Y2.599 Z-11.163
X5.144 Y2.703 Z-11.167
X5.056 Y2.804 Z-11.172
X4.962 Y2.9 Z-11.176
X4.868 Y2.996 Z-11.181
X4.768 Y3.086 Z-11.185
X4.667 Y3.174 Z-11.19
X4.564 Y3.26 Z-11.195
X4.455 Y3.34 Z-11.2
X4.347 Y3.419 Z-11.204
X4.234 Y3.492 Z-11.209
X4.12 Y3.562 Z-11.214
X4.005 Y3.631 Z-11.218
X3.885 Y3.692 Z-11.223
X3.765 Y3.752 Z-11.228
X3.642 Y3.807 Z-11.232
X3.518 Y3.857 Z-11.237
X3.393 Y3.907 Z-11.242
X3.265 Y3.947 Z-11.246
X3.137 Y3.988 Z-11.251
X3.007 Y4.022 Z-11.256
X2.876 Y4.052 Z-11.26
X2.745 Y4.081 Z-11.265
X2.612 Y4.1 Z-11.27
X2.479 Y4.119 Z-11.275
X2.345 Y4.132 Z-11.279
X2.211 Y4.14 Z-11.284
X2.077 Y4.147 Z-11.289
X1.943 Y4.145 Z-11.293
X1.809 Y4.142 Z-11.298
X1.675 Y4.133 Z-11.303
X1.541 Y4.12 Z-11.307
X1.407 Y4.106 Z-11.312
X1.275 Y4.081 Z-11.317
X1.143 Y4.057 Z-11.321
X1.012 Y4.027 Z-11.326
X0.883 Y3.992 Z-11.331
X0.753 Y3.957 Z-11.335
X0.627 Y3.911 Z-11.34
X0.5 Y3.865 Z-11.345
X0.376 Y3.815 Z-11.35
X0.132 Y3.704 Z-11.359
X0.014 Y3.639 Z-11.364
X-0.103 Y3.573 Z-11.368
X-0.218 Y3.503 Z-11.373
X-0.441 Y3.354 Z-11.382
X-0.547 Y3.271 Z-11.387
X-0.652 Y3.187 Z-11.392
X-0.754 Y3.1 Z-11.396
X-0.95 Y2.916 Z-11.406
X-1.041 Y2.817 Z-11.41
X-1.131 Y2.718 Z-11.415
X-1.218 Y2.616 Z-11.42
X-1.381 Y2.402 Z-11.429
X-1.455 Y2.29 Z-11.434
X-1.528 Y2.177 Z-11.439
X-1.598 Y2.063 Z-11.443
X-1.724 Y1.826 Z-11.453
X-1.779 Y1.703 Z-11.457
X-1.833 Y1.58 Z-11.462
X-1.883 Y1.456 Z-11.467
X-1.969 Y1.201 Z-11.476
X-2.005 Y1.072 Z-11.481
X-2.037 Y0.941 Z-11.485
X-2.067 Y0.811 Z-11.49
X-2.111 Y0.546 Z-11.5
X-2.125 Y0.412 Z-11.504
X-2.136 Y0.278 Z-11.509
X-2.145 Y0.144 Z-11.514
Y-0.124 Z-11.523
X-2.138 Y-0.259 Z-11.528
X-2.127 Y-0.392 Z-11.532
X-2.114 Y-0.526 Z-11.537
X-2.071 Y-0.791 Z-11.546
X-2.042 Y-0.922 Z-11.551
X-2.009 Y-1.052 Z-11.556
X-1.976 Y-1.182 Z-11.561
X-1.89 Y-1.437 Z-11.57
X-1.841 Y-1.562 Z-11.575
X-1.787 Y-1.685 Z-11.579
X-1.733 Y-1.808 Z-11.584
X-1.607 Y-2.045 Z-11.593
X-1.539 Y-2.161 Z-11.598
X-1.466 Y-2.274 Z-11.603
X-1.393 Y-2.386 Z-11.607
X-1.23 Y-2.6 Z-11.617
X-1.144 Y-2.703 Z-11.621
X-0.964 Y-2.902 Z-11.631
X-0.866 Y-2.995 Z-11.636
X-0.768 Y-3.087 Z-11.64
X-0.667 Y-3.175 Z-11.645
X-0.457 Y-3.342 Z-11.654
X-0.346 Y-3.418 Z-11.659
X-0.234 Y-3.492 Z-11.664
X-0.12 Y-3.563 Z-11.668
X-0.003 Y-3.629 Z-11.673
X0.114 Y-3.694 Z-11.678
X0.236 Y-3.751 Z-11.682
X0.358 Y-3.807 Z-11.687
X0.482 Y-3.859 Z-11.692
X0.608 Y-3.904 Z-11.696
X0.734 Y-3.95 Z-11.701
X0.864 Y-3.987 Z-11.706
X0.993 Y-4.022 Z-11.711
X1.124 Y-4.053 Z-11.715
X1.256 Y-4.078 Z-11.72
X1.388 Y-4.102 Z-11.725
X1.521 Y-4.118 Z-11.729
X1.655 Y-4.131 Z-11.734
X1.789 Y-4.142 Z-11.739
X1.923 Y-4.144 Z-11.743
X2.057 Y-4.147 Z-11.748
X2.192 Y-4.141 Z-11.753
X2.326 Y-4.133 Z-11.757
X2.459 Y-4.122 Z-11.762
X2.592 Y-4.102 Z-11.767
X2.725 Y-4.083 Z-11.771
X2.857 Y-4.056 Z-11.776
X2.988 Y-4.026 Z-11.781
X3.118 Y-3.994 Z-11.786
X3.246 Y-3.953 Z-11.79
X3.374 Y-3.913 Z-11.795
X3.5 Y-3.865 Z-11.8
X3.624 Y-3.814 Z-11.804
X3.747 Y-3.761 Z-11.809
X3.867 Y-3.701 Z-11.814
X3.987 Y-3.64 Z-11.818
X4.103 Y-3.573 Z-11.823
X4.218 Y-3.502 Z-11.827
X4.331 Y-3.431 Z-11.832
X4.439 Y-3.351 Z-11.836
X4.548 Y-3.272 Z-11.841
X4.652 Y-3.187 Z-11.845
X4.753 Y-3.099 Z-11.849
X4.854 Y-3.01 Z-11.854
X4.948 Y-2.914 Z-11.858
X5.042 Y-2.818 Z-11.862
X5.131 Y-2.718 Z-11.866
X5.217 Y-2.615 Z-11.87
X5.302 Y-2.511 Z-11.874
X5.379 Y-2.401 Z-11.878
X5.456 Y-2.291 Z-11.882
X5.528 Y-2.178 Z-11.886
X5.596 Y-2.062 Z-11.89
X5.664 Y-1.946 Z-11.894
X5.722 Y-1.825 Z-11.898
X5.78 Y-1.704 Z-11.901
X5.833 Y-1.58 Z-11.905
X5.881 Y-1.455 Z-11.908
X5.93 Y-1.329 Z-11.912
X5.967 Y-1.201 Z-11.915
X6.005 Y-1.072 Z-11.919
X6.038 Y-0.942 Z-11.922
X6.065 Y-0.81 Z-11.925
X6.092 Y-0.679 Z-11.929
X6.109 Y-0.545 Z-11.932
X6.126 Y-0.412 Z-11.935
X6.137 Y-0.278 Z-11.938
X6.143 Y-0.144 Z-11.941
X6.148 Y-0.01 Z-11.944
X6.143 Y0.124 Z-11.946
X6.138 Y0.259 Z-11.949
X6.128 Y0.392 Z-11.952
X6.112 Y0.526 Z-11.955
X6.095 Y0.659 Z-11.957
X6.042 Y0.922 Z-11.962
X5.973 Y1.182 Z-11.967
X5.889 Y1.436 Z-11.971
X5.789 Y1.686 Z-11.975
X5.672 Y1.928 Z-11.979
X5.538 Y2.161 Z-11.983
X5.39 Y2.385 Z-11.986
X5.229 Y2.599 Z-11.989
X5.056 Y2.804 Z-11.991
X4.868 Y2.996 Z-11.994
X4.667 Y3.174 Z-11.995
X4.455 Y3.34 Z-11.997
X4.234 Y3.492 Z-11.998
X4.005 Y3.631 Z-11.999
X3.765 Y3.752 Z-12.
X3.518 Y3.857
X3.494 Y3.867
X3.449 Y3.886
X3.389 Y3.908
X3.142 Y3.986
X2.989 Y4.026
X2.834 Y4.061
X2.682 Y4.09
X2.529 Y4.112
X2.376 Y4.13
X2.223 Y4.139
X2.069 Y4.147
X1.763 Y4.141
X1.609 Y4.127
X1.456 Y4.111
X1.303 Y4.086
X1.15 Y4.058
X0.996 Y4.023
X0.843 Y3.981
X0.69 Y3.934
X0.536 Y3.878
X0.383 Y3.818
X0.23 Y3.748
X0.077 Y3.674
X-0.077 Y3.588
X-0.23 Y3.495
X-0.383 Y3.392
X-0.516 Y3.295
X-0.708 Y3.142
X-0.843 Y3.016
X-0.873 Y2.989
X-0.996 Y2.867
X-1.163 Y2.682
X-1.284 Y2.529
X-1.303 Y2.504
X-1.401 Y2.375
X-1.499 Y2.222
X-1.594 Y2.069
X-1.676 Y1.916
X-1.754 Y1.762
X-1.82 Y1.609
X-1.883 Y1.456
X-1.935 Y1.303
X-1.985 Y1.149
X-2.062 Y0.843
X-2.069 Y0.798
X-2.112 Y0.536
X-2.128 Y0.383
X-2.14 Y0.23
X-2.145 Y0.077
Y-0.077
X-2.14 Y-0.23
X-2.128 Y-0.383
X-2.112 Y-0.536
X-2.069 Y-0.798
X-2.062 Y-0.843
X-1.985 Y-1.149
X-1.935 Y-1.303
X-1.883 Y-1.456
X-1.82 Y-1.609
X-1.754 Y-1.762
X-1.676 Y-1.916
X-1.594 Y-2.069
X-1.499 Y-2.222
X-1.401 Y-2.375
X-1.303 Y-2.504
X-1.284 Y-2.529
X-1.163 Y-2.682
X-0.996 Y-2.867
X-0.873 Y-2.989
X-0.843 Y-3.016
X-0.708 Y-3.142
X-0.516 Y-3.295
X-0.383 Y-3.392
X-0.23 Y-3.495
X-0.077 Y-3.588
X0.077 Y-3.674
X0.23 Y-3.748
X0.383 Y-3.818
X0.536 Y-3.878
X0.69 Y-3.934
X0.843 Y-3.981
X0.996 Y-4.023
X1.15 Y-4.058
X1.303 Y-4.086
X1.456 Y-4.111
X1.609 Y-4.127
X1.763 Y-4.141
X2.069 Y-4.147
X2.223 Y-4.139
X2.376 Y-4.13
X2.459 Y-4.12
X2.529 Y-4.112
X2.682 Y-4.09
X2.834 Y-4.061
X2.989 Y-4.026
X3.142 Y-3.986
X3.389 Y-3.908
X3.449 Y-3.886
X3.602 Y-3.823
X3.755 Y-3.757
X3.909 Y-3.68
X4.056 Y-3.602
X4.306 Y-3.448
X4.369 Y-3.403
X4.522 Y-3.291
X4.675 Y-3.167
X4.828 Y-3.034
X4.875 Y-2.989
X5.025 Y-2.835
X5.135 Y-2.713
X5.288 Y-2.528
X5.397 Y-2.375
X5.442 Y-2.312
X5.502 Y-2.222
X5.595 Y-2.064
X5.678 Y-1.916
X5.752 Y-1.762
X5.822 Y-1.609
X5.901 Y-1.403
X5.937 Y-1.303
X5.982 Y-1.149
X6.027 Y-0.996
X6.09 Y-0.69
X6.11 Y-0.536
X6.129 Y-0.383
X6.139 Y-0.23
X6.145 Y-0.077
Y0.077
X6.139 Y0.23
X6.129 Y0.383
X6.11 Y0.536
X6.09 Y0.69
X6.027 Y0.996
X5.982 Y1.149
X5.937 Y1.303
X5.901 Y1.403
X5.822 Y1.609
X5.752 Y1.762
X5.678 Y1.916
X5.595 Y2.064
X5.502 Y2.222
X5.442 Y2.312
X5.397 Y2.375
X5.288 Y2.528
X5.135 Y2.713
X5.025 Y2.835
X4.875 Y2.989
X4.828 Y3.034
X4.675 Y3.167
X4.522 Y3.291
X4.369 Y3.403
X4.306 Y3.448
X4.056 Y3.602
X3.909 Y3.68
X3.755 Y3.757
X3.602 Y3.823
X3.494 Y3.867
G3 X3.011 Y3.665 I-0.14 J-0.343
G1 X2.984 Y3.598 Z-11.993
X2.958 Y3.533 Z-11.972
X2.934 Y3.474 Z-11.938
X2.912 Y3.422 Z-11.892
X2.895 Y3.38 Z-11.836
X2.882 Y3.348 Z-11.772
X2.874 Y3.329 Z-11.702
X2.872 Y3.322 Z-11.63
G0 Z2.

M9
G53 Z0.
M30
