(3)
(T2  D=3.7 CR=0. - ZMIN=-12. - FLAT END MILL)
G0 G90 G94 G17
G21
G53 Z0.

(OUTER BORDER)
M5
M9
T2
(PART OF A 10 PACK CARBIDE)
S18000 M3
G54
M9
G0 X-13.561 Y-21.258
Z2.
Z1.367
G1 Z-0.63 F33.
X-13.554 Y-21.256 Z-0.702
X-13.534 Y-21.25 Z-0.772
X-13.501 Y-21.24 Z-0.836
X-13.457 Y-21.227 Z-0.892
X-13.403 Y-21.211 Z-0.938
X-13.342 Y-21.193 Z-0.972
X-13.276 Y-21.173 Z-0.993
X-13.206 Y-21.153 Z-1.
X-12.533 Y-20.953
G3 X-12.283 Y-20.493 I-0.105 J0.355
G1 X-12.305 Y-20.405
X-12.333 Y-20.251
X-12.347 Y-20.098
X-12.35 Y-19.944
Y19.944
X-12.347 Y20.098
X-12.333 Y20.251
X-12.305 Y20.405
X-12.283 Y20.493
X-12.264 Y20.558
X-12.238 Y20.635
X-12.208 Y20.711
X-12.174 Y20.788
X-12.135 Y20.865
X-12.129 Y20.876
X-12.089 Y20.947
X-12.045 Y21.018
X-11.976 Y21.115
X-11.932 Y21.172
X-11.879 Y21.233
X-11.822 Y21.294
X-11.791 Y21.325
X-11.73 Y21.382
X-11.669 Y21.434
X-11.612 Y21.479
X-11.515 Y21.546
X-11.443 Y21.591
X-11.371 Y21.632
X-11.362 Y21.637
X-11.285 Y21.675
X-11.208 Y21.709
X-11.131 Y21.739
X-11.055 Y21.765
X-10.985 Y21.785
X-10.901 Y21.806
X-10.748 Y21.833
X-10.594 Y21.848
X-10.441 Y21.85
X10.441
X10.594 Y21.848
X10.748 Y21.833
X10.901 Y21.806
X10.985 Y21.785
X11.055 Y21.765
X11.131 Y21.739
X11.208 Y21.709
X11.285 Y21.675
X11.362 Y21.637
X11.371 Y21.632
X11.443 Y21.591
X11.515 Y21.546
X11.612 Y21.479
X11.669 Y21.434
X11.73 Y21.382
X11.791 Y21.325
X11.822 Y21.294
X11.879 Y21.233
X11.932 Y21.172
X11.976 Y21.115
X12.045 Y21.018
X12.089 Y20.947
X12.129 Y20.876
X12.135 Y20.865
X12.174 Y20.788
X12.208 Y20.711
X12.238 Y20.635
X12.264 Y20.558
X12.283 Y20.493
X12.305 Y20.405
X12.333 Y20.251
X12.347 Y20.098
X12.35 Y19.944
Y-19.944
X12.347 Y-20.098
X12.333 Y-20.251
X12.305 Y-20.405
X12.283 Y-20.493
X12.264 Y-20.558
X12.238 Y-20.635
X12.208 Y-20.711
X12.174 Y-20.788
X12.135 Y-20.865
X12.129 Y-20.876
X12.089 Y-20.947
X12.045 Y-21.018
X11.976 Y-21.115
X11.932 Y-21.172
X11.879 Y-21.233
X11.822 Y-21.294
X11.791 Y-21.325
X11.73 Y-21.382
X11.669 Y-21.434
X11.612 Y-21.479
X11.515 Y-21.546
X11.443 Y-21.591
X11.371 Y-21.632
X11.362 Y-21.637
X11.285 Y-21.675
X11.208 Y-21.709
X11.131 Y-21.739
X11.055 Y-21.765
X10.985 Y-21.785
X10.901 Y-21.806
X10.748 Y-21.833
X10.594 Y-21.848
X10.441 Y-21.85
X-10.441
X-10.594 Y-21.848
X-10.748 Y-21.833
X-10.901 Y-21.806
X-10.985 Y-21.785
X-11.055 Y-21.765
X-11.131 Y-21.739
X-11.208 Y-21.709
X-11.285 Y-21.675
X-11.362 Y-21.637
X-11.371 Y-21.632
X-11.443 Y-21.591
X-11.515 Y-21.546
X-11.612 Y-21.479
X-11.669 Y-21.434
X-11.73 Y-21.382
X-11.791 Y-21.325
X-11.822 Y-21.294
X-11.879 Y-21.233
X-11.932 Y-21.172
X-11.976 Y-21.115
X-12.045 Y-21.018
X-12.089 Y-20.947
X-12.129 Y-20.876
X-12.135 Y-20.865
X-12.174 Y-20.788
X-12.208 Y-20.711
X-12.238 Y-20.635
X-12.264 Y-20.558
X-12.283 Y-20.493
X-12.314 Y-20.362
X-12.336 Y-20.228
X-12.348 Y-20.093
X-12.35 Y-19.958 Z-1.001
Y-19.687 Z-1.002
Y-19.416 Z-1.003
Y-19.146 Z-1.004
Y-18.875 Z-1.006
Y-18.604 Z-1.009
Y-18.334 Z-1.011
Y-18.063 Z-1.014
Y-17.792 Z-1.017
Y-17.521 Z-1.021
Y-17.251 Z-1.025
Y-16.98 Z-1.029
Y-16.709 Z-1.033
Y-16.439 Z-1.038
Y-16.168 Z-1.043
Y-16.033 Z-1.046
Y-15.897 Z-1.048
Y-15.762 Z-1.051
Y-15.627 Z-1.054
Y-15.491 Z-1.057
Y-15.356 Z-1.06
Y-15.221 Z-1.063
Y-15.085 Z-1.066
Y-14.95 Z-1.069
Y-14.814 Z-1.072
Y-14.679 Z-1.075
Y-14.544 Z-1.078
Y-14.408 Z-1.082
Y-14.273 Z-1.085
Y-14.138 Z-1.089
Y-14.002 Z-1.092
Y-13.867 Z-1.096
Y-13.732 Z-1.1
Y-13.596 Z-1.103
Y-13.461 Z-1.107
Y-13.326 Z-1.111
Y-13.19 Z-1.115
Y-13.055 Z-1.119
Y-12.92 Z-1.123
Y-12.784 Z-1.127
Y-12.649 Z-1.131
Y-12.513 Z-1.135
Y-12.378 Z-1.139
Y-12.243 Z-1.143
Y-12.107 Z-1.148
Y-11.972 Z-1.152
Y-11.837 Z-1.156
Y-11.701 Z-1.161
Y-11.566 Z-1.165
Y-11.431 Z-1.17
Y-11.295 Z-1.174
Y-11.16 Z-1.179
Y-11.025 Z-1.183
Y-10.889 Z-1.188
Y-10.619 Z-1.198
Y-10.483 Z-1.202
Y-10.348 Z-1.207
Y-10.213 Z-1.212
Y-10.077 Z-1.216
Y-9.942 Z-1.221
Y-9.806 Z-1.226
Y-9.671 Z-1.231
Y-9.536 Z-1.235
Y-9.4 Z-1.24
Y-9.265 Z-1.245
Y-9.13 Z-1.25
Y-8.994 Z-1.254
Y-8.859 Z-1.259
Y-8.724 Z-1.264
Y-8.588 Z-1.268
Y-8.453 Z-1.273
Y-8.318 Z-1.278
Y-8.182 Z-1.283
Y-8.047 Z-1.287
Y-7.912 Z-1.292
Y-7.776 Z-1.297
Y-7.641 Z-1.302
Y-7.505 Z-1.306
Y-7.37 Z-1.311
Y-7.235 Z-1.316
Y-7.099 Z-1.32
Y-6.964 Z-1.325
Y-6.829 Z-1.33
Y-6.558 Z-1.339
Y-6.152 Z-1.354
Y-5.746 Z-1.368
Y-5.34 Z-1.382
Y-4.934 Z-1.396
Y-4.528 Z-1.41
Y-3.851 Z-1.434
Y-3.174 Z-1.457
Y-1.821 Z-1.505
Y1.563 Z-1.623
Y1.969 Z-1.637
Y2.375 Z-1.651
Y2.781 Z-1.665
Y2.917 Z-1.67
Y3.052 Z-1.675
Y3.187 Z-1.68
Y3.323 Z-1.684
Y3.458 Z-1.689
Y3.593 Z-1.694
Y3.729 Z-1.699
Y3.864 Z-1.703
Y3.999 Z-1.708
Y4.135 Z-1.713
Y4.27 Z-1.717
Y4.405 Z-1.722
Y4.541 Z-1.727
Y4.676 Z-1.732
Y4.811 Z-1.736
Y4.947 Z-1.741
Y5.082 Z-1.746
Y5.217 Z-1.75
Y5.353 Z-1.755
Y5.488 Z-1.76
Y5.624 Z-1.765
Y5.759 Z-1.769
Y5.894 Z-1.774
Y6.03 Z-1.779
Y6.165 Z-1.784
Y6.3 Z-1.788
Y6.436 Z-1.793
Y6.571 Z-1.798
Y6.706 Z-1.802
Y6.977 Z-1.812
Y7.112 Z-1.817
Y7.248 Z-1.821
Y7.383 Z-1.826
Y7.518 Z-1.83
Y7.654 Z-1.835
Y7.789 Z-1.839
Y7.925 Z-1.844
Y8.06 Z-1.848
Y8.195 Z-1.852
Y8.331 Z-1.857
Y8.466 Z-1.861
Y8.601 Z-1.865
Y8.737 Z-1.869
Y8.872 Z-1.873
Y9.007 Z-1.877
Y9.143 Z-1.881
Y9.278 Z-1.885
Y9.413 Z-1.889
Y9.549 Z-1.893
Y9.684 Z-1.897
Y9.819 Z-1.9
Y9.955 Z-1.904
Y10.09 Z-1.908
Y10.225 Z-1.911
Y10.361 Z-1.915
Y10.496 Z-1.918
Y10.632 Z-1.922
Y10.767 Z-1.925
Y10.902 Z-1.928
Y11.038 Z-1.931
Y11.173 Z-1.934
Y11.308 Z-1.937
Y11.444 Z-1.94
Y11.579 Z-1.943
Y11.714 Z-1.946
Y11.85 Z-1.949
Y11.985 Z-1.952
Y12.12 Z-1.954
Y12.256 Z-1.957
Y12.526 Z-1.962
Y12.797 Z-1.967
Y13.068 Z-1.971
Y13.339 Z-1.975
Y13.609 Z-1.979
Y13.88 Z-1.983
Y14.151 Z-1.986
Y14.421 Z-1.989
Y14.692 Z-1.991
Y14.963 Z-1.994
Y15.233 Z-1.996
Y15.504 Z-1.997
Y15.775 Z-1.998
Y16.046 Z-1.999
Y16.316 Z-2.
Y16.587
Y19.944
X-12.347 Y20.098
X-12.333 Y20.251
X-12.305 Y20.405
X-12.283 Y20.493
X-12.264 Y20.558
X-12.238 Y20.635
X-12.208 Y20.711
X-12.174 Y20.788
X-12.135 Y20.865
X-12.129 Y20.876
X-12.089 Y20.947
X-12.045 Y21.018
X-11.976 Y21.115
X-11.932 Y21.172
X-11.879 Y21.233
X-11.822 Y21.294
X-11.791 Y21.325
X-11.73 Y21.382
X-11.669 Y21.434
X-11.612 Y21.479
X-11.515 Y21.546
X-11.443 Y21.591
X-11.371 Y21.632
X-11.362 Y21.637
X-11.285 Y21.675
X-11.208 Y21.709
X-11.131 Y21.739
X-11.055 Y21.765
X-10.985 Y21.785
X-10.901 Y21.806
X-10.748 Y21.833
X-10.594 Y21.848
X-10.441 Y21.85
X10.441
X10.594 Y21.848
X10.748 Y21.833
X10.901 Y21.806
X10.985 Y21.785
X11.055 Y21.765
X11.131 Y21.739
X11.208 Y21.709
X11.285 Y21.675
X11.362 Y21.637
X11.371 Y21.632
X11.443 Y21.591
X11.515 Y21.546
X11.612 Y21.479
X11.669 Y21.434
X11.73 Y21.382
X11.791 Y21.325
X11.822 Y21.294
X11.879 Y21.233
X11.932 Y21.172
X11.976 Y21.115
X12.045 Y21.018
X12.089 Y20.947
X12.129 Y20.876
X12.135 Y20.865
X12.174 Y20.788
X12.208 Y20.711
X12.238 Y20.635
X12.264 Y20.558
X12.283 Y20.493
X12.305 Y20.405
X12.333 Y20.251
X12.347 Y20.098
X12.35 Y19.944
Y-19.944
X12.347 Y-20.098
X12.333 Y-20.251
X12.305 Y-20.405
X12.283 Y-20.493
X12.264 Y-20.558
X12.238 Y-20.635
X12.208 Y-20.711
X12.174 Y-20.788
X12.135 Y-20.865
X12.129 Y-20.876
X12.089 Y-20.947
X12.045 Y-21.018
X11.976 Y-21.115
X11.932 Y-21.172
X11.879 Y-21.233
X11.822 Y-21.294
X11.791 Y-21.325
X11.73 Y-21.382
X11.669 Y-21.434
X11.612 Y-21.479
X11.515 Y-21.546
X11.443 Y-21.591
X11.371 Y-21.632
X11.362 Y-21.637
X11.285 Y-21.675
X11.208 Y-21.709
X11.131 Y-21.739
X11.055 Y-21.765
X10.985 Y-21.785
X10.901 Y-21.806
X10.748 Y-21.833
X10.594 Y-21.848
X10.441 Y-21.85
X-10.441
X-10.594 Y-21.848
X-10.748 Y-21.833
X-10.901 Y-21.806
X-10.985 Y-21.785
X-11.055 Y-21.765
X-11.131 Y-21.739
X-11.208 Y-21.709
X-11.285 Y-21.675
X-11.362 Y-21.637
X-11.371 Y-21.632
X-11.443 Y-21.591
X-11.515 Y-21.546
X-11.612 Y-21.479
X-11.669 Y-21.434
X-11.73 Y-21.382
X-11.791 Y-21.325
X-11.822 Y-21.294
X-11.879 Y-21.233
X-11.932 Y-21.172
X-11.976 Y-21.115
X-12.045 Y-21.018
X-12.089 Y-20.947
X-12.129 Y-20.876
X-12.135 Y-20.865
X-12.174 Y-20.788
X-12.208 Y-20.711
X-12.238 Y-20.635
X-12.264 Y-20.558
X-12.283 Y-20.493
X-12.305 Y-20.405
X-12.333 Y-20.251
X-12.347 Y-20.098
X-12.35 Y-19.944
Y16.587
Y16.858
Y17.128 Z-2.001
Y17.399 Z-2.002
Y17.67 Z-2.003
Y17.94 Z-2.004
Y18.211 Z-2.006
Y18.482 Z-2.009
Y18.752 Z-2.011
Y19.023 Z-2.014
Y19.294 Z-2.017
Y19.565 Z-2.021
Y19.835 Z-2.025
X-12.347 Y20.106 Z-2.029
X-12.334 Y20.241 Z-2.031
X-12.312 Y20.374 Z-2.033
X-12.28 Y20.506 Z-2.036
X-12.238 Y20.634 Z-2.038
X-12.187 Y20.76 Z-2.04
X-12.127 Y20.881 Z-2.043
X-12.058 Y20.998 Z-2.046
X-11.981 Y21.109 Z-2.048
X-11.896 Y21.214 Z-2.051
X-11.803 Y21.313 Z-2.054
X-11.704 Y21.405 Z-2.057
X-11.598 Y21.489 Z-2.06
X-11.486 Y21.565 Z-2.063
X-11.369 Y21.633 Z-2.066
X-11.247 Y21.692 Z-2.069
X-11.122 Y21.742 Z-2.072
X-10.993 Y21.783 Z-2.075
X-10.861 Y21.814 Z-2.078
X-10.727 Y21.836 Z-2.082
X-10.593 Y21.848 Z-2.085
X-10.457 Y21.85 Z-2.089
X-10.322 Z-2.092
X-10.187 Z-2.096
X-10.051 Z-2.1
X-9.916 Z-2.103
X-9.78 Z-2.107
X-9.645 Z-2.111
X-9.51 Z-2.115
X-9.374 Z-2.119
X-9.239 Z-2.123
X-9.104 Z-2.127
X-8.968 Z-2.131
X-8.833 Z-2.135
X-8.698 Z-2.139
X-8.562 Z-2.143
X-8.427 Z-2.148
X-8.292 Z-2.152
X-8.156 Z-2.156
X-8.021 Z-2.161
X-7.886 Z-2.165
X-7.75 Z-2.17
X-7.615 Z-2.174
X-7.48 Z-2.179
X-7.344 Z-2.183
X-7.209 Z-2.188
X-6.938 Z-2.198
X-6.803 Z-2.202
X-6.667 Z-2.207
X-6.532 Z-2.212
X-6.397 Z-2.216
X-6.261 Z-2.221
X-6.126 Z-2.226
X-5.991 Z-2.231
X-5.855 Z-2.235
X-5.72 Z-2.24
X-5.585 Z-2.245
X-5.449 Z-2.25
X-5.314 Z-2.254
X-5.179 Z-2.259
X-5.043 Z-2.264
X-4.908 Z-2.268
X-4.773 Z-2.273
X-4.637 Z-2.278
X-4.502 Z-2.283
X-4.366 Z-2.287
X-4.231 Z-2.292
X-4.096 Z-2.297
X-3.96 Z-2.302
X-3.825 Z-2.306
X-3.69 Z-2.311
X-3.554 Z-2.316
X-3.419 Z-2.32
X-3.284 Z-2.325
X-3.148 Z-2.33
X-2.878 Z-2.339
X-2.472 Z-2.354
X-2.065 Z-2.368
X-1.659 Z-2.382
X-1.253 Z-2.396
X-0.847 Z-2.41
X-0.171 Z-2.434
X0.506 Z-2.457
X1.86 Z-2.505
X5.243 Z-2.623
X5.65 Z-2.637
X6.056 Z-2.651
X6.462 Z-2.665
X6.597 Z-2.67
X6.732 Z-2.675
X6.868 Z-2.68
X7.003 Z-2.684
X7.138 Z-2.689
X7.274 Z-2.694
X7.409 Z-2.699
X7.544 Z-2.703
X7.68 Z-2.708
X7.815 Z-2.713
X7.95 Z-2.717
X8.086 Z-2.722
X8.221 Z-2.727
X8.357 Z-2.732
X8.492 Z-2.736
X8.627 Z-2.741
X8.763 Z-2.746
X8.898 Z-2.75
X9.033 Z-2.755
X9.169 Z-2.76
X9.304 Z-2.765
X9.439 Z-2.769
X9.575 Z-2.774
X9.71 Z-2.779
X9.845 Z-2.784
X9.981 Z-2.788
X10.116 Z-2.793
X10.251 Z-2.798
X10.387 Z-2.802
X10.522 Z-2.807
X10.657 Y21.843 Z-2.812
X10.792 Y21.827 Z-2.817
X10.925 Y21.801 Z-2.821
X11.055 Y21.765 Z-2.826
X11.183 Y21.719 Z-2.83
X11.306 Y21.665 Z-2.835
X11.426 Y21.602 Z-2.839
X11.541 Y21.53 Z-2.844
X11.65 Y21.449 Z-2.848
X11.753 Y21.362 Z-2.852
X11.849 Y21.266 Z-2.857
X11.938 Y21.164 Z-2.861
X12.019 Y21.056 Z-2.865
X12.092 Y20.942 Z-2.869
X12.157 Y20.823 Z-2.873
X12.212 Y20.7 Z-2.877
X12.259 Y20.573 Z-2.881
X12.296 Y20.443 Z-2.885
X12.324 Y20.31 Z-2.889
X12.342 Y20.176 Z-2.893
X12.35 Y20.041 Z-2.897
Y19.906 Z-2.9
Y19.77 Z-2.904
Y19.635 Z-2.908
Y19.5 Z-2.911
Y19.364 Z-2.915
Y19.229 Z-2.918
Y19.094 Z-2.922
Y18.958 Z-2.925
Y18.823 Z-2.928
Y18.688 Z-2.931
Y18.552 Z-2.934
Y18.417 Z-2.937
Y18.281 Z-2.94
Y18.146 Z-2.943
Y18.011 Z-2.946
Y17.875 Z-2.949
Y17.74 Z-2.952
Y17.605 Z-2.954
Y17.469 Z-2.957
Y17.199 Z-2.962
Y16.928 Z-2.967
Y16.657 Z-2.971
Y16.387 Z-2.975
Y16.116 Z-2.979
Y15.845 Z-2.983
Y15.574 Z-2.986
Y15.304 Z-2.989
Y15.033 Z-2.991
Y14.762 Z-2.994
Y14.492 Z-2.996
Y14.221 Z-2.997
Y13.95 Z-2.998
Y13.68 Z-2.999
Y13.409 Z-3.
Y13.138
Y-19.944
X12.347 Y-20.098
X12.333 Y-20.251
X12.305 Y-20.405
X12.283 Y-20.493
X12.264 Y-20.558
X12.238 Y-20.635
X12.208 Y-20.711
X12.174 Y-20.788
X12.135 Y-20.865
X12.129 Y-20.876
X12.089 Y-20.947
X12.045 Y-21.018
X11.976 Y-21.115
X11.932 Y-21.172
X11.879 Y-21.233
X11.822 Y-21.294
X11.791 Y-21.325
X11.73 Y-21.382
X11.669 Y-21.434
X11.612 Y-21.479
X11.515 Y-21.546
X11.443 Y-21.591
X11.371 Y-21.632
X11.362 Y-21.637
X11.285 Y-21.675
X11.208 Y-21.709
X11.131 Y-21.739
X11.055 Y-21.765
X10.985 Y-21.785
X10.901 Y-21.806
X10.748 Y-21.833
X10.594 Y-21.848
X10.441 Y-21.85
X-10.441
X-10.594 Y-21.848
X-10.748 Y-21.833
X-10.901 Y-21.806
X-10.985 Y-21.785
X-11.055 Y-21.765
X-11.131 Y-21.739
X-11.208 Y-21.709
X-11.285 Y-21.675
X-11.362 Y-21.637
X-11.371 Y-21.632
X-11.443 Y-21.591
X-11.515 Y-21.546
X-11.612 Y-21.479
X-11.669 Y-21.434
X-11.73 Y-21.382
X-11.791 Y-21.325
X-11.822 Y-21.294
X-11.879 Y-21.233
X-11.932 Y-21.172
X-11.976 Y-21.115
X-12.045 Y-21.018
X-12.089 Y-20.947
X-12.129 Y-20.876
X-12.135 Y-20.865
X-12.174 Y-20.788
X-12.208 Y-20.711
X-12.238 Y-20.635
X-12.264 Y-20.558
X-12.283 Y-20.493
X-12.305 Y-20.405
X-12.333 Y-20.251
X-12.347 Y-20.098
X-12.35 Y-19.944
Y16.587
Y19.944
X-12.347 Y20.098
X-12.333 Y20.251
X-12.305 Y20.405
X-12.283 Y20.493
X-12.264 Y20.558
X-12.238 Y20.635
X-12.208 Y20.711
X-12.174 Y20.788
X-12.135 Y20.865
X-12.129 Y20.876
X-12.089 Y20.947
X-12.045 Y21.018
X-11.976 Y21.115
X-11.932 Y21.172
X-11.879 Y21.233
X-11.822 Y21.294
X-11.791 Y21.325
X-11.73 Y21.382
X-11.669 Y21.434
X-11.612 Y21.479
X-11.515 Y21.546
X-11.443 Y21.591
X-11.371 Y21.632
X-11.362 Y21.637
X-11.285 Y21.675
X-11.208 Y21.709
X-11.131 Y21.739
X-11.055 Y21.765
X-10.985 Y21.785
X-10.901 Y21.806
X-10.748 Y21.833
X-10.594 Y21.848
X-10.441 Y21.85
X10.441
X10.594 Y21.848
X10.748 Y21.833
X10.901 Y21.806
X10.985 Y21.785
X11.055 Y21.765
X11.131 Y21.739
X11.208 Y21.709
X11.285 Y21.675
X11.362 Y21.637
X11.371 Y21.632
X11.443 Y21.591
X11.515 Y21.546
X11.612 Y21.479
X11.669 Y21.434
X11.73 Y21.382
X11.791 Y21.325
X11.822 Y21.294
X11.879 Y21.233
X11.932 Y21.172
X11.976 Y21.115
X12.045 Y21.018
X12.089 Y20.947
X12.129 Y20.876
X12.135 Y20.865
X12.174 Y20.788
X12.208 Y20.711
X12.238 Y20.635
X12.264 Y20.558
X12.283 Y20.493
X12.305 Y20.405
X12.333 Y20.251
X12.347 Y20.098
X12.35 Y19.944
Y13.138
Y12.868
Y12.597 Z-3.001
Y12.326 Z-3.002
Y12.055 Z-3.003
Y11.785 Z-3.004
Y11.514 Z-3.006
Y11.243 Z-3.009
Y10.973 Z-3.011
Y10.702 Z-3.014
Y10.431 Z-3.017
Y10.161 Z-3.021
Y9.89 Z-3.025
Y9.619 Z-3.029
Y9.348 Z-3.033
Y9.078 Z-3.038
Y8.807 Z-3.043
Y8.672 Z-3.046
Y8.536 Z-3.048
Y8.401 Z-3.051
Y8.266 Z-3.054
Y8.13 Z-3.057
Y7.995 Z-3.06
Y7.86 Z-3.063
Y7.724 Z-3.066
Y7.589 Z-3.069
Y7.454 Z-3.072
Y7.318 Z-3.075
Y7.183 Z-3.078
Y7.048 Z-3.082
Y6.912 Z-3.085
Y6.777 Z-3.089
Y6.641 Z-3.092
Y6.506 Z-3.096
Y6.371 Z-3.1
Y6.235 Z-3.103
Y6.1 Z-3.107
Y5.965 Z-3.111
Y5.829 Z-3.115
Y5.694 Z-3.119
Y5.559 Z-3.123
Y5.423 Z-3.127
Y5.288 Z-3.131
Y5.153 Z-3.135
Y5.017 Z-3.139
Y4.882 Z-3.143
Y4.747 Z-3.148
Y4.611 Z-3.152
Y4.476 Z-3.156
Y4.34 Z-3.161
Y4.205 Z-3.165
Y4.07 Z-3.17
Y3.934 Z-3.174
Y3.799 Z-3.179
Y3.664 Z-3.183
Y3.528 Z-3.188
Y3.258 Z-3.198
Y3.122 Z-3.202
Y2.987 Z-3.207
Y2.852 Z-3.212
Y2.716 Z-3.216
Y2.581 Z-3.221
Y2.446 Z-3.226
Y2.31 Z-3.231
Y2.175 Z-3.235
Y2.04 Z-3.24
Y1.904 Z-3.245
Y1.769 Z-3.25
Y1.633 Z-3.254
Y1.498 Z-3.259
Y1.363 Z-3.264
Y1.227 Z-3.268
Y1.092 Z-3.273
Y0.957 Z-3.278
Y0.821 Z-3.283
Y0.686 Z-3.287
Y0.551 Z-3.292
Y0.415 Z-3.297
Y0.28 Z-3.302
Y0.145 Z-3.306
Y0.009 Z-3.311
Y-0.126 Z-3.316
Y-0.261 Z-3.32
Y-0.397 Z-3.325
Y-0.532 Z-3.33
Y-0.803 Z-3.339
Y-1.209 Z-3.354
Y-1.615 Z-3.368
Y-2.021 Z-3.382
Y-2.427 Z-3.396
Y-2.833 Z-3.41
Y-3.51 Z-3.434
Y-4.187 Z-3.457
Y-5.54 Z-3.505
Y-8.924 Z-3.623
Y-9.33 Z-3.637
Y-9.736 Z-3.651
Y-10.142 Z-3.665
Y-10.277 Z-3.67
Y-10.413 Z-3.675
Y-10.548 Z-3.68
Y-10.683 Z-3.684
Y-10.819 Z-3.689
Y-10.954 Z-3.694
Y-11.09 Z-3.699
Y-11.225 Z-3.703
Y-11.36 Z-3.708
Y-11.496 Z-3.713
Y-11.631 Z-3.717
Y-11.766 Z-3.722
Y-11.902 Z-3.727
Y-12.037 Z-3.732
Y-12.172 Z-3.736
Y-12.308 Z-3.741
Y-12.443 Z-3.746
Y-12.578 Z-3.75
Y-12.714 Z-3.755
Y-12.849 Z-3.76
Y-12.984 Z-3.765
Y-13.12 Z-3.769
Y-13.255 Z-3.774
Y-13.391 Z-3.779
Y-13.526 Z-3.784
Y-13.661 Z-3.788
Y-13.797 Z-3.793
Y-13.932 Z-3.798
Y-14.067 Z-3.802
Y-14.338 Z-3.812
Y-14.473 Z-3.817
Y-14.609 Z-3.821
Y-14.744 Z-3.826
Y-14.879 Z-3.83
Y-15.015 Z-3.835
Y-15.15 Z-3.839
Y-15.285 Z-3.844
Y-15.421 Z-3.848
Y-15.556 Z-3.852
Y-15.691 Z-3.857
Y-15.827 Z-3.861
Y-15.962 Z-3.865
Y-16.098 Z-3.869
Y-16.233 Z-3.873
Y-16.368 Z-3.877
Y-16.504 Z-3.881
Y-16.639 Z-3.885
Y-16.774 Z-3.889
Y-16.91 Z-3.893
Y-17.045 Z-3.897
Y-17.18 Z-3.9
Y-17.316 Z-3.904
Y-17.451 Z-3.908
Y-17.586 Z-3.911
Y-17.722 Z-3.915
Y-17.857 Z-3.918
Y-17.992 Z-3.922
Y-18.128 Z-3.925
Y-18.263 Z-3.928
Y-18.398 Z-3.931
Y-18.534 Z-3.934
Y-18.669 Z-3.937
Y-18.805 Z-3.94
Y-18.94 Z-3.943
Y-19.075 Z-3.946
Y-19.211 Z-3.949
Y-19.346 Z-3.952
Y-19.481 Z-3.954
Y-19.617 Z-3.957
Y-19.887 Z-3.962
Y-20.023 Z-3.964
X12.343 Y-20.158 Z-3.967
X12.327 Y-20.292 Z-3.969
X12.301 Y-20.425 Z-3.971
X12.265 Y-20.556 Z-3.973
X12.219 Y-20.683 Z-3.975
X12.165 Y-20.807 Z-3.977
X12.101 Y-20.926 Z-3.979
X12.029 Y-21.041 Z-3.981
X11.949 Y-21.15 Z-3.983
X11.861 Y-21.253 Z-3.984
X11.766 Y-21.349 Z-3.986
X11.664 Y-21.438 Z-3.987
X11.556 Y-21.519 Z-3.989
X11.442 Y-21.592 Z-3.99
X11.323 Y-21.657 Z-3.991
X11.2 Y-21.713 Z-3.993
X11.072 Y-21.759 Z-3.994
X10.942 Y-21.796 Z-3.995
X10.81 Y-21.824 Z-3.996
X10.676 Y-21.842
X10.54 Y-21.85 Z-3.997
X10.27 Z-3.998
X9.999 Z-3.999
X9.728 Z-4.
X9.458
X-10.441
X-10.594 Y-21.848
X-10.748 Y-21.833
X-10.901 Y-21.806
X-10.985 Y-21.785
X-11.055 Y-21.765
X-11.131 Y-21.739
X-11.208 Y-21.709
X-11.285 Y-21.675
X-11.362 Y-21.637
X-11.371 Y-21.632
X-11.443 Y-21.591
X-11.515 Y-21.546
X-11.612 Y-21.479
X-11.669 Y-21.434
X-11.73 Y-21.382
X-11.791 Y-21.325
X-11.822 Y-21.294
X-11.879 Y-21.233
X-11.932 Y-21.172
X-11.976 Y-21.115
X-12.045 Y-21.018
X-12.089 Y-20.947
X-12.129 Y-20.876
X-12.135 Y-20.865
X-12.174 Y-20.788
X-12.208 Y-20.711
X-12.238 Y-20.635
X-12.264 Y-20.558
X-12.283 Y-20.493
X-12.305 Y-20.405
X-12.333 Y-20.251
X-12.347 Y-20.098
X-12.35 Y-19.944
Y19.944
X-12.347 Y20.098
X-12.333 Y20.251
X-12.305 Y20.405
X-12.283 Y20.493
X-12.264 Y20.558
X-12.238 Y20.635
X-12.208 Y20.711
X-12.174 Y20.788
X-12.135 Y20.865
X-12.129 Y20.876
X-12.089 Y20.947
X-12.045 Y21.018
X-11.976 Y21.115
X-11.932 Y21.172
X-11.879 Y21.233
X-11.822 Y21.294
X-11.791 Y21.325
X-11.73 Y21.382
X-11.669 Y21.434
X-11.612 Y21.479
X-11.515 Y21.546
X-11.443 Y21.591
X-11.371 Y21.632
X-11.362 Y21.637
X-11.285 Y21.675
X-11.208 Y21.709
X-11.131 Y21.739
X-11.055 Y21.765
X-10.985 Y21.785
X-10.901 Y21.806
X-10.748 Y21.833
X-10.594 Y21.848
X-10.441 Y21.85
X10.441
X10.594 Y21.848
X10.748 Y21.833
X10.901 Y21.806
X10.985 Y21.785
X11.055 Y21.765
X11.131 Y21.739
X11.208 Y21.709
X11.285 Y21.675
X11.362 Y21.637
X11.371 Y21.632
X11.443 Y21.591
X11.515 Y21.546
X11.612 Y21.479
X11.669 Y21.434
X11.73 Y21.382
X11.791 Y21.325
X11.822 Y21.294
X11.879 Y21.233
X11.932 Y21.172
X11.976 Y21.115
X12.045 Y21.018
X12.089 Y20.947
X12.129 Y20.876
X12.135 Y20.865
X12.174 Y20.788
X12.208 Y20.711
X12.238 Y20.635
X12.264 Y20.558
X12.283 Y20.493
X12.305 Y20.405
X12.333 Y20.251
X12.347 Y20.098
X12.35 Y19.944
Y-19.944
X12.347 Y-20.098
X12.333 Y-20.251
X12.305 Y-20.405
X12.283 Y-20.493
X12.264 Y-20.558
X12.238 Y-20.635
X12.208 Y-20.711
X12.174 Y-20.788
X12.135 Y-20.865
X12.129 Y-20.876
X12.089 Y-20.947
X12.045 Y-21.018
X11.976 Y-21.115
X11.932 Y-21.172
X11.879 Y-21.233
X11.822 Y-21.294
X11.791 Y-21.325
X11.73 Y-21.382
X11.669 Y-21.434
X11.612 Y-21.479
X11.515 Y-21.546
X11.443 Y-21.591
X11.371 Y-21.632
X11.362 Y-21.637
X11.285 Y-21.675
X11.208 Y-21.709
X11.131 Y-21.739
X11.055 Y-21.765
X10.985 Y-21.785
X10.901 Y-21.806
X10.748 Y-21.833
X10.594 Y-21.848
X10.441 Y-21.85
X9.458
X9.187
X8.916 Z-4.001
X8.646 Z-4.002
X8.375 Z-4.003
X8.104 Z-4.004
X7.834 Z-4.006
X7.563 Z-4.009
X7.292 Z-4.011
X7.022 Z-4.014
X6.751 Z-4.017
X6.48 Z-4.021
X6.209 Z-4.025
X5.939 Z-4.029
X5.668 Z-4.033
X5.397 Z-4.038
X5.127 Z-4.043
X4.991 Z-4.046
X4.856 Z-4.048
X4.721 Z-4.051
X4.585 Z-4.054
X4.45 Z-4.057
X4.315 Z-4.06
X4.179 Z-4.063
X4.044 Z-4.066
X3.908 Z-4.069
X3.773 Z-4.072
X3.638 Z-4.075
X3.502 Z-4.078
X3.367 Z-4.082
X3.232 Z-4.085
X3.096 Z-4.089
X2.961 Z-4.092
X2.826 Z-4.096
X2.69 Z-4.1
X2.555 Z-4.103
X2.42 Z-4.107
X2.284 Z-4.111
X2.149 Z-4.115
X2.014 Z-4.119
X1.878 Z-4.123
X1.743 Z-4.127
X1.607 Z-4.131
X1.472 Z-4.135
X1.337 Z-4.139
X1.201 Z-4.143
X1.066 Z-4.148
X0.931 Z-4.152
X0.795 Z-4.156
X0.66 Z-4.161
X0.525 Z-4.165
X0.389 Z-4.17
X0.254 Z-4.174
X0.119 Z-4.179
X-0.017 Z-4.183
X-0.152 Z-4.188
X-0.423 Z-4.198
X-0.558 Z-4.202
X-0.693 Z-4.207
X-0.829 Z-4.212
X-0.964 Z-4.216
X-1.1 Z-4.221
X-1.235 Z-4.226
X-1.37 Z-4.231
X-1.506 Z-4.235
X-1.641 Z-4.24
X-1.776 Z-4.245
X-1.912 Z-4.25
X-2.047 Z-4.254
X-2.182 Z-4.259
X-2.318 Z-4.264
X-2.453 Z-4.268
X-2.588 Z-4.273
X-2.724 Z-4.278
X-2.859 Z-4.283
X-2.994 Z-4.287
X-3.13 Z-4.292
X-3.265 Z-4.297
X-3.401 Z-4.302
X-3.536 Z-4.306
X-3.671 Z-4.311
X-3.807 Z-4.316
X-3.942 Z-4.32
X-4.077 Z-4.325
X-4.213 Z-4.33
X-4.483 Z-4.339
X-4.889 Z-4.354
X-5.295 Z-4.368
X-5.701 Z-4.382
X-6.108 Z-4.396
X-6.514 Z-4.41
X-7.19 Z-4.434
X-7.867 Z-4.457
X-9.221 Z-4.505
X-10.439 Z-4.547
X-10.574 Y-21.849 Z-4.552
X-10.709 Y-21.838 Z-4.557
X-10.843 Y-21.818 Z-4.561
X-10.975 Y-21.788 Z-4.566
X-11.104 Y-21.749 Z-4.571
X-11.231 Y-21.7 Z-4.576
X-11.353 Y-21.642 Z-4.58
X-11.471 Y-21.575 Z-4.585
X-11.583 Y-21.5 Z-4.59
X-11.69 Y-21.417 Z-4.595
X-11.79 Y-21.326 Z-4.599
X-11.884 Y-21.228 Z-4.604
X-11.97 Y-21.124 Z-4.609
X-12.048 Y-21.013 Z-4.613
X-12.118 Y-20.897 Z-4.618
X-12.179 Y-20.777 Z-4.623
X-12.231 Y-20.652 Z-4.628
X-12.274 Y-20.523 Z-4.632
X-12.308 Y-20.392 Z-4.637
X-12.332 Y-20.259 Z-4.642
X-12.346 Y-20.124 Z-4.646
X-12.35 Y-19.989 Z-4.651
Y-19.583 Z-4.665
Y-19.448 Z-4.67
Y-19.312 Z-4.675
Y-19.177 Z-4.68
Y-19.042 Z-4.684
Y-18.906 Z-4.689
Y-18.771 Z-4.694
Y-18.636 Z-4.698
Y-18.5 Z-4.703
Y-18.365 Z-4.708
Y-18.23 Z-4.713
Y-18.094 Z-4.717
Y-17.959 Z-4.722
Y-17.823 Z-4.727
Y-17.688 Z-4.732
Y-17.553 Z-4.736
Y-17.417 Z-4.741
Y-17.282 Z-4.746
Y-17.147 Z-4.75
Y-17.011 Z-4.755
Y-16.876 Z-4.76
Y-16.741 Z-4.765
Y-16.605 Z-4.769
Y-16.47 Z-4.774
Y-16.335 Z-4.779
Y-16.199 Z-4.784
Y-16.064 Z-4.788
Y-15.929 Z-4.793
Y-15.793 Z-4.798
Y-15.658 Z-4.802
Y-15.387 Z-4.812
Y-15.252 Z-4.817
Y-15.116 Z-4.821
Y-14.981 Z-4.826
Y-14.846 Z-4.83
Y-14.71 Z-4.835
Y-14.575 Z-4.839
Y-14.44 Z-4.844
Y-14.304 Z-4.848
Y-14.169 Z-4.852
Y-14.034 Z-4.857
Y-13.898 Z-4.861
Y-13.763 Z-4.865
Y-13.628 Z-4.869
Y-13.492 Z-4.873
Y-13.357 Z-4.877
Y-13.222 Z-4.881
Y-13.086 Z-4.885
Y-12.951 Z-4.889
Y-12.815 Z-4.893
Y-12.68 Z-4.897
Y-12.545 Z-4.9
Y-12.409 Z-4.904
Y-12.274 Z-4.908
Y-12.139 Z-4.911
Y-12.003 Z-4.915
Y-11.868 Z-4.918
Y-11.733 Z-4.921
Y-11.597 Z-4.925
Y-11.462 Z-4.928
Y-11.327 Z-4.931
Y-11.191 Z-4.934
Y-11.056 Z-4.937
Y-10.921 Z-4.94
Y-10.785 Z-4.943
Y-10.65 Z-4.946
Y-10.515 Z-4.949
Y-10.379 Z-4.952
Y-10.244 Z-4.954
Y-10.108 Z-4.957
Y-9.838 Z-4.962
Y-9.567 Z-4.967
Y-9.296 Z-4.971
Y-9.026 Z-4.975
Y-8.755 Z-4.979
Y-8.484 Z-4.983
Y-8.214 Z-4.986
Y-7.943 Z-4.989
Y-7.672 Z-4.991
Y-7.401 Z-4.994
Y-7.131 Z-4.996
Y-6.86 Z-4.997
Y-6.589 Z-4.998
Y-6.319 Z-4.999
Y-6.048 Z-5.
Y-5.772
Y19.944
X-12.347 Y20.098
X-12.333 Y20.251
X-12.305 Y20.405
X-12.283 Y20.493
X-12.264 Y20.558
X-12.238 Y20.635
X-12.208 Y20.711
X-12.174 Y20.788
X-12.135 Y20.865
X-12.129 Y20.876
X-12.089 Y20.947
X-12.045 Y21.018
X-11.976 Y21.115
X-11.932 Y21.172
X-11.879 Y21.233
X-11.822 Y21.294
X-11.791 Y21.325
X-11.73 Y21.382
X-11.669 Y21.434
X-11.612 Y21.479
X-11.515 Y21.546
X-11.443 Y21.591
X-11.371 Y21.632
X-11.362 Y21.637
X-11.285 Y21.675
X-11.208 Y21.709
X-11.131 Y21.739
X-11.055 Y21.765
X-10.985 Y21.785
X-10.901 Y21.806
X-10.748 Y21.833
X-10.594 Y21.848
X-10.441 Y21.85
X10.441
X10.594 Y21.848
X10.748 Y21.833
X10.901 Y21.806
X10.985 Y21.785
X11.055 Y21.765
X11.131 Y21.739
X11.208 Y21.709
X11.285 Y21.675
X11.362 Y21.637
X11.371 Y21.632
X11.443 Y21.591
X11.515 Y21.546
X11.612 Y21.479
X11.669 Y21.434
X11.73 Y21.382
X11.791 Y21.325
X11.822 Y21.294
X11.879 Y21.233
X11.932 Y21.172
X11.976 Y21.115
X12.045 Y21.018
X12.089 Y20.947
X12.129 Y20.876
X12.135 Y20.865
X12.174 Y20.788
X12.208 Y20.711
X12.238 Y20.635
X12.264 Y20.558
X12.283 Y20.493
X12.305 Y20.405
X12.333 Y20.251
X12.347 Y20.098
X12.35 Y19.944
Y-19.944
X12.347 Y-20.098
X12.333 Y-20.251
X12.305 Y-20.405
X12.283 Y-20.493
X12.264 Y-20.558
X12.238 Y-20.635
X12.208 Y-20.711
X12.174 Y-20.788
X12.135 Y-20.865
X12.129 Y-20.876
X12.089 Y-20.947
X12.045 Y-21.018
X11.976 Y-21.115
X11.932 Y-21.172
X11.879 Y-21.233
X11.822 Y-21.294
X11.791 Y-21.325
X11.73 Y-21.382
X11.669 Y-21.434
X11.612 Y-21.479
X11.515 Y-21.546
X11.443 Y-21.591
X11.371 Y-21.632
X11.362 Y-21.637
X11.285 Y-21.675
X11.208 Y-21.709
X11.131 Y-21.739
X11.055 Y-21.765
X10.985 Y-21.785
X10.901 Y-21.806
X10.748 Y-21.833
X10.594 Y-21.848
X10.441 Y-21.85
X-10.441
X-10.594 Y-21.848
X-10.748 Y-21.833
X-10.901 Y-21.806
X-10.985 Y-21.785
X-11.055 Y-21.765
X-11.131 Y-21.739
X-11.208 Y-21.709
X-11.285 Y-21.675
X-11.362 Y-21.637
X-11.371 Y-21.632
X-11.443 Y-21.591
X-11.515 Y-21.546
X-11.612 Y-21.479
X-11.669 Y-21.434
X-11.73 Y-21.382
X-11.791 Y-21.325
X-11.822 Y-21.294
X-11.879 Y-21.233
X-11.932 Y-21.172
X-11.976 Y-21.115
X-12.045 Y-21.018
X-12.089 Y-20.947
X-12.129 Y-20.876
X-12.135 Y-20.865
X-12.174 Y-20.788
X-12.208 Y-20.711
X-12.238 Y-20.635
X-12.264 Y-20.558
X-12.283 Y-20.493
X-12.305 Y-20.405
X-12.333 Y-20.251
X-12.347 Y-20.098
X-12.35 Y-19.944
Y-5.772
Y-5.502
Y-5.231 Z-5.001
Y-4.96 Z-5.002
Y-4.689 Z-5.003
Y-4.419 Z-5.004
Y-4.148 Z-5.006
Y-3.877 Z-5.009
Y-3.607 Z-5.011
Y-3.336 Z-5.014
Y-3.065 Z-5.017
Y-2.794 Z-5.021
Y-2.524 Z-5.025
Y-2.253 Z-5.029
Y-1.982 Z-5.033
Y-1.712 Z-5.038
Y-1.441 Z-5.043
Y-1.306 Z-5.046
Y-1.17 Z-5.048
Y-1.035 Z-5.051
Y-0.9 Z-5.054
Y-0.764 Z-5.057
Y-0.629 Z-5.06
Y-0.494 Z-5.063
Y-0.358 Z-5.066
Y-0.223 Z-5.069
Y-0.087 Z-5.072
Y0.048 Z-5.075
Y0.183 Z-5.078
Y0.319 Z-5.082
Y0.454 Z-5.085
Y0.589 Z-5.089
Y0.725 Z-5.092
Y0.86 Z-5.096
Y0.995 Z-5.1
Y1.131 Z-5.103
Y1.266 Z-5.107
Y1.401 Z-5.111
Y1.537 Z-5.115
Y1.672 Z-5.119
Y1.807 Z-5.123
Y1.943 Z-5.127
Y2.078 Z-5.131
Y2.213 Z-5.135
Y2.349 Z-5.139
Y2.484 Z-5.143
Y2.62 Z-5.148
Y2.755 Z-5.152
Y2.89 Z-5.156
Y3.026 Z-5.161
Y3.161 Z-5.165
Y3.296 Z-5.17
Y3.432 Z-5.174
Y3.567 Z-5.179
Y3.702 Z-5.183
Y3.838 Z-5.188
Y4.108 Z-5.198
Y4.244 Z-5.202
Y4.379 Z-5.207
Y4.514 Z-5.212
Y4.65 Z-5.216
Y4.785 Z-5.221
Y4.921 Z-5.226
Y5.056 Z-5.231
Y5.191 Z-5.235
Y5.327 Z-5.24
Y5.462 Z-5.245
Y5.597 Z-5.25
Y5.733 Z-5.254
Y5.868 Z-5.259
Y6.003 Z-5.264
Y6.139 Z-5.268
Y6.274 Z-5.273
Y6.409 Z-5.278
Y6.545 Z-5.283
Y6.68 Z-5.287
Y6.815 Z-5.292
Y6.951 Z-5.297
Y7.086 Z-5.302
Y7.221 Z-5.306
Y7.357 Z-5.311
Y7.492 Z-5.316
Y7.628 Z-5.32
Y7.763 Z-5.325
Y7.898 Z-5.33
Y8.169 Z-5.339
Y8.575 Z-5.354
Y8.981 Z-5.368
Y9.387 Z-5.382
Y9.793 Z-5.396
Y10.199 Z-5.41
Y10.876 Z-5.434
Y11.553 Z-5.457
Y12.906 Z-5.505
Y16.29 Z-5.623
Y16.696 Z-5.637
Y17.102 Z-5.651
Y17.508 Z-5.665
Y17.644 Z-5.67
Y17.779 Z-5.675
Y17.914 Z-5.68
Y18.05 Z-5.684
Y18.185 Z-5.689
Y18.32 Z-5.694
Y18.456 Z-5.699
Y18.591 Z-5.703
Y18.726 Z-5.708
Y18.862 Z-5.713
Y18.997 Z-5.717
Y19.132 Z-5.722
Y19.268 Z-5.727
Y19.403 Z-5.732
Y19.538 Z-5.736
Y19.674 Z-5.741
Y19.809 Z-5.746
Y19.944 Z-5.75
X-12.348 Y20.08 Z-5.755
X-12.337 Y20.215 Z-5.76
X-12.317 Y20.349 Z-5.765
X-12.287 Y20.48 Z-5.769
X-12.247 Y20.61 Z-5.774
X-12.197 Y20.736 Z-5.779
X-12.139 Y20.858 Z-5.784
X-12.072 Y20.975 Z-5.788
X-11.996 Y21.088 Z-5.793
X-11.913 Y21.194 Z-5.798
X-11.822 Y21.294 Z-5.802
X-11.724 Y21.387 Z-5.807
X-11.619 Y21.473 Z-5.812
X-11.508 Y21.551 Z-5.817
X-11.392 Y21.621 Z-5.821
X-11.271 Y21.682 Z-5.826
X-11.146 Y21.733 Z-5.83
X-11.018 Y21.776 Z-5.835
X-10.887 Y21.809 Z-5.839
X-10.753 Y21.833 Z-5.844
X-10.619 Y21.846 Z-5.848
X-10.483 Y21.85 Z-5.852
X-10.348 Z-5.857
X-10.213 Z-5.861
X-10.077 Z-5.865
X-9.942 Z-5.869
X-9.807 Z-5.873
X-9.671 Z-5.877
X-9.536 Z-5.881
X-9.401 Z-5.885
X-9.265 Z-5.889
X-9.13 Z-5.893
X-8.994 Z-5.897
X-8.859 Z-5.9
X-8.724 Z-5.904
X-8.588 Z-5.908
X-8.453 Z-5.911
X-8.318 Z-5.915
X-8.182 Z-5.918
X-8.047 Z-5.922
X-7.912 Z-5.925
X-7.776 Z-5.928
X-7.641 Z-5.931
X-7.506 Z-5.934
X-7.37 Z-5.937
X-7.235 Z-5.94
X-7.1 Z-5.943
X-6.964 Z-5.946
X-6.829 Z-5.949
X-6.694 Z-5.952
X-6.558 Z-5.954
X-6.423 Z-5.957
X-6.152 Z-5.962
X-5.881 Z-5.967
X-5.611 Z-5.971
X-5.34 Z-5.975
X-5.069 Z-5.979
X-4.799 Z-5.983
X-4.528 Z-5.986
X-4.257 Z-5.989
X-3.987 Z-5.991
X-3.716 Z-5.994
X-3.445 Z-5.996
X-3.174 Z-5.997
X-2.904 Z-5.998
X-2.633 Z-5.999
X-2.362 Z-6.
X-2.087
X10.441
X10.594 Y21.848
X10.748 Y21.833
X10.901 Y21.806
X10.985 Y21.785
X11.055 Y21.765
X11.131 Y21.739
X11.208 Y21.709
X11.285 Y21.675
X11.362 Y21.637
X11.371 Y21.632
X11.443 Y21.591
X11.515 Y21.546
X11.612 Y21.479
X11.669 Y21.434
X11.73 Y21.382
X11.791 Y21.325
X11.822 Y21.294
X11.879 Y21.233
X11.932 Y21.172
X11.976 Y21.115
X12.045 Y21.018
X12.089 Y20.947
X12.129 Y20.876
X12.135 Y20.865
X12.174 Y20.788
X12.208 Y20.711
X12.238 Y20.635
X12.264 Y20.558
X12.283 Y20.493
X12.305 Y20.405
X12.333 Y20.251
X12.347 Y20.098
X12.35 Y19.944
Y-19.944
X12.347 Y-20.098
X12.333 Y-20.251
X12.305 Y-20.405
X12.283 Y-20.493
X12.264 Y-20.558
X12.238 Y-20.635
X12.208 Y-20.711
X12.174 Y-20.788
X12.135 Y-20.865
X12.129 Y-20.876
X12.089 Y-20.947
X12.045 Y-21.018
X11.976 Y-21.115
X11.932 Y-21.172
X11.879 Y-21.233
X11.822 Y-21.294
X11.791 Y-21.325
X11.73 Y-21.382
X11.669 Y-21.434
X11.612 Y-21.479
X11.515 Y-21.546
X11.443 Y-21.591
X11.371 Y-21.632
X11.362 Y-21.637
X11.285 Y-21.675
X11.208 Y-21.709
X11.131 Y-21.739
X11.055 Y-21.765
X10.985 Y-21.785
X10.901 Y-21.806
X10.748 Y-21.833
X10.594 Y-21.848
X10.441 Y-21.85
X-10.441
X-10.594 Y-21.848
X-10.748 Y-21.833
X-10.901 Y-21.806
X-10.985 Y-21.785
X-11.055 Y-21.765
X-11.131 Y-21.739
X-11.208 Y-21.709
X-11.285 Y-21.675
X-11.362 Y-21.637
X-11.371 Y-21.632
X-11.443 Y-21.591
X-11.515 Y-21.546
X-11.612 Y-21.479
X-11.669 Y-21.434
X-11.73 Y-21.382
X-11.791 Y-21.325
X-11.822 Y-21.294
X-11.879 Y-21.233
X-11.932 Y-21.172
X-11.976 Y-21.115
X-12.045 Y-21.018
X-12.089 Y-20.947
X-12.129 Y-20.876
X-12.135 Y-20.865
X-12.174 Y-20.788
X-12.208 Y-20.711
X-12.238 Y-20.635
X-12.264 Y-20.558
X-12.283 Y-20.493
X-12.305 Y-20.405
X-12.333 Y-20.251
X-12.347 Y-20.098
X-12.35 Y-19.944
Y19.944
X-12.347 Y20.098
X-12.333 Y20.251
X-12.305 Y20.405
X-12.283 Y20.493
X-12.264 Y20.558
X-12.238 Y20.635
X-12.208 Y20.711
X-12.174 Y20.788
X-12.135 Y20.865
X-12.129 Y20.876
X-12.089 Y20.947
X-12.045 Y21.018
X-11.976 Y21.115
X-11.932 Y21.172
X-11.879 Y21.233
X-11.822 Y21.294
X-11.791 Y21.325
X-11.73 Y21.382
X-11.669 Y21.434
X-11.612 Y21.479
X-11.515 Y21.546
X-11.443 Y21.591
X-11.371 Y21.632
X-11.362 Y21.637
X-11.285 Y21.675
X-11.208 Y21.709
X-11.131 Y21.739
X-11.055 Y21.765
X-10.985 Y21.785
X-10.901 Y21.806
X-10.748 Y21.833
X-10.594 Y21.848
X-10.441 Y21.85
X-2.087
X-1.816
X-1.545 Z-6.001
X-1.274 Z-6.002
X-1.004 Z-6.003
X-0.733 Z-6.004
X-0.462 Z-6.006
X-0.192 Z-6.009
X0.079 Z-6.011
X0.35 Z-6.014
X0.62 Z-6.017
X0.891 Z-6.021
X1.162 Z-6.025
X1.433 Z-6.029
X1.703 Z-6.033
X1.974 Z-6.038
X2.245 Z-6.043
X2.38 Z-6.046
X2.515 Z-6.048
X2.651 Z-6.051
X2.786 Z-6.054
X2.921 Z-6.057
X3.057 Z-6.06
X3.192 Z-6.063
X3.327 Z-6.066
X3.463 Z-6.069
X3.598 Z-6.072
X3.734 Z-6.075
X3.869 Z-6.078
X4.004 Z-6.082
X4.14 Z-6.085
X4.275 Z-6.089
X4.41 Z-6.092
X4.546 Z-6.096
X4.681 Z-6.1
X4.816 Z-6.103
X4.952 Z-6.107
X5.087 Z-6.111
X5.222 Z-6.115
X5.358 Z-6.119
X5.493 Z-6.123
X5.628 Z-6.127
X5.764 Z-6.131
X5.899 Z-6.135
X6.034 Z-6.139
X6.17 Z-6.143
X6.305 Z-6.148
X6.441 Z-6.152
X6.576 Z-6.156
X6.711 Z-6.161
X6.847 Z-6.165
X6.982 Z-6.17
X7.117 Z-6.174
X7.253 Z-6.179
X7.388 Z-6.183
X7.523 Z-6.188
X7.794 Z-6.198
X7.929 Z-6.202
X8.065 Z-6.207
X8.2 Z-6.212
X8.335 Z-6.216
X8.471 Z-6.221
X8.606 Z-6.226
X8.741 Z-6.231
X8.877 Z-6.235
X9.012 Z-6.24
X9.148 Z-6.245
X9.283 Z-6.25
X9.418 Z-6.254
X9.554 Z-6.259
X9.689 Z-6.264
X9.824 Z-6.268
X9.96 Z-6.273
X10.095 Z-6.278
X10.23 Z-6.283
X10.366 Z-6.287
X10.501 Z-6.292
X10.636 Y21.845 Z-6.297
X10.771 Y21.83 Z-6.302
X10.904 Y21.805 Z-6.306
X11.035 Y21.771 Z-6.311
X11.163 Y21.727 Z-6.316
X11.287 Y21.674 Z-6.32
X11.408 Y21.612 Z-6.325
X11.523 Y21.541 Z-6.33
X11.633 Y21.462 Z-6.335
X11.737 Y21.376 Z-6.339
X11.834 Y21.282 Z-6.344
X11.924 Y21.181 Z-6.349
X12.007 Y21.073 Z-6.353
X12.081 Y20.96 Z-6.358
X12.147 Y20.842 Z-6.363
X12.204 Y20.72 Z-6.368
X12.252 Y20.593 Z-6.372
X12.291 Y20.463 Z-6.377
X12.32 Y20.331 Z-6.382
X12.339 Y20.197 Z-6.387
X12.349 Y20.062 Z-6.391
X12.35 Y19.927 Z-6.396
Y19.521 Z-6.41
Y18.844 Z-6.434
Y18.167 Z-6.457
Y16.814 Z-6.505
Y13.43 Z-6.623
Y13.024 Z-6.637
Y12.618 Z-6.651
Y12.212 Z-6.665
Y12.076 Z-6.67
Y11.941 Z-6.675
Y11.806 Z-6.68
Y11.67 Z-6.684
Y11.535 Z-6.689
Y11.4 Z-6.694
Y11.264 Z-6.698
Y11.129 Z-6.703
Y10.994 Z-6.708
Y10.858 Z-6.713
Y10.723 Z-6.717
Y10.588 Z-6.722
Y10.452 Z-6.727
Y10.317 Z-6.732
Y10.182 Z-6.736
Y10.046 Z-6.741
Y9.911 Z-6.746
Y9.775 Z-6.75
Y9.64 Z-6.755
Y9.505 Z-6.76
Y9.369 Z-6.765
Y9.234 Z-6.769
Y9.099 Z-6.774
Y8.963 Z-6.779
Y8.828 Z-6.784
Y8.693 Z-6.788
Y8.557 Z-6.793
Y8.422 Z-6.798
Y8.287 Z-6.802
Y8.016 Z-6.812
Y7.881 Z-6.817
Y7.745 Z-6.821
Y7.61 Z-6.826
Y7.474 Z-6.83
Y7.339 Z-6.835
Y7.204 Z-6.839
Y7.068 Z-6.844
Y6.933 Z-6.848
Y6.798 Z-6.852
Y6.662 Z-6.857
Y6.527 Z-6.861
Y6.392 Z-6.865
Y6.256 Z-6.869
Y6.121 Z-6.873
Y5.986 Z-6.877
Y5.85 Z-6.881
Y5.715 Z-6.885
Y5.58 Z-6.889
Y5.444 Z-6.893
Y5.309 Z-6.897
Y5.174 Z-6.9
Y5.038 Z-6.904
Y4.903 Z-6.908
Y4.767 Z-6.911
Y4.632 Z-6.915
Y4.497 Z-6.918
Y4.361 Z-6.921
Y4.226 Z-6.925
Y4.091 Z-6.928
Y3.955 Z-6.931
Y3.82 Z-6.934
Y3.685 Z-6.937
Y3.549 Z-6.94
Y3.414 Z-6.943
Y3.279 Z-6.946
Y3.143 Z-6.949
Y3.008 Z-6.952
Y2.873 Z-6.954
Y2.737 Z-6.957
Y2.466 Z-6.962
Y2.196 Z-6.967
Y1.925 Z-6.971
Y1.654 Z-6.975
Y1.384 Z-6.979
Y1.113 Z-6.983
Y0.842 Z-6.986
Y0.572 Z-6.989
Y0.301 Z-6.991
Y0.03 Z-6.994
Y-0.241 Z-6.996
Y-0.511 Z-6.997
Y-0.782 Z-6.998
Y-1.053 Z-6.999
Y-1.323 Z-7.
Y-1.599
Y-19.944
X12.347 Y-20.098
X12.333 Y-20.251
X12.305 Y-20.405
X12.283 Y-20.493
X12.264 Y-20.558
X12.238 Y-20.635
X12.208 Y-20.711
X12.174 Y-20.788
X12.135 Y-20.865
X12.129 Y-20.876
X12.089 Y-20.947
X12.045 Y-21.018
X11.976 Y-21.115
X11.932 Y-21.172
X11.879 Y-21.233
X11.822 Y-21.294
X11.791 Y-21.325
X11.73 Y-21.382
X11.669 Y-21.434
X11.612 Y-21.479
X11.515 Y-21.546
X11.443 Y-21.591
X11.371 Y-21.632
X11.362 Y-21.637
X11.285 Y-21.675
X11.208 Y-21.709
X11.131 Y-21.739
X11.055 Y-21.765
X10.985 Y-21.785
X10.901 Y-21.806
X10.748 Y-21.833
X10.594 Y-21.848
X10.441 Y-21.85
X-10.441
X-10.594 Y-21.848
X-10.748 Y-21.833
X-10.901 Y-21.806
X-10.985 Y-21.785
X-11.055 Y-21.765
X-11.131 Y-21.739
X-11.208 Y-21.709
X-11.285 Y-21.675
X-11.362 Y-21.637
X-11.371 Y-21.632
X-11.443 Y-21.591
X-11.515 Y-21.546
X-11.612 Y-21.479
X-11.669 Y-21.434
X-11.73 Y-21.382
X-11.791 Y-21.325
X-11.822 Y-21.294
X-11.879 Y-21.233
X-11.932 Y-21.172
X-11.976 Y-21.115
X-12.045 Y-21.018
X-12.089 Y-20.947
X-12.129 Y-20.876
X-12.135 Y-20.865
X-12.174 Y-20.788
X-12.208 Y-20.711
X-12.238 Y-20.635
X-12.264 Y-20.558
X-12.283 Y-20.493
X-12.305 Y-20.405
X-12.333 Y-20.251
X-12.347 Y-20.098
X-12.35 Y-19.944
Y19.944
X-12.347 Y20.098
X-12.333 Y20.251
X-12.305 Y20.405
X-12.283 Y20.493
X-12.264 Y20.558
X-12.238 Y20.635
X-12.208 Y20.711
X-12.174 Y20.788
X-12.135 Y20.865
X-12.129 Y20.876
X-12.089 Y20.947
X-12.045 Y21.018
X-11.976 Y21.115
X-11.932 Y21.172
X-11.879 Y21.233
X-11.822 Y21.294
X-11.791 Y21.325
X-11.73 Y21.382
X-11.669 Y21.434
X-11.612 Y21.479
X-11.515 Y21.546
X-11.443 Y21.591
X-11.371 Y21.632
X-11.362 Y21.637
X-11.285 Y21.675
X-11.208 Y21.709
X-11.131 Y21.739
X-11.055 Y21.765
X-10.985 Y21.785
X-10.901 Y21.806
X-10.748 Y21.833
X-10.594 Y21.848
X-10.441 Y21.85
X10.441
X10.594 Y21.848
X10.748 Y21.833
X10.901 Y21.806
X10.985 Y21.785
X11.055 Y21.765
X11.131 Y21.739
X11.208 Y21.709
X11.285 Y21.675
X11.362 Y21.637
X11.371 Y21.632
X11.443 Y21.591
X11.515 Y21.546
X11.612 Y21.479
X11.669 Y21.434
X11.73 Y21.382
X11.791 Y21.325
X11.822 Y21.294
X11.879 Y21.233
X11.932 Y21.172
X11.976 Y21.115
X12.045 Y21.018
X12.089 Y20.947
X12.129 Y20.876
X12.135 Y20.865
X12.174 Y20.788
X12.208 Y20.711
X12.238 Y20.635
X12.264 Y20.558
X12.283 Y20.493
X12.305 Y20.405
X12.333 Y20.251
X12.347 Y20.098
X12.35 Y19.944
Y-1.599
Y-1.87
Y-2.14 Z-7.001
Y-2.411 Z-7.002
Y-2.682 Z-7.003
Y-2.953 Z-7.004
Y-3.223 Z-7.006
Y-3.494 Z-7.009
Y-3.765 Z-7.011
Y-4.035 Z-7.014
Y-4.306 Z-7.017
Y-4.577 Z-7.021
Y-4.847 Z-7.025
Y-5.118 Z-7.029
Y-5.389 Z-7.033
Y-5.66 Z-7.038
Y-5.93 Z-7.043
Y-6.066 Z-7.046
Y-6.201 Z-7.048
Y-6.336 Z-7.051
Y-6.472 Z-7.054
Y-6.607 Z-7.057
Y-6.742 Z-7.06
Y-6.878 Z-7.063
Y-7.013 Z-7.066
Y-7.148 Z-7.069
Y-7.284 Z-7.072
Y-7.419 Z-7.075
Y-7.554 Z-7.078
Y-7.69 Z-7.082
Y-7.825 Z-7.085
Y-7.961 Z-7.089
Y-8.096 Z-7.092
Y-8.231 Z-7.096
Y-8.367 Z-7.1
Y-8.502 Z-7.103
Y-8.637 Z-7.107
Y-8.773 Z-7.111
Y-8.908 Z-7.115
Y-9.043 Z-7.119
Y-9.179 Z-7.123
Y-9.314 Z-7.127
Y-9.449 Z-7.131
Y-9.585 Z-7.135
Y-9.72 Z-7.139
Y-9.855 Z-7.143
Y-9.991 Z-7.148
Y-10.126 Z-7.152
Y-10.262 Z-7.156
Y-10.397 Z-7.161
Y-10.532 Z-7.165
Y-10.668 Z-7.17
Y-10.803 Z-7.174
Y-10.938 Z-7.179
Y-11.074 Z-7.183
Y-11.209 Z-7.188
Y-11.48 Z-7.198
Y-11.615 Z-7.202
Y-11.75 Z-7.207
Y-11.886 Z-7.212
Y-12.021 Z-7.216
Y-12.156 Z-7.221
Y-12.292 Z-7.226
Y-12.427 Z-7.231
Y-12.562 Z-7.235
Y-12.698 Z-7.24
Y-12.833 Z-7.245
Y-12.969 Z-7.25
Y-13.104 Z-7.254
Y-13.239 Z-7.259
Y-13.375 Z-7.264
Y-13.51 Z-7.268
Y-13.645 Z-7.273
Y-13.781 Z-7.278
Y-13.916 Z-7.283
Y-14.051 Z-7.287
Y-14.187 Z-7.292
Y-14.322 Z-7.297
Y-14.457 Z-7.302
Y-14.593 Z-7.306
Y-14.728 Z-7.311
Y-14.863 Z-7.316
Y-14.999 Z-7.32
Y-15.134 Z-7.325
Y-15.269 Z-7.33
Y-15.54 Z-7.339
Y-15.946 Z-7.354
Y-16.352 Z-7.368
Y-16.758 Z-7.382
Y-17.164 Z-7.396
Y-17.57 Z-7.41
Y-18.247 Z-7.434
Y-18.924 Z-7.457
Y-19.871 Z-7.491
Y-20.007 Z-7.495
X12.345 Y-20.142 Z-7.5
X12.329 Y-20.277 Z-7.505
X12.304 Y-20.41 Z-7.509
X12.269 Y-20.54 Z-7.514
X12.225 Y-20.668 Z-7.519
X12.172 Y-20.793 Z-7.524
X12.109 Y-20.913 Z-7.528
X12.038 Y-21.028 Z-7.533
X11.959 Y-21.138 Z-7.538
X11.872 Y-21.241 Z-7.543
X11.777 Y-21.338 Z-7.547
X11.676 Y-21.428 Z-7.552
X11.569 Y-21.51 Z-7.557
X11.455 Y-21.584 Z-7.561
X11.337 Y-21.65 Z-7.566
X11.214 Y-21.707 Z-7.571
X11.088 Y-21.754 Z-7.576
X10.958 Y-21.792 Z-7.58
X10.825 Y-21.821 Z-7.585
X10.691 Y-21.84 Z-7.59
X10.556 Y-21.849 Z-7.594
X10.421 Y-21.85 Z-7.599
X10.015 Z-7.613
X9.609 Z-7.628
X9.203 Z-7.642
X8.797 Z-7.656
X8.391 Z-7.67
X8.255 Z-7.675
X8.12 Z-7.68
X7.985 Z-7.684
X7.849 Z-7.689
X7.714 Z-7.694
X7.579 Z-7.698
X7.443 Z-7.703
X7.308 Z-7.708
X7.173 Z-7.713
X7.037 Z-7.717
X6.902 Z-7.722
X6.767 Z-7.727
X6.631 Z-7.732
X6.496 Z-7.736
X6.361 Z-7.741
X6.225 Z-7.746
X6.09 Z-7.75
X5.954 Z-7.755
X5.819 Z-7.76
X5.684 Z-7.765
X5.548 Z-7.769
X5.413 Z-7.774
X5.278 Z-7.779
X5.142 Z-7.784
X5.007 Z-7.788
X4.872 Z-7.793
X4.736 Z-7.798
X4.601 Z-7.802
X4.33 Z-7.812
X4.195 Z-7.817
X4.06 Z-7.821
X3.924 Z-7.826
X3.789 Z-7.83
X3.654 Z-7.835
X3.518 Z-7.839
X3.383 Z-7.844
X3.247 Z-7.848
X3.112 Z-7.852
X2.977 Z-7.857
X2.841 Z-7.861
X2.706 Z-7.865
X2.571 Z-7.869
X2.435 Z-7.873
X2.3 Z-7.877
X2.165 Z-7.881
X2.029 Z-7.885
X1.894 Z-7.889
X1.759 Z-7.893
X1.623 Z-7.897
X1.488 Z-7.9
X1.353 Z-7.904
X1.217 Z-7.908
X1.082 Z-7.911
X0.946 Z-7.915
X0.811 Z-7.918
X0.676 Z-7.921
X0.54 Z-7.925
X0.405 Z-7.928
X0.27 Z-7.931
X0.134 Z-7.934
X-0.001 Z-7.937
X-0.136 Z-7.94
X-0.272 Z-7.943
X-0.407 Z-7.946
X-0.542 Z-7.949
X-0.678 Z-7.952
X-0.813 Z-7.954
X-0.948 Z-7.957
X-1.219 Z-7.962
X-1.49 Z-7.967
X-1.761 Z-7.971
X-2.031 Z-7.975
X-2.302 Z-7.979
X-2.573 Z-7.983
X-2.843 Z-7.986
X-3.114 Z-7.989
X-3.385 Z-7.991
X-3.655 Z-7.994
X-3.926 Z-7.996
X-4.197 Z-7.997
X-4.468 Z-7.998
X-4.738 Z-7.999
X-5.009 Z-8.
X-5.285
X-10.441
X-10.594 Y-21.848
X-10.748 Y-21.833
X-10.901 Y-21.806
X-10.985 Y-21.785
X-11.055 Y-21.765
X-11.131 Y-21.739
X-11.208 Y-21.709
X-11.285 Y-21.675
X-11.362 Y-21.637
X-11.371 Y-21.632
X-11.443 Y-21.591
X-11.515 Y-21.546
X-11.612 Y-21.479
X-11.669 Y-21.434
X-11.73 Y-21.382
X-11.791 Y-21.325
X-11.822 Y-21.294
X-11.879 Y-21.233
X-11.932 Y-21.172
X-11.976 Y-21.115
X-12.045 Y-21.018
X-12.089 Y-20.947
X-12.129 Y-20.876
X-12.135 Y-20.865
X-12.174 Y-20.788
X-12.208 Y-20.711
X-12.238 Y-20.635
X-12.264 Y-20.558
X-12.283 Y-20.493
X-12.305 Y-20.405
X-12.333 Y-20.251
X-12.347 Y-20.098
X-12.35 Y-19.944
Y19.944
X-12.347 Y20.098
X-12.333 Y20.251
X-12.305 Y20.405
X-12.283 Y20.493
X-12.264 Y20.558
X-12.238 Y20.635
X-12.208 Y20.711
X-12.174 Y20.788
X-12.135 Y20.865
X-12.129 Y20.876
X-12.089 Y20.947
X-12.045 Y21.018
X-11.976 Y21.115
X-11.932 Y21.172
X-11.879 Y21.233
X-11.822 Y21.294
X-11.791 Y21.325
X-11.73 Y21.382
X-11.669 Y21.434
X-11.612 Y21.479
X-11.515 Y21.546
X-11.443 Y21.591
X-11.371 Y21.632
X-11.362 Y21.637
X-11.285 Y21.675
X-11.208 Y21.709
X-11.131 Y21.739
X-11.055 Y21.765
X-10.985 Y21.785
X-10.901 Y21.806
X-10.748 Y21.833
X-10.594 Y21.848
X-10.441 Y21.85
X10.441
X10.594 Y21.848
X10.748 Y21.833
X10.901 Y21.806
X10.985 Y21.785
X11.055 Y21.765
X11.131 Y21.739
X11.208 Y21.709
X11.285 Y21.675
X11.362 Y21.637
X11.371 Y21.632
X11.443 Y21.591
X11.515 Y21.546
X11.612 Y21.479
X11.669 Y21.434
X11.73 Y21.382
X11.791 Y21.325
X11.822 Y21.294
X11.879 Y21.233
X11.932 Y21.172
X11.976 Y21.115
X12.045 Y21.018
X12.089 Y20.947
X12.129 Y20.876
X12.135 Y20.865
X12.174 Y20.788
X12.208 Y20.711
X12.238 Y20.635
X12.264 Y20.558
X12.283 Y20.493
X12.305 Y20.405
X12.333 Y20.251
X12.347 Y20.098
X12.35 Y19.944
Y-1.599
Y-19.944
X12.347 Y-20.098
X12.333 Y-20.251
X12.305 Y-20.405
X12.283 Y-20.493
X12.264 Y-20.558
X12.238 Y-20.635
X12.208 Y-20.711
X12.174 Y-20.788
X12.135 Y-20.865
X12.129 Y-20.876
X12.089 Y-20.947
X12.045 Y-21.018
X11.976 Y-21.115
X11.932 Y-21.172
X11.879 Y-21.233
X11.822 Y-21.294
X11.791 Y-21.325
X11.73 Y-21.382
X11.669 Y-21.434
X11.612 Y-21.479
X11.515 Y-21.546
X11.443 Y-21.591
X11.371 Y-21.632
X11.362 Y-21.637
X11.285 Y-21.675
X11.208 Y-21.709
X11.131 Y-21.739
X11.055 Y-21.765
X10.985 Y-21.785
X10.901 Y-21.806
X10.748 Y-21.833
X10.594 Y-21.848
X10.441 Y-21.85
X-5.285
X-5.555
X-5.826 Z-8.001
X-6.097 Z-8.002
X-6.367 Z-8.003
X-6.638 Z-8.004
X-6.909 Z-8.006
X-7.18 Z-8.009
X-7.45 Z-8.011
X-7.721 Z-8.014
X-7.992 Z-8.017
X-8.262 Z-8.021
X-8.533 Z-8.025
X-8.804 Z-8.029
X-9.074 Z-8.033
X-9.345 Z-8.038
X-9.616 Z-8.043
X-9.751 Z-8.046
X-9.887 Z-8.048
X-10.022 Z-8.051
X-10.157 Z-8.054
X-10.293 Z-8.057
X-10.428 Z-8.06
X-10.563 Y-21.849 Z-8.063
X-10.698 Y-21.839 Z-8.066
X-10.832 Y-21.82 Z-8.069
X-10.965 Y-21.791 Z-8.072
X-11.094 Y-21.752 Z-8.075
X-11.221 Y-21.704 Z-8.078
X-11.343 Y-21.647 Z-8.082
X-11.461 Y-21.581 Z-8.085
X-11.574 Y-21.506 Z-8.089
X-11.682 Y-21.423 Z-8.092
X-11.783 Y-21.333 Z-8.096
X-11.877 Y-21.236 Z-8.1
X-11.963 Y-21.132 Z-8.103
X-12.042 Y-21.022 Z-8.107
X-12.113 Y-20.907 Z-8.111
X-12.175 Y-20.786 Z-8.115
X-12.228 Y-20.662 Z-8.119
X-12.271 Y-20.534 Z-8.123
X-12.306 Y-20.403 Z-8.127
X-12.33 Y-20.27 Z-8.131
X-12.345 Y-20.135 Z-8.135
X-12.35 Y-20. Z-8.139
Y-19.864 Z-8.143
Y-19.729 Z-8.148
Y-19.594 Z-8.152
Y-19.458 Z-8.156
Y-19.323 Z-8.161
Y-19.188 Z-8.165
Y-19.052 Z-8.17
Y-18.917 Z-8.174
Y-18.782 Z-8.179
Y-18.646 Z-8.183
Y-18.511 Z-8.188
Y-18.24 Z-8.198
Y-18.105 Z-8.202
Y-17.97 Z-8.207
Y-17.834 Z-8.212
Y-17.699 Z-8.216
Y-17.564 Z-8.221
Y-17.428 Z-8.226
Y-17.293 Z-8.231
Y-17.157 Z-8.235
Y-17.022 Z-8.24
Y-16.887 Z-8.245
Y-16.751 Z-8.25
Y-16.616 Z-8.254
Y-16.481 Z-8.259
Y-16.345 Z-8.264
Y-16.21 Z-8.268
Y-16.075 Z-8.273
Y-15.939 Z-8.278
Y-15.804 Z-8.283
Y-15.669 Z-8.287
Y-15.533 Z-8.292
Y-15.398 Z-8.297
Y-15.263 Z-8.302
Y-15.127 Z-8.306
Y-14.992 Z-8.311
Y-14.856 Z-8.316
Y-14.721 Z-8.32
Y-14.586 Z-8.325
Y-14.45 Z-8.33
Y-14.18 Z-8.339
Y-13.774 Z-8.354
Y-13.368 Z-8.368
Y-12.962 Z-8.382
Y-12.556 Z-8.396
Y-12.149 Z-8.41
Y-11.473 Z-8.434
Y-10.796 Z-8.457
Y-9.442 Z-8.505
Y-6.059 Z-8.623
Y-5.653 Z-8.637
Y-5.247 Z-8.651
Y-4.841 Z-8.665
Y-4.705 Z-8.67
Y-4.57 Z-8.675
Y-4.434 Z-8.68
Y-4.299 Z-8.684
Y-4.164 Z-8.689
Y-4.028 Z-8.694
Y-3.893 Z-8.699
Y-3.758 Z-8.703
Y-3.622 Z-8.708
Y-3.487 Z-8.713
Y-3.352 Z-8.717
Y-3.216 Z-8.722
Y-3.081 Z-8.727
Y-2.946 Z-8.732
Y-2.81 Z-8.736
Y-2.675 Z-8.741
Y-2.54 Z-8.746
Y-2.404 Z-8.75
Y-2.269 Z-8.755
Y-2.133 Z-8.76
Y-1.998 Z-8.765
Y-1.863 Z-8.769
Y-1.727 Z-8.774
Y-1.592 Z-8.779
Y-1.457 Z-8.784
Y-1.321 Z-8.788
Y-1.186 Z-8.793
Y-1.051 Z-8.798
Y-0.915 Z-8.802
Y-0.645 Z-8.812
Y-0.509 Z-8.817
Y-0.374 Z-8.821
Y-0.239 Z-8.826
Y-0.103 Z-8.83
Y0.032 Z-8.835
Y0.167 Z-8.839
Y0.303 Z-8.844
Y0.438 Z-8.848
Y0.574 Z-8.852
Y0.709 Z-8.857
Y0.844 Z-8.861
Y0.98 Z-8.865
Y1.115 Z-8.869
Y1.25 Z-8.873
Y1.386 Z-8.877
Y1.521 Z-8.881
Y1.656 Z-8.885
Y1.792 Z-8.889
Y1.927 Z-8.893
Y2.062 Z-8.897
Y2.198 Z-8.9
Y2.333 Z-8.904
Y2.468 Z-8.908
Y2.604 Z-8.911
Y2.739 Z-8.915
Y2.874 Z-8.918
Y3.01 Z-8.922
Y3.145 Z-8.925
Y3.281 Z-8.928
Y3.416 Z-8.931
Y3.551 Z-8.934
Y3.687 Z-8.937
Y3.822 Z-8.94
Y3.957 Z-8.943
Y4.093 Z-8.946
Y4.228 Z-8.949
Y4.363 Z-8.952
Y4.499 Z-8.954
Y4.634 Z-8.957
Y4.905 Z-8.962
Y5.175 Z-8.967
Y5.446 Z-8.971
Y5.717 Z-8.975
Y5.988 Z-8.979
Y6.258 Z-8.983
Y6.529 Z-8.986
Y6.8 Z-8.989
Y7.07 Z-8.991
Y7.341 Z-8.994
Y7.612 Z-8.996
Y7.882 Z-8.997
Y8.153 Z-8.998
Y8.424 Z-8.999
Y8.695 Z-9.
Y8.965
Y19.944
X-12.347 Y20.098
X-12.333 Y20.251
X-12.305 Y20.405
X-12.283 Y20.493
X-12.264 Y20.558
X-12.238 Y20.635
X-12.208 Y20.711
X-12.174 Y20.788
X-12.135 Y20.865
X-12.129 Y20.876
X-12.089 Y20.947
X-12.045 Y21.018
X-11.976 Y21.115
X-11.932 Y21.172
X-11.879 Y21.233
X-11.822 Y21.294
X-11.791 Y21.325
X-11.73 Y21.382
X-11.669 Y21.434
X-11.612 Y21.479
X-11.515 Y21.546
X-11.443 Y21.591
X-11.371 Y21.632
X-11.362 Y21.637
X-11.285 Y21.675
X-11.208 Y21.709
X-11.131 Y21.739
X-11.055 Y21.765
X-10.985 Y21.785
X-10.901 Y21.806
X-10.748 Y21.833
X-10.594 Y21.848
X-10.441 Y21.85
X10.441
X10.594 Y21.848
X10.748 Y21.833
X10.901 Y21.806
X10.985 Y21.785
X11.055 Y21.765
X11.131 Y21.739
X11.208 Y21.709
X11.285 Y21.675
X11.362 Y21.637
X11.371 Y21.632
X11.443 Y21.591
X11.515 Y21.546
X11.612 Y21.479
X11.669 Y21.434
X11.73 Y21.382
X11.791 Y21.325
X11.822 Y21.294
X11.879 Y21.233
X11.932 Y21.172
X11.976 Y21.115
X12.045 Y21.018
X12.089 Y20.947
X12.129 Y20.876
X12.135 Y20.865
X12.174 Y20.788
X12.208 Y20.711
X12.238 Y20.635
X12.264 Y20.558
X12.283 Y20.493
X12.305 Y20.405
X12.333 Y20.251
X12.347 Y20.098
X12.35 Y19.944
Y-19.944
X12.347 Y-20.098
X12.333 Y-20.251
X12.305 Y-20.405
X12.283 Y-20.493
X12.264 Y-20.558
X12.238 Y-20.635
X12.208 Y-20.711
X12.174 Y-20.788
X12.135 Y-20.865
X12.129 Y-20.876
X12.089 Y-20.947
X12.045 Y-21.018
X11.976 Y-21.115
X11.932 Y-21.172
X11.879 Y-21.233
X11.822 Y-21.294
X11.791 Y-21.325
X11.73 Y-21.382
X11.669 Y-21.434
X11.612 Y-21.479
X11.515 Y-21.546
X11.443 Y-21.591
X11.371 Y-21.632
X11.362 Y-21.637
X11.285 Y-21.675
X11.208 Y-21.709
X11.131 Y-21.739
X11.055 Y-21.765
X10.985 Y-21.785
X10.901 Y-21.806
X10.748 Y-21.833
X10.594 Y-21.848
X10.441 Y-21.85
X-5.285
X-10.441
X-10.594 Y-21.848
X-10.748 Y-21.833
X-10.901 Y-21.806
X-10.985 Y-21.785
X-11.055 Y-21.765
X-11.131 Y-21.739
X-11.208 Y-21.709
X-11.285 Y-21.675
X-11.362 Y-21.637
X-11.371 Y-21.632
X-11.443 Y-21.591
X-11.515 Y-21.546
X-11.612 Y-21.479
X-11.669 Y-21.434
X-11.73 Y-21.382
X-11.791 Y-21.325
X-11.822 Y-21.294
X-11.879 Y-21.233
X-11.932 Y-21.172
X-11.976 Y-21.115
X-12.045 Y-21.018
X-12.089 Y-20.947
X-12.129 Y-20.876
X-12.135 Y-20.865
X-12.174 Y-20.788
X-12.208 Y-20.711
X-12.238 Y-20.635
X-12.264 Y-20.558
X-12.283 Y-20.493
X-12.305 Y-20.405
X-12.333 Y-20.251
X-12.347 Y-20.098
X-12.35 Y-19.944
Y8.965
Y9.236
Y9.507 Z-9.001
Y9.777 Z-9.002
Y10.048 Z-9.003
Y10.319 Z-9.004
Y10.589 Z-9.006
Y10.86 Z-9.009
Y11.131 Z-9.011
Y11.401 Z-9.014
Y11.672 Z-9.017
Y11.943 Z-9.021
Y12.214 Z-9.025
Y12.484 Z-9.029
Y12.755 Z-9.033
Y13.026 Z-9.038
Y13.296 Z-9.043
Y13.432 Z-9.046
Y13.567 Z-9.048
Y13.702 Z-9.051
Y13.838 Z-9.054
Y13.973 Z-9.057
Y14.108 Z-9.06
Y14.244 Z-9.063
Y14.379 Z-9.066
Y14.515 Z-9.069
Y14.65 Z-9.072
Y14.785 Z-9.075
Y14.921 Z-9.078
Y15.056 Z-9.082
Y15.191 Z-9.085
Y15.327 Z-9.089
Y15.462 Z-9.092
Y15.597 Z-9.096
Y15.733 Z-9.1
Y15.868 Z-9.103
Y16.003 Z-9.107
Y16.139 Z-9.111
Y16.274 Z-9.115
Y16.409 Z-9.119
Y16.545 Z-9.123
Y16.68 Z-9.127
Y16.815 Z-9.131
Y16.951 Z-9.135
Y17.086 Z-9.139
Y17.222 Z-9.143
Y17.357 Z-9.148
Y17.492 Z-9.152
Y17.628 Z-9.156
Y17.763 Z-9.161
Y17.898 Z-9.165
Y18.034 Z-9.17
Y18.169 Z-9.174
Y18.304 Z-9.179
Y18.44 Z-9.183
Y18.575 Z-9.188
Y18.846 Z-9.198
Y18.981 Z-9.202
Y19.116 Z-9.207
Y19.252 Z-9.212
Y19.387 Z-9.216
Y19.523 Z-9.221
Y19.658 Z-9.226
Y19.793 Z-9.231
Y19.929 Z-9.235
X-12.349 Y20.064 Z-9.24
X-12.339 Y20.199 Z-9.245
X-12.32 Y20.333 Z-9.25
X-12.291 Y20.465 Z-9.254
X-12.252 Y20.595 Z-9.259
X-12.204 Y20.721 Z-9.264
X-12.146 Y20.844 Z-9.268
X-12.08 Y20.962 Z-9.273
X-12.006 Y21.075 Z-9.278
X-11.923 Y21.182 Z-9.283
X-11.833 Y21.283 Z-9.287
X-11.736 Y21.377 Z-9.292
X-11.632 Y21.464 Z-9.297
X-11.522 Y21.542 Z-9.301
X-11.406 Y21.613 Z-9.306
X-11.286 Y21.675 Z-9.311
X-11.161 Y21.728 Z-9.316
X-11.033 Y21.772 Z-9.32
X-10.902 Y21.806 Z-9.325
X-10.769 Y21.83 Z-9.33
X-10.635 Y21.845 Z-9.335
X-10.499 Y21.85 Z-9.339
X-10.093 Z-9.353
X-9.687 Z-9.368
X-9.281 Z-9.382
X-8.875 Z-9.396
X-8.469 Z-9.41
X-7.792 Z-9.434
X-7.116 Z-9.457
X-5.762 Z-9.505
X-2.378 Z-9.623
X-1.972 Z-9.637
X-1.566 Z-9.651
X-1.16 Z-9.665
X-1.025 Z-9.67
X-0.889 Z-9.675
X-0.754 Z-9.68
X-0.619 Z-9.684
X-0.483 Z-9.689
X-0.348 Z-9.694
X-0.213 Z-9.698
X-0.077 Z-9.703
X0.058 Z-9.708
X0.193 Z-9.713
X0.329 Z-9.717
X0.464 Z-9.722
X0.6 Z-9.727
X0.735 Z-9.732
X0.87 Z-9.736
X1.006 Z-9.741
X1.141 Z-9.746
X1.276 Z-9.75
X1.412 Z-9.755
X1.547 Z-9.76
X1.682 Z-9.765
X1.818 Z-9.769
X1.953 Z-9.774
X2.088 Z-9.779
X2.224 Z-9.784
X2.359 Z-9.788
X2.494 Z-9.793
X2.63 Z-9.798
X2.765 Z-9.802
X3.036 Z-9.812
X3.171 Z-9.817
X3.307 Z-9.821
X3.442 Z-9.826
X3.577 Z-9.83
X3.713 Z-9.835
X3.848 Z-9.839
X3.983 Z-9.844
X4.119 Z-9.848
X4.254 Z-9.852
X4.389 Z-9.857
X4.525 Z-9.861
X4.66 Z-9.865
X4.795 Z-9.869
X4.931 Z-9.873
X5.066 Z-9.877
X5.201 Z-9.881
X5.337 Z-9.885
X5.472 Z-9.889
X5.607 Z-9.893
X5.743 Z-9.897
X5.878 Z-9.9
X6.014 Z-9.904
X6.149 Z-9.908
X6.284 Z-9.911
X6.42 Z-9.915
X6.555 Z-9.918
X6.69 Z-9.921
X6.826 Z-9.925
X6.961 Z-9.928
X7.096 Z-9.931
X7.232 Z-9.934
X7.367 Z-9.937
X7.502 Z-9.94
X7.638 Z-9.943
X7.773 Z-9.946
X7.908 Z-9.949
X8.044 Z-9.952
X8.179 Z-9.954
X8.315 Z-9.957
X8.585 Z-9.962
X8.856 Z-9.967
X9.127 Z-9.971
X9.397 Z-9.975
X9.668 Z-9.979
X9.939 Z-9.983
X10.209 Z-9.986
X10.48 Z-9.989
X10.615 Y21.846 Z-9.99
X10.75 Y21.833 Z-9.991
X10.883 Y21.81 Z-9.993
X11.015 Y21.777 Z-9.994
X11.143 Y21.735 Z-9.995
X11.268 Y21.683 Z-9.996
X11.389 Y21.622
X11.506 Y21.553 Z-9.997
X11.616 Y21.475 Z-9.998
X11.721 Y21.39
X11.82 Y21.297 Z-9.999
X11.911 Y21.197
X11.995 Y21.09 Z-10.
X12.07 Y20.978
X12.138 Y20.861
X12.196 Y20.739
X12.198 Y20.734
X12.208 Y20.711
X12.238 Y20.635
X12.264 Y20.558
X12.283 Y20.493
X12.305 Y20.405
X12.333 Y20.251
X12.347 Y20.098
X12.35 Y19.944
Y-19.944
X12.347 Y-20.098
X12.333 Y-20.251
X12.305 Y-20.405
X12.283 Y-20.493
X12.264 Y-20.558
X12.238 Y-20.635
X12.208 Y-20.711
X12.174 Y-20.788
X12.135 Y-20.865
X12.129 Y-20.876
X12.089 Y-20.947
X12.045 Y-21.018
X11.976 Y-21.115
X11.932 Y-21.172
X11.879 Y-21.233
X11.822 Y-21.294
X11.791 Y-21.325
X11.73 Y-21.382
X11.669 Y-21.434
X11.612 Y-21.479
X11.515 Y-21.546
X11.443 Y-21.591
X11.371 Y-21.632
X11.362 Y-21.637
X11.285 Y-21.675
X11.208 Y-21.709
X11.131 Y-21.739
X11.055 Y-21.765
X10.985 Y-21.785
X10.901 Y-21.806
X10.748 Y-21.833
X10.594 Y-21.848
X10.441 Y-21.85
X-10.441
X-10.594 Y-21.848
X-10.748 Y-21.833
X-10.901 Y-21.806
X-10.985 Y-21.785
X-11.055 Y-21.765
X-11.131 Y-21.739
X-11.208 Y-21.709
X-11.285 Y-21.675
X-11.362 Y-21.637
X-11.371 Y-21.632
X-11.443 Y-21.591
X-11.515 Y-21.546
X-11.612 Y-21.479
X-11.669 Y-21.434
X-11.73 Y-21.382
X-11.791 Y-21.325
X-11.822 Y-21.294
X-11.879 Y-21.233
X-11.932 Y-21.172
X-11.976 Y-21.115
X-12.045 Y-21.018
X-12.089 Y-20.947
X-12.129 Y-20.876
X-12.135 Y-20.865
X-12.174 Y-20.788
X-12.208 Y-20.711
X-12.238 Y-20.635
X-12.264 Y-20.558
X-12.283 Y-20.493
X-12.305 Y-20.405
X-12.333 Y-20.251
X-12.347 Y-20.098
X-12.35 Y-19.944
Y8.965
Y19.944
X-12.347 Y20.098
X-12.333 Y20.251
X-12.305 Y20.405
X-12.283 Y20.493
X-12.264 Y20.558
X-12.238 Y20.635
X-12.208 Y20.711
X-12.174 Y20.788
X-12.135 Y20.865
X-12.129 Y20.876
X-12.089 Y20.947
X-12.045 Y21.018
X-11.976 Y21.115
X-11.932 Y21.172
X-11.879 Y21.233
X-11.822 Y21.294
X-11.791 Y21.325
X-11.73 Y21.382
X-11.669 Y21.434
X-11.612 Y21.479
X-11.515 Y21.546
X-11.443 Y21.591
X-11.371 Y21.632
X-11.362 Y21.637
X-11.285 Y21.675
X-11.208 Y21.709
X-11.131 Y21.739
X-11.055 Y21.765
X-10.985 Y21.785
X-10.901 Y21.806
X-10.748 Y21.833
X-10.594 Y21.848
X-10.441 Y21.85
X10.441
X10.594 Y21.848
X10.748 Y21.833
X10.901 Y21.806
X10.985 Y21.785
X11.055 Y21.765
X11.131 Y21.739
X11.208 Y21.709
X11.285 Y21.675
X11.362 Y21.637
X11.371 Y21.632
X11.443 Y21.591
X11.515 Y21.546
X11.612 Y21.479
X11.669 Y21.434
X11.73 Y21.382
X11.791 Y21.325
X11.822 Y21.294
X11.879 Y21.233
X11.932 Y21.172
X11.976 Y21.115
X12.045 Y21.018
X12.089 Y20.947
X12.129 Y20.876
X12.135 Y20.865
X12.174 Y20.788
X12.198 Y20.734
X12.247 Y20.608
X12.287 Y20.479
X12.317 Y20.347
X12.338 Y20.213 Z-10.001
X12.348 Y20.078
X12.35 Y19.943 Z-10.002
Y19.672 Z-10.003
Y19.401 Z-10.004
Y19.131 Z-10.006
Y18.86 Z-10.009
Y18.589 Z-10.011
Y18.318 Z-10.014
Y18.048 Z-10.017
Y17.777 Z-10.021
Y17.506 Z-10.025
Y17.236 Z-10.029
Y16.965 Z-10.033
Y16.694 Z-10.038
Y16.424 Z-10.043
Y16.288 Z-10.046
Y16.153 Z-10.048
Y16.018 Z-10.051
Y15.882 Z-10.054
Y15.747 Z-10.057
Y15.611 Z-10.06
Y15.476 Z-10.063
Y15.341 Z-10.066
Y15.205 Z-10.069
Y15.07 Z-10.072
Y14.935 Z-10.075
Y14.799 Z-10.078
Y14.664 Z-10.082
Y14.529 Z-10.085
Y14.393 Z-10.089
Y14.258 Z-10.092
Y14.123 Z-10.096
Y13.987 Z-10.1
Y13.852 Z-10.103
Y13.717 Z-10.107
Y13.581 Z-10.111
Y13.446 Z-10.115
Y13.311 Z-10.119
Y13.175 Z-10.123
Y13.04 Z-10.127
Y12.904 Z-10.131
Y12.769 Z-10.135
Y12.634 Z-10.139
Y12.498 Z-10.143
Y12.363 Z-10.148
Y12.228 Z-10.152
Y12.092 Z-10.156
Y11.957 Z-10.161
Y11.822 Z-10.165
Y11.686 Z-10.17
Y11.551 Z-10.174
Y11.416 Z-10.179
Y11.28 Z-10.183
Y11.145 Z-10.188
Y10.874 Z-10.198
Y10.739 Z-10.202
Y10.603 Z-10.207
Y10.468 Z-10.212
Y10.333 Z-10.216
Y10.197 Z-10.221
Y10.062 Z-10.226
Y9.927 Z-10.231
Y9.791 Z-10.235
Y9.656 Z-10.24
Y9.521 Z-10.245
Y9.385 Z-10.25
Y9.25 Z-10.254
Y9.115 Z-10.259
Y8.979 Z-10.264
Y8.844 Z-10.268
Y8.709 Z-10.273
Y8.573 Z-10.278
Y8.438 Z-10.283
Y8.303 Z-10.287
Y8.167 Z-10.292
Y8.032 Z-10.297
Y7.896 Z-10.302
Y7.761 Z-10.306
Y7.626 Z-10.311
Y7.49 Z-10.316
Y7.355 Z-10.32
Y7.22 Z-10.325
Y7.084 Z-10.33
Y6.814 Z-10.339
Y6.408 Z-10.354
Y6.002 Z-10.368
Y5.595 Z-10.382
Y5.189 Z-10.396
Y4.783 Z-10.41
Y4.107 Z-10.434
Y3.43 Z-10.457
Y2.076 Z-10.505
Y-1.307 Z-10.623
Y-1.713 Z-10.637
Y-2.12 Z-10.651
Y-2.526 Z-10.665
Y-2.661 Z-10.67
Y-2.796 Z-10.675
Y-2.932 Z-10.68
Y-3.067 Z-10.684
Y-3.202 Z-10.689
Y-3.338 Z-10.694
Y-3.473 Z-10.699
Y-3.608 Z-10.703
Y-3.744 Z-10.708
Y-3.879 Z-10.713
Y-4.014 Z-10.717
Y-4.15 Z-10.722
Y-4.285 Z-10.727
Y-4.42 Z-10.732
Y-4.556 Z-10.736
Y-4.691 Z-10.741
Y-4.827 Z-10.746
Y-4.962 Z-10.75
Y-5.097 Z-10.755
Y-5.233 Z-10.76
Y-5.368 Z-10.765
Y-5.503 Z-10.769
Y-5.639 Z-10.774
Y-5.774 Z-10.779
Y-5.909 Z-10.784
Y-6.045 Z-10.788
Y-6.18 Z-10.793
Y-6.315 Z-10.798
Y-6.451 Z-10.802
Y-6.721 Z-10.812
Y-6.857 Z-10.817
Y-6.992 Z-10.821
Y-7.128 Z-10.826
Y-7.263 Z-10.83
Y-7.398 Z-10.835
Y-7.534 Z-10.839
Y-7.669 Z-10.844
Y-7.804 Z-10.848
Y-7.94 Z-10.852
Y-8.075 Z-10.857
Y-8.21 Z-10.861
Y-8.346 Z-10.865
Y-8.481 Z-10.869
Y-8.616 Z-10.873
Y-8.752 Z-10.877
Y-8.887 Z-10.881
Y-9.022 Z-10.885
Y-9.158 Z-10.889
Y-9.293 Z-10.893
Y-9.428 Z-10.897
Y-9.564 Z-10.9
Y-9.699 Z-10.904
Y-9.835 Z-10.908
Y-9.97 Z-10.911
Y-10.105 Z-10.915
Y-10.241 Z-10.918
Y-10.376 Z-10.922
Y-10.511 Z-10.925
Y-10.647 Z-10.928
Y-10.782 Z-10.931
Y-10.917 Z-10.934
Y-11.053 Z-10.937
Y-11.188 Z-10.94
Y-11.323 Z-10.943
Y-11.459 Z-10.946
Y-11.594 Z-10.949
Y-11.729 Z-10.952
Y-11.865 Z-10.954
Y-12. Z-10.957
Y-12.271 Z-10.962
Y-12.542 Z-10.967
Y-12.812 Z-10.971
Y-13.083 Z-10.975
Y-13.354 Z-10.979
Y-13.624 Z-10.983
Y-13.895 Z-10.986
Y-14.166 Z-10.989
Y-14.436 Z-10.991
Y-14.707 Z-10.994
Y-14.978 Z-10.996
Y-15.249 Z-10.997
Y-15.519 Z-10.998
Y-15.79 Z-10.999
Y-16.061 Z-11.
Y-16.331
Y-19.944
X12.347 Y-20.098
X12.333 Y-20.251
X12.305 Y-20.405
X12.283 Y-20.493
X12.264 Y-20.558
X12.238 Y-20.635
X12.208 Y-20.711
X12.174 Y-20.788
X12.135 Y-20.865
X12.129 Y-20.876
X12.089 Y-20.947
X12.045 Y-21.018
X11.976 Y-21.115
X11.932 Y-21.172
X11.879 Y-21.233
X11.822 Y-21.294
X11.791 Y-21.325
X11.73 Y-21.382
X11.669 Y-21.434
X11.612 Y-21.479
X11.515 Y-21.546
X11.443 Y-21.591
X11.371 Y-21.632
X11.362 Y-21.637
X11.285 Y-21.675
X11.208 Y-21.709
X11.131 Y-21.739
X11.055 Y-21.765
X10.985 Y-21.785
X10.901 Y-21.806
X10.748 Y-21.833
X10.594 Y-21.848
X10.441 Y-21.85
X-10.441
X-10.594 Y-21.848
X-10.748 Y-21.833
X-10.901 Y-21.806
X-10.985 Y-21.785
X-11.055 Y-21.765
X-11.131 Y-21.739
X-11.208 Y-21.709
X-11.285 Y-21.675
X-11.362 Y-21.637
X-11.371 Y-21.632
X-11.443 Y-21.591
X-11.515 Y-21.546
X-11.612 Y-21.479
X-11.669 Y-21.434
X-11.73 Y-21.382
X-11.791 Y-21.325
X-11.822 Y-21.294
X-11.879 Y-21.233
X-11.932 Y-21.172
X-11.976 Y-21.115
X-12.045 Y-21.018
X-12.089 Y-20.947
X-12.129 Y-20.876
X-12.135 Y-20.865
X-12.174 Y-20.788
X-12.208 Y-20.711
X-12.238 Y-20.635
X-12.264 Y-20.558
X-12.283 Y-20.493
X-12.305 Y-20.405
X-12.333 Y-20.251
X-12.347 Y-20.098
X-12.35 Y-19.944
Y19.944
X-12.347 Y20.098
X-12.333 Y20.251
X-12.305 Y20.405
X-12.283 Y20.493
X-12.264 Y20.558
X-12.238 Y20.635
X-12.208 Y20.711
X-12.174 Y20.788
X-12.135 Y20.865
X-12.129 Y20.876
X-12.089 Y20.947
X-12.045 Y21.018
X-11.976 Y21.115
X-11.932 Y21.172
X-11.879 Y21.233
X-11.822 Y21.294
X-11.791 Y21.325
X-11.73 Y21.382
X-11.669 Y21.434
X-11.612 Y21.479
X-11.515 Y21.546
X-11.443 Y21.591
X-11.371 Y21.632
X-11.362 Y21.637
X-11.285 Y21.675
X-11.208 Y21.709
X-11.131 Y21.739
X-11.055 Y21.765
X-10.985 Y21.785
X-10.901 Y21.806
X-10.748 Y21.833
X-10.594 Y21.848
X-10.441 Y21.85
X10.441
X10.594 Y21.848
X10.748 Y21.833
X10.901 Y21.806
X10.985 Y21.785
X11.055 Y21.765
X11.131 Y21.739
X11.208 Y21.709
X11.285 Y21.675
X11.362 Y21.637
X11.371 Y21.632
X11.443 Y21.591
X11.515 Y21.546
X11.612 Y21.479
X11.669 Y21.434
X11.73 Y21.382
X11.791 Y21.325
X11.822 Y21.294
X11.879 Y21.233
X11.932 Y21.172
X11.976 Y21.115
X12.045 Y21.018
X12.089 Y20.947
X12.129 Y20.876
X12.135 Y20.865
X12.174 Y20.788
X12.198 Y20.734
X12.208 Y20.711
X12.238 Y20.635
X12.264 Y20.558
X12.283 Y20.493
X12.305 Y20.405
X12.333 Y20.251
X12.347 Y20.098
X12.35 Y19.944
Y-16.331
Y-16.602
Y-16.873 Z-11.001
Y-17.143 Z-11.002
Y-17.414 Z-11.003
Y-17.685 Z-11.004
Y-17.955 Z-11.006
Y-18.226 Z-11.009
Y-18.497 Z-11.011
Y-18.768 Z-11.014
Y-19.038 Z-11.017
Y-19.309 Z-11.021
Y-19.58 Z-11.025
Y-19.85 Z-11.029
Y-19.986 Z-11.031
X12.346 Y-20.121 Z-11.033
X12.332 Y-20.256 Z-11.036
X12.309 Y-20.389 Z-11.038
X12.275 Y-20.52 Z-11.04
X12.233 Y-20.648 Z-11.043
X12.181 Y-20.773 Z-11.046
X12.12 Y-20.894 Z-11.048
X12.05 Y-21.01 Z-11.051
X11.972 Y-21.121 Z-11.054
X11.886 Y-21.225 Z-11.057
X11.793 Y-21.323 Z-11.06
X11.692 Y-21.414 Z-11.063
X11.586 Y-21.498 Z-11.066
X11.473 Y-21.573 Z-11.069
X11.356 Y-21.64 Z-11.072
X11.234 Y-21.698 Z-11.075
X11.108 Y-21.747 Z-11.078
X10.978 Y-21.787 Z-11.082
X10.846 Y-21.817 Z-11.085
X10.712 Y-21.838 Z-11.089
X10.577 Y-21.848 Z-11.092
X10.442 Y-21.85 Z-11.096
X10.307 Z-11.1
X10.171 Z-11.103
X10.036 Z-11.107
X9.901 Z-11.111
X9.765 Z-11.115
X9.63 Z-11.119
X9.495 Z-11.123
X9.359 Z-11.127
X9.224 Z-11.131
X9.089 Z-11.135
X8.953 Z-11.139
X8.818 Z-11.143
X8.683 Z-11.148
X8.547 Z-11.152
X8.412 Z-11.156
X8.277 Z-11.161
X8.141 Z-11.165
X8.006 Z-11.17
X7.87 Z-11.174
X7.735 Z-11.179
X7.6 Z-11.183
X7.464 Z-11.188
X7.194 Z-11.198
X7.058 Z-11.202
X6.923 Z-11.207
X6.788 Z-11.212
X6.652 Z-11.216
X6.517 Z-11.221
X6.382 Z-11.226
X6.246 Z-11.231
X6.111 Z-11.235
X5.976 Z-11.24
X5.84 Z-11.245
X5.705 Z-11.25
X5.57 Z-11.254
X5.434 Z-11.259
X5.299 Z-11.264
X5.163 Z-11.268
X5.028 Z-11.273
X4.893 Z-11.278
X4.757 Z-11.283
X4.622 Z-11.287
X4.487 Z-11.292
X4.351 Z-11.297
X4.216 Z-11.302
X4.081 Z-11.306
X3.945 Z-11.311
X3.81 Z-11.316
X3.675 Z-11.32
X3.539 Z-11.325
X3.404 Z-11.33
X3.133 Z-11.339
X2.727 Z-11.354
X2.321 Z-11.368
X1.915 Z-11.382
X1.509 Z-11.396
X1.103 Z-11.41
X0.426 Z-11.434
X-0.251 Z-11.457
X-1.604 Z-11.505
X-4.988 Z-11.623
X-5.394 Z-11.637
X-5.8 Z-11.651
X-6.206 Z-11.665
X-6.341 Z-11.67
X-6.477 Z-11.675
X-6.612 Z-11.68
X-6.747 Z-11.684
X-6.883 Z-11.689
X-7.018 Z-11.694
X-7.153 Z-11.699
X-7.289 Z-11.703
X-7.424 Z-11.708
X-7.56 Z-11.713
X-7.695 Z-11.717
X-7.83 Z-11.722
X-7.966 Z-11.727
X-8.101 Z-11.732
X-8.236 Z-11.736
X-8.372 Z-11.741
X-8.507 Z-11.746
X-8.642 Z-11.75
X-8.778 Z-11.755
X-8.913 Z-11.76
X-9.048 Z-11.765
X-9.184 Z-11.769
X-9.319 Z-11.774
X-9.454 Z-11.779
X-9.59 Z-11.784
X-9.725 Z-11.788
X-9.861 Z-11.793
X-9.996 Z-11.798
X-10.131 Z-11.802
X-10.402 Z-11.812
X-10.537 Z-11.817
X-10.672 Y-21.842 Z-11.821
X-10.807 Y-21.824 Z-11.826
X-10.939 Y-21.797 Z-11.83
X-11.069 Y-21.76 Z-11.835
X-11.197 Y-21.714 Z-11.839
X-11.32 Y-21.658 Z-11.844
X-11.439 Y-21.594 Z-11.848
X-11.553 Y-21.521 Z-11.852
X-11.661 Y-21.44 Z-11.857
X-11.764 Y-21.351 Z-11.861
X-11.859 Y-21.255 Z-11.865
X-11.947 Y-21.153 Z-11.869
X-12.027 Y-21.044 Z-11.873
X-12.1 Y-20.929 Z-11.877
X-12.163 Y-20.81 Z-11.881
X-12.218 Y-20.686 Z-11.885
X-12.264 Y-20.559 Z-11.889
X-12.3 Y-20.428 Z-11.893
X-12.326 Y-20.295 Z-11.897
X-12.343 Y-20.161 Z-11.9
X-12.35 Y-20.026 Z-11.904
Y-19.891 Z-11.908
Y-19.755 Z-11.911
Y-19.62 Z-11.915
Y-19.485 Z-11.918
Y-19.349 Z-11.922
Y-19.214 Z-11.925
Y-19.078 Z-11.928
Y-18.943 Z-11.931
Y-18.808 Z-11.934
Y-18.672 Z-11.937
Y-18.537 Z-11.94
Y-18.402 Z-11.943
Y-18.266 Z-11.946
Y-18.131 Z-11.949
Y-17.996 Z-11.952
Y-17.86 Z-11.954
Y-17.725 Z-11.957
Y-17.454 Z-11.962
Y-17.184 Z-11.967
Y-16.913 Z-11.971
Y-16.642 Z-11.975
Y-16.371 Z-11.979
Y-16.101 Z-11.983
Y-15.83 Z-11.986
Y-15.559 Z-11.989
Y-15.289 Z-11.991
Y-15.018 Z-11.994
Y-14.747 Z-11.996
Y-14.477 Z-11.997
Y-14.206 Z-11.998
Y-13.935 Z-11.999
Y-13.664 Z-12.
Y-13.394
Y19.944
X-12.347 Y20.098
X-12.333 Y20.251
X-12.305 Y20.405
X-12.283 Y20.493
X-12.264 Y20.558
X-12.238 Y20.635
X-12.208 Y20.711
X-12.174 Y20.788
X-12.135 Y20.865
X-12.129 Y20.876
X-12.089 Y20.947
X-12.045 Y21.018
X-11.976 Y21.115
X-11.932 Y21.172
X-11.879 Y21.233
X-11.822 Y21.294
X-11.791 Y21.325
X-11.73 Y21.382
X-11.669 Y21.434
X-11.612 Y21.479
X-11.515 Y21.546
X-11.443 Y21.591
X-11.371 Y21.632
X-11.362 Y21.637
X-11.285 Y21.675
X-11.208 Y21.709
X-11.131 Y21.739
X-11.055 Y21.765
X-10.985 Y21.785
X-10.901 Y21.806
X-10.748 Y21.833
X-10.594 Y21.848
X-10.441 Y21.85
X10.441
X10.594 Y21.848
X10.748 Y21.833
X10.901 Y21.806
X10.985 Y21.785
X11.055 Y21.765
X11.131 Y21.739
X11.208 Y21.709
X11.285 Y21.675
X11.362 Y21.637
X11.371 Y21.632
X11.443 Y21.591
X11.515 Y21.546
X11.612 Y21.479
X11.669 Y21.434
X11.73 Y21.382
X11.791 Y21.325
X11.822 Y21.294
X11.879 Y21.233
X11.932 Y21.172
X11.976 Y21.115
X12.045 Y21.018
X12.089 Y20.947
X12.129 Y20.876
X12.135 Y20.865
X12.174 Y20.788
X12.208 Y20.711
X12.238 Y20.635
X12.264 Y20.558
X12.283 Y20.493
X12.305 Y20.405
X12.333 Y20.251
X12.347 Y20.098
X12.35 Y19.944
Y-16.331
Y-19.944
X12.347 Y-20.098
X12.333 Y-20.251
X12.305 Y-20.405
X12.283 Y-20.493
X12.264 Y-20.558
X12.238 Y-20.635
X12.208 Y-20.711
X12.174 Y-20.788
X12.135 Y-20.865
X12.129 Y-20.876
X12.089 Y-20.947
X12.045 Y-21.018
X11.976 Y-21.115
X11.932 Y-21.172
X11.879 Y-21.233
X11.822 Y-21.294
X11.791 Y-21.325
X11.73 Y-21.382
X11.669 Y-21.434
X11.612 Y-21.479
X11.515 Y-21.546
X11.443 Y-21.591
X11.371 Y-21.632
X11.362 Y-21.637
X11.285 Y-21.675
X11.208 Y-21.709
X11.131 Y-21.739
X11.055 Y-21.765
X10.985 Y-21.785
X10.901 Y-21.806
X10.748 Y-21.833
X10.594 Y-21.848
X10.441 Y-21.85
X-10.441
X-10.594 Y-21.848
X-10.748 Y-21.833
X-10.901 Y-21.806
X-10.985 Y-21.785
X-11.055 Y-21.765
X-11.131 Y-21.739
X-11.208 Y-21.709
X-11.285 Y-21.675
X-11.362 Y-21.637
X-11.371 Y-21.632
X-11.443 Y-21.591
X-11.515 Y-21.546
X-11.612 Y-21.479
X-11.669 Y-21.434
X-11.73 Y-21.382
X-11.791 Y-21.325
X-11.822 Y-21.294
X-11.879 Y-21.233
X-11.932 Y-21.172
X-11.976 Y-21.115
X-12.045 Y-21.018
X-12.089 Y-20.947
X-12.129 Y-20.876
X-12.135 Y-20.865
X-12.174 Y-20.788
X-12.208 Y-20.711
X-12.238 Y-20.635
X-12.264 Y-20.558
X-12.283 Y-20.493
X-12.305 Y-20.405
X-12.333 Y-20.251
X-12.347 Y-20.098
X-12.35 Y-19.944
Y-13.394
G3 X-12.72 Y-13.024 I-0.37 J0.
G18 G3 X-13.09 Z-11.63 I0. K0.37
G0 Z2.
G17

M9
G53 Z0.
M30
