(5)
(T2  D=3.7 CR=0. - ZMIN=-1. - FLAT END MILL)
G0 G90 G94 G17
G21
G53 Z0.

(SCREW COUNTERSINK)
M5
M9
T2
(PART OF A 10 PACK CARBIDE)
S18000 M3
G54
M9
G0 X-0.329 Y-9.712
Z2.
Z1.369
G1 Z-0.63 F33.
X-0.335 Y-9.714 Z-0.702
X-0.355 Y-9.723 Z-0.772
X-0.386 Y-9.737 Z-0.836
X-0.428 Y-9.755 Z-0.892
X-0.479 Y-9.777 Z-0.938
X-0.538 Y-9.803 Z-0.972
X-0.602 Y-9.831 Z-0.993
X-0.668 Y-9.86 Z-1.
X-1.556 Y-10.248
G3 X-1.747 Y-10.735 I0.148 J-0.339
G1 X-1.698 Y-10.848
X-1.696 Y-10.85
X-1.601 Y-11.018
X-1.488 Y-11.177
X-1.487 Y-11.179
X-1.359 Y-11.324
X-1.357 Y-11.326
X-1.217 Y-11.455
X-1.215 Y-11.457
X-1.062 Y-11.573
X-1.059 Y-11.574
X-0.892 Y-11.675
X-0.89 Y-11.676
X-0.716 Y-11.757
X-0.714 Y-11.758
X-0.532 Y-11.821
X-0.529 Y-11.822
X-0.342 Y-11.866
X-0.34 Y-11.867
X-0.147 Y-11.892
X-0.145
X0.047 Y-11.897
X0.05
X0.243 Y-11.882
X0.244
X0.434 Y-11.847
X0.437
X0.622 Y-11.793
X0.624 Y-11.792
X0.803 Y-11.719
X0.805 Y-11.718
X0.975 Y-11.628
X0.978 Y-11.626
X1.137 Y-11.519
X1.139 Y-11.517
X1.287 Y-11.394
X1.289 Y-11.392
X1.424 Y-11.254
X1.426 Y-11.252
X1.546 Y-11.1
X1.547 Y-11.099
X1.65 Y-10.936
X1.652 Y-10.934
X1.738 Y-10.761
X1.739 Y-10.759
X1.808 Y-10.577
X1.857 Y-10.39
Y-10.388
X1.887 Y-10.196
X1.888 Y-10.194
X1.898 Y-10.
X1.888 Y-9.806
X1.887 Y-9.804
X1.857 Y-9.612
Y-9.61
X1.808 Y-9.423
X1.739 Y-9.241
X1.738 Y-9.239
X1.651 Y-9.065
X1.649 Y-9.061
X1.547 Y-8.901
X1.545 Y-8.898
X1.427 Y-8.749
X1.425 Y-8.747
X1.289 Y-8.608
X1.287 Y-8.606
X1.139 Y-8.483
X1.137 Y-8.481
X0.978 Y-8.374
X0.977 Y-8.373
X0.805 Y-8.281
X0.802
X0.623 Y-8.208
X0.437 Y-8.153
X0.434
X0.244 Y-8.118
X0.242
X0.05 Y-8.103
X0.047
X-0.145 Y-8.108
X-0.147
X-0.339 Y-8.133
X-0.342 Y-8.134
X-0.529 Y-8.178
X-0.532 Y-8.179
X-0.714 Y-8.242
X-0.717 Y-8.243
X-0.891 Y-8.325
X-0.893 Y-8.326
X-1.059 Y-8.425
X-1.061 Y-8.427
X-1.215 Y-8.542
X-1.217 Y-8.544
X-1.358 Y-8.675
X-1.36 Y-8.677
X-1.487 Y-8.822
X-1.489 Y-8.824
X-1.6 Y-8.98
X-1.601 Y-8.982
X-1.697 Y-9.151
X-1.698 Y-9.153
X-1.775 Y-9.33
X-1.776 Y-9.332
X-1.835 Y-9.516
Y-9.519
X-1.875 Y-9.708
Y-9.71
X-1.895 Y-9.902
Y-9.904
Y-10.096
Y-10.098
X-1.875 Y-10.29
Y-10.292
X-1.835 Y-10.481
Y-10.484
X-1.776 Y-10.668
X-1.775 Y-10.67
X-1.747 Y-10.735
G3 X-1.26 Y-10.926 I0.339 J0.148
G1 X-1.193 Y-10.897 Z-0.993
X-1.13 Y-10.869 Z-0.972
X-1.071 Y-10.844 Z-0.938
X-1.02 Y-10.821 Z-0.892
X-0.978 Y-10.803 Z-0.836
X-0.946 Y-10.789 Z-0.772
X-0.927 Y-10.781 Z-0.702
X-0.921 Y-10.778 Z-0.63
G0 Z2.
X-0.418 Y9.869
Z1.37
G1 Z-0.63 F33.
Y9.862 Z-0.702
X-0.419 Y9.841 Z-0.772
X-0.421 Y9.807 Z-0.836
X-0.424 Y9.761 Z-0.892
X-0.427 Y9.705 Z-0.938
X-0.431 Y9.641 Z-0.972
X-0.435 Y9.572 Z-0.993
X-0.439 Y9.5 Z-1.
X-0.496 Y8.499
G3 X-0.147 Y8.108 I0.369 J-0.021
G1 X-0.145
X0.047 Y8.103
X0.05
X0.242 Y8.118
X0.244
X0.434 Y8.153
X0.437
X0.623 Y8.208
X0.802 Y8.281
X0.805
X0.977 Y8.373
X0.978 Y8.374
X1.137 Y8.481
X1.139 Y8.483
X1.287 Y8.606
X1.289 Y8.608
X1.425 Y8.747
X1.427 Y8.749
X1.545 Y8.898
X1.547 Y8.901
X1.65 Y9.063
X1.651 Y9.065
X1.738 Y9.239
X1.739 Y9.241
X1.808 Y9.423
X1.857 Y9.61
Y9.612
X1.887 Y9.804
X1.888 Y9.806
X1.898 Y10.
X1.888 Y10.194
X1.887 Y10.196
X1.857 Y10.388
Y10.39
X1.808 Y10.577
X1.739 Y10.759
X1.738 Y10.761
X1.652 Y10.934
X1.65 Y10.936
X1.547 Y11.099
X1.546 Y11.1
X1.426 Y11.252
X1.424 Y11.254
X1.289 Y11.392
X1.287 Y11.394
X1.139 Y11.517
X1.137 Y11.519
X0.978 Y11.626
X0.975 Y11.628
X0.805 Y11.718
X0.803 Y11.719
X0.624 Y11.792
X0.622 Y11.793
X0.437 Y11.847
X0.434
X0.244 Y11.882
X0.243
X0.05 Y11.897
X0.047
X-0.145 Y11.892
X-0.147
X-0.34 Y11.867
X-0.342 Y11.866
X-0.529 Y11.822
X-0.532 Y11.821
X-0.714 Y11.758
X-0.716 Y11.757
X-0.89 Y11.676
X-0.892 Y11.675
X-1.059 Y11.574
X-1.062 Y11.573
X-1.215 Y11.457
X-1.217 Y11.455
X-1.357 Y11.326
X-1.359 Y11.324
X-1.487 Y11.179
X-1.488 Y11.177
X-1.601 Y11.018
X-1.696 Y10.85
X-1.698 Y10.848
X-1.775 Y10.67
X-1.776 Y10.668
X-1.835 Y10.484
Y10.481
X-1.875 Y10.292
Y10.29
X-1.895 Y10.098
Y10.096
Y9.904
Y9.902
X-1.875 Y9.71
Y9.708
X-1.835 Y9.519
Y9.516
X-1.776 Y9.332
X-1.775 Y9.33
X-1.698 Y9.153
X-1.697 Y9.151
X-1.601 Y8.982
X-1.6 Y8.98
X-1.489 Y8.824
X-1.487 Y8.822
X-1.36 Y8.677
X-1.358 Y8.675
X-1.217 Y8.544
X-1.215 Y8.542
X-1.061 Y8.427
X-1.059 Y8.425
X-0.893 Y8.326
X-0.891 Y8.325
X-0.717 Y8.243
X-0.714 Y8.242
X-0.532 Y8.179
X-0.529 Y8.178
X-0.342 Y8.134
X-0.339 Y8.133
X-0.147 Y8.108
G3 X0.243 Y8.457 I0.021 J0.369
G1 X0.247 Y8.529 Z-0.993
X0.251 Y8.598 Z-0.972
X0.255 Y8.662 Z-0.938
X0.258 Y8.718 Z-0.892
X0.261 Y8.764 Z-0.836
X0.263 Y8.798 Z-0.772
X0.264 Y8.819 Z-0.702
Y8.826 Z-0.63
G0 Z2.

M9
G53 Z0.
M30
