(1-ALL)
(T2  D=3. CR=0. - ZMIN=-12. - FLAT END MILL)
G0 G90 G94 G17
G21
G53 Z0.

(CONTOUR - HOLE1)
M5
M9
T2
(PART OF A 10 PACK CARBIDE)
M3 S18000
G54
M9
G0 X12.484 Y15.032
Z2.
Z0.293
G1 Z-1.7 F500.
X12.476 Y15.031 Z-1.767
X12.454 Y15.029 Z-1.83
X12.418 Y15.025 Z-1.887
X12.371 Y15.02 Z-1.935
X12.315 Y15.014 Z-1.97
X12.251 Y15.008 Z-1.992
X12.185 Y15.001 Z-2.
X10.797 Y14.859
G3 X10.53 Y14.53 I0.031 J-0.298
G1 X10.531 Y14.516
X10.548 Y14.379
X10.569 Y14.241
X10.595 Y14.104
X10.625 Y13.966
X10.66 Y13.829
X10.667 Y13.803
X10.7 Y13.691
X10.743 Y13.554
X10.793 Y13.416
X10.805 Y13.384
X10.848 Y13.278
X10.907 Y13.141
X10.942 Y13.065
X10.973 Y13.003
X11.043 Y12.866
X11.12 Y12.728
X11.205 Y12.591
X11.217 Y12.57
X11.296 Y12.453
X11.355 Y12.369
X11.394 Y12.316
X11.493 Y12.189
X11.501 Y12.178
X11.617 Y12.041
X11.63 Y12.025
X11.742 Y11.903
X11.768 Y11.876
X11.878 Y11.765
X11.905 Y11.739
X12.027 Y11.628
X12.043 Y11.614
X12.18 Y11.499
X12.19 Y11.49
X12.318 Y11.392
X12.372 Y11.353
X12.455 Y11.294
X12.575 Y11.215
X12.593 Y11.204
X12.731 Y11.12
X12.803 Y11.078
X12.868 Y11.043
X13.006 Y10.971
X13.07 Y10.94
X13.143 Y10.906
X13.281 Y10.846
X13.391 Y10.803
X13.418 Y10.792
X13.556 Y10.743
X13.693 Y10.699
X13.808 Y10.665
X13.831 Y10.659
X13.969 Y10.625
X14.106 Y10.595
X14.244 Y10.569
X14.381 Y10.547
X14.541 Y10.528
X14.656 Y10.518
X14.794 Y10.51
X14.932 Y10.505
X15.069
X15.207 Y10.51
X15.344 Y10.518
X15.459 Y10.528
X15.619 Y10.547
X15.757 Y10.569
X15.894 Y10.595
X16.032 Y10.625
X16.17 Y10.659
X16.192 Y10.665
X16.307 Y10.699
X16.445 Y10.743
X16.582 Y10.793
X16.609 Y10.803
X16.72 Y10.846
X16.857 Y10.906
X16.93 Y10.94
X16.995 Y10.972
X17.132 Y11.043
X17.197 Y11.078
X17.27 Y11.12
X17.408 Y11.204
X17.425 Y11.215
X17.545 Y11.295
X17.628 Y11.353
X17.683 Y11.393
X17.81 Y11.49
X17.82 Y11.499
X17.958 Y11.614
X17.973 Y11.628
X18.095 Y11.74
X18.122 Y11.765
X18.233 Y11.876
X18.258 Y11.903
X18.37 Y12.026
X18.383 Y12.041
X18.499 Y12.178
X18.508 Y12.19
X18.606 Y12.316
X18.646 Y12.37
X18.704 Y12.453
X18.783 Y12.571
X18.795 Y12.591
X18.88 Y12.728
X18.957 Y12.866
X19.027 Y13.003
X19.058 Y13.066
X19.093 Y13.141
X19.152 Y13.278
X19.196 Y13.385
X19.207 Y13.416
X19.257 Y13.554
X19.3 Y13.691
X19.333 Y13.805
X19.34 Y13.829
X19.375 Y13.966
X19.405 Y14.104
X19.431 Y14.241
X19.452 Y14.379
X19.469 Y14.516
X19.471 Y14.536
X19.482 Y14.654
X19.491 Y14.791
X19.494 Y14.929
X19.495 Y15.067
X19.491 Y15.204
X19.483 Y15.342
X19.471 Y15.464
X19.469 Y15.479
X19.453 Y15.617
X19.432 Y15.754
X19.406 Y15.892
X19.376 Y16.029
X19.341 Y16.167
X19.333 Y16.195
X19.302 Y16.304
X19.258 Y16.442
X19.209 Y16.58
X19.196 Y16.615
X19.154 Y16.717
X19.095 Y16.855
X19.058 Y16.934
X19.03 Y16.992
X18.959 Y17.13
X18.882 Y17.267
X18.798 Y17.405
X18.783 Y17.429
X18.707 Y17.542
X18.646 Y17.63
X18.609 Y17.68
X18.508 Y17.81
X18.503 Y17.817
X18.387 Y17.955
X18.37 Y17.974
X18.262 Y18.092
X18.233 Y18.124
X18.126 Y18.23
X18.095 Y18.26
X17.978 Y18.368
X17.958 Y18.386
X17.82 Y18.501
X17.815 Y18.505
X17.683 Y18.607
X17.634 Y18.643
X17.545 Y18.705
X17.432 Y18.78
X17.408 Y18.796
X17.27 Y18.88
X17.205 Y18.918
X17.132 Y18.957
X16.995 Y19.028
X16.939 Y19.055
X16.857 Y19.094
X16.72 Y19.154
X16.62 Y19.193
X16.582 Y19.207
X16.445 Y19.257
X16.307 Y19.301
X16.207 Y19.33
X16.17 Y19.341
X16.032 Y19.375
X15.894 Y19.405
X15.757 Y19.431
X15.619 Y19.453
X15.482 Y19.47
X15.344 Y19.482
X15.207 Y19.49
X15.069 Y19.495
X14.932
X14.794 Y19.49
X14.656 Y19.482
X14.519 Y19.47
X14.381 Y19.453
X14.244 Y19.431
X14.106 Y19.405
X13.969 Y19.375
X13.831 Y19.341
X13.793 Y19.33
X13.693 Y19.301
X13.556 Y19.257
X13.418 Y19.208
X13.38 Y19.193
X13.281 Y19.154
X13.143 Y19.094
X13.061 Y19.055
X13.006 Y19.029
X12.868 Y18.957
X12.795 Y18.918
X12.731 Y18.88
X12.593 Y18.796
X12.568 Y18.78
X12.455 Y18.706
X12.366 Y18.643
X12.318 Y18.608
X12.185 Y18.505
X12.18 Y18.501
X12.043 Y18.386
X12.022 Y18.368
X11.905 Y18.261
X11.874 Y18.23
X11.768 Y18.124
X11.738 Y18.092
X11.63 Y17.975
X11.613 Y17.955
X11.497 Y17.817
X11.493 Y17.811
X11.391 Y17.68
X11.355 Y17.631
X11.293 Y17.542
X11.217 Y17.43
X11.202 Y17.405
X11.118 Y17.267
X11.041 Y17.13
X10.97 Y16.992
X10.942 Y16.935
X10.905 Y16.855
X10.846 Y16.717
X10.805 Y16.616
X10.791 Y16.58
X10.742 Y16.442
X10.698 Y16.304
X10.667 Y16.197
X10.659 Y16.167
X10.624 Y16.029
X10.594 Y15.892
X10.568 Y15.754
X10.547 Y15.617
X10.531 Y15.479
X10.53 Y15.47
X10.517 Y15.342
X10.509 Y15.204
X10.505 Y15.067
X10.506 Y14.929
X10.509 Y14.791
X10.518 Y14.654
X10.53 Y14.53
G3 X10.857 Y14.26 I0.299 J0.029
G2 X11.171 Y13.87 I0.029 J-0.299
G3 X11.283 Y13.533 I0.286 J-0.092
X13.054 Y13.633 I0.822 J1.164
X13.062 Y13.64 I-0.948 J1.064 F167.
X11.15 Y15.754 Z-2.156 I-0.956 J1.057
X13.062 Y13.64 Z-2.313 I0.956 J-1.057
X11.15 Y15.754 Z-2.469 I-0.956 J1.057
X13.062 Y13.64 Z-2.625 I0.956 J-1.057
X11.15 Y15.754 Z-2.782 I-0.956 J1.057
X13.062 Y13.64 Z-2.938 I0.956 J-1.057
X11.15 Y15.754 Z-3.094 I-0.956 J1.057
X13.062 Y13.64 Z-3.25 I0.956 J-1.057
X11.15 Y15.754 Z-3.407 I-0.956 J1.057
X13.062 Y13.64 Z-3.563 I0.956 J-1.057
X11.15 Y15.754 Z-3.719 I-0.956 J1.057
X13.062 Y13.64 Z-3.875 I0.956 J-1.057
X11.971 Y16.115 Z-4. I-0.956 J1.057
X11.961 Y16.114 I0.135 J-1.419
G1 X11.807 Y16.098 F500.
G3 X10.53 Y14.53 I0.146 J-1.423
G1 X10.531 Y14.516
X10.548 Y14.379
X10.569 Y14.241
X10.595 Y14.104
X10.625 Y13.966
X10.66 Y13.829
X10.667 Y13.803
X10.7 Y13.691
X10.743 Y13.554
X10.793 Y13.416
X10.805 Y13.384
X10.848 Y13.278
X10.907 Y13.141
X10.942 Y13.065
X10.973 Y13.003
X11.043 Y12.866
X11.12 Y12.728
X11.205 Y12.591
X11.217 Y12.57
X11.296 Y12.453
X11.355 Y12.369
X11.394 Y12.316
X11.493 Y12.189
X11.501 Y12.178
X11.617 Y12.041
X11.63 Y12.025
X11.742 Y11.903
X11.768 Y11.876
X11.878 Y11.765
X11.905 Y11.739
X12.027 Y11.628
X12.043 Y11.614
X12.18 Y11.499
X12.19 Y11.49
X12.318 Y11.392
X12.372 Y11.353
X12.455 Y11.294
X12.575 Y11.215
X12.593 Y11.204
X12.731 Y11.12
X12.803 Y11.078
X12.868 Y11.043
X13.006 Y10.971
X13.07 Y10.94
X13.143 Y10.906
X13.281 Y10.846
X13.391 Y10.803
X13.418 Y10.792
X13.556 Y10.743
X13.693 Y10.699
X13.808 Y10.665
X13.831 Y10.659
X13.969 Y10.625
X14.106 Y10.595
X14.244 Y10.569
X14.381 Y10.547
X14.541 Y10.528
X14.656 Y10.518
X14.794 Y10.51
X14.932 Y10.505
X15.069
X15.207 Y10.51
X15.344 Y10.518
X15.459 Y10.528
X15.619 Y10.547
X15.757 Y10.569
X15.894 Y10.595
X16.032 Y10.625
X16.17 Y10.659
X16.192 Y10.665
X16.307 Y10.699
X16.445 Y10.743
X16.582 Y10.793
X16.609 Y10.803
X16.72 Y10.846
X16.857 Y10.906
X16.93 Y10.94
X16.995 Y10.972
X17.132 Y11.043
X17.197 Y11.078
X17.27 Y11.12
X17.408 Y11.204
X17.425 Y11.215
X17.545 Y11.295
X17.628 Y11.353
X17.683 Y11.393
X17.81 Y11.49
X17.82 Y11.499
X17.958 Y11.614
X17.973 Y11.628
X18.095 Y11.74
X18.122 Y11.765
X18.233 Y11.876
X18.258 Y11.903
X18.37 Y12.026
X18.383 Y12.041
X18.499 Y12.178
X18.508 Y12.19
X18.606 Y12.316
X18.646 Y12.37
X18.704 Y12.453
X18.783 Y12.571
X18.795 Y12.591
X18.88 Y12.728
X18.957 Y12.866
X19.027 Y13.003
X19.058 Y13.066
X19.093 Y13.141
X19.152 Y13.278
X19.196 Y13.385
X19.207 Y13.416
X19.257 Y13.554
X19.3 Y13.691
X19.333 Y13.805
X19.34 Y13.829
X19.375 Y13.966
X19.405 Y14.104
X19.431 Y14.241
X19.452 Y14.379
X19.469 Y14.516
X19.471 Y14.536
X19.482 Y14.654
X19.491 Y14.791
X19.494 Y14.929
X19.495 Y15.067
X19.491 Y15.204
X19.483 Y15.342
X19.471 Y15.464
X19.469 Y15.479
X19.453 Y15.617
X19.432 Y15.754
X19.406 Y15.892
X19.376 Y16.029
X19.341 Y16.167
X19.333 Y16.195
X19.302 Y16.304
X19.258 Y16.442
X19.209 Y16.58
X19.196 Y16.615
X19.154 Y16.717
X19.095 Y16.855
X19.058 Y16.934
X19.03 Y16.992
X18.959 Y17.13
X18.882 Y17.267
X18.798 Y17.405
X18.783 Y17.429
X18.707 Y17.542
X18.646 Y17.63
X18.609 Y17.68
X18.508 Y17.81
X18.503 Y17.817
X18.387 Y17.955
X18.37 Y17.974
X18.262 Y18.092
X18.233 Y18.124
X18.126 Y18.23
X18.095 Y18.26
X17.978 Y18.368
X17.958 Y18.386
X17.82 Y18.501
X17.815 Y18.505
X17.683 Y18.607
X17.634 Y18.643
X17.545 Y18.705
X17.432 Y18.78
X17.408 Y18.796
X17.27 Y18.88
X17.205 Y18.918
X17.132 Y18.957
X16.995 Y19.028
X16.939 Y19.055
X16.857 Y19.094
X16.72 Y19.154
X16.62 Y19.193
X16.582 Y19.207
X16.445 Y19.257
X16.307 Y19.301
X16.207 Y19.33
X16.17 Y19.341
X16.032 Y19.375
X15.894 Y19.405
X15.757 Y19.431
X15.619 Y19.453
X15.482 Y19.47
X15.344 Y19.482
X15.207 Y19.49
X15.069 Y19.495
X14.932
X14.794 Y19.49
X14.656 Y19.482
X14.519 Y19.47
X14.381 Y19.453
X14.244 Y19.431
X14.106 Y19.405
X13.969 Y19.375
X13.831 Y19.341
X13.793 Y19.33
X13.693 Y19.301
X13.556 Y19.257
X13.418 Y19.208
X13.38 Y19.193
X13.281 Y19.154
X13.143 Y19.094
X13.061 Y19.055
X13.006 Y19.029
X12.868 Y18.957
X12.795 Y18.918
X12.731 Y18.88
X12.593 Y18.796
X12.568 Y18.78
X12.455 Y18.706
X12.366 Y18.643
X12.318 Y18.608
X12.185 Y18.505
X12.18 Y18.501
X12.043 Y18.386
X12.022 Y18.368
X11.905 Y18.261
X11.874 Y18.23
X11.768 Y18.124
X11.738 Y18.092
X11.63 Y17.975
X11.613 Y17.955
X11.497 Y17.817
X11.493 Y17.811
X11.391 Y17.68
X11.355 Y17.631
X11.293 Y17.542
X11.217 Y17.43
X11.202 Y17.405
X11.118 Y17.267
X11.041 Y17.13
X10.97 Y16.992
X10.942 Y16.935
X10.905 Y16.855
X10.846 Y16.717
X10.805 Y16.616
X10.791 Y16.58
X10.742 Y16.442
X10.698 Y16.304
X10.667 Y16.197
X10.659 Y16.167
X10.624 Y16.029
X10.594 Y15.892
X10.568 Y15.754
X10.547 Y15.617
X10.531 Y15.479
X10.53 Y15.47
X10.517 Y15.342
X10.509 Y15.204
X10.505 Y15.067
X10.506 Y14.929
X10.509 Y14.791
X10.518 Y14.654
X10.53 Y14.53
G3 X10.857 Y14.26 I0.299 J0.029
G2 X11.171 Y13.87 I0.029 J-0.299
G3 X11.283 Y13.533 I0.286 J-0.092
X13.054 Y13.633 I0.822 J1.164
X13.062 Y13.64 I-0.948 J1.064 F167.
X11.15 Y15.754 Z-4.156 I-0.956 J1.057
X13.062 Y13.64 Z-4.313 I0.956 J-1.057
X11.15 Y15.754 Z-4.469 I-0.956 J1.057
X13.062 Y13.64 Z-4.625 I0.956 J-1.057
X11.15 Y15.754 Z-4.782 I-0.956 J1.057
X13.062 Y13.64 Z-4.938 I0.956 J-1.057
X11.15 Y15.754 Z-5.094 I-0.956 J1.057
X13.062 Y13.64 Z-5.25 I0.956 J-1.057
X11.15 Y15.754 Z-5.407 I-0.956 J1.057
X13.062 Y13.64 Z-5.563 I0.956 J-1.057
X11.15 Y15.754 Z-5.719 I-0.956 J1.057
X13.062 Y13.64 Z-5.875 I0.956 J-1.057
X11.971 Y16.115 Z-6. I-0.956 J1.057
X11.961 Y16.114 I0.135 J-1.419
G1 X11.807 Y16.098 F500.
G3 X10.53 Y14.53 I0.146 J-1.423
G1 X10.531 Y14.516
X10.548 Y14.379
X10.569 Y14.241
X10.595 Y14.104
X10.625 Y13.966
X10.66 Y13.829
X10.667 Y13.803
X10.7 Y13.691
X10.743 Y13.554
X10.793 Y13.416
X10.805 Y13.384
X10.848 Y13.278
X10.907 Y13.141
X10.942 Y13.065
X10.973 Y13.003
X11.043 Y12.866
X11.12 Y12.728
X11.205 Y12.591
X11.217 Y12.57
X11.296 Y12.453
X11.355 Y12.369
X11.394 Y12.316
X11.493 Y12.189
X11.501 Y12.178
X11.617 Y12.041
X11.63 Y12.025
X11.742 Y11.903
X11.768 Y11.876
X11.878 Y11.765
X11.905 Y11.739
X12.027 Y11.628
X12.043 Y11.614
X12.18 Y11.499
X12.19 Y11.49
X12.318 Y11.392
X12.372 Y11.353
X12.455 Y11.294
X12.575 Y11.215
X12.593 Y11.204
X12.731 Y11.12
X12.803 Y11.078
X12.868 Y11.043
X13.006 Y10.971
X13.07 Y10.94
X13.143 Y10.906
X13.281 Y10.846
X13.391 Y10.803
X13.418 Y10.792
X13.556 Y10.743
X13.693 Y10.699
X13.808 Y10.665
X13.831 Y10.659
X13.969 Y10.625
X14.106 Y10.595
X14.244 Y10.569
X14.381 Y10.547
X14.541 Y10.528
X14.656 Y10.518
X14.794 Y10.51
X14.932 Y10.505
X15.069
X15.207 Y10.51
X15.344 Y10.518
X15.459 Y10.528
X15.619 Y10.547
X15.757 Y10.569
X15.894 Y10.595
X16.032 Y10.625
X16.17 Y10.659
X16.192 Y10.665
X16.307 Y10.699
X16.445 Y10.743
X16.582 Y10.793
X16.609 Y10.803
X16.72 Y10.846
X16.857 Y10.906
X16.93 Y10.94
X16.995 Y10.972
X17.132 Y11.043
X17.197 Y11.078
X17.27 Y11.12
X17.408 Y11.204
X17.425 Y11.215
X17.545 Y11.295
X17.628 Y11.353
X17.683 Y11.393
X17.81 Y11.49
X17.82 Y11.499
X17.958 Y11.614
X17.973 Y11.628
X18.095 Y11.74
X18.122 Y11.765
X18.233 Y11.876
X18.258 Y11.903
X18.37 Y12.026
X18.383 Y12.041
X18.499 Y12.178
X18.508 Y12.19
X18.606 Y12.316
X18.646 Y12.37
X18.704 Y12.453
X18.783 Y12.571
X18.795 Y12.591
X18.88 Y12.728
X18.957 Y12.866
X19.027 Y13.003
X19.058 Y13.066
X19.093 Y13.141
X19.152 Y13.278
X19.196 Y13.385
X19.207 Y13.416
X19.257 Y13.554
X19.3 Y13.691
X19.333 Y13.805
X19.34 Y13.829
X19.375 Y13.966
X19.405 Y14.104
X19.431 Y14.241
X19.452 Y14.379
X19.469 Y14.516
X19.471 Y14.536
X19.482 Y14.654
X19.491 Y14.791
X19.494 Y14.929
X19.495 Y15.067
X19.491 Y15.204
X19.483 Y15.342
X19.471 Y15.464
X19.469 Y15.479
X19.453 Y15.617
X19.432 Y15.754
X19.406 Y15.892
X19.376 Y16.029
X19.341 Y16.167
X19.333 Y16.195
X19.302 Y16.304
X19.258 Y16.442
X19.209 Y16.58
X19.196 Y16.615
X19.154 Y16.717
X19.095 Y16.855
X19.058 Y16.934
X19.03 Y16.992
X18.959 Y17.13
X18.882 Y17.267
X18.798 Y17.405
X18.783 Y17.429
X18.707 Y17.542
X18.646 Y17.63
X18.609 Y17.68
X18.508 Y17.81
X18.503 Y17.817
X18.387 Y17.955
X18.37 Y17.974
X18.262 Y18.092
X18.233 Y18.124
X18.126 Y18.23
X18.095 Y18.26
X17.978 Y18.368
X17.958 Y18.386
X17.82 Y18.501
X17.815 Y18.505
X17.683 Y18.607
X17.634 Y18.643
X17.545 Y18.705
X17.432 Y18.78
X17.408 Y18.796
X17.27 Y18.88
X17.205 Y18.918
X17.132 Y18.957
X16.995 Y19.028
X16.939 Y19.055
X16.857 Y19.094
X16.72 Y19.154
X16.62 Y19.193
X16.582 Y19.207
X16.445 Y19.257
X16.307 Y19.301
X16.207 Y19.33
X16.17 Y19.341
X16.032 Y19.375
X15.894 Y19.405
X15.757 Y19.431
X15.619 Y19.453
X15.482 Y19.47
X15.344 Y19.482
X15.207 Y19.49
X15.069 Y19.495
X14.932
X14.794 Y19.49
X14.656 Y19.482
X14.519 Y19.47
X14.381 Y19.453
X14.244 Y19.431
X14.106 Y19.405
X13.969 Y19.375
X13.831 Y19.341
X13.793 Y19.33
X13.693 Y19.301
X13.556 Y19.257
X13.418 Y19.208
X13.38 Y19.193
X13.281 Y19.154
X13.143 Y19.094
X13.061 Y19.055
X13.006 Y19.029
X12.868 Y18.957
X12.795 Y18.918
X12.731 Y18.88
X12.593 Y18.796
X12.568 Y18.78
X12.455 Y18.706
X12.366 Y18.643
X12.318 Y18.608
X12.185 Y18.505
X12.18 Y18.501
X12.043 Y18.386
X12.022 Y18.368
X11.905 Y18.261
X11.874 Y18.23
X11.768 Y18.124
X11.738 Y18.092
X11.63 Y17.975
X11.613 Y17.955
X11.497 Y17.817
X11.493 Y17.811
X11.391 Y17.68
X11.355 Y17.631
X11.293 Y17.542
X11.217 Y17.43
X11.202 Y17.405
X11.118 Y17.267
X11.041 Y17.13
X10.97 Y16.992
X10.942 Y16.935
X10.905 Y16.855
X10.846 Y16.717
X10.805 Y16.616
X10.791 Y16.58
X10.742 Y16.442
X10.698 Y16.304
X10.667 Y16.197
X10.659 Y16.167
X10.624 Y16.029
X10.594 Y15.892
X10.568 Y15.754
X10.547 Y15.617
X10.531 Y15.479
X10.53 Y15.47
X10.517 Y15.342
X10.509 Y15.204
X10.505 Y15.067
X10.506 Y14.929
X10.509 Y14.791
X10.518 Y14.654
X10.53 Y14.53
G3 X10.857 Y14.26 I0.299 J0.029
G2 X11.171 Y13.87 I0.029 J-0.299
G3 X11.283 Y13.533 I0.286 J-0.092
X13.054 Y13.633 I0.822 J1.164
X13.062 Y13.64 I-0.948 J1.064 F167.
X11.15 Y15.754 Z-6.156 I-0.956 J1.057
X13.062 Y13.64 Z-6.313 I0.956 J-1.057
X11.15 Y15.754 Z-6.469 I-0.956 J1.057
X13.062 Y13.64 Z-6.625 I0.956 J-1.057
X11.15 Y15.754 Z-6.782 I-0.956 J1.057
X13.062 Y13.64 Z-6.938 I0.956 J-1.057
X11.15 Y15.754 Z-7.094 I-0.956 J1.057
X13.062 Y13.64 Z-7.25 I0.956 J-1.057
X11.15 Y15.754 Z-7.407 I-0.956 J1.057
X13.062 Y13.64 Z-7.563 I0.956 J-1.057
X11.15 Y15.754 Z-7.719 I-0.956 J1.057
X13.062 Y13.64 Z-7.875 I0.956 J-1.057
X11.971 Y16.115 Z-8. I-0.956 J1.057
X11.961 Y16.114 I0.135 J-1.419
G1 X11.807 Y16.098 F500.
G3 X10.53 Y14.53 I0.146 J-1.423
G1 X10.531 Y14.516
X10.548 Y14.379
X10.569 Y14.241
X10.595 Y14.104
X10.625 Y13.966
X10.66 Y13.829
X10.667 Y13.803
X10.7 Y13.691
X10.743 Y13.554
X10.793 Y13.416
X10.805 Y13.384
X10.848 Y13.278
X10.907 Y13.141
X10.942 Y13.065
X10.973 Y13.003
X11.043 Y12.866
X11.12 Y12.728
X11.205 Y12.591
X11.217 Y12.57
X11.296 Y12.453
X11.355 Y12.369
X11.394 Y12.316
X11.493 Y12.189
X11.501 Y12.178
X11.617 Y12.041
X11.63 Y12.025
X11.742 Y11.903
X11.768 Y11.876
X11.878 Y11.765
X11.905 Y11.739
X12.027 Y11.628
X12.043 Y11.614
X12.18 Y11.499
X12.19 Y11.49
X12.318 Y11.392
X12.372 Y11.353
X12.455 Y11.294
X12.575 Y11.215
X12.593 Y11.204
X12.731 Y11.12
X12.803 Y11.078
X12.868 Y11.043
X13.006 Y10.971
X13.07 Y10.94
X13.143 Y10.906
X13.281 Y10.846
X13.391 Y10.803
X13.418 Y10.792
X13.556 Y10.743
X13.693 Y10.699
X13.808 Y10.665
X13.831 Y10.659
X13.969 Y10.625
X14.106 Y10.595
X14.244 Y10.569
X14.381 Y10.547
X14.541 Y10.528
X14.656 Y10.518
X14.794 Y10.51
X14.932 Y10.505
X15.069
X15.207 Y10.51
X15.344 Y10.518
X15.459 Y10.528
X15.619 Y10.547
X15.757 Y10.569
X15.894 Y10.595
X16.032 Y10.625
X16.17 Y10.659
X16.192 Y10.665
X16.307 Y10.699
X16.445 Y10.743
X16.582 Y10.793
X16.609 Y10.803
X16.72 Y10.846
X16.857 Y10.906
X16.93 Y10.94
X16.995 Y10.972
X17.132 Y11.043
X17.197 Y11.078
X17.27 Y11.12
X17.408 Y11.204
X17.425 Y11.215
X17.545 Y11.295
X17.628 Y11.353
X17.683 Y11.393
X17.81 Y11.49
X17.82 Y11.499
X17.958 Y11.614
X17.973 Y11.628
X18.095 Y11.74
X18.122 Y11.765
X18.233 Y11.876
X18.258 Y11.903
X18.37 Y12.026
X18.383 Y12.041
X18.499 Y12.178
X18.508 Y12.19
X18.606 Y12.316
X18.646 Y12.37
X18.704 Y12.453
X18.783 Y12.571
X18.795 Y12.591
X18.88 Y12.728
X18.957 Y12.866
X19.027 Y13.003
X19.058 Y13.066
X19.093 Y13.141
X19.152 Y13.278
X19.196 Y13.385
X19.207 Y13.416
X19.257 Y13.554
X19.3 Y13.691
X19.333 Y13.805
X19.34 Y13.829
X19.375 Y13.966
X19.405 Y14.104
X19.431 Y14.241
X19.452 Y14.379
X19.469 Y14.516
X19.471 Y14.536
X19.482 Y14.654
X19.491 Y14.791
X19.494 Y14.929
X19.495 Y15.067
X19.491 Y15.204
X19.483 Y15.342
X19.471 Y15.464
X19.469 Y15.479
X19.453 Y15.617
X19.432 Y15.754
X19.406 Y15.892
X19.376 Y16.029
X19.341 Y16.167
X19.333 Y16.195
X19.302 Y16.304
X19.258 Y16.442
X19.209 Y16.58
X19.196 Y16.615
X19.154 Y16.717
X19.095 Y16.855
X19.058 Y16.934
X19.03 Y16.992
X18.959 Y17.13
X18.882 Y17.267
X18.798 Y17.405
X18.783 Y17.429
X18.707 Y17.542
X18.646 Y17.63
X18.609 Y17.68
X18.508 Y17.81
X18.503 Y17.817
X18.387 Y17.955
X18.37 Y17.974
X18.262 Y18.092
X18.233 Y18.124
X18.126 Y18.23
X18.095 Y18.26
X17.978 Y18.368
X17.958 Y18.386
X17.82 Y18.501
X17.815 Y18.505
X17.683 Y18.607
X17.634 Y18.643
X17.545 Y18.705
X17.432 Y18.78
X17.408 Y18.796
X17.27 Y18.88
X17.205 Y18.918
X17.132 Y18.957
X16.995 Y19.028
X16.939 Y19.055
X16.857 Y19.094
X16.72 Y19.154
X16.62 Y19.193
X16.582 Y19.207
X16.445 Y19.257
X16.307 Y19.301
X16.207 Y19.33
X16.17 Y19.341
X16.032 Y19.375
X15.894 Y19.405
X15.757 Y19.431
X15.619 Y19.453
X15.482 Y19.47
X15.344 Y19.482
X15.207 Y19.49
X15.069 Y19.495
X14.932
X14.794 Y19.49
X14.656 Y19.482
X14.519 Y19.47
X14.381 Y19.453
X14.244 Y19.431
X14.106 Y19.405
X13.969 Y19.375
X13.831 Y19.341
X13.793 Y19.33
X13.693 Y19.301
X13.556 Y19.257
X13.418 Y19.208
X13.38 Y19.193
X13.281 Y19.154
X13.143 Y19.094
X13.061 Y19.055
X13.006 Y19.029
X12.868 Y18.957
X12.795 Y18.918
X12.731 Y18.88
X12.593 Y18.796
X12.568 Y18.78
X12.455 Y18.706
X12.366 Y18.643
X12.318 Y18.608
X12.185 Y18.505
X12.18 Y18.501
X12.043 Y18.386
X12.022 Y18.368
X11.905 Y18.261
X11.874 Y18.23
X11.768 Y18.124
X11.738 Y18.092
X11.63 Y17.975
X11.613 Y17.955
X11.497 Y17.817
X11.493 Y17.811
X11.391 Y17.68
X11.355 Y17.631
X11.293 Y17.542
X11.217 Y17.43
X11.202 Y17.405
X11.118 Y17.267
X11.041 Y17.13
X10.97 Y16.992
X10.942 Y16.935
X10.905 Y16.855
X10.846 Y16.717
X10.805 Y16.616
X10.791 Y16.58
X10.742 Y16.442
X10.698 Y16.304
X10.667 Y16.197
X10.659 Y16.167
X10.624 Y16.029
X10.594 Y15.892
X10.568 Y15.754
X10.547 Y15.617
X10.531 Y15.479
X10.53 Y15.47
X10.517 Y15.342
X10.509 Y15.204
X10.505 Y15.067
X10.506 Y14.929
X10.509 Y14.791
X10.518 Y14.654
X10.53 Y14.53
G3 X10.857 Y14.26 I0.299 J0.029
G2 X11.171 Y13.87 I0.029 J-0.299
G3 X11.283 Y13.533 I0.286 J-0.092
X13.054 Y13.633 I0.822 J1.164
X13.062 Y13.64 I-0.948 J1.064 F167.
X11.15 Y15.754 Z-8.156 I-0.956 J1.057
X13.062 Y13.64 Z-8.313 I0.956 J-1.057
X11.15 Y15.754 Z-8.469 I-0.956 J1.057
X13.062 Y13.64 Z-8.625 I0.956 J-1.057
X11.15 Y15.754 Z-8.782 I-0.956 J1.057
X13.062 Y13.64 Z-8.938 I0.956 J-1.057
X11.15 Y15.754 Z-9.094 I-0.956 J1.057
X13.062 Y13.64 Z-9.25 I0.956 J-1.057
X11.15 Y15.754 Z-9.407 I-0.956 J1.057
X13.062 Y13.64 Z-9.563 I0.956 J-1.057
X11.15 Y15.754 Z-9.719 I-0.956 J1.057
X13.062 Y13.64 Z-9.875 I0.956 J-1.057
X11.971 Y16.115 Z-10. I-0.956 J1.057
X11.961 Y16.114 I0.135 J-1.419
G1 X11.807 Y16.098 F500.
G3 X10.53 Y14.53 I0.146 J-1.423
G1 X10.531 Y14.516
X10.548 Y14.379
X10.569 Y14.241
X10.595 Y14.104
X10.625 Y13.966
X10.66 Y13.829
X10.667 Y13.803
X10.7 Y13.691
X10.743 Y13.554
X10.793 Y13.416
X10.805 Y13.384
X10.848 Y13.278
X10.907 Y13.141
X10.942 Y13.065
X10.973 Y13.003
X11.043 Y12.866
X11.12 Y12.728
X11.205 Y12.591
X11.217 Y12.57
X11.296 Y12.453
X11.355 Y12.369
X11.394 Y12.316
X11.493 Y12.189
X11.501 Y12.178
X11.617 Y12.041
X11.63 Y12.025
X11.742 Y11.903
X11.768 Y11.876
X11.878 Y11.765
X11.905 Y11.739
X12.027 Y11.628
X12.043 Y11.614
X12.18 Y11.499
X12.19 Y11.49
X12.318 Y11.392
X12.372 Y11.353
X12.455 Y11.294
X12.575 Y11.215
X12.593 Y11.204
X12.731 Y11.12
X12.803 Y11.078
X12.868 Y11.043
X13.006 Y10.971
X13.07 Y10.94
X13.143 Y10.906
X13.281 Y10.846
X13.391 Y10.803
X13.418 Y10.792
X13.556 Y10.743
X13.693 Y10.699
X13.808 Y10.665
X13.831 Y10.659
X13.969 Y10.625
X14.106 Y10.595
X14.244 Y10.569
X14.381 Y10.547
X14.541 Y10.528
X14.656 Y10.518
X14.794 Y10.51
X14.932 Y10.505
X15.069
X15.207 Y10.51
X15.344 Y10.518
X15.459 Y10.528
X15.619 Y10.547
X15.757 Y10.569
X15.894 Y10.595
X16.032 Y10.625
X16.17 Y10.659
X16.192 Y10.665
X16.307 Y10.699
X16.445 Y10.743
X16.582 Y10.793
X16.609 Y10.803
X16.72 Y10.846
X16.857 Y10.906
X16.93 Y10.94
X16.995 Y10.972
X17.132 Y11.043
X17.197 Y11.078
X17.27 Y11.12
X17.408 Y11.204
X17.425 Y11.215
X17.545 Y11.295
X17.628 Y11.353
X17.683 Y11.393
X17.81 Y11.49
X17.82 Y11.499
X17.958 Y11.614
X17.973 Y11.628
X18.095 Y11.74
X18.122 Y11.765
X18.233 Y11.876
X18.258 Y11.903
X18.37 Y12.026
X18.383 Y12.041
X18.499 Y12.178
X18.508 Y12.19
X18.606 Y12.316
X18.646 Y12.37
X18.704 Y12.453
X18.783 Y12.571
X18.795 Y12.591
X18.88 Y12.728
X18.957 Y12.866
X19.027 Y13.003
X19.058 Y13.066
X19.093 Y13.141
X19.152 Y13.278
X19.196 Y13.385
X19.207 Y13.416
X19.257 Y13.554
X19.3 Y13.691
X19.333 Y13.805
X19.34 Y13.829
X19.375 Y13.966
X19.405 Y14.104
X19.431 Y14.241
X19.452 Y14.379
X19.469 Y14.516
X19.471 Y14.536
X19.482 Y14.654
X19.491 Y14.791
X19.494 Y14.929
X19.495 Y15.067
X19.491 Y15.204
X19.483 Y15.342
X19.471 Y15.464
X19.469 Y15.479
X19.453 Y15.617
X19.432 Y15.754
X19.406 Y15.892
X19.376 Y16.029
X19.341 Y16.167
X19.333 Y16.195
X19.302 Y16.304
X19.258 Y16.442
X19.209 Y16.58
X19.196 Y16.615
X19.154 Y16.717
X19.095 Y16.855
X19.058 Y16.934
X19.03 Y16.992
X18.959 Y17.13
X18.882 Y17.267
X18.798 Y17.405
X18.783 Y17.429
X18.707 Y17.542
X18.646 Y17.63
X18.609 Y17.68
X18.508 Y17.81
X18.503 Y17.817
X18.387 Y17.955
X18.37 Y17.974
X18.262 Y18.092
X18.233 Y18.124
X18.126 Y18.23
X18.095 Y18.26
X17.978 Y18.368
X17.958 Y18.386
X17.82 Y18.501
X17.815 Y18.505
X17.683 Y18.607
X17.634 Y18.643
X17.545 Y18.705
X17.432 Y18.78
X17.408 Y18.796
X17.27 Y18.88
X17.205 Y18.918
X17.132 Y18.957
X16.995 Y19.028
X16.939 Y19.055
X16.857 Y19.094
X16.72 Y19.154
X16.62 Y19.193
X16.582 Y19.207
X16.445 Y19.257
X16.307 Y19.301
X16.207 Y19.33
X16.17 Y19.341
X16.032 Y19.375
X15.894 Y19.405
X15.757 Y19.431
X15.619 Y19.453
X15.482 Y19.47
X15.344 Y19.482
X15.207 Y19.49
X15.069 Y19.495
X14.932
X14.794 Y19.49
X14.656 Y19.482
X14.519 Y19.47
X14.381 Y19.453
X14.244 Y19.431
X14.106 Y19.405
X13.969 Y19.375
X13.831 Y19.341
X13.793 Y19.33
X13.693 Y19.301
X13.556 Y19.257
X13.418 Y19.208
X13.38 Y19.193
X13.281 Y19.154
X13.143 Y19.094
X13.061 Y19.055
X13.006 Y19.029
X12.868 Y18.957
X12.795 Y18.918
X12.731 Y18.88
X12.593 Y18.796
X12.568 Y18.78
X12.455 Y18.706
X12.366 Y18.643
X12.318 Y18.608
X12.185 Y18.505
X12.18 Y18.501
X12.043 Y18.386
X12.022 Y18.368
X11.905 Y18.261
X11.874 Y18.23
X11.768 Y18.124
X11.738 Y18.092
X11.63 Y17.975
X11.613 Y17.955
X11.497 Y17.817
X11.493 Y17.811
X11.391 Y17.68
X11.355 Y17.631
X11.293 Y17.542
X11.217 Y17.43
X11.202 Y17.405
X11.118 Y17.267
X11.041 Y17.13
X10.97 Y16.992
X10.942 Y16.935
X10.905 Y16.855
X10.846 Y16.717
X10.805 Y16.616
X10.791 Y16.58
X10.742 Y16.442
X10.698 Y16.304
X10.667 Y16.197
X10.659 Y16.167
X10.624 Y16.029
X10.594 Y15.892
X10.568 Y15.754
X10.547 Y15.617
X10.531 Y15.479
X10.53 Y15.47
X10.517 Y15.342
X10.509 Y15.204
X10.505 Y15.067
X10.506 Y14.929
X10.509 Y14.791
X10.518 Y14.654
X10.53 Y14.53
G3 X10.857 Y14.26 I0.299 J0.029
G2 X11.171 Y13.87 I0.029 J-0.299
G3 X11.283 Y13.533 I0.286 J-0.092
X13.054 Y13.633 I0.822 J1.164
X13.062 Y13.64 I-0.948 J1.064 F167.
X11.15 Y15.754 Z-10.156 I-0.956 J1.057
X13.062 Y13.64 Z-10.313 I0.956 J-1.057
X11.15 Y15.754 Z-10.469 I-0.956 J1.057
X13.062 Y13.64 Z-10.625 I0.956 J-1.057
X11.15 Y15.754 Z-10.782 I-0.956 J1.057
X13.062 Y13.64 Z-10.938 I0.956 J-1.057
X11.15 Y15.754 Z-11.094 I-0.956 J1.057
X13.062 Y13.64 Z-11.25 I0.956 J-1.057
X11.15 Y15.754 Z-11.407 I-0.956 J1.057
X13.062 Y13.64 Z-11.563 I0.956 J-1.057
X11.15 Y15.754 Z-11.719 I-0.956 J1.057
X13.062 Y13.64 Z-11.875 I0.956 J-1.057
X11.971 Y16.115 Z-12. I-0.956 J1.057
X11.961 Y16.114 I0.135 J-1.419
G1 X11.807 Y16.098 F500.
G3 X10.53 Y14.53 I0.146 J-1.423
G1 X10.531 Y14.516
X10.548 Y14.379
X10.569 Y14.241
X10.595 Y14.104
X10.625 Y13.966
X10.66 Y13.829
X10.667 Y13.803
X10.7 Y13.691
X10.743 Y13.554
X10.793 Y13.416
X10.805 Y13.384
X10.848 Y13.278
X10.907 Y13.141
X10.942 Y13.065
X10.973 Y13.003
X11.043 Y12.866
X11.12 Y12.728
X11.205 Y12.591
X11.217 Y12.57
X11.296 Y12.453
X11.355 Y12.369
X11.394 Y12.316
X11.493 Y12.189
X11.501 Y12.178
X11.617 Y12.041
X11.63 Y12.025
X11.742 Y11.903
X11.768 Y11.876
X11.878 Y11.765
X11.905 Y11.739
X12.027 Y11.628
X12.043 Y11.614
X12.18 Y11.499
X12.19 Y11.49
X12.318 Y11.392
X12.372 Y11.353
X12.455 Y11.294
X12.575 Y11.215
X12.593 Y11.204
X12.731 Y11.12
X12.803 Y11.078
X12.868 Y11.043
X13.006 Y10.971
X13.07 Y10.94
X13.143 Y10.906
X13.281 Y10.846
X13.391 Y10.803
X13.418 Y10.792
X13.556 Y10.743
X13.693 Y10.699
X13.808 Y10.665
X13.831 Y10.659
X13.969 Y10.625
X14.106 Y10.595
X14.244 Y10.569
X14.381 Y10.547
X14.541 Y10.528
X14.656 Y10.518
X14.794 Y10.51
X14.932 Y10.505
X15.069
X15.207 Y10.51
X15.344 Y10.518
X15.459 Y10.528
X15.619 Y10.547
X15.757 Y10.569
X15.894 Y10.595
X16.032 Y10.625
X16.17 Y10.659
X16.192 Y10.665
X16.307 Y10.699
X16.445 Y10.743
X16.582 Y10.793
X16.609 Y10.803
X16.72 Y10.846
X16.857 Y10.906
X16.93 Y10.94
X16.995 Y10.972
X17.132 Y11.043
X17.197 Y11.078
X17.27 Y11.12
X17.408 Y11.204
X17.425 Y11.215
X17.545 Y11.295
X17.628 Y11.353
X17.683 Y11.393
X17.81 Y11.49
X17.82 Y11.499
X17.958 Y11.614
X17.973 Y11.628
X18.095 Y11.74
X18.122 Y11.765
X18.233 Y11.876
X18.258 Y11.903
X18.37 Y12.026
X18.383 Y12.041
X18.499 Y12.178
X18.508 Y12.19
X18.606 Y12.316
X18.646 Y12.37
X18.704 Y12.453
X18.783 Y12.571
X18.795 Y12.591
X18.88 Y12.728
X18.957 Y12.866
X19.027 Y13.003
X19.058 Y13.066
X19.093 Y13.141
X19.152 Y13.278
X19.196 Y13.385
X19.207 Y13.416
X19.257 Y13.554
X19.3 Y13.691
X19.333 Y13.805
X19.34 Y13.829
X19.375 Y13.966
X19.405 Y14.104
X19.431 Y14.241
X19.452 Y14.379
X19.469 Y14.516
X19.471 Y14.536
X19.482 Y14.654
X19.491 Y14.791
X19.494 Y14.929
X19.495 Y15.067
X19.491 Y15.204
X19.483 Y15.342
X19.471 Y15.464
X19.469 Y15.479
X19.453 Y15.617
X19.432 Y15.754
X19.406 Y15.892
X19.376 Y16.029
X19.341 Y16.167
X19.333 Y16.195
X19.302 Y16.304
X19.258 Y16.442
X19.209 Y16.58
X19.196 Y16.615
X19.154 Y16.717
X19.095 Y16.855
X19.058 Y16.934
X19.03 Y16.992
X18.959 Y17.13
X18.882 Y17.267
X18.798 Y17.405
X18.783 Y17.429
X18.707 Y17.542
X18.646 Y17.63
X18.609 Y17.68
X18.508 Y17.81
X18.503 Y17.817
X18.387 Y17.955
X18.37 Y17.974
X18.262 Y18.092
X18.233 Y18.124
X18.126 Y18.23
X18.095 Y18.26
X17.978 Y18.368
X17.958 Y18.386
X17.82 Y18.501
X17.815 Y18.505
X17.683 Y18.607
X17.634 Y18.643
X17.545 Y18.705
X17.432 Y18.78
X17.408 Y18.796
X17.27 Y18.88
X17.205 Y18.918
X17.132 Y18.957
X16.995 Y19.028
X16.939 Y19.055
X16.857 Y19.094
X16.72 Y19.154
X16.62 Y19.193
X16.582 Y19.207
X16.445 Y19.257
X16.307 Y19.301
X16.207 Y19.33
X16.17 Y19.341
X16.032 Y19.375
X15.894 Y19.405
X15.757 Y19.431
X15.619 Y19.453
X15.482 Y19.47
X15.344 Y19.482
X15.207 Y19.49
X15.069 Y19.495
X14.932
X14.794 Y19.49
X14.656 Y19.482
X14.519 Y19.47
X14.381 Y19.453
X14.244 Y19.431
X14.106 Y19.405
X13.969 Y19.375
X13.831 Y19.341
X13.793 Y19.33
X13.693 Y19.301
X13.556 Y19.257
X13.418 Y19.208
X13.38 Y19.193
X13.281 Y19.154
X13.143 Y19.094
X13.061 Y19.055
X13.006 Y19.029
X12.868 Y18.957
X12.795 Y18.918
X12.731 Y18.88
X12.593 Y18.796
X12.568 Y18.78
X12.455 Y18.706
X12.366 Y18.643
X12.318 Y18.608
X12.185 Y18.505
X12.18 Y18.501
X12.043 Y18.386
X12.022 Y18.368
X11.905 Y18.261
X11.874 Y18.23
X11.768 Y18.124
X11.738 Y18.092
X11.63 Y17.975
X11.613 Y17.955
X11.497 Y17.817
X11.493 Y17.811
X11.391 Y17.68
X11.355 Y17.631
X11.293 Y17.542
X11.217 Y17.43
X11.202 Y17.405
X11.118 Y17.267
X11.041 Y17.13
X10.97 Y16.992
X10.942 Y16.935
X10.905 Y16.855
X10.846 Y16.717
X10.805 Y16.616
X10.791 Y16.58
X10.742 Y16.442
X10.698 Y16.304
X10.667 Y16.197
X10.659 Y16.167
X10.624 Y16.029
X10.594 Y15.892
X10.568 Y15.754
X10.547 Y15.617
X10.531 Y15.479
X10.53 Y15.47
X10.517 Y15.342
X10.509 Y15.204
X10.505 Y15.067
X10.506 Y14.929
X10.509 Y14.791
X10.518 Y14.654
X10.53 Y14.53
G3 X10.911 Y14.272 I0.298 J0.031
G1 X12.232 Y14.651
X12.296 Y14.67 Z-11.992
X12.357 Y14.687 Z-11.97
X12.412 Y14.703 Z-11.935
X12.457 Y14.716 Z-11.887
X12.492 Y14.726 Z-11.83
X12.513 Y14.732 Z-11.767
X12.52 Y14.734 Z-11.7
G0 Z2.

(CONTOUR - OUTER EDGE1)
M9
G0 X-1.945 Y0.387
G1 Z2. F500.
Z0.4
X-1.946 Y0.389 Z0.367
X-1.948 Y0.394 Z0.335
X-1.952 Y0.402 Z0.303
G3 X-1.956 Y0.414 Z0.272 I-1.309 J-0.564
X-1.963 Y0.428 Z0.243 I-1.304 J-0.575
X-1.971 Y0.445 Z0.216 I-1.297 J-0.59
X-1.98 Y0.464 Z0.191 I-1.289 J-0.607
X-1.991 Y0.486 Z0.169 I-1.28 J-0.626
X-2.003 Y0.509 Z0.149 I-1.269 J-0.648
X-2.017 Y0.534 Z0.133 I-1.257 J-0.671
X-2.032 Y0.56 Z0.119 I-1.243 J-0.696
X-2.048 Y0.587 Z0.109 I-1.229 J-0.722
X-2.065 Y0.614 Z0.103 I-1.212 J-0.749
X-2.083 Y0.641 Z0.1 I-1.195 J-0.776
X-4.437 Y-0.965 Z-0.056 I-1.177 J-0.803
X-2.083 Y0.641 Z-0.213 I1.177 J0.803
X-4.437 Y-0.965 Z-0.369 I-1.177 J-0.803
X-2.083 Y0.641 Z-0.525 I1.177 J0.803
X-4.437 Y-0.965 Z-0.682 I-1.177 J-0.803
X-2.083 Y0.641 Z-0.838 I1.177 J0.803
X-4.437 Y-0.965 Z-0.994 I-1.177 J-0.803
X-2.083 Y0.641 Z-1.151 I1.177 J0.803
X-4.437 Y-0.965 Z-1.307 I-1.177 J-0.803
X-2.083 Y0.641 Z-1.463 I1.177 J0.803
X-4.437 Y-0.965 Z-1.62 I-1.177 J-0.803
X-2.083 Y0.641 Z-1.776 I1.177 J0.803
X-4.437 Y-0.965 Z-1.932 I-1.177 J-0.803
X-2.725 Y-1.483 Z-2. I1.177 J0.803
X-2.716 Y-1.479 I-0.535 J1.321
G1 X-1.537 Y-0.992
G3 X-1.375 Y-0.6 I-0.115 J0.277
G1 X-1.397 Y-0.546
X-1.422 Y-0.477
X-1.444 Y-0.407
X-1.461 Y-0.338
X-1.476 Y-0.269
X-1.487 Y-0.2
X-1.494 Y-0.131
X-1.499 Y-0.062
X-1.5 Y0.007
Y27.92
X-1.499 Y28.058
X-1.49 Y28.197
X-1.481 Y28.335
X-1.468 Y28.473
X-1.443 Y28.611
X-1.415 Y28.749
X-1.386 Y28.887
X-1.375 Y28.927
X-1.343 Y29.026
X-1.297 Y29.164
X-1.248 Y29.302
X-1.237 Y29.332
X-1.187 Y29.44
X-1.098 Y29.621
X-1.05 Y29.717
X-1.01 Y29.786
X-0.965 Y29.855
X-0.873 Y29.993
X-0.822 Y30.068
X-0.776 Y30.131
X-0.684 Y30.241
X-0.546 Y30.399
X-0.538 Y30.407
X-0.473 Y30.477
X-0.407 Y30.538
X-0.399 Y30.546
X-0.241 Y30.684
X-0.131 Y30.776
X-0.068 Y30.822
X0.007 Y30.873
X0.145 Y30.965
X0.214 Y31.01
X0.283 Y31.05
X0.379 Y31.098
X0.56 Y31.187
X0.668 Y31.237
X0.698 Y31.248
X0.836 Y31.297
X0.974 Y31.343
X1.073 Y31.375
X1.113 Y31.386
X1.251 Y31.415
X1.389 Y31.443
X1.527 Y31.468
X1.665 Y31.481
X1.803 Y31.49
X1.942 Y31.499
X2.08 Y31.5
X27.92
X28.058 Y31.499
X28.197 Y31.49
X28.335 Y31.481
X28.473 Y31.468
X28.611 Y31.443
X28.749 Y31.415
X28.887 Y31.386
X28.927 Y31.375
X29.026 Y31.343
X29.164 Y31.297
X29.302 Y31.248
X29.332 Y31.237
X29.44 Y31.187
X29.621 Y31.098
X29.717 Y31.05
X29.786 Y31.01
X29.855 Y30.965
X29.993 Y30.873
X30.068 Y30.822
X30.131 Y30.776
X30.241 Y30.684
X30.399 Y30.546
X30.407 Y30.538
X30.473 Y30.477
X30.538 Y30.407
X30.546 Y30.399
X30.684 Y30.241
X30.776 Y30.131
X30.822 Y30.068
X30.873 Y29.993
X30.965 Y29.855
X31.01 Y29.786
X31.05 Y29.717
X31.098 Y29.621
X31.187 Y29.44
X31.237 Y29.332
X31.248 Y29.302
X31.297 Y29.164
X31.343 Y29.026
X31.375 Y28.927
X31.386 Y28.887
X31.415 Y28.749
X31.443 Y28.611
X31.468 Y28.473
X31.481 Y28.335
X31.49 Y28.197
X31.499 Y28.058
X31.5 Y27.92
Y0.007
X31.499 Y-0.062
X31.494 Y-0.131
X31.487 Y-0.2
X31.476 Y-0.269
X31.461 Y-0.338
X31.444 Y-0.407
X31.422 Y-0.477
X31.397 Y-0.546
X31.375 Y-0.6
X31.335 Y-0.684
X31.297 Y-0.753
X31.255 Y-0.822
X31.237 Y-0.849
X31.197 Y-0.905
X31.152 Y-0.96
X31.098 Y-1.022
X31.022 Y-1.098
X30.96 Y-1.152
X30.905 Y-1.197
X30.849 Y-1.237
X30.822 Y-1.255
X30.753 Y-1.297
X30.684 Y-1.335
X30.6 Y-1.375
X30.546 Y-1.397
X30.477 Y-1.422
X30.407 Y-1.444
X30.338 Y-1.461
X30.269 Y-1.476
X30.2 Y-1.487
X30.131 Y-1.494
X30.062 Y-1.499
X29.993 Y-1.5
X0.007
X-0.062 Y-1.499
X-0.131 Y-1.494
X-0.2 Y-1.487
X-0.269 Y-1.476
X-0.338 Y-1.461
X-0.407 Y-1.444
X-0.477 Y-1.422
X-0.546 Y-1.397
X-0.6 Y-1.375
X-0.684 Y-1.335
X-0.753 Y-1.297
X-0.822 Y-1.255
X-0.849 Y-1.237
X-0.905 Y-1.197
X-0.96 Y-1.152
X-1.022 Y-1.098
X-1.098 Y-1.022
X-1.152 Y-0.96
X-1.197 Y-0.905
X-1.237 Y-0.849
X-1.255 Y-0.822
X-1.297 Y-0.753
X-1.335 Y-0.684
X-1.375 Y-0.6
G3 X-1.457 Y-0.496 I-0.271 J-0.128
G1 X-1.94 Y-0.104
G3 X-4.05 Y-0.461 I-0.898 J-1.106
X-4.056 Y-0.47 I1.213 J-0.749 F167.
X-1.62 Y-1.95 Z-2.156 I1.218 J-0.74
X-4.056 Y-0.47 Z-2.313 I-1.218 J0.74
X-1.62 Y-1.95 Z-2.469 I1.218 J-0.74
X-4.056 Y-0.47 Z-2.625 I-1.218 J0.74
X-1.62 Y-1.95 Z-2.782 I1.218 J-0.74
X-4.056 Y-0.47 Z-2.938 I-1.218 J0.74
X-1.62 Y-1.95 Z-3.094 I1.218 J-0.74
X-4.056 Y-0.47 Z-3.25 I-1.218 J0.74
X-1.62 Y-1.95 Z-3.407 I1.218 J-0.74
X-4.056 Y-0.47 Z-3.563 I-1.218 J0.74
X-1.62 Y-1.95 Z-3.719 I1.218 J-0.74
X-4.056 Y-0.47 Z-3.875 I-1.218 J0.74
X-2.303 Y-2.531 Z-4. I1.218 J-0.74
X-2.293 Y-2.527 I-0.535 J1.321
G1 X-2.15 Y-2.468 F500.
G3 X-1.375 Y-0.6 I-0.546 J1.322
G1 X-1.397 Y-0.546
X-1.422 Y-0.477
X-1.444 Y-0.407
X-1.461 Y-0.338
X-1.476 Y-0.269
X-1.487 Y-0.2
X-1.494 Y-0.131
X-1.499 Y-0.062
X-1.5 Y0.007
Y27.92
X-1.499 Y28.058
X-1.49 Y28.197
X-1.481 Y28.335
X-1.468 Y28.473
X-1.443 Y28.611
X-1.415 Y28.749
X-1.386 Y28.887
X-1.375 Y28.927
X-1.343 Y29.026
X-1.297 Y29.164
X-1.248 Y29.302
X-1.237 Y29.332
X-1.187 Y29.44
X-1.098 Y29.621
X-1.05 Y29.717
X-1.01 Y29.786
X-0.965 Y29.855
X-0.873 Y29.993
X-0.822 Y30.068
X-0.776 Y30.131
X-0.684 Y30.241
X-0.546 Y30.399
X-0.538 Y30.407
X-0.473 Y30.477
X-0.407 Y30.538
X-0.399 Y30.546
X-0.241 Y30.684
X-0.131 Y30.776
X-0.068 Y30.822
X0.007 Y30.873
X0.145 Y30.965
X0.214 Y31.01
X0.283 Y31.05
X0.379 Y31.098
X0.56 Y31.187
X0.668 Y31.237
X0.698 Y31.248
X0.836 Y31.297
X0.974 Y31.343
X1.073 Y31.375
X1.113 Y31.386
X1.251 Y31.415
X1.389 Y31.443
X1.527 Y31.468
X1.665 Y31.481
X1.803 Y31.49
X1.942 Y31.499
X2.08 Y31.5
X27.92
X28.058 Y31.499
X28.197 Y31.49
X28.335 Y31.481
X28.473 Y31.468
X28.611 Y31.443
X28.749 Y31.415
X28.887 Y31.386
X28.927 Y31.375
X29.026 Y31.343
X29.164 Y31.297
X29.302 Y31.248
X29.332 Y31.237
X29.44 Y31.187
X29.621 Y31.098
X29.717 Y31.05
X29.786 Y31.01
X29.855 Y30.965
X29.993 Y30.873
X30.068 Y30.822
X30.131 Y30.776
X30.241 Y30.684
X30.399 Y30.546
X30.407 Y30.538
X30.473 Y30.477
X30.538 Y30.407
X30.546 Y30.399
X30.684 Y30.241
X30.776 Y30.131
X30.822 Y30.068
X30.873 Y29.993
X30.965 Y29.855
X31.01 Y29.786
X31.05 Y29.717
X31.098 Y29.621
X31.187 Y29.44
X31.237 Y29.332
X31.248 Y29.302
X31.297 Y29.164
X31.343 Y29.026
X31.375 Y28.927
X31.386 Y28.887
X31.415 Y28.749
X31.443 Y28.611
X31.468 Y28.473
X31.481 Y28.335
X31.49 Y28.197
X31.499 Y28.058
X31.5 Y27.92
Y0.007
X31.499 Y-0.062
X31.494 Y-0.131
X31.487 Y-0.2
X31.476 Y-0.269
X31.461 Y-0.338
X31.444 Y-0.407
X31.422 Y-0.477
X31.397 Y-0.546
X31.375 Y-0.6
X31.335 Y-0.684
X31.297 Y-0.753
X31.255 Y-0.822
X31.237 Y-0.849
X31.197 Y-0.905
X31.152 Y-0.96
X31.098 Y-1.022
X31.022 Y-1.098
X30.96 Y-1.152
X30.905 Y-1.197
X30.849 Y-1.237
X30.822 Y-1.255
X30.753 Y-1.297
X30.684 Y-1.335
X30.6 Y-1.375
X30.546 Y-1.397
X30.477 Y-1.422
X30.407 Y-1.444
X30.338 Y-1.461
X30.269 Y-1.476
X30.2 Y-1.487
X30.131 Y-1.494
X30.062 Y-1.499
X29.993 Y-1.5
X0.007
X-0.062 Y-1.499
X-0.131 Y-1.494
X-0.2 Y-1.487
X-0.269 Y-1.476
X-0.338 Y-1.461
X-0.407 Y-1.444
X-0.477 Y-1.422
X-0.546 Y-1.397
X-0.6 Y-1.375
X-0.684 Y-1.335
X-0.753 Y-1.297
X-0.822 Y-1.255
X-0.849 Y-1.237
X-0.905 Y-1.197
X-0.96 Y-1.152
X-1.022 Y-1.098
X-1.098 Y-1.022
X-1.152 Y-0.96
X-1.197 Y-0.905
X-1.237 Y-0.849
X-1.255 Y-0.822
X-1.297 Y-0.753
X-1.335 Y-0.684
X-1.375 Y-0.6
G3 X-1.457 Y-0.496 I-0.271 J-0.128
G1 X-1.94 Y-0.104
G3 X-4.05 Y-0.461 I-0.898 J-1.106
X-4.056 Y-0.47 I1.213 J-0.749 F167.
X-1.62 Y-1.95 Z-4.156 I1.218 J-0.74
X-4.056 Y-0.47 Z-4.313 I-1.218 J0.74
X-1.62 Y-1.95 Z-4.469 I1.218 J-0.74
X-4.056 Y-0.47 Z-4.625 I-1.218 J0.74
X-1.62 Y-1.95 Z-4.782 I1.218 J-0.74
X-4.056 Y-0.47 Z-4.938 I-1.218 J0.74
X-1.62 Y-1.95 Z-5.094 I1.218 J-0.74
X-4.056 Y-0.47 Z-5.25 I-1.218 J0.74
X-1.62 Y-1.95 Z-5.407 I1.218 J-0.74
X-4.056 Y-0.47 Z-5.563 I-1.218 J0.74
X-1.62 Y-1.95 Z-5.719 I1.218 J-0.74
X-4.056 Y-0.47 Z-5.875 I-1.218 J0.74
X-2.303 Y-2.531 Z-6. I1.218 J-0.74
X-2.293 Y-2.527 I-0.535 J1.321
G1 X-2.15 Y-2.468 F500.
G3 X-1.375 Y-0.6 I-0.546 J1.322
G1 X-1.397 Y-0.546
X-1.422 Y-0.477
X-1.444 Y-0.407
X-1.461 Y-0.338
X-1.476 Y-0.269
X-1.487 Y-0.2
X-1.494 Y-0.131
X-1.499 Y-0.062
X-1.5 Y0.007
Y27.92
X-1.499 Y28.058
X-1.49 Y28.197
X-1.481 Y28.335
X-1.468 Y28.473
X-1.443 Y28.611
X-1.415 Y28.749
X-1.386 Y28.887
X-1.375 Y28.927
X-1.343 Y29.026
X-1.297 Y29.164
X-1.248 Y29.302
X-1.237 Y29.332
X-1.187 Y29.44
X-1.098 Y29.621
X-1.05 Y29.717
X-1.01 Y29.786
X-0.965 Y29.855
X-0.873 Y29.993
X-0.822 Y30.068
X-0.776 Y30.131
X-0.684 Y30.241
X-0.546 Y30.399
X-0.538 Y30.407
X-0.473 Y30.477
X-0.407 Y30.538
X-0.399 Y30.546
X-0.241 Y30.684
X-0.131 Y30.776
X-0.068 Y30.822
X0.007 Y30.873
X0.145 Y30.965
X0.214 Y31.01
X0.283 Y31.05
X0.379 Y31.098
X0.56 Y31.187
X0.668 Y31.237
X0.698 Y31.248
X0.836 Y31.297
X0.974 Y31.343
X1.073 Y31.375
X1.113 Y31.386
X1.251 Y31.415
X1.389 Y31.443
X1.527 Y31.468
X1.665 Y31.481
X1.803 Y31.49
X1.942 Y31.499
X2.08 Y31.5
X27.92
X28.058 Y31.499
X28.197 Y31.49
X28.335 Y31.481
X28.473 Y31.468
X28.611 Y31.443
X28.749 Y31.415
X28.887 Y31.386
X28.927 Y31.375
X29.026 Y31.343
X29.164 Y31.297
X29.302 Y31.248
X29.332 Y31.237
X29.44 Y31.187
X29.621 Y31.098
X29.717 Y31.05
X29.786 Y31.01
X29.855 Y30.965
X29.993 Y30.873
X30.068 Y30.822
X30.131 Y30.776
X30.241 Y30.684
X30.399 Y30.546
X30.407 Y30.538
X30.473 Y30.477
X30.538 Y30.407
X30.546 Y30.399
X30.684 Y30.241
X30.776 Y30.131
X30.822 Y30.068
X30.873 Y29.993
X30.965 Y29.855
X31.01 Y29.786
X31.05 Y29.717
X31.098 Y29.621
X31.187 Y29.44
X31.237 Y29.332
X31.248 Y29.302
X31.297 Y29.164
X31.343 Y29.026
X31.375 Y28.927
X31.386 Y28.887
X31.415 Y28.749
X31.443 Y28.611
X31.468 Y28.473
X31.481 Y28.335
X31.49 Y28.197
X31.499 Y28.058
X31.5 Y27.92
Y0.007
X31.499 Y-0.062
X31.494 Y-0.131
X31.487 Y-0.2
X31.476 Y-0.269
X31.461 Y-0.338
X31.444 Y-0.407
X31.422 Y-0.477
X31.397 Y-0.546
X31.375 Y-0.6
X31.335 Y-0.684
X31.297 Y-0.753
X31.255 Y-0.822
X31.237 Y-0.849
X31.197 Y-0.905
X31.152 Y-0.96
X31.098 Y-1.022
X31.022 Y-1.098
X30.96 Y-1.152
X30.905 Y-1.197
X30.849 Y-1.237
X30.822 Y-1.255
X30.753 Y-1.297
X30.684 Y-1.335
X30.6 Y-1.375
X30.546 Y-1.397
X30.477 Y-1.422
X30.407 Y-1.444
X30.338 Y-1.461
X30.269 Y-1.476
X30.2 Y-1.487
X30.131 Y-1.494
X30.062 Y-1.499
X29.993 Y-1.5
X0.007
X-0.062 Y-1.499
X-0.131 Y-1.494
X-0.2 Y-1.487
X-0.269 Y-1.476
X-0.338 Y-1.461
X-0.407 Y-1.444
X-0.477 Y-1.422
X-0.546 Y-1.397
X-0.6 Y-1.375
X-0.684 Y-1.335
X-0.753 Y-1.297
X-0.822 Y-1.255
X-0.849 Y-1.237
X-0.905 Y-1.197
X-0.96 Y-1.152
X-1.022 Y-1.098
X-1.098 Y-1.022
X-1.152 Y-0.96
X-1.197 Y-0.905
X-1.237 Y-0.849
X-1.255 Y-0.822
X-1.297 Y-0.753
X-1.335 Y-0.684
X-1.375 Y-0.6
G3 X-1.457 Y-0.496 I-0.271 J-0.128
G1 X-1.94 Y-0.104
G3 X-4.05 Y-0.461 I-0.898 J-1.106
X-4.056 Y-0.47 I1.213 J-0.749 F167.
X-1.62 Y-1.95 Z-6.156 I1.218 J-0.74
X-4.056 Y-0.47 Z-6.313 I-1.218 J0.74
X-1.62 Y-1.95 Z-6.469 I1.218 J-0.74
X-4.056 Y-0.47 Z-6.625 I-1.218 J0.74
X-1.62 Y-1.95 Z-6.782 I1.218 J-0.74
X-4.056 Y-0.47 Z-6.938 I-1.218 J0.74
X-1.62 Y-1.95 Z-7.094 I1.218 J-0.74
X-4.056 Y-0.47 Z-7.25 I-1.218 J0.74
X-1.62 Y-1.95 Z-7.407 I1.218 J-0.74
X-4.056 Y-0.47 Z-7.563 I-1.218 J0.74
X-1.62 Y-1.95 Z-7.719 I1.218 J-0.74
X-4.056 Y-0.47 Z-7.875 I-1.218 J0.74
X-2.303 Y-2.531 Z-8. I1.218 J-0.74
X-2.293 Y-2.527 I-0.535 J1.321
G1 X-2.15 Y-2.468 F500.
G3 X-1.375 Y-0.6 I-0.546 J1.322
G1 X-1.397 Y-0.546
X-1.422 Y-0.477
X-1.444 Y-0.407
X-1.461 Y-0.338
X-1.476 Y-0.269
X-1.487 Y-0.2
X-1.494 Y-0.131
X-1.499 Y-0.062
X-1.5 Y0.007
Y27.92
X-1.499 Y28.058
X-1.49 Y28.197
X-1.481 Y28.335
X-1.468 Y28.473
X-1.443 Y28.611
X-1.415 Y28.749
X-1.386 Y28.887
X-1.375 Y28.927
X-1.343 Y29.026
X-1.297 Y29.164
X-1.248 Y29.302
X-1.237 Y29.332
X-1.187 Y29.44
X-1.098 Y29.621
X-1.05 Y29.717
X-1.01 Y29.786
X-0.965 Y29.855
X-0.873 Y29.993
X-0.822 Y30.068
X-0.776 Y30.131
X-0.684 Y30.241
X-0.546 Y30.399
X-0.538 Y30.407
X-0.473 Y30.477
X-0.407 Y30.538
X-0.399 Y30.546
X-0.241 Y30.684
X-0.131 Y30.776
X-0.068 Y30.822
X0.007 Y30.873
X0.145 Y30.965
X0.214 Y31.01
X0.283 Y31.05
X0.379 Y31.098
X0.56 Y31.187
X0.668 Y31.237
X0.698 Y31.248
X0.836 Y31.297
X0.974 Y31.343
X1.073 Y31.375
X1.113 Y31.386
X1.251 Y31.415
X1.389 Y31.443
X1.527 Y31.468
X1.665 Y31.481
X1.803 Y31.49
X1.942 Y31.499
X2.08 Y31.5
X27.92
X28.058 Y31.499
X28.197 Y31.49
X28.335 Y31.481
X28.473 Y31.468
X28.611 Y31.443
X28.749 Y31.415
X28.887 Y31.386
X28.927 Y31.375
X29.026 Y31.343
X29.164 Y31.297
X29.302 Y31.248
X29.332 Y31.237
X29.44 Y31.187
X29.621 Y31.098
X29.717 Y31.05
X29.786 Y31.01
X29.855 Y30.965
X29.993 Y30.873
X30.068 Y30.822
X30.131 Y30.776
X30.241 Y30.684
X30.399 Y30.546
X30.407 Y30.538
X30.473 Y30.477
X30.538 Y30.407
X30.546 Y30.399
X30.684 Y30.241
X30.776 Y30.131
X30.822 Y30.068
X30.873 Y29.993
X30.965 Y29.855
X31.01 Y29.786
X31.05 Y29.717
X31.098 Y29.621
X31.187 Y29.44
X31.237 Y29.332
X31.248 Y29.302
X31.297 Y29.164
X31.343 Y29.026
X31.375 Y28.927
X31.386 Y28.887
X31.415 Y28.749
X31.443 Y28.611
X31.468 Y28.473
X31.481 Y28.335
X31.49 Y28.197
X31.499 Y28.058
X31.5 Y27.92
Y0.007
X31.499 Y-0.062
X31.494 Y-0.131
X31.487 Y-0.2
X31.476 Y-0.269
X31.461 Y-0.338
X31.444 Y-0.407
X31.422 Y-0.477
X31.397 Y-0.546
X31.375 Y-0.6
X31.335 Y-0.684
X31.297 Y-0.753
X31.255 Y-0.822
X31.237 Y-0.849
X31.197 Y-0.905
X31.152 Y-0.96
X31.098 Y-1.022
X31.022 Y-1.098
X30.96 Y-1.152
X30.905 Y-1.197
X30.849 Y-1.237
X30.822 Y-1.255
X30.753 Y-1.297
X30.684 Y-1.335
X30.6 Y-1.375
X30.546 Y-1.397
X30.477 Y-1.422
X30.407 Y-1.444
X30.338 Y-1.461
X30.269 Y-1.476
X30.2 Y-1.487
X30.131 Y-1.494
X30.062 Y-1.499
X29.993 Y-1.5
X0.007
X-0.062 Y-1.499
X-0.131 Y-1.494
X-0.2 Y-1.487
X-0.269 Y-1.476
X-0.338 Y-1.461
X-0.407 Y-1.444
X-0.477 Y-1.422
X-0.546 Y-1.397
X-0.6 Y-1.375
X-0.684 Y-1.335
X-0.753 Y-1.297
X-0.822 Y-1.255
X-0.849 Y-1.237
X-0.905 Y-1.197
X-0.96 Y-1.152
X-1.022 Y-1.098
X-1.098 Y-1.022
X-1.152 Y-0.96
X-1.197 Y-0.905
X-1.237 Y-0.849
X-1.255 Y-0.822
X-1.297 Y-0.753
X-1.335 Y-0.684
X-1.375 Y-0.6
G3 X-1.457 Y-0.496 I-0.271 J-0.128
G1 X-1.94 Y-0.104
G3 X-4.05 Y-0.461 I-0.898 J-1.106
X-4.056 Y-0.47 I1.213 J-0.749 F167.
X-1.62 Y-1.95 Z-8.156 I1.218 J-0.74
X-4.056 Y-0.47 Z-8.313 I-1.218 J0.74
X-1.62 Y-1.95 Z-8.469 I1.218 J-0.74
X-4.056 Y-0.47 Z-8.625 I-1.218 J0.74
X-1.62 Y-1.95 Z-8.782 I1.218 J-0.74
X-4.056 Y-0.47 Z-8.938 I-1.218 J0.74
X-1.62 Y-1.95 Z-9.094 I1.218 J-0.74
X-4.056 Y-0.47 Z-9.25 I-1.218 J0.74
X-1.62 Y-1.95 Z-9.407 I1.218 J-0.74
X-4.056 Y-0.47 Z-9.563 I-1.218 J0.74
X-1.62 Y-1.95 Z-9.719 I1.218 J-0.74
X-4.056 Y-0.47 Z-9.875 I-1.218 J0.74
X-2.303 Y-2.531 Z-10. I1.218 J-0.74
X-2.293 Y-2.527 I-0.535 J1.321
G1 X-2.15 Y-2.468 F500.
G3 X-1.375 Y-0.6 I-0.546 J1.322
G1 X-1.397 Y-0.546
X-1.422 Y-0.477
X-1.444 Y-0.407
X-1.461 Y-0.338
X-1.476 Y-0.269
X-1.487 Y-0.2
X-1.494 Y-0.131
X-1.499 Y-0.062
X-1.5 Y0.007
Y27.92
X-1.499 Y28.058
X-1.49 Y28.197
X-1.481 Y28.335
X-1.468 Y28.473
X-1.443 Y28.611
X-1.415 Y28.749
X-1.386 Y28.887
X-1.375 Y28.927
X-1.343 Y29.026
X-1.297 Y29.164
X-1.248 Y29.302
X-1.237 Y29.332
X-1.187 Y29.44
X-1.098 Y29.621
X-1.05 Y29.717
X-1.01 Y29.786
X-0.965 Y29.855
X-0.873 Y29.993
X-0.822 Y30.068
X-0.776 Y30.131
X-0.684 Y30.241
X-0.546 Y30.399
X-0.538 Y30.407
X-0.473 Y30.477
X-0.407 Y30.538
X-0.399 Y30.546
X-0.241 Y30.684
X-0.131 Y30.776
X-0.068 Y30.822
X0.007 Y30.873
X0.145 Y30.965
X0.214 Y31.01
X0.283 Y31.05
X0.379 Y31.098
X0.56 Y31.187
X0.668 Y31.237
X0.698 Y31.248
X0.836 Y31.297
X0.974 Y31.343
X1.073 Y31.375
X1.113 Y31.386
X1.251 Y31.415
X1.389 Y31.443
X1.527 Y31.468
X1.665 Y31.481
X1.803 Y31.49
X1.942 Y31.499
X2.08 Y31.5
X27.92
X28.058 Y31.499
X28.197 Y31.49
X28.335 Y31.481
X28.473 Y31.468
X28.611 Y31.443
X28.749 Y31.415
X28.887 Y31.386
X28.927 Y31.375
X29.026 Y31.343
X29.164 Y31.297
X29.302 Y31.248
X29.332 Y31.237
X29.44 Y31.187
X29.621 Y31.098
X29.717 Y31.05
X29.786 Y31.01
X29.855 Y30.965
X29.993 Y30.873
X30.068 Y30.822
X30.131 Y30.776
X30.241 Y30.684
X30.399 Y30.546
X30.407 Y30.538
X30.473 Y30.477
X30.538 Y30.407
X30.546 Y30.399
X30.684 Y30.241
X30.776 Y30.131
X30.822 Y30.068
X30.873 Y29.993
X30.965 Y29.855
X31.01 Y29.786
X31.05 Y29.717
X31.098 Y29.621
X31.187 Y29.44
X31.237 Y29.332
X31.248 Y29.302
X31.297 Y29.164
X31.343 Y29.026
X31.375 Y28.927
X31.386 Y28.887
X31.415 Y28.749
X31.443 Y28.611
X31.468 Y28.473
X31.481 Y28.335
X31.49 Y28.197
X31.499 Y28.058
X31.5 Y27.92
Y0.007
X31.499 Y-0.062
X31.494 Y-0.131
X31.487 Y-0.2
X31.476 Y-0.269
X31.461 Y-0.338
X31.444 Y-0.407
X31.422 Y-0.477
X31.397 Y-0.546
X31.375 Y-0.6
X31.335 Y-0.684
X31.297 Y-0.753
X31.255 Y-0.822
X31.237 Y-0.849
X31.197 Y-0.905
X31.152 Y-0.96
X31.098 Y-1.022
X31.022 Y-1.098
X30.96 Y-1.152
X30.905 Y-1.197
X30.849 Y-1.237
X30.822 Y-1.255
X30.753 Y-1.297
X30.684 Y-1.335
X30.6 Y-1.375
X30.546 Y-1.397
X30.477 Y-1.422
X30.407 Y-1.444
X30.338 Y-1.461
X30.269 Y-1.476
X30.2 Y-1.487
X30.131 Y-1.494
X30.062 Y-1.499
X29.993 Y-1.5
X0.007
X-0.062 Y-1.499
X-0.131 Y-1.494
X-0.2 Y-1.487
X-0.269 Y-1.476
X-0.338 Y-1.461
X-0.407 Y-1.444
X-0.477 Y-1.422
X-0.546 Y-1.397
X-0.6 Y-1.375
X-0.684 Y-1.335
X-0.753 Y-1.297
X-0.822 Y-1.255
X-0.849 Y-1.237
X-0.905 Y-1.197
X-0.96 Y-1.152
X-1.022 Y-1.098
X-1.098 Y-1.022
X-1.152 Y-0.96
X-1.197 Y-0.905
X-1.237 Y-0.849
X-1.255 Y-0.822
X-1.297 Y-0.753
X-1.335 Y-0.684
X-1.375 Y-0.6
X-1.378 Y-0.593
X-1.381 Y-0.586
X-1.387 Y-0.572
X-1.398 Y-0.544
X-1.419 Y-0.486
X-1.454 Y-0.369
X-1.479 Y-0.25
X-1.494 Y-0.129 Z-10.001
X-1.5 Y-0.007
Y0.115
Y0.359 Z-10.002
Y0.603 Z-10.004
Y0.847 Z-10.005
Y1.091 Z-10.007
Y1.335 Z-10.009
Y1.579 Z-10.012
Y1.823 Z-10.014
Y2.067 Z-10.017
Y2.311 Z-10.02
Y2.555 Z-10.024
Y2.799 Z-10.027
Y3.043 Z-10.031
Y3.287 Z-10.035
Y3.531 Z-10.04
Y3.775 Z-10.044
Y4.019 Z-10.049
Y4.141 Z-10.051
Y4.263 Z-10.054
Y4.385 Z-10.057
Y4.507 Z-10.059
Y4.629 Z-10.062
Y4.751 Z-10.065
Y4.873 Z-10.067
Y4.995 Z-10.07
Y5.117 Z-10.073
Y5.239 Z-10.076
Y5.361 Z-10.079
Y5.483 Z-10.082
Y5.605 Z-10.085
Y5.727 Z-10.088
Y5.849 Z-10.091
Y5.971 Z-10.095
Y6.093 Z-10.098
Y6.215 Z-10.101
Y6.337 Z-10.105
Y6.459 Z-10.108
Y6.581 Z-10.112
Y6.703 Z-10.115
Y6.825 Z-10.119
Y6.947 Z-10.122
Y7.069 Z-10.126
Y7.191 Z-10.129
Y7.313 Z-10.133
Y7.435 Z-10.137
Y7.557 Z-10.141
Y7.679 Z-10.145
Y7.801 Z-10.148
Y7.923 Z-10.152
Y8.045 Z-10.156
Y8.167 Z-10.16
Y8.289 Z-10.164
Y8.411 Z-10.168
Y8.533 Z-10.172
Y8.655 Z-10.177
Y8.777 Z-10.181
Y8.899 Z-10.185
Y9.021 Z-10.189
Y10.241 Z-10.232
Y10.363 Z-10.236
Y10.485 Z-10.24
Y10.607 Z-10.244
Y10.729 Z-10.249
Y10.851 Z-10.253
Y10.973 Z-10.257
Y11.095 Z-10.262
Y11.217 Z-10.266
Y11.339 Z-10.27
Y11.461 Z-10.274
Y11.583 Z-10.279
Y11.705 Z-10.283
Y11.827 Z-10.287
Y11.949 Z-10.291
Y12.071 Z-10.296
Y12.193 Z-10.3
Y12.315 Z-10.304
Y12.559 Z-10.313
Y12.926 Z-10.325
Y13.292 Z-10.338
Y13.658 Z-10.351
Y14.024 Z-10.364
Y14.39 Z-10.377
Y14.756 Z-10.389
Y15.366 Z-10.411
Y15.976 Z-10.432
Y16.83 Z-10.462
Y18.294 Z-10.513
Y23.54 Z-10.696
Y23.662 Z-10.7
Y23.784 Z-10.705
Y23.906 Z-10.709
Y24.028 Z-10.713
Y24.15 Z-10.717
Y24.272 Z-10.722
Y24.394 Z-10.726
Y24.516 Z-10.73
Y24.638 Z-10.734
Y24.76 Z-10.739
Y24.882 Z-10.743
Y25.004 Z-10.747
Y25.126 Z-10.751
Y25.248 Z-10.756
Y25.37 Z-10.76
Y25.492 Z-10.764
Y25.614 Z-10.768
Y25.736 Z-10.773
Y25.858 Z-10.777
Y25.98 Z-10.781
Y26.102 Z-10.786
Y26.224 Z-10.79
Y26.346 Z-10.794
Y26.468 Z-10.798
Y26.59 Z-10.803
Y26.956 Z-10.815
Y27.078 Z-10.819
Y27.2 Z-10.824
Y27.322 Z-10.828
Y27.444 Z-10.832
Y27.566 Z-10.836
Y27.688 Z-10.84
Y27.81 Z-10.844
Y27.932 Z-10.848
X-1.499 Y28.054 Z-10.852
X-1.492 Y28.176 Z-10.856
X-1.484 Y28.298 Z-10.859
X-1.474 Y28.42 Z-10.863
X-1.457 Y28.54 Z-10.867
X-1.433 Y28.66 Z-10.871
X-1.409 Y28.78 Z-10.874
X-1.383 Y28.899 Z-10.878
X-1.347 Y29.015 Z-10.882
X-1.308 Y29.131 Z-10.885
X-1.269 Y29.246 Z-10.889
X-1.225 Y29.36 Z-10.892
X-1.173 Y29.471 Z-10.895
X-1.119 Y29.58 Z-10.899
X-1.064 Y29.689 Z-10.902
X-1.004 Y29.795 Z-10.905
X-0.937 Y29.897 Z-10.909
X-0.869 Y29.998 Z-10.912
X-0.8 Y30.099 Z-10.915
X-0.725 Y30.195 Z-10.918
X-0.644 Y30.287 Z-10.921
X-0.564 Y30.378 Z-10.924
X-0.481 Y30.468 Z-10.927
X-0.392 Y30.552 Z-10.93
X-0.3 Y30.632 Z-10.933
X-0.209 Y30.713 Z-10.936
X-0.114 Y30.789 Z-10.938
X-0.014 Y30.859 Z-10.941
X0.088 Y30.927 Z-10.944
X0.189 Y30.994 Z-10.946
X0.295 Y31.056 Z-10.949
X0.404 Y31.111 Z-10.951
X0.623 Y31.217 Z-10.956
X0.736 Y31.263 Z-10.958
X0.852 Y31.302 Z-10.961
X0.968 Y31.341 Z-10.963
X1.084 Y31.378 Z-10.965
X1.203 Y31.406 Z-10.967
X1.322 Y31.429 Z-10.969
X1.442 Y31.453 Z-10.971
X1.562 Y31.472 Z-10.973
X1.684 Y31.483 Z-10.975
X1.806 Y31.49 Z-10.976
X2.05 Y31.5 Z-10.98
X2.294 Z-10.983
X2.538 Z-10.986
X2.782 Z-10.988
X3.026 Z-10.991
X3.27 Z-10.993
X3.514 Z-10.995
X3.758 Z-10.996
X4.002 Z-10.998
X4.246 Z-10.999
X4.49
X4.734 Z-11.
X4.854
X4.966
X4.974
X27.92
X28.058 Y31.499
X28.197 Y31.49
X28.335 Y31.481
X28.473 Y31.468
X28.611 Y31.443
X28.749 Y31.415
X28.887 Y31.386
X28.927 Y31.375
X29.026 Y31.343
X29.164 Y31.297
X29.302 Y31.248
X29.332 Y31.237
X29.44 Y31.187
X29.621 Y31.098
X29.717 Y31.05
X29.786 Y31.01
X29.855 Y30.965
X29.993 Y30.873
X30.068 Y30.822
X30.131 Y30.776
X30.241 Y30.684
X30.399 Y30.546
X30.407 Y30.538
X30.473 Y30.477
X30.538 Y30.407
X30.546 Y30.399
X30.684 Y30.241
X30.776 Y30.131
X30.822 Y30.068
X30.873 Y29.993
X30.965 Y29.855
X31.01 Y29.786
X31.05 Y29.717
X31.098 Y29.621
X31.187 Y29.44
X31.237 Y29.332
X31.248 Y29.302
X31.297 Y29.164
X31.343 Y29.026
X31.375 Y28.927
X31.386 Y28.887
X31.415 Y28.749
X31.443 Y28.611
X31.468 Y28.473
X31.481 Y28.335
X31.49 Y28.197
X31.499 Y28.058
X31.5 Y27.92
Y0.007
X31.499 Y-0.062
X31.494 Y-0.131
X31.487 Y-0.2
X31.476 Y-0.269
X31.461 Y-0.338
X31.444 Y-0.407
X31.422 Y-0.477
X31.397 Y-0.546
X31.375 Y-0.6
X31.335 Y-0.684
X31.297 Y-0.753
X31.255 Y-0.822
X31.237 Y-0.849
X31.197 Y-0.905
X31.152 Y-0.96
X31.098 Y-1.022
X31.022 Y-1.098
X30.96 Y-1.152
X30.905 Y-1.197
X30.849 Y-1.237
X30.822 Y-1.255
X30.753 Y-1.297
X30.684 Y-1.335
X30.6 Y-1.375
X30.546 Y-1.397
X30.477 Y-1.422
X30.407 Y-1.444
X30.338 Y-1.461
X30.269 Y-1.476
X30.2 Y-1.487
X30.131 Y-1.494
X30.062 Y-1.499
X29.993 Y-1.5
X0.007
X-0.062 Y-1.499
X-0.131 Y-1.494
X-0.2 Y-1.487
X-0.269 Y-1.476
X-0.338 Y-1.461
X-0.407 Y-1.444
X-0.477 Y-1.422
X-0.546 Y-1.397
X-0.6 Y-1.375
X-0.684 Y-1.335
X-0.753 Y-1.297
X-0.822 Y-1.255
X-0.849 Y-1.237
X-0.905 Y-1.197
X-0.96 Y-1.152
X-1.022 Y-1.098
X-1.098 Y-1.022
X-1.152 Y-0.96
X-1.197 Y-0.905
X-1.237 Y-0.849
X-1.255 Y-0.822
X-1.297 Y-0.753
X-1.335 Y-0.684
X-1.375 Y-0.6
X-1.397 Y-0.546
X-1.422 Y-0.477
X-1.444 Y-0.407
X-1.461 Y-0.338
X-1.476 Y-0.269
X-1.487 Y-0.2
X-1.494 Y-0.131
X-1.499 Y-0.062
X-1.5 Y0.007
Y27.92
X-1.499 Y28.058
X-1.49 Y28.197
X-1.481 Y28.335
X-1.468 Y28.473
X-1.443 Y28.611
X-1.415 Y28.749
X-1.386 Y28.887
X-1.375 Y28.927
X-1.343 Y29.026
X-1.297 Y29.164
X-1.248 Y29.302
X-1.237 Y29.332
X-1.187 Y29.44
X-1.098 Y29.621
X-1.05 Y29.717
X-1.01 Y29.786
X-0.965 Y29.855
X-0.873 Y29.993
X-0.822 Y30.068
X-0.776 Y30.131
X-0.684 Y30.241
X-0.546 Y30.399
X-0.538 Y30.407
X-0.473 Y30.477
X-0.407 Y30.538
X-0.399 Y30.546
X-0.241 Y30.684
X-0.131 Y30.776
X-0.068 Y30.822
X0.007 Y30.873
X0.145 Y30.965
X0.214 Y31.01
X0.283 Y31.05
X0.379 Y31.098
X0.56 Y31.187
X0.668 Y31.237
X0.698 Y31.248
X0.836 Y31.297
X0.974 Y31.343
X1.073 Y31.375
X1.113 Y31.386
X1.251 Y31.415
X1.389 Y31.443
X1.527 Y31.468
X1.665 Y31.481
X1.803 Y31.49
X1.942 Y31.499
X2.08 Y31.5
X4.974
G18 G2 X5.274 Z-10.7 I0. K0.3
G0 Z2.
G17

(CONTOUR - OUTER EDGE2)
M9
G0 X-1.945 Y0.387
Z2.
Z1.95
G1 Z-9.6 F500.
X-1.946 Y0.389 Z-9.633
X-1.948 Y0.394 Z-9.665
X-1.952 Y0.402 Z-9.697
G3 X-1.956 Y0.414 Z-9.728 I-1.309 J-0.564
X-1.963 Y0.428 Z-9.757 I-1.304 J-0.575
X-1.971 Y0.445 Z-9.784 I-1.297 J-0.59
X-1.98 Y0.464 Z-9.809 I-1.289 J-0.607
X-1.991 Y0.486 Z-9.831 I-1.28 J-0.626
X-2.003 Y0.509 Z-9.851 I-1.269 J-0.648
X-2.017 Y0.534 Z-9.867 I-1.257 J-0.671
X-2.032 Y0.56 Z-9.881 I-1.243 J-0.696
X-2.048 Y0.587 Z-9.891 I-1.229 J-0.722
X-2.065 Y0.614 Z-9.897 I-1.212 J-0.749
X-2.083 Y0.641 Z-9.9 I-1.195 J-0.776
X-4.437 Y-0.965 Z-10.056 I-1.177 J-0.803
X-2.083 Y0.641 Z-10.213 I1.177 J0.803
X-4.437 Y-0.965 Z-10.369 I-1.177 J-0.803
X-2.083 Y0.641 Z-10.525 I1.177 J0.803
X-4.437 Y-0.965 Z-10.682 I-1.177 J-0.803
X-2.083 Y0.641 Z-10.838 I1.177 J0.803
X-4.437 Y-0.965 Z-10.994 I-1.177 J-0.803
X-2.083 Y0.641 Z-11.151 I1.177 J0.803
X-4.437 Y-0.965 Z-11.307 I-1.177 J-0.803
X-2.083 Y0.641 Z-11.463 I1.177 J0.803
X-4.437 Y-0.965 Z-11.62 I-1.177 J-0.803
X-2.083 Y0.641 Z-11.776 I1.177 J0.803
X-4.437 Y-0.965 Z-11.932 I-1.177 J-0.803
X-2.725 Y-1.483 Z-12. I1.177 J0.803
X-2.716 Y-1.479 I-0.535 J1.321
G1 X-1.537 Y-0.992
G3 X-1.375 Y-0.6 I-0.115 J0.277
G1 X-1.397 Y-0.546
X-1.422 Y-0.477
X-1.444 Y-0.407
X-1.461 Y-0.338
X-1.476 Y-0.269
X-1.487 Y-0.2
X-1.494 Y-0.131
X-1.499 Y-0.062
X-1.5 Y0.007
Y27.92
X-1.499 Y28.058
X-1.49 Y28.197
X-1.481 Y28.335
X-1.468 Y28.473
X-1.443 Y28.611
X-1.415 Y28.749
X-1.386 Y28.887
X-1.375 Y28.927
X-1.343 Y29.026
X-1.297 Y29.164
X-1.248 Y29.302
X-1.237 Y29.332
X-1.187 Y29.44
X-1.098 Y29.621
X-1.05 Y29.717
X-1.01 Y29.786
X-0.965 Y29.855
X-0.873 Y29.993
X-0.822 Y30.068
X-0.776 Y30.131
X-0.684 Y30.241
X-0.546 Y30.399
X-0.538 Y30.407
X-0.473 Y30.477
X-0.407 Y30.538
X-0.399 Y30.546
X-0.241 Y30.684
X-0.131 Y30.776
X-0.068 Y30.822
X0.007 Y30.873
X0.145 Y30.965
X0.214 Y31.01
X0.283 Y31.05
X0.379 Y31.098
X0.56 Y31.187
X0.668 Y31.237
X0.698 Y31.248
X0.836 Y31.297
X0.974 Y31.343
X1.073 Y31.375
X1.113 Y31.386
X1.251 Y31.415
X1.389 Y31.443
X1.527 Y31.468
X1.665 Y31.481
X1.803 Y31.49
X1.942 Y31.499
X2.08 Y31.5
X27.92
X28.058 Y31.499
X28.197 Y31.49
X28.335 Y31.481
X28.473 Y31.468
X28.611 Y31.443
X28.749 Y31.415
X28.887 Y31.386
X28.927 Y31.375
X29.026 Y31.343
X29.164 Y31.297
X29.302 Y31.248
X29.332 Y31.237
X29.44 Y31.187
X29.621 Y31.098
X29.717 Y31.05
X29.786 Y31.01
X29.855 Y30.965
X29.993 Y30.873
X30.068 Y30.822
X30.131 Y30.776
X30.241 Y30.684
X30.399 Y30.546
X30.407 Y30.538
X30.473 Y30.477
X30.538 Y30.407
X30.546 Y30.399
X30.684 Y30.241
X30.776 Y30.131
X30.822 Y30.068
X30.873 Y29.993
X30.965 Y29.855
X31.01 Y29.786
X31.05 Y29.717
X31.098 Y29.621
X31.187 Y29.44
X31.237 Y29.332
X31.248 Y29.302
X31.297 Y29.164
X31.343 Y29.026
X31.375 Y28.927
X31.386 Y28.887
X31.415 Y28.749
X31.443 Y28.611
X31.468 Y28.473
X31.481 Y28.335
X31.49 Y28.197
X31.499 Y28.058
X31.5 Y27.92
Y0.007
X31.499 Y-0.062
X31.494 Y-0.131
X31.487 Y-0.2
X31.476 Y-0.269
X31.461 Y-0.338
X31.444 Y-0.407
X31.422 Y-0.477
X31.397 Y-0.546
X31.375 Y-0.6
X31.335 Y-0.684
X31.297 Y-0.753
X31.255 Y-0.822
X31.237 Y-0.849
X31.197 Y-0.905
X31.152 Y-0.96
X31.098 Y-1.022
X31.022 Y-1.098
X30.96 Y-1.152
X30.905 Y-1.197
X30.849 Y-1.237
X30.822 Y-1.255
X30.753 Y-1.297
X30.684 Y-1.335
X30.6 Y-1.375
X30.546 Y-1.397
X30.477 Y-1.422
X30.407 Y-1.444
X30.338 Y-1.461
X30.269 Y-1.476
X30.2 Y-1.487
X30.131 Y-1.494
X30.062 Y-1.499
X29.993 Y-1.5
X0.007
X-0.062 Y-1.499
X-0.131 Y-1.494
X-0.2 Y-1.487
X-0.269 Y-1.476
X-0.338 Y-1.461
X-0.407 Y-1.444
X-0.477 Y-1.422
X-0.546 Y-1.397
X-0.6 Y-1.375
X-0.684 Y-1.335
X-0.753 Y-1.297
X-0.822 Y-1.255
X-0.849 Y-1.237
X-0.905 Y-1.197
X-0.96 Y-1.152
X-1.022 Y-1.098
X-1.098 Y-1.022
X-1.152 Y-0.96
X-1.197 Y-0.905
X-1.237 Y-0.849
X-1.255 Y-0.822
X-1.297 Y-0.753
X-1.335 Y-0.684
X-1.375 Y-0.6
X-1.403 Y-0.54 Z-11.992
X-1.431 Y-0.482 Z-11.97
X-1.455 Y-0.431 Z-11.935
X-1.475 Y-0.388 Z-11.887
X-1.491 Y-0.356 Z-11.83
X-1.5 Y-0.336 Z-11.767
X-1.503 Y-0.329 Z-11.7
G0 Z2.

M9
G53 Z0.
M30
