(1-HOLES)
(T2  D=3. CR=0. - ZMIN=-12. - FLAT END MILL)
G0 G90 G94 G17
G21
G53 Z0.

(CONTOUR - HOLES)
M5
M9
T2
(PART OF A 10 PACK CARBIDE)
M3 S18000
G54
M9
G0 X17.536 Y10.145
Z2.
G1 Z-2. F250.
G3 X17.26 Y9.82 I0.023 J-0.299
G1 X17.269 Y9.727
X17.286 Y9.59
X17.31 Y9.453
X17.341 Y9.316
X17.38 Y9.179
X17.397 Y9.126
X17.427 Y9.042
X17.482 Y8.905
X17.535 Y8.792
X17.546 Y8.768
X17.62 Y8.631
X17.672 Y8.545
X17.705 Y8.494
X17.801 Y8.357
X17.809 Y8.346
X17.858 Y8.283
X17.909 Y8.22
X17.946 Y8.179
X18.035 Y8.083
X18.083 Y8.034
X18.178 Y7.946
X18.22 Y7.91
X18.346 Y7.809
X18.357 Y7.801
X18.494 Y7.704
X18.545 Y7.672
X18.631 Y7.62
X18.768 Y7.547
X18.792 Y7.535
X18.905 Y7.483
X19.042 Y7.427
X19.125 Y7.398
X19.179 Y7.38
X19.316 Y7.341
X19.453 Y7.31
X19.59 Y7.285
X19.727 Y7.268
X19.817 Y7.261
X19.864 Y7.258
X19.933 Y7.256
X20.001 Y7.254
X20.139 Y7.258
X20.183 Y7.261
X20.276 Y7.268
X20.413 Y7.286
X20.55 Y7.31
X20.687 Y7.342
X20.824 Y7.381
X20.875 Y7.398
X20.961 Y7.429
X21.098 Y7.484
X21.208 Y7.535
X21.235 Y7.548
X21.372 Y7.622
X21.455 Y7.672
X21.509 Y7.706
X21.646 Y7.803
X21.654 Y7.809
X21.783 Y7.913
X21.822 Y7.946
X21.92 Y8.037
X21.965 Y8.083
X22.057 Y8.183
X22.091 Y8.22
X22.143 Y8.285
X22.194 Y8.35
X22.199 Y8.357
X22.295 Y8.494
X22.331 Y8.549
X22.38 Y8.631
X22.454 Y8.768
X22.468 Y8.798
X22.518 Y8.905
X22.573 Y9.042
X22.605 Y9.134
X22.62 Y9.179
X22.659 Y9.316
X22.69 Y9.453
X22.714 Y9.59
X22.731 Y9.727
X22.742 Y9.864
Y9.88
X22.745 Y10.002
X22.742 Y10.12
Y10.139
X22.731 Y10.276
X22.714 Y10.413
X22.69 Y10.55
X22.658 Y10.687
X22.619 Y10.824
X22.605 Y10.866
X22.572 Y10.961
X22.545 Y11.029
X22.517 Y11.098
X22.468 Y11.202
X22.452 Y11.235
X22.378 Y11.372
X22.331 Y11.451
X22.293 Y11.509
X22.197 Y11.646
X22.194 Y11.65
X22.142 Y11.716
X22.088 Y11.783
X22.057 Y11.817
X21.962 Y11.92
X21.92 Y11.963
X21.87 Y12.01
X21.819 Y12.057
X21.783 Y12.087
X21.65 Y12.194
X21.646 Y12.197
X21.509 Y12.294
X21.45 Y12.331
X21.372 Y12.378
X21.235 Y12.452
X21.202 Y12.468
X21.098 Y12.516
X20.961 Y12.571
X20.866 Y12.605
X20.824 Y12.619
X20.687 Y12.658
X20.55 Y12.69
X20.413 Y12.714
X20.276 Y12.732
X20.141 Y12.742
X20.139
X20.001 Y12.746
X19.933 Y12.744
X19.864 Y12.742
X19.859
X19.727 Y12.732
X19.59 Y12.715
X19.453 Y12.69
X19.316 Y12.659
X19.179 Y12.62
X19.134 Y12.605
X19.042 Y12.573
X18.905 Y12.517
X18.798 Y12.468
X18.768 Y12.453
X18.631 Y12.38
X18.55 Y12.331
X18.494 Y12.296
X18.357 Y12.199
X18.35 Y12.194
X18.22 Y12.09
X18.181 Y12.057
X18.083 Y11.966
X18.038 Y11.92
X17.946 Y11.821
X17.912 Y11.783
X17.859 Y11.718
X17.809 Y11.654
X17.803 Y11.646
X17.707 Y11.509
X17.672 Y11.455
X17.622 Y11.372
X17.548 Y11.235
X17.535 Y11.208
X17.483 Y11.098
X17.455 Y11.029
X17.428 Y10.961
X17.397 Y10.874
X17.381 Y10.824
X17.342 Y10.687
X17.31 Y10.55
X17.286 Y10.413
X17.269 Y10.276
X17.26 Y10.18
X17.258 Y10.139
X17.255 Y10.002
X17.258 Y9.864
X17.26 Y9.82
G3 X17.575 Y9.535 I0.3 J0.014
G2 X17.876 Y9.149 I0.014 J-0.3
G3 X17.984 Y8.823 I0.287 J-0.086
X19.771 Y8.884 I0.855 J1.14
X19.779 Y8.891 I-0.932 J1.078 F83.
X17.9 Y11.034 Z-2.156 I-0.939 J1.071
X19.779 Y8.891 Z-2.313 I0.939 J-1.071
X17.9 Y11.034 Z-2.469 I-0.939 J1.071
X19.779 Y8.891 Z-2.625 I0.939 J-1.071
X17.9 Y11.034 Z-2.782 I-0.939 J1.071
X19.779 Y8.891 Z-2.938 I0.939 J-1.071
X17.9 Y11.034 Z-3.094 I-0.939 J1.071
X19.779 Y8.891 Z-3.25 I0.939 J-1.071
X17.9 Y11.034 Z-3.407 I-0.939 J1.071
X19.779 Y8.891 Z-3.563 I0.939 J-1.071
X17.9 Y11.034 Z-3.719 I-0.939 J1.071
X19.779 Y8.891 Z-3.875 I0.939 J-1.071
X18.726 Y11.383 Z-4. I-0.939 J1.071
X18.716 Y11.382 I0.113 J-1.421
G1 X18.561 Y11.369 F250.
G3 X17.26 Y9.82 I0.124 J-1.425
G1 X17.269 Y9.727
X17.286 Y9.59
X17.31 Y9.453
X17.341 Y9.316
X17.38 Y9.179
X17.397 Y9.126
X17.427 Y9.042
X17.482 Y8.905
X17.535 Y8.792
X17.546 Y8.768
X17.62 Y8.631
X17.672 Y8.545
X17.705 Y8.494
X17.801 Y8.357
X17.809 Y8.346
X17.858 Y8.283
X17.909 Y8.22
X17.946 Y8.179
X18.035 Y8.083
X18.083 Y8.034
X18.178 Y7.946
X18.22 Y7.91
X18.346 Y7.809
X18.357 Y7.801
X18.494 Y7.704
X18.545 Y7.672
X18.631 Y7.62
X18.768 Y7.547
X18.792 Y7.535
X18.905 Y7.483
X19.042 Y7.427
X19.125 Y7.398
X19.179 Y7.38
X19.316 Y7.341
X19.453 Y7.31
X19.59 Y7.285
X19.727 Y7.268
X19.817 Y7.261
X19.864 Y7.258
X19.933 Y7.256
X20.001 Y7.254
X20.139 Y7.258
X20.183 Y7.261
X20.276 Y7.268
X20.413 Y7.286
X20.55 Y7.31
X20.687 Y7.342
X20.824 Y7.381
X20.875 Y7.398
X20.961 Y7.429
X21.098 Y7.484
X21.208 Y7.535
X21.235 Y7.548
X21.372 Y7.622
X21.455 Y7.672
X21.509 Y7.706
X21.646 Y7.803
X21.654 Y7.809
X21.783 Y7.913
X21.822 Y7.946
X21.92 Y8.037
X21.965 Y8.083
X22.057 Y8.183
X22.091 Y8.22
X22.143 Y8.285
X22.194 Y8.35
X22.199 Y8.357
X22.295 Y8.494
X22.331 Y8.549
X22.38 Y8.631
X22.454 Y8.768
X22.468 Y8.798
X22.518 Y8.905
X22.573 Y9.042
X22.605 Y9.134
X22.62 Y9.179
X22.659 Y9.316
X22.69 Y9.453
X22.714 Y9.59
X22.731 Y9.727
X22.742 Y9.864
Y9.88
X22.745 Y10.002
X22.742 Y10.12
Y10.139
X22.731 Y10.276
X22.714 Y10.413
X22.69 Y10.55
X22.658 Y10.687
X22.619 Y10.824
X22.605 Y10.866
X22.572 Y10.961
X22.545 Y11.029
X22.517 Y11.098
X22.468 Y11.202
X22.452 Y11.235
X22.378 Y11.372
X22.331 Y11.451
X22.293 Y11.509
X22.197 Y11.646
X22.194 Y11.65
X22.142 Y11.716
X22.088 Y11.783
X22.057 Y11.817
X21.962 Y11.92
X21.92 Y11.963
X21.87 Y12.01
X21.819 Y12.057
X21.783 Y12.087
X21.65 Y12.194
X21.646 Y12.197
X21.509 Y12.294
X21.45 Y12.331
X21.372 Y12.378
X21.235 Y12.452
X21.202 Y12.468
X21.098 Y12.516
X20.961 Y12.571
X20.866 Y12.605
X20.824 Y12.619
X20.687 Y12.658
X20.55 Y12.69
X20.413 Y12.714
X20.276 Y12.732
X20.141 Y12.742
X20.139
X20.001 Y12.746
X19.933 Y12.744
X19.864 Y12.742
X19.859
X19.727 Y12.732
X19.59 Y12.715
X19.453 Y12.69
X19.316 Y12.659
X19.179 Y12.62
X19.134 Y12.605
X19.042 Y12.573
X18.905 Y12.517
X18.798 Y12.468
X18.768 Y12.453
X18.631 Y12.38
X18.55 Y12.331
X18.494 Y12.296
X18.357 Y12.199
X18.35 Y12.194
X18.22 Y12.09
X18.181 Y12.057
X18.083 Y11.966
X18.038 Y11.92
X17.946 Y11.821
X17.912 Y11.783
X17.859 Y11.718
X17.809 Y11.654
X17.803 Y11.646
X17.707 Y11.509
X17.672 Y11.455
X17.622 Y11.372
X17.548 Y11.235
X17.535 Y11.208
X17.483 Y11.098
X17.455 Y11.029
X17.428 Y10.961
X17.397 Y10.874
X17.381 Y10.824
X17.342 Y10.687
X17.31 Y10.55
X17.286 Y10.413
X17.269 Y10.276
X17.26 Y10.18
X17.258 Y10.139
X17.255 Y10.002
X17.258 Y9.864
X17.26 Y9.82
G3 X17.575 Y9.535 I0.3 J0.014
G2 X17.876 Y9.149 I0.014 J-0.3
G3 X17.984 Y8.823 I0.287 J-0.086
X19.771 Y8.884 I0.855 J1.14
X19.779 Y8.891 I-0.932 J1.078 F83.
X17.9 Y11.034 Z-4.156 I-0.939 J1.071
X19.779 Y8.891 Z-4.313 I0.939 J-1.071
X17.9 Y11.034 Z-4.469 I-0.939 J1.071
X19.779 Y8.891 Z-4.625 I0.939 J-1.071
X17.9 Y11.034 Z-4.782 I-0.939 J1.071
X19.779 Y8.891 Z-4.938 I0.939 J-1.071
X17.9 Y11.034 Z-5.094 I-0.939 J1.071
X19.779 Y8.891 Z-5.25 I0.939 J-1.071
X17.9 Y11.034 Z-5.407 I-0.939 J1.071
X19.779 Y8.891 Z-5.563 I0.939 J-1.071
X17.9 Y11.034 Z-5.719 I-0.939 J1.071
X19.779 Y8.891 Z-5.875 I0.939 J-1.071
X18.726 Y11.383 Z-6. I-0.939 J1.071
X18.716 Y11.382 I0.113 J-1.421
G1 X18.561 Y11.369 F250.
G3 X17.26 Y9.82 I0.124 J-1.425
G1 X17.269 Y9.727
X17.286 Y9.59
X17.31 Y9.453
X17.341 Y9.316
X17.38 Y9.179
X17.397 Y9.126
X17.427 Y9.042
X17.482 Y8.905
X17.535 Y8.792
X17.546 Y8.768
X17.62 Y8.631
X17.672 Y8.545
X17.705 Y8.494
X17.801 Y8.357
X17.809 Y8.346
X17.858 Y8.283
X17.909 Y8.22
X17.946 Y8.179
X18.035 Y8.083
X18.083 Y8.034
X18.178 Y7.946
X18.22 Y7.91
X18.346 Y7.809
X18.357 Y7.801
X18.494 Y7.704
X18.545 Y7.672
X18.631 Y7.62
X18.768 Y7.547
X18.792 Y7.535
X18.905 Y7.483
X19.042 Y7.427
X19.125 Y7.398
X19.179 Y7.38
X19.316 Y7.341
X19.453 Y7.31
X19.59 Y7.285
X19.727 Y7.268
X19.817 Y7.261
X19.864 Y7.258
X19.933 Y7.256
X20.001 Y7.254
X20.139 Y7.258
X20.183 Y7.261
X20.276 Y7.268
X20.413 Y7.286
X20.55 Y7.31
X20.687 Y7.342
X20.824 Y7.381
X20.875 Y7.398
X20.961 Y7.429
X21.098 Y7.484
X21.208 Y7.535
X21.235 Y7.548
X21.372 Y7.622
X21.455 Y7.672
X21.509 Y7.706
X21.646 Y7.803
X21.654 Y7.809
X21.783 Y7.913
X21.822 Y7.946
X21.92 Y8.037
X21.965 Y8.083
X22.057 Y8.183
X22.091 Y8.22
X22.143 Y8.285
X22.194 Y8.35
X22.199 Y8.357
X22.295 Y8.494
X22.331 Y8.549
X22.38 Y8.631
X22.454 Y8.768
X22.468 Y8.798
X22.518 Y8.905
X22.573 Y9.042
X22.605 Y9.134
X22.62 Y9.179
X22.659 Y9.316
X22.69 Y9.453
X22.714 Y9.59
X22.731 Y9.727
X22.742 Y9.864
Y9.88
X22.745 Y10.002
X22.742 Y10.12
Y10.139
X22.731 Y10.276
X22.714 Y10.413
X22.69 Y10.55
X22.658 Y10.687
X22.619 Y10.824
X22.605 Y10.866
X22.572 Y10.961
X22.545 Y11.029
X22.517 Y11.098
X22.468 Y11.202
X22.452 Y11.235
X22.378 Y11.372
X22.331 Y11.451
X22.293 Y11.509
X22.197 Y11.646
X22.194 Y11.65
X22.142 Y11.716
X22.088 Y11.783
X22.057 Y11.817
X21.962 Y11.92
X21.92 Y11.963
X21.87 Y12.01
X21.819 Y12.057
X21.783 Y12.087
X21.65 Y12.194
X21.646 Y12.197
X21.509 Y12.294
X21.45 Y12.331
X21.372 Y12.378
X21.235 Y12.452
X21.202 Y12.468
X21.098 Y12.516
X20.961 Y12.571
X20.866 Y12.605
X20.824 Y12.619
X20.687 Y12.658
X20.55 Y12.69
X20.413 Y12.714
X20.276 Y12.732
X20.141 Y12.742
X20.139
X20.001 Y12.746
X19.933 Y12.744
X19.864 Y12.742
X19.859
X19.727 Y12.732
X19.59 Y12.715
X19.453 Y12.69
X19.316 Y12.659
X19.179 Y12.62
X19.134 Y12.605
X19.042 Y12.573
X18.905 Y12.517
X18.798 Y12.468
X18.768 Y12.453
X18.631 Y12.38
X18.55 Y12.331
X18.494 Y12.296
X18.357 Y12.199
X18.35 Y12.194
X18.22 Y12.09
X18.181 Y12.057
X18.083 Y11.966
X18.038 Y11.92
X17.946 Y11.821
X17.912 Y11.783
X17.859 Y11.718
X17.809 Y11.654
X17.803 Y11.646
X17.707 Y11.509
X17.672 Y11.455
X17.622 Y11.372
X17.548 Y11.235
X17.535 Y11.208
X17.483 Y11.098
X17.455 Y11.029
X17.428 Y10.961
X17.397 Y10.874
X17.381 Y10.824
X17.342 Y10.687
X17.31 Y10.55
X17.286 Y10.413
X17.269 Y10.276
X17.26 Y10.18
X17.258 Y10.139
X17.255 Y10.002
X17.258 Y9.864
X17.26 Y9.82
G3 X17.575 Y9.535 I0.3 J0.014
G2 X17.872 Y9.135 I0.014 J-0.3
G3 X17.969 Y8.798 I0.283 J-0.101
X19.401 Y8.61 I0.874 J1.114
X19.411 Y8.615 I-0.558 J1.301 F83.
X18.275 Y11.208 Z-6.155 I-0.568 J1.297
X19.411 Y8.615 Z-6.311 I0.568 J-1.297
X18.275 Y11.208 Z-6.466 I-0.568 J1.297
X19.411 Y8.615 Z-6.621 I0.568 J-1.297
X18.275 Y11.208 Z-6.776 I-0.568 J1.297
X19.411 Y8.615 Z-6.932 I0.568 J-1.297
X18.275 Y11.208 Z-7.087 I-0.568 J1.297
X19.411 Y8.615 Z-7.242 I0.568 J-1.297
X18.275 Y11.208 Z-7.397 I-0.568 J1.297
X19.411 Y8.615 Z-7.552 I0.568 J-1.297
X18.275 Y11.208 Z-7.708 I-0.568 J1.297
X19.411 Y8.615 Z-7.863 I0.568 J-1.297
X18.785 Y11.326 Z-8. I-0.568 J1.297
X18.775 Y11.325 I0.058 J-1.414
G1 X18.62 Y11.318 F250.
G3 X17.26 Y9.82 I0.069 J-1.428
G1 X17.269 Y9.727
X17.286 Y9.59
X17.31 Y9.453
X17.341 Y9.316
X17.38 Y9.179
X17.397 Y9.126
X17.427 Y9.042
X17.482 Y8.905
X17.535 Y8.792
X17.546 Y8.768
X17.62 Y8.631
X17.672 Y8.545
X17.705 Y8.494
X17.801 Y8.357
X17.809 Y8.346
X17.858 Y8.283
X17.909 Y8.22
X17.946 Y8.179
X18.035 Y8.083
X18.083 Y8.034
X18.178 Y7.946
X18.22 Y7.91
X18.346 Y7.809
X18.357 Y7.801
X18.494 Y7.704
X18.545 Y7.672
X18.631 Y7.62
X18.768 Y7.547
X18.792 Y7.535
X18.905 Y7.483
X19.042 Y7.427
X19.125 Y7.398
X19.179 Y7.38
X19.316 Y7.341
X19.453 Y7.31
X19.59 Y7.285
X19.727 Y7.268
X19.817 Y7.261
X19.864 Y7.258
X19.933 Y7.256
X20.001 Y7.254
X20.139 Y7.258
X20.183 Y7.261
X20.276 Y7.268
X20.413 Y7.286
X20.55 Y7.31
X20.687 Y7.342
X20.824 Y7.381
X20.875 Y7.398
X20.961 Y7.429
X21.098 Y7.484
X21.208 Y7.535
X21.235 Y7.548
X21.372 Y7.622
X21.455 Y7.672
X21.509 Y7.706
X21.646 Y7.803
X21.654 Y7.809
X21.783 Y7.913
X21.822 Y7.946
X21.92 Y8.037
X21.965 Y8.083
X22.057 Y8.183
X22.091 Y8.22
X22.143 Y8.285
X22.194 Y8.35
X22.199 Y8.357
X22.295 Y8.494
X22.331 Y8.549
X22.38 Y8.631
X22.454 Y8.768
X22.468 Y8.798
X22.518 Y8.905
X22.573 Y9.042
X22.605 Y9.134
X22.62 Y9.179
X22.659 Y9.316
X22.69 Y9.453
X22.714 Y9.59
X22.731 Y9.727
X22.742 Y9.864
Y9.88
X22.745 Y10.002
X22.742 Y10.12
Y10.139
X22.731 Y10.276
X22.714 Y10.413
X22.69 Y10.55
X22.658 Y10.687
X22.619 Y10.824
X22.605 Y10.866
X22.572 Y10.961
X22.545 Y11.029
X22.517 Y11.098
X22.468 Y11.202
X22.452 Y11.235
X22.378 Y11.372
X22.331 Y11.451
X22.293 Y11.509
X22.197 Y11.646
X22.194 Y11.65
X22.142 Y11.716
X22.088 Y11.783
X22.057 Y11.817
X21.962 Y11.92
X21.92 Y11.963
X21.87 Y12.01
X21.819 Y12.057
X21.783 Y12.087
X21.65 Y12.194
X21.646 Y12.197
X21.509 Y12.294
X21.45 Y12.331
X21.372 Y12.378
X21.235 Y12.452
X21.202 Y12.468
X21.098 Y12.516
X20.961 Y12.571
X20.866 Y12.605
X20.824 Y12.619
X20.687 Y12.658
X20.55 Y12.69
X20.413 Y12.714
X20.276 Y12.732
X20.141 Y12.742
X20.139
X20.001 Y12.746
X19.933 Y12.744
X19.864 Y12.742
X19.859
X19.727 Y12.732
X19.59 Y12.715
X19.453 Y12.69
X19.316 Y12.659
X19.179 Y12.62
X19.134 Y12.605
X19.042 Y12.573
X18.905 Y12.517
X18.798 Y12.468
X18.768 Y12.453
X18.631 Y12.38
X18.55 Y12.331
X18.494 Y12.296
X18.357 Y12.199
X18.35 Y12.194
X18.22 Y12.09
X18.181 Y12.057
X18.083 Y11.966
X18.038 Y11.92
X17.946 Y11.821
X17.912 Y11.783
X17.859 Y11.718
X17.809 Y11.654
X17.803 Y11.646
X17.707 Y11.509
X17.672 Y11.455
X17.622 Y11.372
X17.548 Y11.235
X17.535 Y11.208
X17.483 Y11.098
X17.455 Y11.029
X17.428 Y10.961
X17.397 Y10.874
X17.381 Y10.824
X17.342 Y10.687
X17.31 Y10.55
X17.286 Y10.413
X17.269 Y10.276
X17.26 Y10.18
X17.258 Y10.139
X17.255 Y10.002
X17.258 Y9.864
X17.26 Y9.82
G3 X17.575 Y9.535 I0.3 J0.014
G2 X17.876 Y9.149 I0.014 J-0.3
G3 X17.984 Y8.823 I0.287 J-0.086
X19.771 Y8.884 I0.855 J1.14
X19.779 Y8.891 I-0.932 J1.078 F83.
X17.9 Y11.034 Z-8.156 I-0.939 J1.071
X19.779 Y8.891 Z-8.313 I0.939 J-1.071
X17.9 Y11.034 Z-8.469 I-0.939 J1.071
X19.779 Y8.891 Z-8.625 I0.939 J-1.071
X17.9 Y11.034 Z-8.782 I-0.939 J1.071
X19.779 Y8.891 Z-8.938 I0.939 J-1.071
X17.9 Y11.034 Z-9.094 I-0.939 J1.071
X19.779 Y8.891 Z-9.25 I0.939 J-1.071
X17.9 Y11.034 Z-9.407 I-0.939 J1.071
X19.779 Y8.891 Z-9.563 I0.939 J-1.071
X17.9 Y11.034 Z-9.719 I-0.939 J1.071
X19.779 Y8.891 Z-9.875 I0.939 J-1.071
X18.726 Y11.383 Z-10. I-0.939 J1.071
X18.716 Y11.382 I0.113 J-1.421
G1 X18.561 Y11.369 F250.
G3 X17.26 Y9.82 I0.124 J-1.425
G1 X17.269 Y9.727
X17.286 Y9.59
X17.31 Y9.453
X17.341 Y9.316
X17.38 Y9.179
X17.397 Y9.126
X17.427 Y9.042
X17.482 Y8.905
X17.535 Y8.792
X17.546 Y8.768
X17.62 Y8.631
X17.672 Y8.545
X17.705 Y8.494
X17.801 Y8.357
X17.809 Y8.346
X17.858 Y8.283
X17.909 Y8.22
X17.946 Y8.179
X18.035 Y8.083
X18.083 Y8.034
X18.178 Y7.946
X18.22 Y7.91
X18.346 Y7.809
X18.357 Y7.801
X18.494 Y7.704
X18.545 Y7.672
X18.631 Y7.62
X18.768 Y7.547
X18.792 Y7.535
X18.905 Y7.483
X19.042 Y7.427
X19.125 Y7.398
X19.179 Y7.38
X19.316 Y7.341
X19.453 Y7.31
X19.59 Y7.285
X19.727 Y7.268
X19.817 Y7.261
X19.864 Y7.258
X19.933 Y7.256
X20.001 Y7.254
X20.139 Y7.258
X20.183 Y7.261
X20.276 Y7.268
X20.413 Y7.286
X20.55 Y7.31
X20.687 Y7.342
X20.824 Y7.381
X20.875 Y7.398
X20.961 Y7.429
X21.098 Y7.484
X21.208 Y7.535
X21.235 Y7.548
X21.372 Y7.622
X21.455 Y7.672
X21.509 Y7.706
X21.646 Y7.803
X21.654 Y7.809
X21.783 Y7.913
X21.822 Y7.946
X21.92 Y8.037
X21.965 Y8.083
X22.057 Y8.183
X22.091 Y8.22
X22.143 Y8.285
X22.194 Y8.35
X22.199 Y8.357
X22.295 Y8.494
X22.331 Y8.549
X22.38 Y8.631
X22.454 Y8.768
X22.468 Y8.798
X22.518 Y8.905
X22.573 Y9.042
X22.605 Y9.134
X22.62 Y9.179
X22.659 Y9.316
X22.69 Y9.453
X22.714 Y9.59
X22.731 Y9.727
X22.742 Y9.864
Y9.88
X22.745 Y10.002
X22.742 Y10.12
Y10.139
X22.731 Y10.276
X22.714 Y10.413
X22.69 Y10.55
X22.658 Y10.687
X22.619 Y10.824
X22.605 Y10.866
X22.572 Y10.961
X22.545 Y11.029
X22.517 Y11.098
X22.468 Y11.202
X22.452 Y11.235
X22.378 Y11.372
X22.331 Y11.451
X22.293 Y11.509
X22.197 Y11.646
X22.194 Y11.65
X22.142 Y11.716
X22.088 Y11.783
X22.057 Y11.817
X21.962 Y11.92
X21.92 Y11.963
X21.87 Y12.01
X21.819 Y12.057
X21.783 Y12.087
X21.65 Y12.194
X21.646 Y12.197
X21.509 Y12.294
X21.45 Y12.331
X21.372 Y12.378
X21.235 Y12.452
X21.202 Y12.468
X21.098 Y12.516
X20.961 Y12.571
X20.866 Y12.605
X20.824 Y12.619
X20.687 Y12.658
X20.55 Y12.69
X20.413 Y12.714
X20.276 Y12.732
X20.141 Y12.742
X20.139
X20.001 Y12.746
X19.933 Y12.744
X19.864 Y12.742
X19.859
X19.727 Y12.732
X19.59 Y12.715
X19.453 Y12.69
X19.316 Y12.659
X19.179 Y12.62
X19.134 Y12.605
X19.042 Y12.573
X18.905 Y12.517
X18.798 Y12.468
X18.768 Y12.453
X18.631 Y12.38
X18.55 Y12.331
X18.494 Y12.296
X18.357 Y12.199
X18.35 Y12.194
X18.22 Y12.09
X18.181 Y12.057
X18.083 Y11.966
X18.038 Y11.92
X17.946 Y11.821
X17.912 Y11.783
X17.859 Y11.718
X17.809 Y11.654
X17.803 Y11.646
X17.707 Y11.509
X17.672 Y11.455
X17.622 Y11.372
X17.548 Y11.235
X17.535 Y11.208
X17.483 Y11.098
X17.455 Y11.029
X17.428 Y10.961
X17.397 Y10.874
X17.381 Y10.824
X17.342 Y10.687
X17.31 Y10.55
X17.286 Y10.413
X17.269 Y10.276
X17.26 Y10.18
X17.258 Y10.139
X17.255 Y10.002
X17.258 Y9.864
X17.26 Y9.82
G3 X17.575 Y9.535 I0.3 J0.014
G2 X17.876 Y9.149 I0.014 J-0.3
G3 X17.984 Y8.823 I0.287 J-0.086
X19.771 Y8.884 I0.855 J1.14
X19.779 Y8.891 I-0.932 J1.078 F83.
X17.9 Y11.034 Z-10.156 I-0.939 J1.071
X19.779 Y8.891 Z-10.313 I0.939 J-1.071
X17.9 Y11.034 Z-10.469 I-0.939 J1.071
X19.779 Y8.891 Z-10.625 I0.939 J-1.071
X17.9 Y11.034 Z-10.782 I-0.939 J1.071
X19.779 Y8.891 Z-10.938 I0.939 J-1.071
X17.9 Y11.034 Z-11.094 I-0.939 J1.071
X19.779 Y8.891 Z-11.25 I0.939 J-1.071
X17.9 Y11.034 Z-11.407 I-0.939 J1.071
X19.779 Y8.891 Z-11.563 I0.939 J-1.071
X17.9 Y11.034 Z-11.719 I-0.939 J1.071
X19.779 Y8.891 Z-11.875 I0.939 J-1.071
X18.726 Y11.383 Z-12. I-0.939 J1.071
X18.716 Y11.382 I0.113 J-1.421
G1 X18.561 Y11.369 F250.
G3 X17.26 Y9.82 I0.124 J-1.425
G1 X17.269 Y9.727
X17.286 Y9.59
X17.31 Y9.453
X17.341 Y9.316
X17.38 Y9.179
X17.397 Y9.126
X17.427 Y9.042
X17.482 Y8.905
X17.535 Y8.792
X17.546 Y8.768
X17.62 Y8.631
X17.672 Y8.545
X17.705 Y8.494
X17.801 Y8.357
X17.809 Y8.346
X17.858 Y8.283
X17.909 Y8.22
X17.946 Y8.179
X18.035 Y8.083
X18.083 Y8.034
X18.178 Y7.946
X18.22 Y7.91
X18.346 Y7.809
X18.357 Y7.801
X18.494 Y7.704
X18.545 Y7.672
X18.631 Y7.62
X18.768 Y7.547
X18.792 Y7.535
X18.905 Y7.483
X19.042 Y7.427
X19.125 Y7.398
X19.179 Y7.38
X19.316 Y7.341
X19.453 Y7.31
X19.59 Y7.285
X19.727 Y7.268
X19.817 Y7.261
X19.864 Y7.258
X19.933 Y7.256
X20.001 Y7.254
X20.139 Y7.258
X20.183 Y7.261
X20.276 Y7.268
X20.413 Y7.286
X20.55 Y7.31
X20.687 Y7.342
X20.824 Y7.381
X20.875 Y7.398
X20.961 Y7.429
X21.098 Y7.484
X21.208 Y7.535
X21.235 Y7.548
X21.372 Y7.622
X21.455 Y7.672
X21.509 Y7.706
X21.646 Y7.803
X21.654 Y7.809
X21.783 Y7.913
X21.822 Y7.946
X21.92 Y8.037
X21.965 Y8.083
X22.057 Y8.183
X22.091 Y8.22
X22.143 Y8.285
X22.194 Y8.35
X22.199 Y8.357
X22.295 Y8.494
X22.331 Y8.549
X22.38 Y8.631
X22.454 Y8.768
X22.468 Y8.798
X22.518 Y8.905
X22.573 Y9.042
X22.605 Y9.134
X22.62 Y9.179
X22.659 Y9.316
X22.69 Y9.453
X22.714 Y9.59
X22.731 Y9.727
X22.742 Y9.864
Y9.88
X22.745 Y10.002
X22.742 Y10.12
Y10.139
X22.731 Y10.276
X22.714 Y10.413
X22.69 Y10.55
X22.658 Y10.687
X22.619 Y10.824
X22.605 Y10.866
X22.572 Y10.961
X22.545 Y11.029
X22.517 Y11.098
X22.468 Y11.202
X22.452 Y11.235
X22.378 Y11.372
X22.331 Y11.451
X22.293 Y11.509
X22.197 Y11.646
X22.194 Y11.65
X22.142 Y11.716
X22.088 Y11.783
X22.057 Y11.817
X21.962 Y11.92
X21.92 Y11.963
X21.87 Y12.01
X21.819 Y12.057
X21.783 Y12.087
X21.65 Y12.194
X21.646 Y12.197
X21.509 Y12.294
X21.45 Y12.331
X21.372 Y12.378
X21.235 Y12.452
X21.202 Y12.468
X21.098 Y12.516
X20.961 Y12.571
X20.866 Y12.605
X20.824 Y12.619
X20.687 Y12.658
X20.55 Y12.69
X20.413 Y12.714
X20.276 Y12.732
X20.141 Y12.742
X20.139
X20.001 Y12.746
X19.933 Y12.744
X19.864 Y12.742
X19.859
X19.727 Y12.732
X19.59 Y12.715
X19.453 Y12.69
X19.316 Y12.659
X19.179 Y12.62
X19.134 Y12.605
X19.042 Y12.573
X18.905 Y12.517
X18.798 Y12.468
X18.768 Y12.453
X18.631 Y12.38
X18.55 Y12.331
X18.494 Y12.296
X18.357 Y12.199
X18.35 Y12.194
X18.22 Y12.09
X18.181 Y12.057
X18.083 Y11.966
X18.038 Y11.92
X17.946 Y11.821
X17.912 Y11.783
X17.859 Y11.718
X17.809 Y11.654
X17.803 Y11.646
X17.707 Y11.509
X17.672 Y11.455
X17.622 Y11.372
X17.548 Y11.235
X17.535 Y11.208
X17.483 Y11.098
X17.455 Y11.029
X17.428 Y10.961
X17.397 Y10.874
X17.381 Y10.824
X17.342 Y10.687
X17.31 Y10.55
X17.286 Y10.413
X17.269 Y10.276
X17.26 Y10.18
X17.258 Y10.139
X17.255 Y10.002
X17.258 Y9.864
X17.26 Y9.82
G3 X17.588 Y9.548 I0.299 J0.026
G0 Z2.

M9
G53 Z0.
M30
