(2-OUTEREDGE)
(T2  D=3. CR=0. - ZMIN=-12. - FLAT END MILL)
G0 G90 G94 G17
G21
G53 Z0.

(CONTOUR - OUTER EDGE1)
M5
M9
T2
(PART OF A 10 PACK CARBIDE)
M3 S18000
G54
M9
G0 X-1.947 Y0.375
Z2.
G1 Z0.4 F250.
Y0.377 Z0.367
X-1.95 Y0.382 Z0.335
X-1.953 Y0.39 Z0.303
G3 X-1.958 Y0.401 Z0.272 I-1.305 J-0.571
X-1.965 Y0.416 Z0.243 I-1.3 J-0.583
X-1.973 Y0.432 Z0.216 I-1.294 J-0.597
X-1.982 Y0.452 Z0.191 I-1.286 J-0.614
X-1.993 Y0.473 Z0.169 I-1.277 J-0.633
X-2.005 Y0.497 Z0.149 I-1.266 J-0.655
X-2.019 Y0.521 Z0.133 I-1.253 J-0.678
X-2.034 Y0.547 Z0.119 I-1.24 J-0.703
X-2.05 Y0.574 Z0.109 I-1.224 J-0.729
X-2.068 Y0.601 Z0.103 I-1.208 J-0.756
X-2.086 Y0.629 Z0.1 I-1.191 J-0.783
X-4.431 Y-0.991 Z-0.056 I-1.172 J-0.81
X-2.086 Y0.629 Z-0.213 I1.172 J0.81
X-4.431 Y-0.991 Z-0.369 I-1.172 J-0.81
X-2.086 Y0.629 Z-0.525 I1.172 J0.81
X-4.431 Y-0.991 Z-0.682 I-1.172 J-0.81
X-2.086 Y0.629 Z-0.838 I1.172 J0.81
X-4.431 Y-0.991 Z-0.994 I-1.172 J-0.81
X-2.086 Y0.629 Z-1.151 I1.172 J0.81
X-4.431 Y-0.991 Z-1.307 I-1.172 J-0.81
X-2.086 Y0.629 Z-1.463 I1.172 J0.81
X-4.431 Y-0.991 Z-1.62 I-1.172 J-0.81
X-2.086 Y0.629 Z-1.776 I1.172 J0.81
X-4.431 Y-0.991 Z-1.932 I-1.172 J-0.81
X-2.717 Y-1.499 Z-2. I1.172 J0.81
X-2.707 Y-1.495 I-0.542 J1.318
G1 X-1.531 Y-1.002
G3 X-1.371 Y-0.609 I-0.116 J0.277
G1 X-1.395 Y-0.552
X-1.42 Y-0.483
X-1.442 Y-0.414
X-1.46 Y-0.345
X-1.474 Y-0.276
X-1.486 Y-0.207
X-1.494 Y-0.138
X-1.498 Y-0.069
X-1.5 Y0.
Y17.931
X-1.498 Y18.069
X-1.49 Y18.207
X-1.481 Y18.345
X-1.466 Y18.483
X-1.441 Y18.621
X-1.413 Y18.759
X-1.383 Y18.897
X-1.371 Y18.941
X-1.34 Y19.035
X-1.294 Y19.173
X-1.245 Y19.311
X-1.232 Y19.342
X-1.183 Y19.449
X-1.094 Y19.63
X-1.045 Y19.724
X-0.96 Y19.862
X-0.868 Y20.
X-0.817 Y20.075
X-0.771 Y20.138
X-0.679 Y20.247
X-0.541 Y20.405
X-0.532 Y20.414
X-0.467 Y20.482
X-0.402 Y20.543
X-0.234 Y20.69
X-0.125 Y20.781
X-0.06 Y20.828
X0.013 Y20.877
X0.151 Y20.969
X0.221 Y21.014
X0.29 Y21.053
X0.39 Y21.104
X0.567 Y21.191
X0.681 Y21.242
X0.705 Y21.251
X0.843 Y21.299
X0.982 Y21.346
X1.09 Y21.38
X1.12 Y21.387
X1.258 Y21.417
X1.397 Y21.444
X1.535 Y21.469
X1.674 Y21.482
X1.812 Y21.491
X1.95 Y21.499
X2.089 Y21.5
X42.911
X43.05 Y21.499
X43.188 Y21.491
X43.326 Y21.482
X43.465 Y21.469
X43.603 Y21.444
X43.742 Y21.417
X43.88 Y21.387
X43.91 Y21.38
X44.018 Y21.346
X44.157 Y21.299
X44.295 Y21.251
X44.319 Y21.242
X44.433 Y21.191
X44.61 Y21.104
X44.71 Y21.053
X44.779 Y21.014
X44.849 Y20.969
X44.987 Y20.877
X45.06 Y20.828
X45.125 Y20.781
X45.234 Y20.69
X45.402 Y20.543
X45.467 Y20.482
X45.532 Y20.414
X45.541 Y20.405
X45.679 Y20.247
X45.771 Y20.138
X45.817 Y20.075
X45.868 Y20.
X45.96 Y19.862
X46.045 Y19.724
X46.094 Y19.63
X46.183 Y19.449
X46.232 Y19.342
X46.245 Y19.311
X46.294 Y19.173
X46.34 Y19.035
X46.371 Y18.941
X46.383 Y18.897
X46.413 Y18.759
X46.441 Y18.621
X46.466 Y18.483
X46.481 Y18.345
X46.49 Y18.207
X46.498 Y18.069
X46.5 Y17.931
Y0.
X46.498 Y-0.069
X46.494 Y-0.138
X46.486 Y-0.207
X46.474 Y-0.276
X46.46 Y-0.345
X46.442 Y-0.414
X46.42 Y-0.483
X46.395 Y-0.552
X46.371 Y-0.609
X46.332 Y-0.69
X46.294 Y-0.759
X46.251 Y-0.828
X46.232 Y-0.855
X46.192 Y-0.91
X46.148 Y-0.966
X46.094 Y-1.026
X46.016 Y-1.104
X45.956 Y-1.156
X45.899 Y-1.201
X45.841 Y-1.242
X45.817 Y-1.258
X45.748 Y-1.3
X45.679 Y-1.338
X45.589 Y-1.38
X45.541 Y-1.399
X45.471 Y-1.424
X45.402 Y-1.445
X45.333 Y-1.463
X45.264 Y-1.477
X45.195 Y-1.487
X45.125 Y-1.495
X44.987 Y-1.5
X0.013
X-0.125 Y-1.495
X-0.195 Y-1.487
X-0.264 Y-1.477
X-0.333 Y-1.463
X-0.402 Y-1.445
X-0.471 Y-1.424
X-0.541 Y-1.399
X-0.589 Y-1.38
X-0.679 Y-1.338
X-0.748 Y-1.3
X-0.817 Y-1.258
X-0.841 Y-1.242
X-0.899 Y-1.201
X-0.956 Y-1.156
X-1.016 Y-1.104
X-1.094 Y-1.026
X-1.148 Y-0.966
X-1.192 Y-0.91
X-1.232 Y-0.855
X-1.251 Y-0.828
X-1.294 Y-0.759
X-1.332 Y-0.69
X-1.371 Y-0.609
G3 X-1.453 Y-0.505 I-0.27 J-0.13
G1 X-1.938 Y-0.116
G3 X-4.047 Y-0.485 I-0.892 J-1.111
X-4.052 Y-0.494 I1.217 J-0.742 F83.
X-1.608 Y-1.96 Z-2.156 I1.222 J-0.733
X-4.052 Y-0.494 Z-2.313 I-1.222 J0.733
X-1.608 Y-1.96 Z-2.469 I1.222 J-0.733
X-4.052 Y-0.494 Z-2.625 I-1.222 J0.733
X-1.608 Y-1.96 Z-2.782 I1.222 J-0.733
X-4.052 Y-0.494 Z-2.938 I-1.222 J0.733
X-1.608 Y-1.96 Z-3.094 I1.222 J-0.733
X-4.052 Y-0.494 Z-3.25 I-1.222 J0.733
X-1.608 Y-1.96 Z-3.407 I1.222 J-0.733
X-4.052 Y-0.494 Z-3.563 I-1.222 J0.733
X-1.608 Y-1.96 Z-3.719 I1.222 J-0.733
X-4.052 Y-0.494 Z-3.875 I-1.222 J0.733
X-2.288 Y-2.545 Z-4. I1.222 J-0.733
X-2.279 Y-2.541 I-0.542 J1.318
G1 X-2.136 Y-2.481 F250.
G3 X-1.371 Y-0.609 I-0.554 J1.319
G1 X-1.395 Y-0.552
X-1.42 Y-0.483
X-1.442 Y-0.414
X-1.46 Y-0.345
X-1.474 Y-0.276
X-1.486 Y-0.207
X-1.494 Y-0.138
X-1.498 Y-0.069
X-1.5 Y0.
Y17.931
X-1.498 Y18.069
X-1.49 Y18.207
X-1.481 Y18.345
X-1.466 Y18.483
X-1.441 Y18.621
X-1.413 Y18.759
X-1.383 Y18.897
X-1.371 Y18.941
X-1.34 Y19.035
X-1.294 Y19.173
X-1.245 Y19.311
X-1.232 Y19.342
X-1.183 Y19.449
X-1.094 Y19.63
X-1.045 Y19.724
X-0.96 Y19.862
X-0.868 Y20.
X-0.817 Y20.075
X-0.771 Y20.138
X-0.679 Y20.247
X-0.541 Y20.405
X-0.532 Y20.414
X-0.467 Y20.482
X-0.402 Y20.543
X-0.234 Y20.69
X-0.125 Y20.781
X-0.06 Y20.828
X0.013 Y20.877
X0.151 Y20.969
X0.221 Y21.014
X0.29 Y21.053
X0.39 Y21.104
X0.567 Y21.191
X0.681 Y21.242
X0.705 Y21.251
X0.843 Y21.299
X0.982 Y21.346
X1.09 Y21.38
X1.12 Y21.387
X1.258 Y21.417
X1.397 Y21.444
X1.535 Y21.469
X1.674 Y21.482
X1.812 Y21.491
X1.95 Y21.499
X2.089 Y21.5
X42.911
X43.05 Y21.499
X43.188 Y21.491
X43.326 Y21.482
X43.465 Y21.469
X43.603 Y21.444
X43.742 Y21.417
X43.88 Y21.387
X43.91 Y21.38
X44.018 Y21.346
X44.157 Y21.299
X44.295 Y21.251
X44.319 Y21.242
X44.433 Y21.191
X44.61 Y21.104
X44.71 Y21.053
X44.779 Y21.014
X44.849 Y20.969
X44.987 Y20.877
X45.06 Y20.828
X45.125 Y20.781
X45.234 Y20.69
X45.402 Y20.543
X45.467 Y20.482
X45.532 Y20.414
X45.541 Y20.405
X45.679 Y20.247
X45.771 Y20.138
X45.817 Y20.075
X45.868 Y20.
X45.96 Y19.862
X46.045 Y19.724
X46.094 Y19.63
X46.183 Y19.449
X46.232 Y19.342
X46.245 Y19.311
X46.294 Y19.173
X46.34 Y19.035
X46.371 Y18.941
X46.383 Y18.897
X46.413 Y18.759
X46.441 Y18.621
X46.466 Y18.483
X46.481 Y18.345
X46.49 Y18.207
X46.498 Y18.069
X46.5 Y17.931
Y0.
X46.498 Y-0.069
X46.494 Y-0.138
X46.486 Y-0.207
X46.474 Y-0.276
X46.46 Y-0.345
X46.442 Y-0.414
X46.42 Y-0.483
X46.395 Y-0.552
X46.371 Y-0.609
X46.332 Y-0.69
X46.294 Y-0.759
X46.251 Y-0.828
X46.232 Y-0.855
X46.192 Y-0.91
X46.148 Y-0.966
X46.094 Y-1.026
X46.016 Y-1.104
X45.956 Y-1.156
X45.899 Y-1.201
X45.841 Y-1.242
X45.817 Y-1.258
X45.748 Y-1.3
X45.679 Y-1.338
X45.589 Y-1.38
X45.541 Y-1.399
X45.471 Y-1.424
X45.402 Y-1.445
X45.333 Y-1.463
X45.264 Y-1.477
X45.195 Y-1.487
X45.125 Y-1.495
X44.987 Y-1.5
X0.013
X-0.125 Y-1.495
X-0.195 Y-1.487
X-0.264 Y-1.477
X-0.333 Y-1.463
X-0.402 Y-1.445
X-0.471 Y-1.424
X-0.541 Y-1.399
X-0.589 Y-1.38
X-0.679 Y-1.338
X-0.748 Y-1.3
X-0.817 Y-1.258
X-0.841 Y-1.242
X-0.899 Y-1.201
X-0.956 Y-1.156
X-1.016 Y-1.104
X-1.094 Y-1.026
X-1.148 Y-0.966
X-1.192 Y-0.91
X-1.232 Y-0.855
X-1.251 Y-0.828
X-1.294 Y-0.759
X-1.332 Y-0.69
X-1.371 Y-0.609
G3 X-1.453 Y-0.505 I-0.27 J-0.13
G1 X-1.938 Y-0.116
G3 X-4.047 Y-0.485 I-0.892 J-1.111
X-4.052 Y-0.494 I1.217 J-0.742 F83.
X-1.608 Y-1.96 Z-4.156 I1.222 J-0.733
X-4.052 Y-0.494 Z-4.313 I-1.222 J0.733
X-1.608 Y-1.96 Z-4.469 I1.222 J-0.733
X-4.052 Y-0.494 Z-4.625 I-1.222 J0.733
X-1.608 Y-1.96 Z-4.782 I1.222 J-0.733
X-4.052 Y-0.494 Z-4.938 I-1.222 J0.733
X-1.608 Y-1.96 Z-5.094 I1.222 J-0.733
X-4.052 Y-0.494 Z-5.25 I-1.222 J0.733
X-1.608 Y-1.96 Z-5.407 I1.222 J-0.733
X-4.052 Y-0.494 Z-5.563 I-1.222 J0.733
X-1.608 Y-1.96 Z-5.719 I1.222 J-0.733
X-4.052 Y-0.494 Z-5.875 I-1.222 J0.733
X-2.288 Y-2.545 Z-6. I1.222 J-0.733
X-2.279 Y-2.541 I-0.542 J1.318
G1 X-2.136 Y-2.481 F250.
G3 X-1.371 Y-0.609 I-0.554 J1.319
G1 X-1.395 Y-0.552
X-1.42 Y-0.483
X-1.442 Y-0.414
X-1.46 Y-0.345
X-1.474 Y-0.276
X-1.486 Y-0.207
X-1.494 Y-0.138
X-1.498 Y-0.069
X-1.5 Y0.
Y17.931
X-1.498 Y18.069
X-1.49 Y18.207
X-1.481 Y18.345
X-1.466 Y18.483
X-1.441 Y18.621
X-1.413 Y18.759
X-1.383 Y18.897
X-1.371 Y18.941
X-1.34 Y19.035
X-1.294 Y19.173
X-1.245 Y19.311
X-1.232 Y19.342
X-1.183 Y19.449
X-1.094 Y19.63
X-1.045 Y19.724
X-0.96 Y19.862
X-0.868 Y20.
X-0.817 Y20.075
X-0.771 Y20.138
X-0.679 Y20.247
X-0.541 Y20.405
X-0.532 Y20.414
X-0.467 Y20.482
X-0.402 Y20.543
X-0.234 Y20.69
X-0.125 Y20.781
X-0.06 Y20.828
X0.013 Y20.877
X0.151 Y20.969
X0.221 Y21.014
X0.29 Y21.053
X0.39 Y21.104
X0.567 Y21.191
X0.681 Y21.242
X0.705 Y21.251
X0.843 Y21.299
X0.982 Y21.346
X1.09 Y21.38
X1.12 Y21.387
X1.258 Y21.417
X1.397 Y21.444
X1.535 Y21.469
X1.674 Y21.482
X1.812 Y21.491
X1.95 Y21.499
X2.089 Y21.5
X42.911
X43.05 Y21.499
X43.188 Y21.491
X43.326 Y21.482
X43.465 Y21.469
X43.603 Y21.444
X43.742 Y21.417
X43.88 Y21.387
X43.91 Y21.38
X44.018 Y21.346
X44.157 Y21.299
X44.295 Y21.251
X44.319 Y21.242
X44.433 Y21.191
X44.61 Y21.104
X44.71 Y21.053
X44.779 Y21.014
X44.849 Y20.969
X44.987 Y20.877
X45.06 Y20.828
X45.125 Y20.781
X45.234 Y20.69
X45.402 Y20.543
X45.467 Y20.482
X45.532 Y20.414
X45.541 Y20.405
X45.679 Y20.247
X45.771 Y20.138
X45.817 Y20.075
X45.868 Y20.
X45.96 Y19.862
X46.045 Y19.724
X46.094 Y19.63
X46.183 Y19.449
X46.232 Y19.342
X46.245 Y19.311
X46.294 Y19.173
X46.34 Y19.035
X46.371 Y18.941
X46.383 Y18.897
X46.413 Y18.759
X46.441 Y18.621
X46.466 Y18.483
X46.481 Y18.345
X46.49 Y18.207
X46.498 Y18.069
X46.5 Y17.931
Y0.
X46.498 Y-0.069
X46.494 Y-0.138
X46.486 Y-0.207
X46.474 Y-0.276
X46.46 Y-0.345
X46.442 Y-0.414
X46.42 Y-0.483
X46.395 Y-0.552
X46.371 Y-0.609
X46.332 Y-0.69
X46.294 Y-0.759
X46.251 Y-0.828
X46.232 Y-0.855
X46.192 Y-0.91
X46.148 Y-0.966
X46.094 Y-1.026
X46.016 Y-1.104
X45.956 Y-1.156
X45.899 Y-1.201
X45.841 Y-1.242
X45.817 Y-1.258
X45.748 Y-1.3
X45.679 Y-1.338
X45.589 Y-1.38
X45.541 Y-1.399
X45.471 Y-1.424
X45.402 Y-1.445
X45.333 Y-1.463
X45.264 Y-1.477
X45.195 Y-1.487
X45.125 Y-1.495
X44.987 Y-1.5
X0.013
X-0.125 Y-1.495
X-0.195 Y-1.487
X-0.264 Y-1.477
X-0.333 Y-1.463
X-0.402 Y-1.445
X-0.471 Y-1.424
X-0.541 Y-1.399
X-0.589 Y-1.38
X-0.679 Y-1.338
X-0.748 Y-1.3
X-0.817 Y-1.258
X-0.841 Y-1.242
X-0.899 Y-1.201
X-0.956 Y-1.156
X-1.016 Y-1.104
X-1.094 Y-1.026
X-1.148 Y-0.966
X-1.192 Y-0.91
X-1.232 Y-0.855
X-1.251 Y-0.828
X-1.294 Y-0.759
X-1.332 Y-0.69
X-1.371 Y-0.609
G3 X-1.453 Y-0.505 I-0.27 J-0.13
G1 X-1.938 Y-0.116
G3 X-4.047 Y-0.485 I-0.892 J-1.111
X-4.052 Y-0.494 I1.217 J-0.742 F83.
X-1.608 Y-1.96 Z-6.156 I1.222 J-0.733
X-4.052 Y-0.494 Z-6.313 I-1.222 J0.733
X-1.608 Y-1.96 Z-6.469 I1.222 J-0.733
X-4.052 Y-0.494 Z-6.625 I-1.222 J0.733
X-1.608 Y-1.96 Z-6.782 I1.222 J-0.733
X-4.052 Y-0.494 Z-6.938 I-1.222 J0.733
X-1.608 Y-1.96 Z-7.094 I1.222 J-0.733
X-4.052 Y-0.494 Z-7.25 I-1.222 J0.733
X-1.608 Y-1.96 Z-7.407 I1.222 J-0.733
X-4.052 Y-0.494 Z-7.563 I-1.222 J0.733
X-1.608 Y-1.96 Z-7.719 I1.222 J-0.733
X-4.052 Y-0.494 Z-7.875 I-1.222 J0.733
X-2.288 Y-2.545 Z-8. I1.222 J-0.733
X-2.279 Y-2.541 I-0.542 J1.318
G1 X-2.136 Y-2.481 F250.
G3 X-1.371 Y-0.609 I-0.554 J1.319
G1 X-1.395 Y-0.552
X-1.42 Y-0.483
X-1.442 Y-0.414
X-1.46 Y-0.345
X-1.474 Y-0.276
X-1.486 Y-0.207
X-1.494 Y-0.138
X-1.498 Y-0.069
X-1.5 Y0.
Y17.931
X-1.498 Y18.069
X-1.49 Y18.207
X-1.481 Y18.345
X-1.466 Y18.483
X-1.441 Y18.621
X-1.413 Y18.759
X-1.383 Y18.897
X-1.371 Y18.941
X-1.34 Y19.035
X-1.294 Y19.173
X-1.245 Y19.311
X-1.232 Y19.342
X-1.183 Y19.449
X-1.094 Y19.63
X-1.045 Y19.724
X-0.96 Y19.862
X-0.868 Y20.
X-0.817 Y20.075
X-0.771 Y20.138
X-0.679 Y20.247
X-0.541 Y20.405
X-0.532 Y20.414
X-0.467 Y20.482
X-0.402 Y20.543
X-0.234 Y20.69
X-0.125 Y20.781
X-0.06 Y20.828
X0.013 Y20.877
X0.151 Y20.969
X0.221 Y21.014
X0.29 Y21.053
X0.39 Y21.104
X0.567 Y21.191
X0.681 Y21.242
X0.705 Y21.251
X0.843 Y21.299
X0.982 Y21.346
X1.09 Y21.38
X1.12 Y21.387
X1.258 Y21.417
X1.397 Y21.444
X1.535 Y21.469
X1.674 Y21.482
X1.812 Y21.491
X1.95 Y21.499
X2.089 Y21.5
X42.911
X43.05 Y21.499
X43.188 Y21.491
X43.326 Y21.482
X43.465 Y21.469
X43.603 Y21.444
X43.742 Y21.417
X43.88 Y21.387
X43.91 Y21.38
X44.018 Y21.346
X44.157 Y21.299
X44.295 Y21.251
X44.319 Y21.242
X44.433 Y21.191
X44.61 Y21.104
X44.71 Y21.053
X44.779 Y21.014
X44.849 Y20.969
X44.987 Y20.877
X45.06 Y20.828
X45.125 Y20.781
X45.234 Y20.69
X45.402 Y20.543
X45.467 Y20.482
X45.532 Y20.414
X45.541 Y20.405
X45.679 Y20.247
X45.771 Y20.138
X45.817 Y20.075
X45.868 Y20.
X45.96 Y19.862
X46.045 Y19.724
X46.094 Y19.63
X46.183 Y19.449
X46.232 Y19.342
X46.245 Y19.311
X46.294 Y19.173
X46.34 Y19.035
X46.371 Y18.941
X46.383 Y18.897
X46.413 Y18.759
X46.441 Y18.621
X46.466 Y18.483
X46.481 Y18.345
X46.49 Y18.207
X46.498 Y18.069
X46.5 Y17.931
Y0.
X46.498 Y-0.069
X46.494 Y-0.138
X46.486 Y-0.207
X46.474 Y-0.276
X46.46 Y-0.345
X46.442 Y-0.414
X46.42 Y-0.483
X46.395 Y-0.552
X46.371 Y-0.609
X46.332 Y-0.69
X46.294 Y-0.759
X46.251 Y-0.828
X46.232 Y-0.855
X46.192 Y-0.91
X46.148 Y-0.966
X46.094 Y-1.026
X46.016 Y-1.104
X45.956 Y-1.156
X45.899 Y-1.201
X45.841 Y-1.242
X45.817 Y-1.258
X45.748 Y-1.3
X45.679 Y-1.338
X45.589 Y-1.38
X45.541 Y-1.399
X45.471 Y-1.424
X45.402 Y-1.445
X45.333 Y-1.463
X45.264 Y-1.477
X45.195 Y-1.487
X45.125 Y-1.495
X44.987 Y-1.5
X0.013
X-0.125 Y-1.495
X-0.195 Y-1.487
X-0.264 Y-1.477
X-0.333 Y-1.463
X-0.402 Y-1.445
X-0.471 Y-1.424
X-0.541 Y-1.399
X-0.589 Y-1.38
X-0.679 Y-1.338
X-0.748 Y-1.3
X-0.817 Y-1.258
X-0.841 Y-1.242
X-0.899 Y-1.201
X-0.956 Y-1.156
X-1.016 Y-1.104
X-1.094 Y-1.026
X-1.148 Y-0.966
X-1.192 Y-0.91
X-1.232 Y-0.855
X-1.251 Y-0.828
X-1.294 Y-0.759
X-1.332 Y-0.69
X-1.371 Y-0.609
G3 X-1.453 Y-0.505 I-0.27 J-0.13
G1 X-1.938 Y-0.116
G3 X-4.047 Y-0.485 I-0.892 J-1.111
X-4.052 Y-0.494 I1.217 J-0.742 F83.
X-1.608 Y-1.96 Z-8.156 I1.222 J-0.733
X-4.052 Y-0.494 Z-8.313 I-1.222 J0.733
X-1.608 Y-1.96 Z-8.469 I1.222 J-0.733
X-4.052 Y-0.494 Z-8.625 I-1.222 J0.733
X-1.608 Y-1.96 Z-8.782 I1.222 J-0.733
X-4.052 Y-0.494 Z-8.938 I-1.222 J0.733
X-1.608 Y-1.96 Z-9.094 I1.222 J-0.733
X-4.052 Y-0.494 Z-9.25 I-1.222 J0.733
X-1.608 Y-1.96 Z-9.407 I1.222 J-0.733
X-4.052 Y-0.494 Z-9.563 I-1.222 J0.733
X-1.608 Y-1.96 Z-9.719 I1.222 J-0.733
X-4.052 Y-0.494 Z-9.875 I-1.222 J0.733
X-2.288 Y-2.545 Z-10. I1.222 J-0.733
X-2.279 Y-2.541 I-0.542 J1.318
G1 X-2.136 Y-2.481 F250.
G3 X-1.371 Y-0.609 I-0.554 J1.319
G1 X-1.395 Y-0.552
X-1.42 Y-0.483
X-1.442 Y-0.414
X-1.46 Y-0.345
X-1.474 Y-0.276
X-1.486 Y-0.207
X-1.494 Y-0.138
X-1.498 Y-0.069
X-1.5 Y0.
Y17.931
X-1.498 Y18.069
X-1.49 Y18.207
X-1.481 Y18.345
X-1.466 Y18.483
X-1.441 Y18.621
X-1.413 Y18.759
X-1.383 Y18.897
X-1.371 Y18.941
X-1.34 Y19.035
X-1.294 Y19.173
X-1.245 Y19.311
X-1.232 Y19.342
X-1.183 Y19.449
X-1.094 Y19.63
X-1.045 Y19.724
X-0.96 Y19.862
X-0.868 Y20.
X-0.817 Y20.075
X-0.771 Y20.138
X-0.679 Y20.247
X-0.541 Y20.405
X-0.532 Y20.414
X-0.467 Y20.482
X-0.402 Y20.543
X-0.234 Y20.69
X-0.125 Y20.781
X-0.06 Y20.828
X0.013 Y20.877
X0.151 Y20.969
X0.221 Y21.014
X0.29 Y21.053
X0.39 Y21.104
X0.567 Y21.191
X0.681 Y21.242
X0.705 Y21.251
X0.843 Y21.299
X0.982 Y21.346
X1.09 Y21.38
X1.12 Y21.387
X1.258 Y21.417
X1.397 Y21.444
X1.535 Y21.469
X1.674 Y21.482
X1.812 Y21.491
X1.95 Y21.499
X2.089 Y21.5
X42.911
X43.05 Y21.499
X43.188 Y21.491
X43.326 Y21.482
X43.465 Y21.469
X43.603 Y21.444
X43.742 Y21.417
X43.88 Y21.387
X43.91 Y21.38
X44.018 Y21.346
X44.157 Y21.299
X44.295 Y21.251
X44.319 Y21.242
X44.433 Y21.191
X44.61 Y21.104
X44.71 Y21.053
X44.779 Y21.014
X44.849 Y20.969
X44.987 Y20.877
X45.06 Y20.828
X45.125 Y20.781
X45.234 Y20.69
X45.402 Y20.543
X45.467 Y20.482
X45.532 Y20.414
X45.541 Y20.405
X45.679 Y20.247
X45.771 Y20.138
X45.817 Y20.075
X45.868 Y20.
X45.96 Y19.862
X46.045 Y19.724
X46.094 Y19.63
X46.183 Y19.449
X46.232 Y19.342
X46.245 Y19.311
X46.294 Y19.173
X46.34 Y19.035
X46.371 Y18.941
X46.383 Y18.897
X46.413 Y18.759
X46.441 Y18.621
X46.466 Y18.483
X46.481 Y18.345
X46.49 Y18.207
X46.498 Y18.069
X46.5 Y17.931
Y0.
X46.498 Y-0.069
X46.494 Y-0.138
X46.486 Y-0.207
X46.474 Y-0.276
X46.46 Y-0.345
X46.442 Y-0.414
X46.42 Y-0.483
X46.395 Y-0.552
X46.371 Y-0.609
X46.332 Y-0.69
X46.294 Y-0.759
X46.251 Y-0.828
X46.232 Y-0.855
X46.192 Y-0.91
X46.148 Y-0.966
X46.094 Y-1.026
X46.016 Y-1.104
X45.956 Y-1.156
X45.899 Y-1.201
X45.841 Y-1.242
X45.817 Y-1.258
X45.748 Y-1.3
X45.679 Y-1.338
X45.589 Y-1.38
X45.541 Y-1.399
X45.471 Y-1.424
X45.402 Y-1.445
X45.333 Y-1.463
X45.264 Y-1.477
X45.195 Y-1.487
X45.125 Y-1.495
X44.987 Y-1.5
X0.013
X-0.125 Y-1.495
X-0.195 Y-1.487
X-0.264 Y-1.477
X-0.333 Y-1.463
X-0.402 Y-1.445
X-0.471 Y-1.424
X-0.541 Y-1.399
X-0.589 Y-1.38
X-0.679 Y-1.338
X-0.748 Y-1.3
X-0.817 Y-1.258
X-0.841 Y-1.242
X-0.899 Y-1.201
X-0.956 Y-1.156
X-1.016 Y-1.104
X-1.094 Y-1.026
X-1.148 Y-0.966
X-1.192 Y-0.91
X-1.232 Y-0.855
X-1.251 Y-0.828
X-1.294 Y-0.759
X-1.332 Y-0.69
X-1.371 Y-0.609
G3 X-1.453 Y-0.505 I-0.27 J-0.13
G1 X-1.938 Y-0.116
G3 X-4.047 Y-0.485 I-0.892 J-1.111
X-4.052 Y-0.494 I1.217 J-0.742 F83.
X-1.608 Y-1.96 Z-10.156 I1.222 J-0.733
X-4.052 Y-0.494 Z-10.313 I-1.222 J0.733
X-1.608 Y-1.96 Z-10.469 I1.222 J-0.733
X-4.052 Y-0.494 Z-10.625 I-1.222 J0.733
X-1.608 Y-1.96 Z-10.782 I1.222 J-0.733
X-4.052 Y-0.494 Z-10.938 I-1.222 J0.733
X-1.608 Y-1.96 Z-11.094 I1.222 J-0.733
X-4.052 Y-0.494 Z-11.25 I-1.222 J0.733
X-1.608 Y-1.96 Z-11.407 I1.222 J-0.733
X-4.052 Y-0.494 Z-11.563 I-1.222 J0.733
X-1.608 Y-1.96 Z-11.719 I1.222 J-0.733
X-4.052 Y-0.494 Z-11.875 I-1.222 J0.733
X-2.288 Y-2.545 Z-12. I1.222 J-0.733
X-2.279 Y-2.541 I-0.542 J1.318
G1 X-2.136 Y-2.481 F250.
G3 X-1.371 Y-0.609 I-0.554 J1.319
G1 X-1.395 Y-0.552
X-1.42 Y-0.483
X-1.442 Y-0.414
X-1.46 Y-0.345
X-1.474 Y-0.276
X-1.486 Y-0.207
X-1.494 Y-0.138
X-1.498 Y-0.069
X-1.5 Y0.
Y17.931
X-1.498 Y18.069
X-1.49 Y18.207
X-1.481 Y18.345
X-1.466 Y18.483
X-1.441 Y18.621
X-1.413 Y18.759
X-1.383 Y18.897
X-1.371 Y18.941
X-1.34 Y19.035
X-1.294 Y19.173
X-1.245 Y19.311
X-1.232 Y19.342
X-1.183 Y19.449
X-1.094 Y19.63
X-1.045 Y19.724
X-0.96 Y19.862
X-0.868 Y20.
X-0.817 Y20.075
X-0.771 Y20.138
X-0.679 Y20.247
X-0.541 Y20.405
X-0.532 Y20.414
X-0.467 Y20.482
X-0.402 Y20.543
X-0.234 Y20.69
X-0.125 Y20.781
X-0.06 Y20.828
X0.013 Y20.877
X0.151 Y20.969
X0.221 Y21.014
X0.29 Y21.053
X0.39 Y21.104
X0.567 Y21.191
X0.681 Y21.242
X0.705 Y21.251
X0.843 Y21.299
X0.982 Y21.346
X1.09 Y21.38
X1.12 Y21.387
X1.258 Y21.417
X1.397 Y21.444
X1.535 Y21.469
X1.674 Y21.482
X1.812 Y21.491
X1.95 Y21.499
X2.089 Y21.5
X42.911
X43.05 Y21.499
X43.188 Y21.491
X43.326 Y21.482
X43.465 Y21.469
X43.603 Y21.444
X43.742 Y21.417
X43.88 Y21.387
X43.91 Y21.38
X44.018 Y21.346
X44.157 Y21.299
X44.295 Y21.251
X44.319 Y21.242
X44.433 Y21.191
X44.61 Y21.104
X44.71 Y21.053
X44.779 Y21.014
X44.849 Y20.969
X44.987 Y20.877
X45.06 Y20.828
X45.125 Y20.781
X45.234 Y20.69
X45.402 Y20.543
X45.467 Y20.482
X45.532 Y20.414
X45.541 Y20.405
X45.679 Y20.247
X45.771 Y20.138
X45.817 Y20.075
X45.868 Y20.
X45.96 Y19.862
X46.045 Y19.724
X46.094 Y19.63
X46.183 Y19.449
X46.232 Y19.342
X46.245 Y19.311
X46.294 Y19.173
X46.34 Y19.035
X46.371 Y18.941
X46.383 Y18.897
X46.413 Y18.759
X46.441 Y18.621
X46.466 Y18.483
X46.481 Y18.345
X46.49 Y18.207
X46.498 Y18.069
X46.5 Y17.931
Y0.
X46.498 Y-0.069
X46.494 Y-0.138
X46.486 Y-0.207
X46.474 Y-0.276
X46.46 Y-0.345
X46.442 Y-0.414
X46.42 Y-0.483
X46.395 Y-0.552
X46.371 Y-0.609
X46.332 Y-0.69
X46.294 Y-0.759
X46.251 Y-0.828
X46.232 Y-0.855
X46.192 Y-0.91
X46.148 Y-0.966
X46.094 Y-1.026
X46.016 Y-1.104
X45.956 Y-1.156
X45.899 Y-1.201
X45.841 Y-1.242
X45.817 Y-1.258
X45.748 Y-1.3
X45.679 Y-1.338
X45.589 Y-1.38
X45.541 Y-1.399
X45.471 Y-1.424
X45.402 Y-1.445
X45.333 Y-1.463
X45.264 Y-1.477
X45.195 Y-1.487
X45.125 Y-1.495
X44.987 Y-1.5
X0.013
X-0.125 Y-1.495
X-0.195 Y-1.487
X-0.264 Y-1.477
X-0.333 Y-1.463
X-0.402 Y-1.445
X-0.471 Y-1.424
X-0.541 Y-1.399
X-0.589 Y-1.38
X-0.679 Y-1.338
X-0.748 Y-1.3
X-0.817 Y-1.258
X-0.841 Y-1.242
X-0.899 Y-1.201
X-0.956 Y-1.156
X-1.016 Y-1.104
X-1.094 Y-1.026
X-1.148 Y-0.966
X-1.192 Y-0.91
X-1.232 Y-0.855
X-1.251 Y-0.828
X-1.294 Y-0.759
X-1.332 Y-0.69
X-1.371 Y-0.609
X-1.4 Y-0.549 Z-11.992
X-1.427 Y-0.492 Z-11.97
X-1.452 Y-0.44 Z-11.935
X-1.472 Y-0.398 Z-11.887
X-1.488 Y-0.365 Z-11.83
X-1.498 Y-0.345 Z-11.767
X-1.501 Y-0.339 Z-11.7
G0 Z2.

M9
G53 Z0.
M30
